/* XPM */
static char *_bdd7e3042a14d89a2757868de69bedaCsVLrcGPJMto3uPK[] = {
/* columns rows colors chars-per-pixel */
"700 467 256 2 ",
"   c #030202",
".  c #0B0704",
"X  c #160A05",
"o  c #1A130A",
"O  c #191614",
"+  c #281708",
"@  c #361B06",
"#  c #271C14",
"$  c #2C0F07",
"%  c #3B230B",
"&  c #2B2318",
"*  c #382718",
"=  c #362B16",
"-  c #382B23",
";  c #3C3228",
":  c #312E2C",
">  c #221324",
",  c #471905",
"<  c #46270A",
"1  c #442B14",
"2  c #472C17",
"3  c #4C331C",
"4  c #493218",
"5  c #53351B",
"6  c #583819",
"7  c #562E0C",
"8  c #653C18",
"9  c #6A370B",
"0  c #493727",
"q  c #543B23",
"w  c #5B3D23",
"e  c #553B28",
"r  c #493C34",
"t  c #4D362C",
"y  c #633D24",
"u  c #6B3B2F",
"i  c #610911",
"p  c #69431C",
"a  c #77471A",
"s  c #754810",
"d  c #5C432C",
"f  c #594328",
"g  c #4C4238",
"h  c #594737",
"j  c #554A33",
"k  c #644324",
"l  c #63452B",
"z  c #6C4B2C",
"x  c #694727",
"c  c #734D2B",
"v  c #764B25",
"b  c #7B532C",
"n  c #77532A",
"m  c #644B34",
"M  c #6B4D33",
"N  c #654B38",
"B  c #744D34",
"V  c #6C533C",
"C  c #695338",
"Z  c #745334",
"A  c #7B5533",
"S  c #73553B",
"D  c #745A3C",
"F  c #7C5B3C",
"G  c #7B5836",
"H  c #6C522C",
"J  c #7B623B",
"K  c #5C421C",
"L  c #594C44",
"P  c #5C5348",
"I  c #524E4C",
"U  c #695747",
"Y  c #745B44",
"T  c #7B5D43",
"R  c #755B49",
"E  c #685C53",
"W  c #6D554B",
"Q  c #7C6244",
"!  c #7C644C",
"~  c #76634B",
"^  c #6C6357",
"/  c #796756",
"(  c #766B55",
")  c #796C63",
"_  c #7C7367",
"`  c #72706D",
"'  c #5F6063",
"]  c #2E2759",
"[  c #8B5118",
"{  c #865729",
"}  c #835B34",
"|  c #835D3B",
" . c #885B36",
".. c #915A2A",
"X. c #8C633C",
"o. c #87633A",
"O. c #966739",
"+. c #97672F",
"@. c #A96E35",
"#. c #A95E16",
"$. c #835D44",
"%. c #8B5B4E",
"&. c #846344",
"*. c #8B6543",
"=. c #83654B",
"-. c #846A4C",
";. c #8C6B4C",
":. c #8A6946",
">. c #936B44",
",. c #956B48",
"<. c #99734A",
"1. c #846B54",
"2. c #8B6D53",
"3. c #836D5B",
"4. c #866956",
"5. c #936D54",
"6. c #8C7254",
"7. c #8C745C",
"8. c #86735B",
"9. c #937354",
"0. c #93755B",
"q. c #947A5C",
"w. c #9C7B5C",
"e. c #9A7755",
"r. c #8B724B",
"t. c #A67749",
"y. c #A57B57",
"u. c #B0774A",
"i. c #847363",
"p. c #8B7563",
"a. c #8C7C6B",
"s. c #897967",
"d. c #947B64",
"f. c #9B7D63",
"g. c #957B69",
"h. c #897C73",
"j. c #8E756B",
"k. c #A47D64",
"l. c #AA7C6E",
"z. c #965B62",
"x. c #B86725",
"c. c #9B825B",
"v. c #A8845B",
"b. c #B68759",
"n. c #B4864E",
"m. c #9C8264",
"M. c #9C836C",
"N. c #96836B",
"B. c #8C8376",
"V. c #948373",
"C. c #9C8B7B",
"Z. c #998776",
"A. c #938973",
"S. c #A48364",
"D. c #A3856B",
"F. c #AC8B6C",
"G. c #A88867",
"H. c #B48B67",
"J. c #B7936B",
"K. c #A48B73",
"L. c #AB8D74",
"P. c #A58B79",
"I. c #B48D74",
"U. c #AC9275",
"Y. c #AC937B",
"T. c #A6947A",
"R. c #B39374",
"E. c #B2957B",
"W. c #B49A7D",
"Q. c #BA9977",
"!. c #AB926B",
"~. c #BAA37B",
"^. c #BAA55E",
"/. c #C88F55",
"(. c #C69769",
"). c #C59B77",
"_. c #CC9469",
"`. c #C7A47A",
"'. c #D4A876",
"]. c #E5AC68",
"[. c #D09141",
"{. c #253999",
"}. c #3359A2",
"|. c #988C83",
" X c #9C9387",
".X c #93918E",
"XX c #A49383",
"oX c #AB9483",
"OX c #AC9B8B",
"+X c #A89988",
"@X c #B49B83",
"#X c #B39C8B",
"$X c #B89A85",
"%X c #A89C93",
"&X c #AE958B",
"*X c #BCA38C",
"=X c #B8A388",
"-X c #ACA397",
";X c #B4A393",
":X c #BBA493",
">X c #BCAB9B",
",X c #B9A997",
"<X c #B5AB94",
"1X c #B8ABA4",
"2X c #BBB3A7",
"3X c #B3B1AF",
"4X c #9D9FA3",
"5X c #C49D86",
"6X c #C6A789",
"7X c #D4AB87",
"8X c #D7B48A",
"9X c #C4AB94",
"0X c #C3AC9B",
"qX c #C8AA95",
"wX c #CBB39C",
"eX c #C7B499",
"rX c #D6B799",
"tX c #CFAF91",
"yX c #E4B993",
"uX c #C5ADA3",
"iX c #C4B3A3",
"pX c #CBB4A3",
"aX c #CCBBAB",
"sX c #C8B8A8",
"dX c #D3BBA4",
"fX c #D5BAA8",
"gX c #C8BBB4",
"hX c #D5BDB3",
"jX c #D2ADA5",
"kX c #E3BCA7",
"lX c #E9C599",
"zX c #D8C3AA",
"xX c #CBC4B7",
"cX c #D4C3B3",
"vX c #D9C8B8",
"bX c #D3CAB2",
"nX c #E5C7A9",
"mX c #E4CAB7",
"MX c #E7D4BA",
"NX c #F3D3B4",
"BX c #DFCBA2",
"VX c #D7CBC4",
"CX c #DBD4C7",
"ZX c #D1D0CD",
"AX c #E7D7C7",
"SX c #E7DBD4",
"DX c #EFD6C8",
"FX c #EAE4D8",
"GX c #F7E7D7",
"HX c #F5E8CE",
"JX c #FCF7E8",
"KX c #FCFCFA",
"LX c #EFEFE9",
"PX c #DAE7E6",
"IX c #B3C9D4",
"UX c #7595AF",
/* pixels */
"K.K.K.L.L.K.K.K.K.K.D.D.D.K.K.K.M.M.M.D.D.D.M.M.M.M.M.M.M.M.D.K.M.D.U.L.U.L.U.K.K.K.K.L.Y.W.@X@X=XW.@X$X@X@X@X@XW.Y.Y.Y.U.K.K.K.D.M.L.L.L.R.R.E.U.U.E.Y.K.M.M.m.d.R V m M m V m 0 h U h 0 t U U h f m N N e 0 e h N d 0 0 h Q D ! D ~ ~ M Y ! U 0 0 m V V C C h C C d d D V R V d l V l f l M l z =.d.A.i.h.B.+XT.2XOXB.Z.+X+X XB.f H C F | Z z f l d 5 l V Y M d d 1 % 1 ; g U 3.U m $.2.4.p.l.7.K.N e x ;.*.:.z Q 8.V.a./ i.P % + h a.T.@XY.R.G.m.Y.Y.U.S.v.H.9.c.v.v.q.e.tXKXFXGXKXKXKXLXJXKXJX>XR.6XhXhXcXhXeXR.*XaXxX<X2XvX2X;XK.9.o.<.2.-.J Z &.G.r.Z ;.@X6XT 6 =.w.J &.Z z r.;.e.f.D.f.D.d.1./ h h e L h r g P P h L L g j P U U U V h N h N C V Y S V S V S D F Z :.,.} } >.,.y.>.b n A Z z z y w q 5 l C D ! ! R R ! Q -.~ m q 0 d m m f m d d d e q 5 2 d m w q 4 3 5 % 5 w 3 4 q e m 6 3 1 < < 6 k l 6 6 w z M Z M M f q z C l m e 3 1 3 0 3 q q 0 3 % q C d d q q % 1 4 4 4 2 % 3 w 1 3 5 4 5 4 2 3 4 3 3 6 4 % 4 5 % % 6 5 5 4 5 6 1 % % 1 % % @ * % 4 = % $ $ @ 1 1 1 1 1 < @ @ @ % w w 4 3 6 6 7 2 4 4 4 % 1 4 5 5 C V d q 2 2 q 5 f 5 1 1 * 2 * = 4 * % 2 % 1 * 4 w D J &.5.0.m.-.&.Y Q Y 9.k.H.J.w.Q S Q Y V N M Y T m Y 7.D.9X0XU.9.y.y.*. .*.<.<.<.r.X.G |  .} } X.>.X.:.y.J.<.X.>.>.<.t.u.t.b.).).Q.J.`.`.`.R.S.r.r.v.w.v.v.9.v.!.S.S.9.e.v.9.r.r.6.6.q.;.A J v.J.n 5 ~ D ~ =.D J ~ h h U U V -.&.=.=.Q ~ C l C f j r 0 0 N f * * 1 l M l l f x B y p p 8 6 6 w e l z n  .O.} c H G z x k n p 8 v x z x z 6 7 k x 6 x 8 p 6 6 6 c x ",
"U.U.U.L.L.K.K.D.K.K.K.K.K.K.K.L.K.K.K.K.K.K.K.K.K.K.K.K.K.K.K.L.U.Y.Y.U.U.L.L.K.K.K.K.L.U.E.W.@X@XW.@X$X@X@X@X@XE.Y.Y.Y.L.K.K.K.K.K.U.U.U.E.E.W.E.W.W.E.L.K.D.M.7.Y C m S C U N h R R t 0 C U h 0 0 d C Y m e f N N f 0 2 f V V Q Y ~ D C Y / / h h V U R U V h Y C f f D Y ! V l C M l 6 k l q 6 m U a.N.C.T.*X3XZXxX3X4X3XIXgX2X( f q d M S =.&.D C d D ! S f V P 0 r E ` ` ` |./ e M M N p.g.M.;Xp.R M B m T R g.P.a.i.i.h.h.U 2 h 8.Z.K.M.F.S.m.U.W.W.U.D.D.c.S.m.c.q.;.R.FX2X>XFXJXJXJXJXJXKXvXm.R.qX*X=X*XwXG.T.iXAXFXSXAXSXAXbX=X1.H G w.v.e.k.H.r.6 4 d D M 7 6 k k y.e.H &.e.f.q.q.f.U.K.D.m.1.! R R E U g L L h P U h U U U ~ ~ U V d f d d M V R Y ! 1.-.2.9.&.| n 8 p } >.y.<.X. .| F &.=.G Z z w l D 2.q.6.! T =.! 8.-.V q 4 e d d C m N N m m d q m Y V q 3 1 3 w l l w 3 q d m m M w 4 3 w l l w 5 6 6 w z Z M C M m z M l m q * * 1 3 q q 3 1 % 2 q d m q 3 1 @ % 1 4 5 4 4 f l f f w 6 d f q 3 q w f f 5 4 w 6 4 % 4 5 5 4 4 4 < 1 % % % @ + + + @ @ @ + + % 1 4 2 1 4 4 < @ @ < 6 < % 2 5 4 1 2 5 3 1 1 3 q d h m l q q 2 2 5 f m m q * % 2 3 1 3 4 @ 0 1 1 0 0 e T -.J r.S.S.q.2.Y S D q.q.:.e.v.r.F =.Y m l C Y p.V.XX>X0X0X:XM.G | } A } A o.o.y.y.,.*. . .n n } A x f k G z k l y 8 p a 7 6 A y.G.G.v.Q.J.R.Q.e.:.w.w.G.v.v.G.Q.R.R.9.:.c.!.~.@XU.m.w.;.:.J :.J.>.6 4 H D 6.r.Q Q h j j t f m h h V Q D Z f f 0 - # % 3 h h t 2 @ 0 e q 3 d B A c y 9 k 8 3 e 0 e e l Z o.o.n H H M 8 n c p p p x x y 8 6 6 x c 8 k 8 6 6 6 7 k x ",
"K.K.K.K.K.L.K.K.L.L.L.L.L.L.L.L.L.L.L.L.L.L.L.Y.Y.Y.Y.Y.Y.Y.Y.Y.Y.Y.W.U.Y.U.Y.U.K.L.L.Y.L.E.E.@X@XE.@X@XE.Y.Y.Y.Y.U.U.Y.L.K.K.K.L.U.U.E.E.E.W.W.W.W.W.E.Y.L.K.K.7.S m m Y C N d h U U g h P h t f h V V U N h h N C e 3 2 e m D Q Q ~ -.R V ~ / U U U Y U U U U Y V d d V R Y V V Y m l M l 6 1 5 e d d.7.R V Q ! c.K.W.T.OX2XxXCX-XB.U 5 w M ! &.Q M M Q ! C l V / _ ) _ B..X.X>XXXU N C 0 i.3.R P.oXl.3.m e W 4.XX;Xh.j.E / s.h.h f / N.M.m.D.D.D.K.U.U.Y.Y.oXD.K.D.c.m.r.m.CXgX-XVXSXLXJXLXLXKXGXW.F.R.J.v.y.5X~.>X2XFXFXGXCXAXAXSXCXxXM.o.o.y.y.,.b 6 % $ $ $ 4 7 < 1 3 *.(.G.| w.f.9.&.&.w.q.F.R.G.9.7.d.8.V h U U U P h N U U V U Y C U U d d m M S R ! Q ! =.6.m.S.9.o.p a } b  .>. .n A Z &.$.$.;.&.Z l D =.6.q.q.2.1.6.6.-.S q 2 4 3 3 d m N m V Y V l m m d q 5 2 3 l m m d e d d m m m m d e d m l l w z f 5 k d 5 w l z k 6 5 f q 0 2 3 q d d 3 2 * 2 q d f 3 3 1 @ % 2 4 3 w l f w l k f 6 6 5 3 4 5 3 4 5 1 1 q w 4 1 6 w 3 % < < % 1 % % + + X X + + + + + @ % = 3 4 3 w f 4 < < 1 5 < % 4 3 1 4 4 3 4 1 1 4 3 w q q 3 3 3 q 3 4 q w m m e 3 * % % % @ @ 1 % 3 d e e Y ;.;.m.R.D.q.6.Q M C 6.w.&.$.<.e.*.;.Q S &.T Y P.#X|.OX>X0X:XM.G A A A } } b n } } | |  .| n c A S C N q d m m T c x 8 k 7 5 6 x p c F v.H.R.).J.J.G.r.r.v.J.H.J.Q.6XR.c.G.c.W.tXL.e.9.o.,.r.o.<.v.e.J :.G -.6.r.D f j g r 0 g 0 # * h V &.z q * # # 3 h P h t t 2 2 0 3 2 y z n A B u c y 1 t 0 0 0 0 q h G n z Z F y A A a x 8 x k 7 7 6 8 8 7 7 7 8 6 8 6 6 6 y ",
"K.K.K.K.K.K.K.K.L.L.Y.Y.Y.Y.Y.L.L.L.L.L.L.Y.Y.Y.Y.Y.Y.Y.Y.Y.Y.Y.Y.E.W.Y.E.Y.E.Y.L.L.L.U.Y.E.E.E.$X@X@X$XW.Y.Y.L.L.L.L.Y.L.L.L.L.L.U.U.E.E.E.@XW.$X@XW.@XE.Y.L.K.d.V d C R V N d N W N t h 0 * 0 0 q N N N h f f h C d e 0 t h V Q D V -.! V ~ 3./ ~ U Y U N V U V Y C m C C D C Y D l M S l 4 1 f m d =.! S M f 8 6 p b { } *.I.cXxX>XK.T l w m ;.-.m d V S m m h W ) E ^ ` |.OXOX#XC.C.XXe R R N / 7.R / m V 4.4.P.#X&X|.E / _ i.L h 8.m.m.m.D.D.G.G.!.U.E.@X#XU.@XU.G.K.9.q.ZXFXFXLXSXLXJXLXLXKXKXzXR.Q.).v.e.G.!.*XhXLXGXSXbXCXAXAXVXFXvXc.8 7 O.v 8 < @ + + $ @ < 1 4 y  ._.'.n Z =.0.6.;.9.G F F.F.c.K.K.d.Y U U U ~ / ~ R R R U R 1.3./ 3.R m V Y D D ! V M D =.9.S.q.r.z 8 c k v v v v A F $.S F ;.2.Q C R =.2.m.D.0.! Q 6.-.C q 2 1 2 3 q 3 q d d m d w w 3 3 5 3 2 3 q d m M V M d e e d e e e e d d l l m q < 3 5 3 q y l w 4 1 3 q f w m e d e 2 1 % % 5 w 5 1 3 2 @ $ + @ 4 6 f 6 5 k 6 6 6 6 5 4 < 3 2 % % % % 4 6 4 5 5 4 2 % % % % * % * % # + + & + + + & @ % 4 5 2 1 4 2 < < < < 2 2 1 < < < 4 w 1 < 4 1 < 1 4 5 2 % 1 2 q q 5 5 5 d m m q % 1 0 1 $ + % * 0 0 3 q m -.0.K.R.m.6.2.6.Y Z =.w.5.=.*.,.<.r.&.&.r.| M g.XXh.Z.;X9X9XM.Z z Z } } | } } c A | | *.o.n 8 y e d N f h V D &.o.n p p 6 5 6 B c n c G <.J.R.Q.Q.c.o.*.b.(.J.H.J.6X6XR.G.S.R.6XG.:.<.o.o.G | } <.v.v.v.;.=.6.9.;.R U E g - ; g & # t C Q F d 0 - * t h g 0 t t 0 2 0 t t l Z F M B A l 3 2 0 ; ; 0 t 0 ; d d 4 q T Z G n p x p c b 8 7 8 8 6 < 6 6 8 8 6 7 6 5 y ",
"K.K.K.K.K.K.L.L.L.L.Y.Y.Y.Y.L.L.L.L.L.L.L.Y.E.E.Y.Y.Y.Y.E.E.E.E.E.W.W.Y.E.Y.U.K.L.L.L.Y.Y.E.E.E.@XE.@X@XE.Y.L.K.L.L.L.L.L.K.K.L.L.E.Y.E.W.E.@X@X$X$X$X$X$X@XY.K.f.R m C ~ Y V N U N h h h * + 0 0 d R U V N d 0 e N h h e 0 t h Q D C ~ ~ V R ~ / 8.~ U U V V Y Y R V m m V Y C Y C l M l f 3 w H D Y M M Y ! D l l l l y 8 7 x K.vXsX=X!.6.w 4 D S l m m d d d t 0 0 = P |.VXvX9XdXfXeXfXY y l e h m l / U S T U W R M.g.i.) / ~ h q =.7.d.D.D.G.!.G.G.F.R.W.Q.F.U.U.G.S.G.K.xXFXFXLXFXAXFXJXLXLXKXMXH.Q.~.J.<.5.X.>.@XFXLXFXCXCXAXAXfXmXAXpX;.$ , v k 1 $ + o X + X @ f G X.t.J.v k 9.L.L.K.D.T k e.c.G.D.q.0.7.^ h N W / 3.4.3.! ! 3.7.7.7.p.7.! ! 1.T D Q D S &.;.;.9.2.5.G k c A } A } A A &.&.A A | =.G D -.7.2.0.q.6.! =.-.-.D d 4 2 3 5 q 1 2 3 4 4 3 q 3 4 2 3 q w 5 4 2 4 q l l w q q 0 3 1 * 2 3 5 5 q 3 3 2 3 q q q f w w 6 5 5 5 3 5 w 3 q d 2 % % % 3 4 4 1 3 < % $ $ @ 4 5 6 6 f 6 6 f f 6 4 < @ 2 2 % @ @ @ % < 4 5 1 < 4 2 2 * 1 * % 2 2 1 % % * @ % % % % 1 1 4 % % % @ @ @ @ % 1 3 4 1 < 1 5 3 < < 4 5 3 4 1 5 1 1 4 4 q w 5 w 5 w m m 3 % 2 0 2 @ + * 0 * % * 4 f &.9.D.F.v.2.1.;.T z G e.<.e.y.y.e.e.o.o.r.S M g.OXh.C.;X0X0XM.G k x A n n } b c c A G G G n 8 7 2 * * 0 h Y Y Z F G v x 6 y x $.*.X.o.n z *.<.G.J.9.&.y.J.J.J.H.H.Q.J.H.,.9.!.Q.F.e.w.c.9.J o.b } O.<.<.9.T =.&.&.2.~ ^ R d g g * # = d D Y D m h * = t 0 2 e 2 * ; * ; 0 N a.,Xp.y k f 3 t 0 ; 0 0 r 0 ; 0 0 0 0 U m l G v v c c n 6 7 7 6 y 8 8 8 6 8 6 7 7 2 6 ",
"K.K.K.K.L.U.Y.Y.L.L.Y.Y.Y.L.L.L.L.L.L.Y.Y.E.W.W.W.E.E.E.W.@X@X@XW.W.W.E.E.U.L.K.L.L.L.Y.Y.E.E.E.E.L.Y.Y.L.K.K.D.K.L.L.L.L.K.K.U.Y.E.E.@X@X@X$X$X=X=X*X*X=X$XW.Y.K.! m C Y V V N h h h U h * * t q d V V R R h 2 t h h N g 2 * 0 S ~ V ~ Y N V ~ ~ p.~ U V U R R R R C d d Y ~ Y V M m l d d f l D D Q l d V ! -.m l l m w f f 5 M E.U.c.F.D.Q K d d d C f % 0 3 2 @ 4 h ^ -XFXAXfXfXAXvXFX+XM k U 8.8.=.3.p.0.=.V q 5 p.j.h./ U C 3 2 U 4.d.D.D.m.G.S.S.G.J.J.v.G.F.!.G.<.G.@X3XCXFXLXCXgXxXKXKXLXKXHXW.L.R.J.y.y.<.;.$XFXFXSXAXMXcXCXcXqXzXAXzX2.6 < 6 q < f = + # X 2 e.(.(.y.t.b *.5X6XE.f.F.M.D F =.w.2.T =.D.7.h h U h U 4.=.3.! ! ! ! 1.7.p.d.7.7.6.Q =.Q A | F G &.=.9.2.| G ,.e.e.e.| G F F z x Z G k z 2.0.;.6.6.-.F Y Q =.Q m 3 3 q 3 2 3 2 1 2 3 0 q 3 q 5 3 5 q 3 5 2 1 5 q q q q q 3 1 % @ @ % 1 3 1 @ 1 4 3 q 5 5 5 4 5 w 6 3 3 4 2 5 3 5 q < @ % 4 3 3 5 q 6 3 4 @ % % 4 5 3 3 5 5 6 w q 1 < % @ < 2 1 1 < < % < 1 3 1 1 3 4 4 0 4 1 1 3 3 4 1 1 1 @ < < 1 4 2 < < % % % @ % % @ % 2 3 w w w 6 5 4 1 1 3 w 3 < @ < < 2 4 3 m m w m 3 q l m q 0 q q 0 2 4 3 * * + * 1 q F :.w.G.G.9.=.&.Q x G e.e.w.G.y.;.;.o.&.&.F V M.*XP.XX:X9X0Xf.F z y z x k v 8 x x 8 p x x c n x u 2 2 3 t e m e N B M A A A A &.e.<.X.| F z 8 c *.r.e.H.J.b.H.J.(.).J.H.v a y.J.Q.J.H.v.v.S.v.y.<.<.<.X.e.o.Q &.G D f t U ~ U 0 & & & & e h ! =.! t * 4 0 e N 2 # * & - * t h.1Xg.q 3 0 0 0 = - ; 0 0 E _ E - - - h R q M A c c p n p 8 8 8 p v 6 6 6 x c k < 7 2 ",
"K.L.U.U.U.U.L.L.Y.Y.Y.Y.L.L.K.K.L.L.Y.Y.E.W.@X@XE.E.Y.Y.Y.E.E.W.W.E.W.Y.E.Y.U.L.L.L.L.Y.U.Y.Y.E.E.Y.Y.Y.L.L.L.K.L.L.L.L.L.K.L.E.E.@X$X$X$X$X$X=X*X*X*X*X=X=X$X@XT./ m M Y ! Y h t t N R h * 0 f e h h h U U e * t h d h e 2 * * m R V ~ C h U ! / 3.U U V U Y C V C N m d V Y V M M l w l q d l D ! ! l f M ! 1.V l w l 6 K l 6 7 z Z x F ;.0.F Y 8.! / U t e 0 0 0 ~ d.V 7.$XfXkXfXSXSXFXAX#XZ.1XvXbX-XM R 7.! T M q R i.j./ m f q 4 m 4.p.d.d.m.D.D.S.G.H.v.<.<.G.H.v.O.v.:XgXCXFXSXSXCXCXJXJXLXKXJXwX;XY.m.w.H.9.g.aXFXGXLXAXrX<XaXvXeXwXzXDXpXG.p 8 Z } e.F q e * l J.8X'.H.y.$.5.5X$XL.9.S.S.2.T $.9.;.&.2.L.w.d h U h d Y R 7.1.! R N C ! 1.d.d.1.d.=.=.T S F Z z S T =.2.9.2.e.e.r.:.z k M Z k 6 6 6 2 w =.2.-.6.2.-.Q Q =.! Q m 3 3 0 2 1 % 1 2 2 4 3 1 3 q 4 3 q q 5 w q q w q q q 0 4 3 2 1 % @ @ % 1 q 2 2 4 4 3 3 3 4 % 3 3 2 1 2 3 2 3 3 2 1 1 2 3 5 5 w q q 5 w 5 3 1 1 w f 4 5 4 6 4 < < % 1 1 1 3 5 w d w 5 q q 2 4 1 < 2 3 3 4 2 2 2 4 3 3 1 4 1 < 4 % 1 1 % % 1 % @ @ @ % % @ % 2 2 5 5 4 5 1 5 4 5 6 f 5 7 1 1 4 4 * 3 m C l e 4 0 d C e w q q 0 0 3 4 * * + * * 0 F =.q.D.R.F.q.=.J l l ;.f.9.:.$.M C D T S S Z M.*X@X@X=XqX0Xf.F Z z H Z x x x c z 6 6 6 8 z G A V 0 0 q t 0 e 0 e M S | | B G $.;.<.:.:.&.B 7 7 6 k $.y.v.H.J.J.J.H.J.J.b p <.F.Q.).).J.J.Q.J.H.v.v.b.<.r.:.-.&.D M f ; h / 3.h = = & & * h Q ! 3.E h 0 0 0 h j - - & 0 ; 3 j U h 2 2 ; 0 * * - - 0 t B.-XE r - # - U q M | A A v c x x c n 8 v p p p v c G 6 < 3 ",
"K.K.K.U.U.U.L.L.Y.Y.Y.Y.L.L.K.K.K.L.L.Y.E.W.@X@X@X@XW.W.W.W.@X@X@XW.W.U.Y.U.E.L.L.L.L.Y.L.Y.L.L.Y.U.U.Y.L.K.L.K.K.U.L.L.Y.L.U.W.@X@X=X=X$X$X@X$X=X*X*X=X=X@X@X@XT.~ d m Y ! V 2 2 0 h h 0 3 h N V N e 3 h h 3 * t e e f t 0 * * e Y ~ ~ V U U V ~ ~ U ~ R V U V m d d C C V N h m l 6 5 5 2 q m Y 4.! M l m M S V d f l K 6 f H l k p Z Q M Y S L.$XZ.Z.s.h * - r r W 1.H x G Q.nXnXnXtXnXAXVXZXFXFXSXAX:.z S V l l 3 C 3./ ! V l m d d Y 1.d.d.f.D.v.e.w.y.v.<.<.v.y.y.@.v.:XxXgXCXSXbXvXzXzXzXfXSXDXrXdXR.c.c.E.L.OXMXSXSXGXMXzX=X=XvXCXeX*XbXNX8X*.A  .X.y.;.M m 3 6  ._./.X.y.:.F 5.=.&.F :.w.S.;.5.e.=.G.G.).H.M j U R R U R 1.1.! 1.! R -.8.M.q.6.m.0.2.$.$.&.F x z M S T 0.0.9.=.$.=.B 6 4 f 6 < , < @ 2 C 6.q.q.-.-.2.7.7.Q Y V e 0 3 % % % @ % 4 1 1 1 < 5 5 w f d 5 w l l w q q q e 4 2 2 2 < @ $ @ < 2 1 1 2 3 3 2 3 1 % 3 4 1 < 4 q q w w 4 1 w f 7 4 4 w w < % < 1 6 6 4 3 5 < 4 4 3 1 @ @ @ % 1 2 3 4 f w 4 3 q 5 2 4 2 1 1 3 2 @ 2 5 3 3 4 5 4 5 3 2 3 < % @ $ @ 1 1 $ $ @ % @ $ $ @ @ < % < d f l f z M M f w 5 5 5 h U i.a.g.p./ U N d V f d 6 q e d d 3 * * = % % 1 =.D.@X;X,X0X=XT.m.7.M S =.T M M m m V ! -.-.1.P.:X*X*X=X9X0XU.5.e.e.:.:.;.;.$.z y k x Z F =.:.;.4.d h V U h t 2 q D &.$.B S $.5.e.G.S.e.} B y c y k x F o.v.G.e.<.o.:.y.v.Y.*X=XW.G.v.G.J.J.w.v.H.H.b.v.o.r.K.K.=X@XXXC.a.d.U.N.( V h j m Y D C W / ~ N C h 0 L ^ ^ g t * * 0 t 0 1 * ; C ^ ) ^ h r ^ h..X^ ^ h 0 r h d l c A 9.>.c x Z :.,.A :.r.F z A e.y.&.5 6 ",
"K.K.K.L.U.U.U.U.U.U.U.Y.U.U.L.L.K.L.Y.E.@X@X=X=XW.W.W.@X@X@X@X@XY.Y.Y.L.L.L.Y.E.K.K.L.Y.Y.Y.Y.Y.L.Y.L.L.L.L.U.L.L.L.Y.Y.E.W.W.=XW.@X=X=X=X$X$X$XW.W.W.W.=X=X$X$XC.~ d V ! 8.m * 2 h e 1 0 e V U U N f 3 e e 2 2 0 e g h j t - 0 0 C / Y V h V C Y V U 8.~ V Y Y M f d M V m m m d f f f 2 @ 3 N V 8.! V C m m m M S l l w 5 w M H M M Q q.D m l 8.N.R W U r 0 L L h U -.1.P.l.L.6XtXH.{ I.aXxXcXvXwXjXjXo.6 x A k l k l l N V Y h V d d C =.d.d.q.w.v.e.,.y.b.b.<.v.t.t.n.t.R.vXxXaXdX6X~.b.b.b.v.`.J.b.tX~.U.I.-X2XVXGXLXFXSXvXMXtXH.*XDXvXsXzXbXrX:.9 k a n v 6 k q @ @ m T x x x 6 l w B B $.e.).H.H.G.=.e.e.J.Q.Q f N U ! ! V C R Y ! -.2.7.q.f.K.f.S.G.k.9.F J z k z Z Z S J -.2.9.9.5.&.M w S C e e e e l M -.0.0.6.6.=.6.1.Q Y R h 3 1 @ @ % @ % 1 % @ % % 5 q f l m d e 6 f 3 2 2 4 q 4 % % % * % @ @ 2 4 1 4 4 5 3 5 5 1 < 4 4 1 1 5 q 3 w 6 4 5 f w 4 1 2 5 4 @ @ < 2 2 1 % 2 2 % 2 5 4 1 % @ $ < 3 2 % 4 3 1 < 4 3 5 @ % 4 < % 2 < 1 % 4 1 < 4 4 3 3 < % 5 3 1 $ X + @ % < % @ % % $ + + % 1 < 4 g.V.8.a.B.C.g.w q q U a.C.|.C.C.C.XX|.|.V.W d w d q 3 5 f f 0 * @ % = j ( OXiXcXgXgXeX>X>X>X,XXX7.M k z M C V 4.oX1X=X=X;X*X*X#X@X$X=X*X$X;XOX+X;X0X+Xm.R l l d.oXY.Y.+X=XOX/ 6 N V d 0 0 0 C $.G -.OXoX#X#X*XiX@XG z k H G A D.*XY.Y.@X#X+X6.n J $XdXcXsXpX9XY.e.v.r.G 9.R.(.J.F.M.T.eXeXwXeX>X>X-XOX>X>X:XY.m.2.7.Q Q ! / C U U %XB._ A.C. X|.^ 0 * C  XU 2 0 U +X-X%X-XB.U B.|.h.h.|.) L |. XU m 8 D ;X:X&.A K.:Xc.M.>XY.F -.oXT.K.$Xd.w ",
"K.K.L.L.L.U.L.L.L.U.U.U.U.U.L.L.L.L.Y.Y.E.@X@X$X@X@XW.@XW.E.Y.Y.Y.Y.L.K.L.L.L.L.K.K.L.Y.Y.Y.Y.Y.L.L.L.L.L.L.L.L.U.U.E.Y.E.W.W.$X@XW.W.$X$X$X$XW.W.W.W.$X$XW.@X$XT./ V M / 7.d t h U f * t h h h N N f 2 0 0 * * t h U U U h * * = h 3.~ R N U ! 1.~ ~ 3.R m m d f 5 w m M l e m f 5 q 2 4 2 2 d U / V d f f 6 6 l Q M l f f f D &.F l M 0.Q d 3 q C e e 0 * h i./ U U =.f.qXjXP.H.H.k.0.$XdXrXwXrX5XJ.y.F x z S d w f k w w m m d h d d d S 1.1.6.0.w.w.r.e.G.v.t.y.y.y.v.t.y.*XcX9XJ.b.@.+.....n.H.+.y.qXjXqX6X0X0XVXSXJXGXFXvXAXMX6XZ.cXSXAXbXcXnXE.A z a n x 5 q f 0 % 3 d l % w 5 2 4 M l T :.J.J.`.R.v.v.<.(.J.M 0 N M C V D V R ! f.D.f.f.0.m.D.m.S.S.F.q.F F z x z G M k l G 2.G.S.w.w.0.4.7.4.=.R W R Y Q -.=.=.! -.R 1.1.-.! R h * % 1 1 2 1 1 * % % @ % 1 4 3 d d q q q w 4 2 < % 2 2 % @ @ % 1 1 1 2 2 1 q q 2 < < 1 5 1 1 1 2 2 5 w 3 5 4 < 1 4 4 < 3 5 5 1 @ @ < 7 4 4 % < 4 4 3 4 % % @ @ < 4 6 < 1 5 3 1 < 4 1 < 1 2 2 % % 2 < @ @ @ < 1 1 2 2 4 1 % 3 4 @ $ $ $ X $ 1 2 % 3 % @ 1 q q 1 1 3 p.h.a.V.C.C.p.1 d g.XXA.B.Z.B.C.Z.B.C.A.C.P.3.e q 3 3 2 2 2 4 % + r i.C.A.XX>XvXcXcXaXiX,X:XOXXX+XV.D D ! U U 4.@XsX>X<X>X>X:X@XP.U.=X:X*X*X#X;XiXcX<XD.m.9.&.M.#X@X@X*X=XOXa.M q 3 2 t 0 0 m Z Z f.>X#X+XoX$X0X$Xe.9.;.9.;.$.L.:XoXY.@X*X*Xq.H m.:X9XpXaXcXaXaX:Xq.D H 9.!.v.c.=X;X=X<X;X0X>X:X>X>X;X:XeXdX9XK.q.6.! ! Y U j e g  X X+XW j (  X+XU * U  XR 2 ^  XOXd.4.1./ t r h.%XP - 0 L |.A.U V x Q OX@X$.c E.OXY.K.L.;.;.:XM.8 7 :.@X8.",
"L.L.L.L.L.L.L.L.L.L.L.U.U.L.L.L.L.L.L.Y.E.E.@X@X@X@XW.E.Y.Y.Y.Y.Y.Y.L.K.K.L.L.L.L.L.U.Y.Y.L.L.L.L.L.L.L.L.L.L.L.Y.Y.W.W.W.@X@X$X@XW.W.W.@X@XW.W.W.W.W.$XE.E.E.@XT./ Y l ~ 1.d h W R f * t h e d d e 0 1 2 2 * e h U U U U h - & o 0 8./ ! V Y ! 1.! Y Y C V V M f f l C M l m V m q 1 % q q 3 q C Y d q f K 6 4 f D D D Z Q Z Z T M w 5 M M d q M Y N h f f U 4.Y m l =.y.J.6X<.| ;.$XsX,XzXdX1XdXqXv.O.Y Y m &.&.M z f l ! Z.j.N q q m N V 1.8.1.d.m.m.:.r.G.c.v.v.H.v.<.@.t.~.vX~.b.u.t.@.u.y.~.H.a t.).tX6XR.H.Q.pXvXLXJXFXCXvXmXmX-XxXvXAXAXvXMXzXJ.G n :.5.Y S z f 6 M G c 1 q q 5 l T l l G v.H.).J.H.y.e.J.).k 3 D Q D D Y Y ! 7.K.K.f.f.f.F.m.q.w.-.w.q.&.F M G G G S z 6 z =.S.G.v.w.q.c.c.w.0.4.R R R 0.6.=.T M V D 1.8.7.! U h * % 1 1 1 2 1 @ $ % * 2 1 3 q 3 3 3 3 w w 2 < < 1 4 1 @ % % 1 2 1 2 3 3 % 1 2 < @ @ 5 6 5 3 2 4 4 q w 3 3 2 1 3 1 < 1 1 2 3 2 % @ % < 1 3 1 1 4 4 4 1 % @ @ @ 2 5 5 < 4 5 3 1 1 3 1 1 1 1 % @ @ 1 1 @ $ + % % 1 2 1 1 % % 2 2 < % 2 @ $ @ @ * 2 4 1 4 q m d 3 3 q a.V.a.B.V.|.i.h N.XXV.B.h.B.V.B.C.A.Z.Z.A.Z.;X3.q 4 3 2 2 4 0 & E B.V.B.a.C.;XcXxXVXvXaX,X=XXXXXXX-XOX/ ^ U P / oXzX0X*X,X;X*X@XK.Y.oX:X9XwXpXeX>XsXT.7.0.F.S.Y.;XT.@X+XY.+Xg.T d d e e t 0 d S G p.,XOXXXoX#X:XoXw.G.G.w.:.&.L.*XoX@XoX@X@X2.2.*X#XoX#X:XpXaXaXpXN.=.:.<.w.m.@XOXOX+X;X,X0X0X9XeXpXpXeXeX>XpX>Xm.r.-./ U h g h h |.-Xh.U h j s.%Xh.0 E  XU t B. X~ d M w d 0 0 |. XP & - L |.|.U V | ;.Y.Y.&.x E.;XY.$.A A M.#X2.8 7 c L.Z.",
"L.U.L.L.L.L.L.L.K.L.L.L.L.L.L.L.L.L.Y.E.E.E.E.E.@XE.E.Y.L.L.L.L.K.K.K.D.K.K.L.L.L.L.L.Y.L.L.L.K.K.K.K.K.L.L.Y.Y.E.W.@X@X@X@X@X$XW.W.W.W.E.E.E.W.W.E.E.W.E.U.Y.Y.Z./ V l V ~ m N R N 0 * t h d m N d q 3 3 2 0 U R W U h U h 0 * # 0 3./ ! Y 1.Y D C d l d M D m S M m m l M Y V h 1 * 4 d d q f l f q f l f f d w l C J F F M z M l f 6 l M d f S 1.N h h d Y R V V h ! k.<.O.9 , R :XAXVXMXwX,XfX9XS.:.3.3.h ~ P.0.-.m m 6.@XK.h 3 0 h U U Y ! ! M.K.D.J &.F.U.E.L.Y.F.v.b.H.=XzXH.O.O.t.t.v.e.>.p < p o.v.@.+...<.*XzXSXFXFXFXAXzXmXsXzXfXzXAXAXvXmXnXe.| <.G.H.H.v.<.:.e.,.} D Z T =.q.L.w.&.;.H.J.J.Q.H.G.J.(.).Z l ! 2.;.:.Y C V Y 2.0.2.0.0.w.0.=.;.T =.;.S Q S M k z &.T x z G e.y.e.;.| f.f.w.w.v.9.:.o.m.q.6.-.S Y ! 7.d.N.d.~ N 4 2 2 0 2 % % % % % 1 q q q 5 4 < 4 f l w 1 1 2 3 3 1 @ 1 3 0 3 2 4 q 3 1 2 5 6 < < 5 3 5 w 4 2 3 w q 1 2 4 3 5 2 % % 1 2 4 2 1 < < < 1 2 1 2 2 < 4 5 6 7 @ 1 4 1 < % w w 3 2 5 5 4 4 4 2 % % @ < 1 $ @ @ @ % 1 4 4 1 @ < < < 4 5 w 1 < 1 @ % 3 1 4 0 3 3 0 3 2 2 a.V.V.B.a.Z.V.V.C.V.|.V.h.s.V.C.V.s.g.V.C.XX+XXXd 4 1 % 1 q h * s.B._ B.V.N.A.#XOX>XsXhXpX>X>X,X>X1X1X|.^ / 3.3.d.=X@XZ.#X:XoXoXoXT.;X:X=X=X@XT.M.M.R l M &.w.9XiX$XoXP.P.XX8.Q Y R U h h g d S F 3.OXP.XX;X#X&XZ.:.r.v.w.$.| L.*XoXY.@XoX$XM.T.+XXX#X#X;X;X0XwXU.w.S.G.q.K.0X;XOX*X<X0X:XY.M.D.U.=XwXeX<X;X;XiX,X0.1.4./ h ; h E %X%X_ U h r ^ %X_ h i.-X~ U %X Xm 2 y l e 2 0 |.%XE - - g .XB.U M B &.oXoX| n K.,Xr.b b D T.K.f.D.D.D.@XK.",
"L.L.L.L.L.L.L.L.L.L.L.L.L.L.K.K.L.L.Y.E.E.E.E.E.E.Y.L.L.K.K.K.K.L.K.K.K.K.L.L.L.L.L.Y.Y.L.L.L.K.K.K.K.K.L.L.Y.E.W.@X@X@X$X$X$X@XW.W.E.E.Y.Y.E.E.U.E.E.E.R.U.U.Y.Z.~ V M N U V U ! h 0 * t h N Y V h 0 3 0 q m ~ / U d e h h g r ; t / Y Y Y =.S l f 6 M l l V V D l 6 f m V C d 3 % q h h h N m f f w q M f f f w k x Z D Z z G Q F H f m d 5 1 f V h e 0 0 N U N L E R 4.S 8 < 1 / qXBXrXnX!.6XdX!.e.$.! 2.m M d.d.7.m e V 3.R d e h U U C h N V 7.d.M.-.r.!.Q.=XW.R.J.b.J.H.W.fXH.{ a { a s 9 n z < < 7 v X.X.+.O.S.*XVXSXLXFXCXvXzXdXvXvXdXvXAXmXdXrXH.v.G.H.Q.6X6X`.Q.Q.F.k.G.G.!.Q.6X6X6XF.R.R.Q.6X6XF.G.G.J.J.n l ! w.9.=.C m d e f Z T 4.T S =.&.&.-.-.=.F &.-.T z Z $.=.=.G z G ,.e.,.| 2.9.q.e.v.w.w.9.D.w.0.m.0.d.q.7.7.d.K.8.U 0 0 3 2 3 2 2 4 2 1 3 q e q q 3 1 4 m l q 2 4 4 2 2 2 2 3 3 3 3 4 3 q 3 q e w 5 7 5 5 5 5 q 4 3 d m 5 4 2 4 2 2 2 < < 3 3 3 3 3 1 1 1 2 1 % 1 4 1 4 w 5 < @ 2 5 4 1 < 3 4 < 1 5 4 < 1 2 1 % < < 1 2 @ @ $ $ $ @ % 1 2 < < % 1 3 5 f 3 1 % + @ @ % 2 2 1 1 3 2 % * s.B.h.h.V.a.V.C.XX|.8.Y 0 3 U 3.C.C.a.V.|.XX+X+X/ w 4 1 3 q q % h h.|.|.3.e w 0.M.Y.Y.XX>XsXiXsXaXsX2X-Xs.Z.K.d.=.6.f.d.$X0X;X>XsXuXpX9XL.e.$.$.*.&.S S S F 9.9XcXwX,X#XT.+X/ M C V N h e t e Z S 3.+XC.oX;XoXXXM.| n A | G G K.#XK.oXoXoX@X@X#X#X;X$X*X:XoX:XE.o.o.<.G.M.eXaXaXpXwXaXwXL.G.S.w.F.c.c.=X>X,X,X>XaXZ.8.R U U P h _ 1X-X/ P 0 - E  X_ 0 ( 1X/ R %X%XY q y M w 3 0 B.%XE - r E |.B.R m 5 T @X@X} c K.>X;.k c D T.Y.6.6.0.6.=.F ",
"Y.U.U.U.L.L.L.L.L.L.L.L.L.L.K.K.L.L.E.E.E.E.Y.Y.Y.L.L.K.K.K.K.K.K.D.D.D.L.L.L.L.L.L.Y.Y.L.L.L.K.K.K.K.L.L.Y.E.E.@X@X@X@X$XW.W.W.E.E.L.L.U.Y.Y.Y.U.E.Y.E.R.U.L.Y.Z.~ D C N V V U Y m e * 0 h N Y V h 0 3 0 e N R ~ h f h h h h g 0 t ! D D Q D D D M f M M m M C m f 5 m S l q q 3 q Y C d C R V m m d q d 6 w f z k 6 z G z x o.;.F x z l 5 5 6 d N g * * e V N h m Y S B e U ) _ h.U.(.t.`.,.J.).<.F W N R 6 5 Y 1.7.N 0 3 d h h h U R L h L U C Y Y 6.6.w.H.H.R.R.R.H.v.v.y.J.rXy.a s 7 9 v :.L.F.S 5 6 k :.<.<.@.@.u.qXSXKXLXSXvXpX,XzXDXvXCXSXCXwXQ.b.H.Q.H.!.`.6X6X7X8X6X6XQ.J.J.Q.`.R.Q.5X).).).6X5XQ.J.v.b.v.M f C w.e.2.V d e q 5 q l R S Z &.$.S F F T Z =.6.;.F S F ;.5.;.T D G ,.<.&.2.q.9.9.c.S.w.e.9.6.;.f.q.m.q.q.7.1.f.p.~ h 2 1 2 3 3 4 q q 3 q e q 3 5 3 2 4 d q 2 1 2 2 % 1 4 3 3 4 2 2 2 4 5 3 w l 5 2 < 4 5 q w q 2 3 d d 3 1 1 4 2 2 3 2 2 3 2 4 3 4 1 < < 2 2 1 4 3 2 1 2 < % @ % 2 < 1 < % < < 1 4 < < 4 3 4 < < % % % @ @ X X $ $ $ + % 2 * * 3 * 1 3 1 * % @ % % 4 1 < % 3 0 1 @ * a.B.s.h.h.V.V.|.Z.C 3 d 3 1 2 3 ~ XXh.V.XXXX%X%XV.q q 4 q 5 5 2 0 U Z.C 3 1 5 2.m.D.M.d.A.zXiXaXdXfXaX2XXXZ.L.f.;.J 0.D.9XsXiXiXaXaXcX:Xq.F M $.;.| S F =.$.&.Y.pXwXdXsX@X+X/ d d d e e 0 0 0 Z Z 1.OXXXP.T.P.OXM.G G v k y B D.*XY.oX#XoXY.oX+X=X@XU.K.@X*X9X0.A G >.;.@X>X,XwXwXfXpXK.w.y.y.G.G.e.r.d.:X:X;X:XuX+X~ V U U ^ U 8.1X3Xh.U g - ) .Xh.t U -X/ h |.%X3.w 8 y w 5 3 h. XP & 0 _ |.B.U d l Y oXU.G } Y.,X;.B x k f.$X6.z { p 7 7 ",
"Y.L.L.U.L.L.L.L.L.L.L.L.L.L.K.K.L.L.Y.Y.Y.Y.Y.Y.Y.Y.L.L.L.K.K.K.L.L.D.K.L.L.L.L.L.L.Y.Y.L.L.L.L.L.L.L.L.Y.Y.E.@X@X$XW.@XW.Y.Y.U.L.L.L.L.L.U.U.U.Y.Y.L.E.R.U.L.Y.Z.! T Z N N m N N N e # = 0 h V h d 0 0 e h U / U N U N h h L h ; 0 ~ D V Q C D Q C f f l M l l f m f m m 3 q C m h ~ d d R Y ~ Y d e 0 5 1 w M M f 5 6 f w 5 f d l 6 d l q w l 0 0 - + # h R V N U Y Z D i.3XSXSXVX$Xy.{ u.b.(.b.,.r.C.3X-XXXXXK.oX&Xj.U C U U / ^ / / E E ^ / W h e d Y 0.G.v.H.H.G.v.v.t.t.v.G 8 r.F.K.K.uXvXgX*X2.q.;.2 l e.n.b.t.@.@.H.cXSXGXAXmX=X=XvXAXSXCXFXDX6Xn.J.`.G.e.H.).7X6X7XrXkX8XQ.H.H.J.H.!.Q.).`.).J.R.5XJ.v.v.v.6.D m ;.<.0.Y f 3 1 2 % @ < 2 l M k 5 6 6 w f D =.&.x 7 7 Z &.9.;.D x A :.9.w.F.G.S.G.G.S.S.e.9.q.F.D.q.6.6.0.1.4.8.8.U e 0 q 0 3 3 e d q d d q 2 2 3 2 1 3 2 1 1 % % 2 3 0 0 q 0 4 2 1 1 4 w l q 5 5 2 4 6 3 5 3 1 2 4 4 1 % 1 % 1 2 3 0 q 4 1 1 4 2 < < < 1 2 3 4 4 < % % @ @ @ @ % % 2 4 1 4 6 6 4 < 1 5 6 4 < % @ @ % 1 @ $ @ @ $ $ @ @ * % @ * % % 1 1 % * 1 1 3 2 @ @ @ % 2 % @ 1 a.h.a.h.h.A.|.|.h 4 5 d m 5 3 3 q 8.XXV.V.V.XX+XV.f 3 4 5 3 3 4 q 1 3 * 1 < < D q.G.D.d.M.OXaXaXpXsXiXaX>X4.0.f.f.w.e.0.@X0X>XiX>X#X-Xi.f 5 l T &.z w Z ;.=.=.U.0X*X9XzXfX,X~ 4 e e 0 e h h d T Q 7.OXoXZ.C.K.;XM.c A n 8 < 6 f.*X@X$X$X@X@XOX:XK.Z M Z | 0.U.&.&.J A &.+XOX9X0X0XiXE.2.9.<.*.:.5.:.| ;.=X9X&X&X#X;X1.V Q Y E P W .X.XB.h P E B.|.^ L _ %XR * / XXj.Z k l B 2 2 j.XX) 0 * h B.|.^ e S K.+XY.G c U.>Xe.c p 6 &.#X#X;.c c G x ",
"P.K.U.L.U.L.L.L.R.L.L.L.L.L.K.K.K.K.U.Y.Y.Y.Y.U.Y.Y.U.L.L.L.L.L.L.L.D.K.L.L.L.L.L.L.Y.Y.Y.Y.L.L.Y.Y.L.L.Y.Y.E.@X@X$XW.W.E.U.L.D.D.D.K.K.K.K.L.U.E.L.L.E.R.U.U.L.Z.! Q D V m C m m d 0 + & 0 h m m m e 0 t h U ~ U h W N g h h h 0 t Y V l D S S Q D m w f l 5 l f m f q 5 4 d m m m d q N Y ! ! Q l m e 5 5 m e f q 2 @ 1 1 @ 1 * @ * e 2 + * 2 * - - X X t ~ Y h R R D !  XgXSXLXVXmX5X,.t.).~.H.v.!.iXZXgXgX;Xg.P.#XoX3.3.a.a.s.s._ ) ) ) E U U h t 0 e -.G.G.H.G.v.G.v.O.t.O.< 7 L.fXvXeX:X9XhX6X5.2.6.1 < *.n.n.n.n.@.t.H.8XmXAXMXrX6XpXAXAXAXFXHXnXy.v.J.).L.F.R.`.).6X6X8XrX6XQ.R.R.H.v.F.J.).6X!.!.5XF.S.H.w.G.N.U &.:.;.Y d 2 @ 2 < @ @ 2 l z k 6 5 2 < 5 z S f 7 , @ x *.&.S H z Z ;.0.S.F.F.R.F.R.F.G.S.e.;.S.G.m.q.w.S.f.1.1.8.R e 0 3 1 % 4 m m q d C d 3 3 5 3 3 3 4 4 2 1 1 4 q e e d e q 5 4 1 1 y l w 6 w 5 5 4 2 2 3 3 4 2 4 1 2 0 1 2 q 0 e d e 3 3 3 2 2 5 3 < < < < < % % % % % $ @ % 1 2 w 5 5 5 4 4 4 5 5 w 3 < % < 2 1 @ @ @ + + + @ = * * % @ 1 % % 1 2 2 3 4 3 3 * X $ @ @ % % 1 2 p.a.a.h.Z.C.+X) 3 f d C M w q q q C  XZ.V.Z. XXXC.N 2 2 5 q q q 2 @ 1 2 1 @ @ l -.c.Y.Y.D.Y.aXsXsXiXiXcXiX2.0.0.d.0.w.7.Y.;XOXOXoXoX#Xj.l l B T Z c d S 5.r.<.@XpX0X$X*X0X0X/ 1 f e 0 t h C C 2.-.7.OXOXXXT.K.*XM.c G c k 6 y f.*X@X$X$X*X=X,X@X$.p c A } c *.| o.&.} f.T.OX,X0X>X>Xf.G D Q S Z =.&.} ,.~.0X&X$XY.:Xk.S T &.e q m B.B.h.h.h. X X) r P s.-X/ 1 e s.XXXXZ.T.P.e 2 / %X%XB.s.g ^ |.%XC.P.=X#X=XA n Y.iXw.k k k S M.,X=XK.Y.*Xg.",
"M.K.K.U.U.U.K.K.U.U.U.L.L.L.K.K.K.K.K.L.U.U.U.L.K.K.K.K.K.K.L.L.L.L.L.L.L.Y.E.E.L.L.Y.Y.E.E.L.L.U.L.L.Y.E.E.E.W.W.W.E.Y.U.L.L.F.D.K.K.K.K.L.L.U.L.U.U.U.Y.Y.Y.Y.M./ ~ ~ Y C m N d e * + # t d m d h f e d ~ 3.U d U U N 0 0 h t 0 0 Y S w 6 f m H D J z f f w m f f f 5 4 3 q e f f 4 = M ! Q Y H f f 3 5 w d q % + + X * 0 # # X + L ) U # # - * ; L r & 4 ! R l V / R 4.%XVXSXxXc.rXrXv.[ e.6XtX!.N.+X>XdXfXI.8 F $XP.~ ~ j.p.i.h.B.i.s.h._ E P h h t 0 m y.y.t.v.G.H.t.X.<.<.*.@XwXzXDXrX6XI.=XtXQ. .B @ @ 6 J v.n.n.u.@.@.n.J.~.wXnXrX>XvXDXCXSXFXNXb.y.G.J.H.v.H.).H.).'.7X8X8XQ.I.5XQ.S.S.b.J.5XJ.J.6XQ.Q.R.v.$X9X4.z Z T Q m q 3 2 4 3 q 3 5 6 y w 6 6 w 5 M &.Z x x Z Z J S l M &.&.r.e.6.w.R.Q.H.F.J.G.e.r.J :.D.L.G.S.6.6.6.=.1.~ d 3 2 0 4 0 d m d V M 3 3 q 3 q e q 2 * 1 % 2 4 q e q f d q d 5 1 5 q w 5 5 6 2 2 2 < 5 3 3 q e 3 1 1 % 3 q q w q d f 5 w q 4 3 w 4 < < < < 1 % @ % * $ $ @ % % % 3 4 4 1 1 4 5 5 w 5 6 5 1 1 4 1 % + + + + + % 3 4 4 4 3 5 4 3 w w 5 5 5 4 1 % @ % % @ % 1 4 3 3.B.h.a.|. XXXR e m d m C m d l d m C.+XXXZ.XXXXXXU % % 3 d q 3 4 1 4 % 1 4 % e D 9.T.:X>XiXaXsX>XiXeX1X,Xw.k.0.9.9.&.G L.,XoX&X+X#X+XN.T S Z F $.$.G S $.| 9.$XiX;X=XT.Y.;X7.m N N f e e h V 5.5.0.+X+X;X#XoX:XY. .G n Z B G L.$X=X@X=X:X*X:Xw.Z Z G o.&.A *.o.*.&.J K.#X;X;X:X>X:X=.Z T :.&.$.| B 8 c S.#XXXY.L.#Xd.x B $.8 6 l XXB.h W j.i.P r t r j U e * 4 e / s.d.7.Y e 2 e / ) s./ 0 - ^ _ p.7.q.G.R.| c e.L.r.n n &.q.6.M.E.K.M.-.M ",
"M.M.K.K.K.L.L.L.U.U.U.L.L.K.K.K.K.K.K.L.L.L.L.L.K.K.K.K.K.K.K.L.L.L.L.L.L.L.Y.Y.L.L.Y.Y.Y.E.E.E.E.Y.Y.E.E.@XW.$XW.W.W.W.E.U.L.F.D.D.K.K.D.K.L.L.U.R.U.U.Y.Y.L.U.M.! Y D C N C N d e * * * 0 e d d N h e N 3.3.N N V h h e t h h L j N Q C 5 3 q x S D M l l f d w f w f f q q f f 5 3 4 l Y Y D m 0 2 3 0 5 1 @ o . . : ^ ^ ; ; r - U j.B._ E E / / E E h * M Y m U / Z p.>XVXxXY.o.5XfX6XO.u.(.).H.=.! 7.$XdXY.x G I.l.R N / 1.i.V.C.C.j.XX;X&XP.r.r.q 1 2 m D O.t.e.v.L.;XoX!.=XDXSXvXvXpXE.5Xy.F.wXD.M * 2 % 4 Z O.@.n.n.@.@.#.[ @./._.).wXMXmXvXAXDXR.{ b >.t.X.{ n.@.b.(.J.v.).t.,.(.J.e.G.).Q.Q.Q.$X6X$X*X$XR.W.9X0.m M N V V m e q 5 2 5 5 f w w 6 6 w m 6 m =.;.w.k.S.$.G l l S ;.r.<.:.&.;.y.!.!.G.G.v.9.G z n <.v.w.f.Z l T ! ~ ! h 0 e h f f h e d m d q d q 3 q 5 3 1 4 1 % 2 3 0 3 q 1 2 d m q 1 4 2 2 5 6 6 2 2 < < 4 3 q e 3 4 2 % @ 1 q 3 q q 3 3 5 d q 2 1 5 5 2 % @ @ @ @ @ 1 4 @ $ @ @ $ @ < < 4 4 < < 5 5 6 6 w f 5 4 5 3 1 1 2 1 @ $ @ 5 y 5 6 f 5 4 5 f 6 6 < 1 1 3 % % 2 < @ 4 0 2 @ i.h.h.a.Z. XXXN q q f m l d d d 5 f C.%X+X+X+XV.A.N 4 2 q w q 5 f w 3 2 4 4 q U a.@XiXcXhXsX0X,X;X,X>X>X,Xq.e.2.r.0.;.&.Y.iX;X#X+XOX%XM.T F F $.&.$.| S Z 8 z M.;X+XXX+XOX>XK.:.:.&.D m m U V D D d.;X;X;X*X$X:XY.o.o.n Z A | Y.*X@XOX$X@X;X@X-.&.Z A &.=.r.r.X.| A c.*X*X9X0X#X;X+X6.-.-.F &.&.B y y k $.Y.oXL.U.oXK.n 8 { 8 7 x XX|.M e t - - = * & * * % 3 w q y x l w 4 1 3 % @ * 0 0 0 4 0 * * e &.G :.:.X.} Z :.*.| &.f.0.;.D.S.&.6 7 ",
"K.K.K.K.K.K.K.L.U.U.U.U.U.L.K.K.L.K.K.K.L.L.K.K.K.K.K.K.L.F.L.L.L.L.L.L.L.L.L.L.L.L.L.L.Y.E.Y.W.Y.Y.Y.E.E.E.W.W.@X$XW.W.E.U.L.L.D.D.D.D.D.D.K.L.U.R.U.L.U.L.K.K.M.! S C d d m d d h 0 0 * t e e h U h e U 3./ U U N h U h h U U L g e Y ! m d f k z M M z M M m w w 5 5 q q q f q 2 4 4 q m C m f 4 * 0 ; + + + + X ; ( A.N./ E 3.h h R d.P.V.h.M.V.3./ U 2 1 m Y 1.3.Z g.iXVX1X1X;XkXrX`.n.t.<.<.<.v a A r.!.m.H =.D.P.M.8.i.i.7.d.P.+XP.oXvXaX:Xq.N.U h 2 h ! 5.o.G *.I.fXR.} 2.9XnXmXvX9X*XmXfX9XvXvX;X/ ~ 4 @ % p ..@.u.u.@.a 9 [ [ +.@.u.rXMXvXMXNX6X8 < x <.v , v ..>.).H.t.y.,. .H.H.v.J.7X'.'.v.Q.J.H.Q.tXW.E.=XF.M M m N N C C C l 3 5 6 w w k w l S D k f l &.w.y.y.| D l l Z G &.&.o.A G :.v.v.y.y.v.9.Z l F r.:.G *.A z T 1.R Y q 2 3 f 0 f e q q q 3 f d e q 1 % 4 e m q 2 2 3 4 1 1 % @ q e e 4 % 1 2 5 w 5 5 4 1 5 5 q q 0 2 q e q 2 3 0 3 q 3 1 1 3 d q 4 1 1 4 4 % @ @ @ @ % 1 @ % @ + @ % % % < 6 4 % < 7 5 7 4 4 4 5 6 6 5 3 5 6 4 % @ < w w w 6 6 4 6 f l f f < < 3 1 @ % 1 2 4 q 2 @ $ i.h.h.V.XX%XC.f q q q f q q 5 q m V A.OXOXOX+XV.C.U 1 2 q q w l m l w d V / g.XX;X<XiX2X1X1X>X>X0X0X>X>X;Xw.y.w.9.5.w.c.=XsX:X+XOXOX,XM.C M B S M M z l l w w p.XXT.XXOX;XeXL.2.q.q.6.-.! Q D w 7 1.iXwX:X#X=X;XK.X.F x z c n K.,X@X$X*X@X;XY.&.:.:.&.| F &.o.o.*.| K.,X*X:X:XoXoX@X+X+X+XP.M.M.7.0.f.f.d.P.oXP.T.oX@XA 7 9 8 7 c XXP.B 5 t * & @ * # + & * 2 4 2 6 6 6 5 % % 2 % @ 2 3 2 2 2 0 * $ , B p c A ,.*.| o.| | G F $.G e.e.F 6 6 ",
"K.K.K.K.K.K.K.K.L.L.U.U.U.U.K.K.Y.L.K.L.L.L.K.K.K.K.K.L.L.L.U.U.E.L.Y.L.L.L.L.L.L.L.Y.L.Y.Y.Y.E.E.Y.Y.E.E.E.W.W.$X@XE.U.L.K.L.K.D.D.D.D.D.K.F.L.L.L.L.L.L.K.K.K.f.R M C d q d e e h 0 0 2 e e h h h 0 0 U 8./ U U N h P g g g g g j r h h N m f 6 5 5 5 3 3 3 3 4 2 * 1 1 * % * * * % @ + @ * * + + o + # & g W E ^ |.V.K.f.d.P.9XK.M T w.F.Y.M.1.! R R R d @ 0 Y 7.d.o.S.=XiX,XVXCXnXrXwX*X*XeX9X@XF p G 0.W.oXY.@X#X;X*XOXC.P.6.-.d.oX#X$XMXmXdXQ.Q.f.Q Z :.J.9XU.6.6.r.:.| 7 < y v <.rXE.E.zXMXvXAXSXSXaX+Xq.! H p p [ O.t.+.[ 9 [ s [ ..+.J.rXqXnXNX).7 $ % H n 7 p X. .).`.b.k.<.v y.v.J.).e.[ +. .J.k.$.v.Q.y.f.D.R.y q h N d d C Y Y V Q T F F T S C D D S l < w k x Z G T F &.G z G G G A o.<.v.H.e.>.r.&.&.S =.$.=.A o.$.F -.8.1.R q 4 e m e d e q 3 3 3 q d q 3 2 4 m U V 0 3 2 3 4 1 % 1 % q q q 2 % 2 q 5 2 5 5 5 5 w q d q 0 0 C V e 0 2 1 2 2 1 % 1 3 e q 5 2 1 4 3 1 % % 2 2 % @ 3 3 1 % q m q 2 4 6 < @ % < < < @ < 4 6 1 < 4 6 6 4 4 4 1 4 w 5 5 w 5 1 4 f l 6 w 1 2 5 % @ % 2 2 q 3 % $ @ a.V.V.V.XX-XXXh f q d q q d 3 d D M s.|.C.V.V.B.|.U 3 0 e 5 q m V m ! a.C.|.Z.Z.C.=X>XiXsXsXsX1XOX#X,XiX;Xm.G.R.G.q.q.v.:XsX;XOXOXOXuXY.D m l M k w l m m d e a.XXXXoXOX*X>XZ.;.9.2.Q T ! =.D k 5 2.>X>X,X+X@X;XM.| G n G G n D.;X@X:X:X#X;XY.:.X.:.:.F B c G *.v.G.W.9X=X@XoX@XXXoX>X0X,X,X+X:XY.Y.oXY.M.f.L.oXoXoX$X*.8 9 7 7 A $XQ.X.6 2 2 < 3 1 * * & @ * * @ 1 2 2 2 * * * % % 2 1 * 2 * 2 * & 2 B c v v b v | r.x Z Z x y z G S Z k k ",
"K.K.K.K.K.K.K.K.L.U.U.U.U.U.U.U.Y.L.L.L.L.U.L.K.K.K.L.L.L.Y.Y.Y.E.E.Y.L.L.L.L.L.L.L.Y.Y.Y.E.Y.E.E.Y.E.@X@XW.W.W.@XW.U.U.K.D.D.D.D.D.D.D.D.K.L.L.L.L.L.L.L.K.K.K.f.Y m D m 0 q e d h 3 0 0 h h N N t 4 h ~ p./ U U h h h j g r 0 j t j r 0 0 e 3 1 @ @ @ @ + + % & * * & * & # # & + X X # o o X X X X & & 0 ) C.s.|.OX4.4.2.f.Y.9XsXp.7.f.D.@XP.V d e h N e + % m Y T o.S.K.Y.oXMXxXc.tXAXCXvXCXFXVXZ.M &.oXAXSXAXmXcX>X:X;XXXXXY V 7.Z.g.d.wXDXMXtX8XR.| v v O.tXnX9X0XR.4.4.J 1.f.7 7 y.e.M.zXMXzXmXDXzXdXqX6XR.H.<.6 9 { t.@.O.X.{ { { +.@.y.7X6X=XyX(.c < @ p e.<.} G x >.(.`.J.t.v t.H.7XH.7 X $ 7 O.y.n v.`.R.G.W.rXz 1 t m m q l Y Y -.6.;.2.-.-.-.D M M S Z f k 6 6 6 x G =.9.F z :.&.z F ;.9.v.G.e.&.F T Q w d l Y Q &.0.-.6.-.=.T q 0 h V h d e e q q q 3 q e q 3 3 d U d % 1 % % 1 1 4 3 1 0 3 q 1 % @ % 1 < 4 5 4 6 5 3 q q q 5 m m 0 2 % % % 1 1 1 4 q q 3 3 % % 1 2 1 1 4 e 3 % % d w 3 0 m C d q f 4 < < < < 2 2 @ 4 6 4 4 6 5 f 6 5 5 5 4 4 4 < 3 4 1 4 6 k f 6 w 4 4 < % % % 1 2 3 4 % % 1 a. XZ.a.Z.+X|.N e q d q d d 3 d V d i.A.V.j.a.V.C.U 1 q d 5 w m d / XX|.B.B.B.Z.+X:X,X:X=XoXiXaX%XOX+X>X,Xm.q.S.c.w.9.9.=X>X+X+XOX+X>X@XT M l V l w w e e d e a.XX#X+XOXoXOXN.=.r.-.m m S D l k y 2.;X*X;XT.oX:XK.G <.<.;.=.o.K.;X@X9X#X+X:XU.:.| n c c c c c F <.e.E.9X#XY.U.Y.T.K.&X>X,X>X:X:X#XoXP.P.D.l.@X:X;X*X:X*.b y 7 9 b G.J.O.8 7 6 y y 5 4 5 6 5 3 & # * 3 2 2 1 1 % @ $ * @ @ 2 * * * 0 q c c x v v v B v.G | F M x M F x z x 8 ",
"U.U.L.L.K.K.K.K.U.U.U.U.Y.Y.U.Y.E.Y.L.L.L.L.L.L.L.L.L.U.U.Y.Y.Y.Y.Y.Y.L.L.L.L.L.L.L.E.E.W.$XW.@XW.E.E.@X@XW.W.W.E.E.U.U.L.D.D.m.D.D.D.D.D.K.K.L.L.U.L.L.L.K.K.K.f.Y l S N q q h V f 2 e e h h m h 0 t U ~ 3./ U U h g h r r r r r r e t ; * - - & o o o # o o # & * & # + & & # o o # X . . . o - ; r U U R 6.-.m.6X=XM.=.F =.Y / pX#X7.Y =.K.oXU U W h h e * * 6 z G A y.!.R.G.dXwX9.vXKXLXzXVXLXKXvXM.Y.>XSXCXAXSXSXAXAXpXT.>XP.7.T.OXC.C.:XMXAX>XCXZXuXK.&.} y.`.dXvXeX<XxXxX-XsX-.G ;.;.$XfXnX7X<.y.y.G.5XJ.<.O.v < + < a ..+.@.@.@.#.@.@.@.7X'.).yX(.<.<. .} y.(.<.z 6 x t.H.o.7 , >.J.Q.Q.F f f c y.`.S.Q.tXtXQ.U.6X;.q e U 1.-.Y ! ! =.Q M D T ;.w.6.F z l l z M z z z z M &.<.:.A 9.9.G 6.c.w.9.9.r.;.T 2.2.d 3 d Q N.N.N.8.! Y m Y d q q f f q h d d m d 3 q d q 3 3 0 N d % % 1 4 2 2 e 3 % 2 1 1 1 1 < 1 1 2 5 q 6 3 1 3 5 2 2 2 q 5 3 4 4 4 4 2 0 3 1 2 2 2 2 % 1 1 1 4 4 0 d q 2 3 q q d e q d d d f 2 1 4 % @ < @ < 5 5 4 w 6 4 1 4 5 < @ @ % % @ 4 1 < 6 k 6 6 6 5 4 4 1 2 2 3 0 2 1 4 1 2 2 a.|.B.a.Z.XXV.f w e e e d d 3 d m d N.C.V.V.C.|.|.U q m m w C N a.XXV.B.a.s.V.XXP.M.1.-.0.f.,XgX,X;X>XiX;XD.v.m.c.F.;.&.M.%X+X#X-XOX;XK.D M M M M V w 5 3 w q p.+X:X#X=X*X<XN.Z C M f M V d w S T g.>X,X*XoXY.;XY.G y.y.9.r.r.E.;X@X;X#XoX:XD.X.n 8 6 8 c A A F $. .D.#XT.$XY.M.Z.M.oX@X@X$X$X$X:XY.P.P.K.D.Y.@X@X=Xf.v 8 c v { ..t.O.[ [ 9 b { 9 9 s } O.[ 9 9 7 7 k x x 6 7 7 < @ 2 % @ 2 * * 0 N T | { v { } *.o.G.G.;.G z S l B x 6 y y ",
"U.L.U.L.L.L.K.K.Y.U.Y.Y.Y.E.Y.Y.E.E.Y.Y.U.U.U.L.L.L.L.L.U.U.U.U.Y.Y.L.L.L.L.L.L.U.L.E.W.@X@X@X$X@X@X@X@X@X@X@X@XE.E.U.U.L.D.D.M.D.D.S.S.D.D.K.K.L.L.L.K.L.K.K.K.D.R l l d q f V m 3 1 e e h h N g t N U U R R U R U h h g r r g 0 r 0 * ; 0 0 r - & # # & & # # & * & # X o o o X o # + o o # & h U U R U ! 7.1.$XzX9XdX9XY.M.C e &X0Xg.7.=.=.p.^ / V./ L h t * 2 M 2.J r.v.J.v.H.H.t.NXHXLXaX>XvXmXrXR.U.R.zXwXwXzXvXGXSXiXK.cXvXsX2XaXVXSXVXMXzXY.AXLXLXvX~.v.e.J.6XwXdXsXAXaX;XvXU.;.$.{ b.b.(.b.v 6 n ,.I.R.>.G 7 7 = @ 6 G +.+.+.@.#.+.....].'.rXnXJ.t.n.u.} { u.O.p n >.J.v.x $ $ <.H.w.tXE.L.;.Z e.J.Q.Q.rX8X).q.w.H.| q N 3.7.-.-.Y D D M z z F r.9.e.:.M l z D Q F G z M F :.<.G $.;.:.9.c.e.:.=.;.9.-.;.2.Y Y R V 1.d.N.d.! R Y V e 1 0 e f h h d d m e q d q q q e e m q % 2 q d 0 0 q q 4 1 < 4 3 q q 3 1 1 2 2 1 < 3 w w 4 1 1 4 3 3 5 6 q q 0 e q 2 1 1 2 4 4 3 3 q q 3 2 0 q 4 3 e q 0 q q d d d w 4 3 3 < < < @ < 7 5 6 6 < @ @ < < @ @ % < < % 1 4 6 6 4 4 6 4 5 4 4 4 % 1 3 1 % % 1 % 1 1 a.V.B.V.Z.|.h.q q q q e q f q d d d A. XV.C.XXXX XR m m d d f i.+XC.V.C.|.C.V./ m T ;.| 6.L.iXgX2X>XsXaXiXF.w.e.w.F.S.r.N.XXXX+X;X;X,XM.S S M l M T G Z C Z l M.#XOX;X#X*X>XM.z z l D M m m d M S p.0XpX0XOXP.+XK.G r.:.A n G K.#XY.oXoXY.@Xw.| v x c v c A c z B c f.#XT.:X$XK.T.M.:.:.&.F G &.e.*.&.| A B F X.*.| b 8 7 7 v { t.6XE.{ 9 { $XE.v 9 n Y.Q.{ 9 9 8 7 a v v p 7 7 < 7 3 1 # = * 2 q M $. .v 8 a v X.>.y.R.q.&.Z S l M k 6 p x ",
"U.U.U.U.U.U.L.U.L.Y.Y.Y.E.E.E.E.@XE.E.E.Y.U.U.U.L.L.L.L.L.L.L.L.Y.L.L.L.L.L.L.L.Y.Y.W.W.@X@X@X$X@XW.@X@XW.E.E.E.E.E.L.L.K.D.D.D.D.D.m.m.M.D.D.D.D.D.D.K.K.K.D.K.D.! l 6 q q d V V f f h h N h N h U U U W ! R U W L j h g r r g 0 0 - - 0 r ; & - * + + = = # + # & & o X o # O # # & & O # r r E / E U 8.W.*XK.:XdX;XcXAXvXAX,Xg.XX&X#XOXC.d.4.U W i./ W W h e 1 k w.:.9.e.H.v.O.+.8 O.v.vXVXmX6Xb n r.:.<.tX6X5X6X@X9X9XW.Y.aXAXJXFXvXSXFXFXAXmX<.6XvXDXAXdXtXU.6X).E.aXgX*XE.$XwXrX6X .9 +.{ +.X.K.:XQ.O.b.`.G.B @ % @ $ 1 e } { { { { { [ [ b.v.8XNXJ.<.y.G.e.*.y.v.>.S.R.6XQ.<.p 8 e.Z p v.J.5X| 8 o.G.R.!.$X).J.} a /.v.3 * d Q ! ! S D o.Q T &.=.5.r.w.m.e.;.Z D &.&.F Z T =.:.9.G c o.<.G.G.,.} | r.k.q.f.d.=.8.p.3.8.d.N.M.p./ 8.~ 0 2 q h f N 0 4 3 q e q e d d d e e N d q d d d e h d e 3 4 d m q w 5 5 1 2 q 3 2 2 q N e 5 2 % % < 5 f f w f e d q q 2 5 q w d l l d q * * 4 3 2 4 0 0 1 4 d l q q q 3 4 2 1 5 4 < < 5 6 6 6 1 < 1 2 4 5 5 4 4 3 < 3 4 4 < < 5 w 1 5 6 5 < % % 2 @ @ @ % % 1 3 a.C.V.V.Z.Z.j.0 3 3 3 q q q q q q m C.+XV.C.C.V.|.R m e 4 4 N T.C.A.V.|. XV.U N d z ;.| $.k.sXvXxXaXsXaX0XF.S.9.e.S.F.G.K.OX&X+X;XOX,XN.Y Y V f z Z | G F *.| @X>X:X,X=X#X>XT.Z k f M m d d m M M 6.>X,X,X+XT.+Xd.v | G x v G K.#XoXoX@XoX@Xf.*. .A | n n x x 6 x z 2.#X#X#X#X@X#XY.<.X.n n c G o.| >.O. .G G n n H k 8 9 7 9 a ,.9X$Xo.{ e.wXwX| 7 b $X$X} 9 9 { s {  .{ p 7 8 6 8 x 5 * = * y k S | v 8 8 v { O.>.e.U.q.Q =.D m 6 x x p x ",
"U.U.U.U.U.U.U.U.L.U.U.Y.Y.E.W.W.R.E.E.E.R.R.U.L.L.L.L.L.U.U.U.L.L.L.U.U.L.L.L.L.K.U.Y.W.W.$X$X$X@XW.E.E.E.Y.Y.Y.U.L.K.K.D.D.D.M.D.M.m.f.f.M.D.D.f.M.M.D.D.D.K.L.L.-.M f 4 e N S V V N h C N h h U / / R ^ / U h h h j h g r h g & ; g 0 r g 0 & & # + + & & & # o o X X X o # # + + & - o & L j N U N U 8.oX9XL.m.m.$XeX9XhXFXMXsXsX,XOXOXC.Z.Z.a.8./ ! Y / ~ N 4 d m.v.v.v.G.y.o.n 8 s +.(.yX8XO.7 G 1.&.&.$XrX6XwX6Xf.4.9.oXuXvXJXJXxX1XaXLXKXAX} @.y.F.mXDXvXrXnXH.D.ZXVX@XqXQ.<.6X7X>.p X.y.b.$XFXKXdXt.t.G.G.:.5 w 1 2 e d K 6 7 7 8 8 8 [ @.+.J.lX`.J.F.$XW.!.R.6X6XQ.6XkXzX6XR.y.H.} o.I.H.8Xk. .X.<.v.(.b.y.O.a 7 <.J.w + @ d =.9.T T ;.r.r.r.:.r.9.S.D.G.!.D.q.0.0.;.;.:.9.9.y.:.A G :.S.e.G n G 9.G.S.m.6.6.D.K.M.Y.M.m.N.g./ 8.! q 2 = 0 q f q d M m q 3 3 q e w q q m m m V m d m m q 5 4 m S d q 3 < 4 4 w l q 5 w d m m d 3 2 2 5 f l d w l l e e 5 q V l w m M S d 1 % 1 4 3 q 4 4 * * 2 f m f q 5 % % 1 4 5 3 5 4 f w 5 5 5 w l 6 1 d w 6 6 w 5 4 3 4 % 1 w 5 5 4 5 4 1 % 2 * @ $ + @ % 1 0 B.|.B.V.V.|.h.e 1 4 1 4 3 3 w 5 3 f N.C.B.V.C.B.A.V 4 4 4 f a.+XZ.|.B.B.C.h e d q M Q :.Z ! eXxXgXaX0XsX0XD.S.S.w.S.G.F.@X;X+X+X;X%XOXg.V Z Z z S B F H Z | o.Y.uX:XOX;XT.=XM.M q 3 f f l m m z C f.;X:X,X*X+XOXg.c G H x c } E.#XU.oX#X*X*XD.:.>.G G A n A c 6 z x =.Y.Y.@X@XE.$X#X<.F Z x } X.X. .x 8  .<.,.{ } b 8 9 8 8 7 8 O.6X~.t.{ +.t.,.a 7 b E.W.{ 9 a { b a { } v p 8 c b a c k 3 4 k z T A a 8 v v  .} } e.W.G.A M M l 5 6 p 8 8 ",
"U.U.U.R.U.L.L.R.U.R.E.E.E.E.W.W.E.E.@XE.E.R.L.L.L.L.U.U.L.L.L.L.L.L.U.U.L.L.L.L.L.U.E.W.W.W.W.@X@XW.Y.Y.Y.Y.Y.Y.U.L.K.K.D.D.D.m.m.m.f.f.f.f.f.f.f.M.M.D.D.K.K.L.K.6.S f 4 f V V V Y N h N N h h ^ _ / R / ~ h h h N h h h r r ; & ; h L P h 0 # + + + + & # + & & + X . # - & # = - ; ; & - P U U U W 3.d.f.q.2.=.;.6X6XP.#XmXDXAXcXcX1X3X-Xj.h.0X,Xa.g.8.1.! Y l f z :.v.<.o.| n n 6 7 s 9 a p 7 6 Q Q e.e.D.rXQ.W.tXq.:.F 7.oXdXFXJXFXaX6XSXLXGXX.[ s a 6XGXSXAXNXu.S.LXLXxXhXK.1.g.H.>.p } y.I.~.JXKXMX).H.t.v.y.T 0.7.R q q 3 @ @ $ $ @ 7 k <.H.).H.u.y.H.6X).(.).'.`.t.<.).zXrXrX8XyX(.`.H.b.lX6X).y.,.t.(./.b.{ ..9 a ,.u t % 5 N T =.=.2.S.F.S.e.w.e.w.!.Q.R.U.U.K.D.D.9.q.0.e.w.5.:.9.w.J.:.n A | e.y.q.S.2.T L.L.L.E.f.m.d.a.p.8.! d q q q d V m C M m d 3 4 3 q q q q q q m N C U V C m d d V S d q 2 4 6 d m m e e l l m m m d q q d m l w l V C N d f V Y d w w 6 w f 2 1 2 q q q f 1 * 1 3 d d q q 3 % % 1 4 3 3 5 f 6 f l f w f f 5 < 3 5 w f 3 < 4 f 6 % % 6 w w 4 < < < < % % % @ % % * % % s.|.B.Z.Z. X|.h 2 2 0 q q 3 5 3 1 5 a.C.C.Z.Z.|.XXR 5 w V ~ Z.C.V.h.s.A.a.q d d d C J ;.G Y #X>XaXpX>X1X0XU.F.S.0.;.9.m.Y.>XOX+XoXoXOXg.V Z f l M T F H Z G | K.:X*XOX@XOX*XL.D 5 3 0 m D S l C T D.;XoX#X*X#X>XZ.A G n x k A D.oXP.+X$X*X$XM.r.:.c A n n | k 6 z x S U.K.Y.$XoXY.oX;.B $. .X.>. .a 9 7 v <.v.<.o.F v 8 8 a 8 8 >.6X6Xt...{ n c a 8 $.$XQ.{ a 9.9.,.n b { A :.G Z 2.:.G x 8 p | &.;.c 8 9 x $.5.c x S.L.v.z V =.Z 5 6 p M Z ",
"E.U.U.E.U.L.L.E.E.E.E.E.E.E.W.W.E.@XE.E.E.E.R.E.U.U.U.U.L.L.K.K.K.K.L.L.L.L.L.L.L.E.E.W.E.W.Y.W.E.Y.L.L.L.L.L.L.K.K.D.D.D.D.m.f.m.f.d.d.d.f.f.f.f.D.M.D.D.K.K.L.D.-.M f 5 d R m d V V d h h f f ^ / W U ^ ^ h h U U h r g r r 0 ; r g g h r ; + # & + & ; * & - & & # o - r & o & - - 0 & & U / 1.! 1.d.m.m.d.4.D C 2.&.$.L.$XrXdXqXqX>XuXuXP.! K.L.f.M.d.! Y M m f 3 M &.Q Z G S Y r 2 6 7 2 % % 4 ! 6.H.J.e.E.r.o.F.r.-.R / i.Z.-XMXKXfXu.dXAXDXH.<. .{ b.nXMXnX7X .&.fXAXvXGX9XoXvXjXk.c A w.y.<.6XrX8XtX7X(.v.).*.*.H.5.5 0 e 1 % % 1 % 6 l q 7 y.b.t.>.y.7XJ.y.H.y.+.s a y.8XtXtXyX7X).'.H.n.rXdX8XJ.t.t.(.).H.O.t.} 9 } G U d d e l Y Q ;.;.G.Q.F.H.G.G.F.R.W.W.E.W.W.U.D.q.w.f.w.;.;.G.F.J.| A &.&.;.r.;.=.S x 9.0.f.E.L.M.7.3.p.7.~ m m h f d V q d d l m q 5 q q q 3 4 4 3 q m d d m C V m f d e q q 3 < 5 d m M M m m d d d d l m d l l l d M M m V M q m e 6 f 5 4 5 w l q q q f d q 1 % % 4 q f q 3 3 % $ $ @ 4 q d l 5 f M f 5 6 5 3 2 1 2 1 1 % < 2 w 5 < 4 w f 6 4 4 1 2 < 1 1 % @ % % % @ @ s.C.V.C.V.|.C.h 3 q f h C d 4 < < 5 g.+X|.C.Z.XX+X1.V Z R ! Z.B.B.B.V.|.~ 4 d C d C Z :.2.M.#X;XiXuXuXiX*XD.S.f.w.:.-.2.g.OX+XoXK.C.+XV.C l 5 6 C D =.o.A A o.m.*X=X*X@X=X0X@X-.C M V Y D C C G =.U.OXP.Y.@X+X;XA.A o.} c x A d.oXK.oX$X$XoXf.*.X.G } } n o.k 8 Z c c D.OX$X$XoXoXoXd.y b  . .v a a 8 9 9  .y.t.<.>. .v 8 v x 8 *.6XW.,.b X.W.W.>.} o.Y.L.e.R.=X:X*Xm.} { 9.@XM.D.,X*X,.p 7.XXOX@XOXD.B v n 9.@X8.q.0XeXS.=.#X,X2.M M C Y.@X",
"E.E.E.E.E.U.U.E.E.E.E.W.E.E.W.W.E.E.E.E.W.E.E.E.U.U.U.U.L.L.L.K.L.L.L.L.L.L.L.L.L.E.E.E.E.Y.Y.Y.E.Y.L.L.L.L.L.L.K.D.D.D.m.m.f.f.M.f.d.d.d.f.f.f.f.D.D.D.D.K.K.Y.K.4.l 5 q N R d q V V e t 0 2 0 U ^ ^ ^ ^ ^ P h P h g 0 g g g r g g g g g ; - & & * # ; g ; & * * - - - ; ; # o o # - r - & U s.d.p.3.p.f.f.D.d.Y d Z w G G.!.!.G.5.g.h.|.1X#Xw.r.7.g.g.p.=.R D R N d ! Q Q Y M d M 3 % m 0 * + * f 2.S.w.6XI.H.*.B 7.Q J 8.j.` ` _ *XGXtX[ H.tXqX6X).G.,.y.6XrXNXI.$.z y.Q.9XGX0X|.VXDX$X-.n } t. .y.u.b.).H.b.G 8XJ.&.k.H.r./ i.3.i.h.a.f 4 = @ $ X.'.8X6X5XrXtXG.G.y.o.9 7 8 t.`.6X8X).b.(.(.b.tXNX7X(.b.<.(.7Xb.<.<.y.x x &.R U N d w M R 2.F r.v.v.H.Q.J.Q.R.R.W.U.W.=X$XE.K.K.m.f.9.e.F.F.9.z A 9.y.;.r.:.T Z z $.=.;.F.R.U.d.3.1.3.R h h h d C C 3 q m V U m 3 1 4 q q q q d d e q d m m f w 3 4 4 3 q q 4 2 q e l C m d q 5 q q e w d V M B M m d f f f q q 3 w l w 5 4 5 d w f q q d 4 2 1 % % q 3 1 2 1 @ $ $ $ % 3 f 5 5 w f 5 6 6 3 5 2 1 3 1 1 % < 2 6 5 6 6 4 3 5 6 6 < % % 1 1 % $ % % @ @ % a.|.V.XXZ. XB.h e m C Y D l w 4 < 4 N.+XC.V.V.A.C.! m l e N a.h.h.V.|. X3.3 q N d l F &.0.9X,X+X>X0X,X>X#X0.2.9.m.9.=.=.d.OX+XXXZ.Z.+XZ.C l 6 k z G &.o.A G <.D.@X@X@X*X;X>XeXK.-.=.~ 6.=.F F T 7.#X#X@XY.Y.Y.;XZ.o.o.o.F n } f.OXP.Y.@X*X*XD.| A F G } A | A z G A A =.OX+X$XY.oXoXoXT y n  .a 7 a { a 9 } t.t.<.>.o.{ v n A n X.$XR. .v >.6X*X*.c :.~.W.$XD.;.m.;X9Xw.{ c.;X@X$XOXY.o.p m.7.z z f.:XG.v  .L.oXP.@X>X9Xf.=.#XaXK.Q G 1.,XK.",
"E.Y.Y.E.Y.Y.Y.Y.Y.Y.E.E.W.W.W.@X@X@X@XW.E.E.U.U.U.U.U.U.U.L.L.L.L.L.L.F.K.K.K.L.L.Y.Y.E.E.Y.Y.Y.Y.L.K.K.K.K.K.K.D.D.D.D.D.D.D.D.D.M.f.d.d.f.f.f.f.D.D.K.D.K.K.U.U.0.H f l M V d h U U h j g r h E / / / U U h g g g g g g g L h E ^ P g g r r 0 0 - r g ; - - 0 r r r ; r g g g g P U P h g h U U j j V ! -.&.J S F f.9.2.G.S.f.F z F Y p.&X>X0X1X#X6.-.R U U ~ 4.h e Y ! ! ~ M d &.m % + . . & g f 9.).9.F.R.r.D k D G $.! ( ` ` I p.8Xt.O.(.,.7 *.7X).b.n.b._._.>. .b 9 H.I.7X+.s @.@.9 7 y y z | X.[ 9 v.v.<.7 t.v.| ,.).6XtXrXrXrXzXzX6XY 2 $ 7 J.yXrXfXfXdXnXkX).`.8X6Xv.o.O.H.).`.(.t.t.@.n.u.lXyXQ.`.J.`.'.t.b.b.(.(.<.*.R R Y Y C D S D C V -.=.$.q.D.G.S.S.F.U.U.K.K.U.U.U.D.K.9.r.G.c.z 6 x S.G.9.*.:.;.&.T 2.c.e.D.F.D.p.7.~ ! R N d M S Y V C Y ~ R N e q q d q q q q 0 0 5 q d 5 3 5 f q 2 % % 1 3 w q 3 4 q m l d q e w q w w q q d d w 4 1 1 7 6 q 5 5 w f k l w 5 3 q q q 5 q 3 @ % < 2 4 4 3 q 3 3 1 @ @ 1 5 4 4 5 5 6 6 k f 4 1 @ @ 2 < < $ $ $ @ % 4 6 % < 6 6 2 1 % 1 * % $ % 0 e 4 1 % V. X|.XXC.XXV.m C V C m m d w 3 4 5 s.A.B.V.a.h.V.N % @ % f Z.B.h.V. X|.Z.h h 4 q d D =.$XeX,X;XXXoX*X;X;Xp.=.-.2.1.&.;.d.#X;X;XXXXXXXoX! C G G &.| z n n o.>.w.$X;X#X=X*X#X:XY.1.Q Q J F J T Y =X=X*X*X=X=X*X>X@Xr.*.| :.c A M.#XY.oXK.@X:XM.o.| G } A c A >.*.,.*.A l d.#XoXE.E.oXP.Y.B 8 { [ 9 { n { 8 X.X.*.>.X.O.+. .G n b o.U.Y.&.x r.@XT.o.v | @X$Xk.b s v L.>XY.o.e.*X@X-.M } A x p p p M e.;XE.c n m.+XP.=.Y V =.M f.fX0X5.} oX;XQ ",
"@XY.Y.W.W.Y.Y.Y.Y.Y.W.W.W.W.@X=X$X@X@XW.@XE.Y.U.U.U.U.U.U.U.U.U.L.L.L.L.K.K.L.L.K.Y.Y.Y.Y.Y.E.E.E.L.K.K.K.K.L.L.F.G.D.D.D.D.D.D.K.D.f.f.f.m.m.f.k.D.D.K.D.K.L.U.E.M.R N V U R W ^ / / E ^ E U E / E W E h h h h g g P P P h L L P P g g L g g r ; & ; 0 ; ; ; r r r g r r g g P E ( W j U E h h P g g t Y =.F $.F 9.Q.S.e.,.,.e.X.c G Y g.#XuX9X$XD.Q ~ N h V ! T q 4 5 f M M M y M l + X - ; ; 0 @ C Q.>.v v 7 6 w d l B M m ) B.P.rXyXt.4.d.W w :.yX(.O.@.t.u.O.a p 6 7 e.$XH.9 7 v z % 7 A | Z n v s a lXNX'.9 9 A x v y.m.F.6XrXrXtXrXtXD.R w %.).7X7XtXzXdXqXrX8X7X8X8X).R.J.`.7X7X).t.@...t.[ (.8X6X`.`.'.'.>.<.,.,.b.v.e.;.7.0.&.V R ! 2.0.f.S.0.=.r.<.e.D.G.D.D.q.6.m.D.U.K.m.F.0.;.e.&.Z Z G S.G.&.c z D Q D &.w.w.F.F.I.f.d.! ! U h l V Y ! R ~ ! ! V N d m U m f e d 0 4 4 d m d 4 1 5 d l q 4 2 1 4 5 w d q w m d 3 q w d l l w q d e w d 5 5 3 % 4 5 5 w z M l w q q 0 4 3 3 2 2 2 % 1 1 3 5 3 5 q w 5 2 1 1 4 6 5 5 5 5 5 6 w 5 < @ $ @ 2 1 < $ $ @ @ % 5 6 < 4 q 4 % @ @ @ $ @ + % 0 e q 2 % V. X|.C.|.XXC.U V C d q q 3 5 5 4 f a.|.A.V.V.V.C.C % % 4 f Z.B.B.|.|.B.C.Z.U 2 3 m 1.+X0X>X,XOXT.XXoX+X%Xp.6.q.0.7.0.6.q.:X%X,XOXXXXXOXM.Y S z G S S H G :.>.;.=X;X#X@X=XOX=X@XN.! -.Q Z C 6.T.:X:X9X=X*X0X0XpXY.:.;.G :.A G M.;X@X@XY.@X$Xf.*.*.| *.| A A | } | | c x S Y.oXE.L.oXL.P.D.$. . . . .b { { A e.K.*X9.}  .} n n v b L.U.*.c :.#XXX&.c o.#X=XA a 9 7 >.:X=XG <.9X@XH c b { n A d.oXXXZ.+X$XZ x q.+Xg.$.A w l A | 0X>XT Z :XZ.x ",
"@X@XE.@X@X@X@X@XW.@X@X@X@X@X$X=X$X$X$X$X$X@XE.E.Y.Y.Y.Y.Y.U.U.U.L.L.L.F.K.D.K.L.U.Y.Y.Y.Y.Y.Y.E.E.L.L.L.K.K.K.L.F.F.G.D.D.D.D.D.L.D.M.f.M.m.m.f.D.D.D.K.D.K.L.U.@XZ.i._ i.h.i.) _ h._ _ h.h.) ) ^ U U E P U U P P P U P L g g r r g ; r L L g g ; - ; r 0 0 L P P P P g ; ; 0 g E U h j ^ ) / _ a._ / h m m M S G ;.<.o.n b { O.} p v 8 F G.Q.S.k.A x d e h h q e 0 * 4 = = = = * 4 0 0 r E _ C._ r * Z 1 @ % * t 0 % % % $ $ @ l <./.@.a $.5.5.B $.6XH.n n  .o.o.A z x 7 } J.y.9 7 n m f M F H v a a a a (.'.(.X.v }  . .B 6 F J.6XQ.Q.Q.Q.).J.| <.t.t.b.(.yXnX6XJ.7XQ.H.H.y.H.Q.tXwXtXH.X...{ ..7 >.).'.7X7X8X).v 7 8 $.H.(.J.e.9.D.S.d.q.q.F.Y.K.f.f.:.A F G <.e.9.6.0.2.-.1.D.D.D.D.c.;.;.| ;.e.=.=.e.r.&.G G &.Z z :.S.R.R.R.D.K.m.d.U d l m V m M Y R Y m N U R V d h m d 0 4 3 V Y w 3 q l m m q q f q e d M d 5 w d f 5 d l d q w l m m l q q 5 d l 7 4 5 5 5 l S Z z l e w 5 w w 3 5 3 5 5 1 4 q d w 4 1 5 5 3 4 6 f 6 5 4 3 5 4 < < @ @ $ @ 5 6 4 $ $ @ % < 5 4 < 4 3 @ $ $ $ $ + @ $ % 3 4 0 2 2 V.|.|.C.Z.|.C.U C C m q 4 2 2 3 1 < a.|.V.B.V.V.C.Y q q f d _ C.V.C.V.h.Z.OXXX8.8.V.XX;X>XpX:X#X+XOX#X+XOXp.1.7.7.-.=.&.6.;X,X;X;X+X+X+XOXZ.1.! ! Z.M.Q o.&.<.*.E.=X#X9X:X;XOX*X:X*XW.*X#XY.@X@X#X0X0X=XOX*X:X9XK.| | G &.&.;.D.;XY.P.@X*X*XD.r.,.>.*.} } | *.*.G n B b n $.$XoXK.L.L.$XY.@XE.Q.Q.R.H.k.L.L.6X#X:X$X*. .b v x 8 c Y.U.o.v &.@X+XF x } @XK.v 9 7 , n OX@Xv X.:XY.A G c v c Y.;Xd.l D oXoXM 8 q.;XM.| *.Z l z c M.iX7.1.#X-.x ",
"@X@XE.@X@X@X@X@X@X$X$X$X@X$X$X=X*X*X=X=X$X@XE.U.E.E.E.Y.Y.U.U.U.U.U.L.L.K.K.K.L.Y.Y.Y.Y.L.L.Y.Y.E.L.L.L.L.L.L.U.I.I.L.F.F.F.F.G.L.D.f.f.M.M.M.f.D.D.D.K.D.F.L.U.U.C.B.B.B.|.h.` B.|.B.h.h._ ` ^ ^ ^ ^ ^ U ^ ^ ^ E ^ E g g r r r P E L P P P L I P P ^ ^ ^ ^ ^ ^ ^ ( ^ ^ P L P P E U j g g h U ^ ^ h j j m 5 < < 7 l z l n v p p 2 5 x @ @ 6 v n W Y 1.3.E ( ( ( _ .X.Xh.) ` ` _ B.B. X XB.B.|.1XxX,XZ.D.A. X-X3X3X.X|.` E g r % < % % @ @ 7 v t.t.v O.t.{ s [ s { { a v 9 [ b._.y.z % @ 7 7 < < 7 9 9 7 , 8 a o.b.y. .v c M < 2 c ;.| G <.e.y.n.<.t.O.@.[ +.u.(.).H.'.).R.H.G.H.R.6XdXrX7Xb.t.X.+.7 v I.).7X`.'.b.X.9 8 ,.H./.(.y.5.0.y.f.-.! =.=.T z 5.k.y.e.} z p x D r.6.-.Q m.m.m.q.F.w.&.A | y.9.G =.w.w.;.:.:.:.c G 9.w.G.F.D.m.q.d.U f M M l d l m S N h d C C N V N d e d d m Y D f 3 d d f m d q h h m m l 3 2 q m d q d m l w d l m m M w w q e m 5 4 5 5 4 6 M Z M M l w l M f 5 5 w l k 4 1 w d 3 % % < < 6 6 4 6 5 4 1 1 4 < % @ < @ @ < 6 5 1 $ @ 1 < < < @ @ % % @ $ + + $ @ 2 1 2 0 1 2 2 3 V.C.|.|.C. XXXR C m m q 4 1 2 3 1 < a.C.V.Z.V.C.C.~ d w w 5 h  XC.B.V.Z.Z.C.Z.C.|.C.+X-X>X*X:X*X+X+X%X+X,XV.R S S Z Y Z Y V.,X+X;XOX%X;X-X,X;X#X;X,X;X2.=.&.:.:.w.>X>X9X9X,X;X>X0X0X,X>X>X=X+X#XoX@XpX9XXXXX$X:XU.&.Z A &.| &.U.:XP.T.$X*X*Xf.| X.G } | >.*.*.| c n | |  .x 9.#XY.L.$XqXqX9XwXjXwX9X9X:X#X+X#X*XoX*Xe.n } c 8 8 n @X@X:.n :.@X+X| p Z Y.Y.v 9 7 < -.,XY.6 x +XK.v p 8 7 ! *Xq.6 7 Q oXg.w y 6.#XK.z z | S z Z =.,XY.XXM.z z ",
"@X@X@X$X$X@X@X@XW.@X@XW.@X@X$X$X@X$X=X=X=X$X$X@XW.E.E.E.U.U.L.L.L.L.L.K.K.K.L.U.L.U.Y.Y.U.U.L.L.K.K.L.L.K.K.L.U.L.F.F.L.L.F.D.D.D.m.D.m.D.K.m.D.M.S.G.G.m.K.L.K.N.N.h.B.|.A.B.B.A.A.A.B.h.h._ ^ ` _ _ ) ) _ B.h.i.s.s.) ) ) _ _ B.B.) ( / ^ ^ / ( _ i.i.i.s.a.i.i._ _ h._ / ^ E ( ) ( ( / ( _ B.( U U C U h g 0 % + + @ 4 4 < 5 q / XXh.i.h.Z.V.|.3XxXxX2X2X3XgXgXxXVXVXxXxXVXVXxXxXZXxXxXsX2XxXvXvXcXgXVXCXSXFXFXSXZXZXIX3X3X-X XB.) U U d 5 6 p J o.<.y.O.,.:.b x n n 6 < 9 ,.J.G.S 4 q f @ x p < 7 < @ @ 7 v v.H.>.6 6 6 4 5 < 6 7 < 7 x <.y.e.v.J.n.@.#.+.u.n.u.'.tXtXrX7X).J.H.kXnXrX`.`.b.+.7 { y.J.`.'.).v.v.X.>.t.n./.'.>.H T -.R l < $ @ 5 l =.w.v.S.y.c < 5 =.f.q.6.6.q.q.d.q.L.r.Z F z *.e.F ;.S.k.w.r.r.q.;.F Z Z ;.w.w.-.2.7.V d m f d l l m C d f 4 f f h V C d q 3 q D D M d m Y M l l m d d d d 6 q 3 3 q d m m f H V m m d w d l q e q q q 4 2 4 1 < 5 w 5 5 k f l S C f w w w f 6 6 5 6 f 5 < < % < 6 4 1 4 5 < < < < < < < < @ $ @ 4 6 < @ 5 4 5 5 2 1 % 7 5 < < @ @ @ @ 2 1 2 2 1 3 0 0 h.Z.Z.V.C.XXXXN d l f q d q 4 3 5 q a.V.V.V.V.V.Z.U 3 q e w 5 D T.V.V.B.V.Z.h.Z.A.A.%X;XY.8.OX>X;X&X+X-X>XZ.D m l Y V S -.7.;X>X,X;XOX+XOX+XOX;X>X:X;XN.;.:.:.w.f.$XzXsXwXwX$X;X;X0X;XOXOXOX,XY.M =.<X0XT.P.oX*X$X*.v c n c A L.9X#XP.oX*X$X9.F *. .c | X.| | A n G n | A x c ,.E.,X~.6XtX6XtXqX$XoXY.Y.U.K.Y.#XoXoX:.c } A y 8 =.@XT.&.n 2.#X+XT v D K.C.7.8 7 8 K.<X6.8 M XXf.c 8 8 6 2.$Xe.7 d V.V.a.5 8 ;.oXZ.c k k M D M Y oX,XOX1.Z M ",
"@X@X@X$X$X$X@X@X@X@X@XW.W.W.@X$X@X@X$X=X=X$X$X@XW.W.E.E.U.U.U.L.U.U.L.L.K.L.U.U.Y.U.L.L.Y.Y.L.L.K.K.K.L.L.L.U.U.L.F.L.U.L.L.L.L.K.D.K.D.D.K.D.K.D.D.G.D.K.L.D.a.a.a.B.B.h.B.A.|.C.B.A.V.B.h.h.h.B.B.|.A.B.|.|.V.C.|. XA.|.+X%X%X+XC.B.B.B.a.B.s.i.s._ ( ( ^ / s.B.B.A.C.V.V.i.h.+X-X<X2XxXxXcXbXbXvXcXsXgXgX1X%XC.A.^ ( B.C.XX1X3XZXSXPXPXPXLXPXLXLXFXFXFXFXFXSXFXSXSXFXSXSXFXSXVXVXGXSXAXDXAXAXFXFXSXcXuXhXaXcXbXFXAXFXFXAXAXFXPXLXSXCXZXxXsX+X+XxXxXxXZXZXCXCXhX1X2XsX:XL.v.J.tXzXdX:X9X9X1.=X*XoX=X=XOX!.!.v.!.6XQ.e.;.F Z l y  .A 7 } v.7XtXR.F.R.J.v.@.@.+.n.@.t.H.).8X7XJ.b.t.).yXrX6X7X7Xb.} v ,.H.J.'.).(.`.J.H.t.O.u._.o.f ! Y N q w q * 3 M M F <.y.k.;.M f T 7.2.6.6.q.m.D.D.m.F y Z n G G x z k.H.H.G.e.:.z A A z &.w.w.&.2.8.d q d h d d l l l d q f C h f f q 0 q 4 q V m m l m C M C C m m l d w 5 w d e q q d d l f d w d w q f d l m w 3 < 7 5 6 5 2 3 5 < @ < l x z y 6 6 6 y f 5 l M l f w 6 6 < % 1 4 5 6 4 < 4 4 4 4 5 7 7 @ @ < 4 6 5 5 l w 6 5 5 5 4 5 5 4 2 1 3 q 2 2 3 2 1 q d 3 0 a.XX XXX|.+X+XW e l m m V M q 5 q d C.%XXX|.XX|.XX/ f q q q 3 1 N C.C.V.A.C.C.XX|.XX+X7.=.=.@XaXiX:X;X,X,XW.Y Z S Y V D Q 1.g.;XuX0X;XOX+XXX+XXX-X>X=Xd.T :.r.<.y.e.U.wXwXdX0X;XoXOXOX#X;X*XK.R l 9.,X>X=XOX+X>X$XT 8 y x x z L.*X#X$X:X0X9Xd.G &.| G } G c A G G A v v 8 9 a a b F.6XqXwX*X=X=XT.K.P.oXoX+XXXK.=.Z c v n F n v r.=X#XG n 9.:X:X=.b =.*X*XT.D.$.0.&Xf.A 8 B @Xf.6 8 { A =.*X@Xd.d.p.C.C.q 7 &.OXP.G S 6 x | x B g.-X+X! A G ",
"@X@X$X$X$X$X$X$X$X@XW.W.W.W.W.@XW.W.@X@X$X@X@X@X@X@XE.Y.U.U.U.E.Y.Y.U.U.L.L.U.U.U.U.U.L.L.L.K.K.K.K.K.L.U.U.U.U.U.L.L.R.R.U.L.L.L.F.U.K.D.K.D.L.L.L.K.K.F.G.N.s.i.s.B.a.s.B.A.C.A.B.V.V.B.B.B.A.A.A.C.B.B.B.B.V.B.B.A.V.Z.C.C.C.C.A.A.V.V.s.N.V.a.a.i.i._ ( / a.A.B.A.C.Z.@XZ.+XsXgXxXxXxXxXcXMXvXMXvXvXAXFXAXAXCXCXxXCXCXCXSXSXAXCXCXvXCXCXFXAXAXAXAXCXvXvXMXCXSXvXvXVXvXbXMXAXvXxXCXCXSXVXbXvXAXAXSXAXvXaX>XsXxXCXbXbXcXcXxXzXfXmXDXFXGXGXGXLXFXJXJXFXFXGXFXJXGXLXFXAXAXVXxXZXCXMXdXrXbXMXW.,XzXzXMXMXAXvXvXdXwXzXdX*X9XT.q.D x | <.{ b.`.rXNX6XR.v.v.v.n.@.#./.t...[ .._.'.H.t.t.<.`.7Xy.b.b.(.(.b.t.H.b.7X'.).`.).`.b.t.@.t.K @ m M N l F D d 6 z l M ;.G.w.e.e.=.-.2.-.-.-.9.q.L.L.=.l f M G z y w < $.H.Q.R.w.:.7 k Z &.;.S.q.0.f.7.m f d C d w f l m m N V U N h h N h d d h f f C d q q d d d d l d f w q w 3 3 3 3 l l f f w w w 5 q d d l m d 5 1 4 5 5 5 q q < @ < 6 k 7 7 6 6 6 6 z l w k z k f w 5 6 1 % < 7 7 5 6 4 6 4 6 6 6 6 6 < < 6 6 6 6 6 6 5 1 1 5 5 1 1 2 < % < 5 5 1 3 5 4 3 q q 3 e 3.i.p.s.8.a.8.m l l l d d m d d q q ! 7.4.3.7./ 1.V f q q 3 2 % * d i.V.C.C.C.XXV./ N C 2.6.M.@XY.M.Z.Z.K.d.T D T R V m m V V 4.K.=X;X+XXX+XOXXXP.N.! D G | *.X.>.e.G =.E.9X9X0X#XT.oXK.M.;.G F M =.Z.M.f.m.N.M.9.z y k 8 c A ;.f.w.f.L.Y.U.0.Z Z } } } G } } |  .} b v 8 a { { { X.y.F.E.@X$X@XT.T.oXT.M.q.=.6 7 8 z c n c c v G d.0.8 p &.D.M.G c | G.D.=.d.K.7.T c a 8 8 S z 7 9 c v 8 =.@XT.Z 6 8.7.M 5 y g.M.F H k u T G D N.>XN.Q G | ",
"@X@X$X$X$X$X$X$X$X@XY.E.E.E.E.E.Y.Y.E.W.W.W.W.W.@X@XE.E.E.U.U.U.Y.Y.Y.U.U.U.U.U.L.Y.Y.L.K.K.K.L.K.U.U.Y.Y.E.R.E.E.Y.R.E.E.R.U.R.U.U.U.F.K.F.K.U.K.L.K.K.L.m.8.i.i.s.B.s.s.B.V.V.B.B.V.V.h.h.B.B.V.V.C.V.s._ _ a.B.B.Z.V.V.V.Z.Z.A.N.V.A.A.A.a.C.Z.V.B.C.C.Z.A.A.C.XXXXT.;XOXOX0XwXrXrXtX9X9X*X*X@XE.m.Y.fXmXmXAXcXhXhXcXaXaXcXsXiX>X,X#X,XpXcX,XsXvXcX>X,X2X>X2XcXcXhXcXeX#X*X9X*X9XwXvXvXsXiXaXsXcXCXvXxX#XK.@XwXbXMXbXMXCXVXAXxXxXVXSXFXAXvXbXcXvXAXzXzXvXcXAXMXAXAXCXSXCXvXvXCXmX0XwXvXvXcXzXvXvXAXvXvXcXAXvXvXvXmXvXvXwX9X@XK.w.O.a +.!.eXNXwX6X!.v.S.v.@.#.b._.b.s 7 O.u.a k k 9 { (.@.{ O.u.u.u._.(.(.).`.).(.(.'.(.n.t.y.F 6 q 3 N C S 1.1.Q ;.5.9.S.F.G.w.G.S.0.2.q.q.m.D.f.D.w.k z G F $.x 5 l 2 6 &.*.e.S.G.k y 6 G =.S.9.S.M.1.m q f d d l m l m V U U N e g h f e 0 e d 0 1 q 3 3 q 0 q q d d d w q 3 4 3 q e d d d l l f d f 6 f d q w d q q 4 6 l 6 5 5 2 @ < q m 5 @ < 6 5 5 6 z Z Z z z f 5 6 f 6 6 6 7 7 6 6 K 6 6 5 6 6 5 6 k 6 6 k f k l w 5 1 7 5 5 3 1 1 1 % % 1 3 2 2 w d q 0 q e q e q 0 3 m d h m d f f d q 5 w d m q 4 2 < 4 4 5 4 4 4 w 5 4 1 + $ @ 1 e d U U N d 2 1 q M ;.q.q.1.D C C Y ! V Z C M C W V h m C Y R R ~ ~ ! ~ R R ! F Z S &.;.:.A n e.:.x G -.6.q.7.Y T S Z n v c Z D T &.o.<.r.F G c c z x v b 8 c G $.*.&.| | A c A  .} } X.*.,.,.>.X.b 8 v  .{ v  .o.} A | F Q 6.;.;.$.G G M 7 7 6 z x x x z k 7 , < < 8 G G c v o.| b } *.Z Z 8 8 x a 8 7 7 7 a 8 c v 8 8 A =.x 8 8 6 6 y 7 7 f n k 6 k Z B Y @X<XQ M z :.",
"@X@X$X$X$X@X@X@X@X@XY.Y.E.E.R.U.U.U.Y.Y.E.W.E.W.E.E.W.W.W.E.E.E.Y.U.U.U.U.U.L.L.Y.L.K.K.K.L.L.K.U.L.E.@XE.E.E.@X@XE.W.W.E.R.U.E.R.U.U.L.L.L.L.L.!.E.U.K.K.N.i.a.s.s.B.B.s.B.V.B.V.h.B.Z.B.s.s.i.A.|.Z.V.V.a.i.8.V.V.Z.a.a.N.Z.Z.s.s.V.A.V.A.N.C.T.Z.Z.C.C.C.C.B.C.;X0X,X0X+XOX=X@XM.0.-.=.-.7.M.y.9.&.5.U.0XcXvX0X0XeX=XOX=X>XpXaX*XK.N.K.Y.=X@XwXvXzXwX9X9XW.#X>XzXeX9XY.q.D.L.m.9.L.tXeX0X0XwX>XvXAXvXsX>XY.I.$X$XzXvXMXzXvXDXAXSXSXSXFXSXMXwX=XW.*X=X:XwXpXpX6XW.6XwXMXMXAXAXCXAXvXcXvXxXvXcXcXvXMXvXcXpXzXcXvXvXcXvXvXvXvXvXzXwX=X9.X.<.H.'.b.`.tXQ.W.F.t.+.y./.'.X.7 } A 8 y 8 8 9 t./.@.{ [ O.t.(.).`.`.'.(.).(.).(./.b.`.6XL.0.z m l m Y f.S.e.9.k.y.y.S.0.w.f.q.2.m.S.D.U.D.D.6.Z o.:.G B M l w w 6 &.G :.| &.6 7 5 k G ;.f.S.m.7.m q w e d m m w q d m f 0 * * 0 e e 0 0 f f q q q d m d e q d l 6 4 3 3 3 1 4 d d f 6 m m w f w w f 6 < 3 q q q 2 q l 5 5 3 < @ 3 d l 6 7 6 7 < < w F Z D z k 6 < 1 4 < 7 6 6 7 6 7 6 6 6 6 6 6 7 5 6 6 f f 6 w f 5 5 5 5 w 5 4 % % % % < 1 2 < 4 w w 3 3 q e q e 3 4 3 m m d d q f l q f m l m M d 5 < 2 w q 5 5 3 1 4 3 2 % + $ @ @ % q d q 3 % @ % 3 l Q ;.;.=.F T T =.2.S l m V N R ! V Y Y T T R =.! Y m d d V F S F &.-.F A G ;.r.&.:.:.&.G l z B z c c z Z S =.e.<.>.e.w.;.:.;.;.G | c y k A | ,.,.>.X. .| | *.*. .} | X.|  .X.*. .v c  .c v } X.} v x n n A A G | o.F Z k y 8 c G z x c x 6 < 7 6 x G  .b v o.| A n n c v 8 8 v k 8 6 8 v } n v  .b } c G v p 8 8 6 8 8 7 7 6 7 7 6 Z M d.pXC.S Z 6 H ",
"@X@X@X$X@X@X@X@X@XE.Y.Y.U.R.U.U.L.U.U.U.Y.E.E.W.E.E.W.W.W.E.E.E.Y.U.U.U.U.U.L.L.L.L.K.K.K.K.L.L.U.Y.@X@XE.E.@X$X$X$X@XW.W.E.R.E.E.R.U.L.U.U.L.L.R.L.f.3.) _ _ a.a.a.B.a.s.a.V.V.Z.V.B.B.a.s.a.s.A.C.V.B.V.a.8.8.V.N.g./ / 1.7.N.N.N.Z.Z.Z.V.V.a.a.B.V.V.A.C.+XC.OX>XzXzX:XV.7.4.D l z z l l D Q 6.f.9.q.K.*XeX=XT.Y.Y.N.d.Z.M.@XwX=XM.7.2.Q =.0.Y.rXmXdXrXW.L.P.<X0XoXK.d.1.M.M.7.2.w.W.Y.wXrX=X9XzXvXvXvXfXU.!.6X@XjXhX6XH.R.R.fXAXvXdXnXMXvXzXdX6X*XwXfXzXvXcX6X$XD.o.c.W.dXMXbXvXaXcXcXaXcXdXaXdXzXcXvXzXzXcXaXcXpXhXvXvXzXcXvXCXSXvX9XG.v./.@./.'.tXvXCX8X'.).u._.t.v | x 8 y 6 < < { (.).n.+.@.O.b.`.).).'.).`.(._.b.n.b.`.tXnXrX9.m w 6 f $.S.q.&.$.} $.&.Z T 0.M.M.L.L.D.D.K.R.S.;.:.&.z y z D T =.M 2.Z &.G A Z k z y M T f.w.q.6.d q d h V M m l w q d e 0 # + * 0 t 2 0 0 f d d m m q d q 3 w w 3 1 5 d d 2 4 m m m f m m f f q w f 5 % 2 4 2 4 1 5 f 5 5 3 2 q l w d M w 6 < @ 7 M &.S M f 6 7 7 < < < 6 p p p p 7 7 7 7 7 6 6 5 5 4 4 f f 6 6 w 5 5 q 5 w 6 4 % % 1 5 5 5 5 < < 6 w q q w 3 2 3 3 f e d d l l f l l w f d 2 5 q w q 5 w l w q 5 3 1 4 1 1 % @ + @ @ @ 3 f f 3 * * 4 q q D -.-.;.Q F T &.0.R M m Y ! 1.R V V Y Y U N U ! ! N N e N Y Q Z Z S m M z F D Q =.&.$.z x z B F Z Z Z | :.>.<.>.>.>.:.F G ;.y.;.G k 8 v } | | | b } X.*.:.:.| c c G *. .{ { { ..{  .t. .X.O.X.X.| } | n k y m M D Z z y k y c ;.=.A c p 7 6 y 8 z n }  .} } o.o.G G } c x z c A c x x b | n 8 v G o.n c p p p 8 6 6 6 6 6 6 7 7 7 d.+X+X$XQ Z &.8 k ",
"@X@X@X@XE.@XY.Y.E.E.Y.Y.U.U.R.R.R.R.U.R.R.E.E.W.E.E.W.W.@X@XE.E.E.Y.U.U.U.U.L.L.L.L.L.K.K.K.L.Y.Y.Y.Y.@XY.oX@X$X$X$X@X$XW.E.R.E.E.E.E.E.R.U.U.L.Q.M.) / s.h._ i.a.B.i._ s.s.a.V.V.A.B.h._ a.A.B.V.C.A.V.V.s./ 1.d.d.3.! / / 8.Z.Z.Z.C.T.Z.a.N.8.( s.V.a.A.C.OX+X<X:XwXeXT.~ l C M M ! ! 8.q.m.D ~ N.C.@X$X@XU.d.2.-.-.Q 8.d.! =.L.U.f.6.6.Q ! 7.w.W.eX=XrX@X&X>XxXcX,XOX+XC.|.C.d./ ~ Z.U.rXtXD.=X>XcXaX;XK.6.c.J.G.=X6Xc.m x Z I.zXtXJ.`.tXqX$XwXdX*XwXvXvXCXCXxXCXwXK.2.e.@X>X=XwX*X9X:X@XY.*XpXzXcXzXvXzXvXhXdXsX9XpXvXvXdXdXsXhXvXAXAXbXgXsX=XR.J.`.zXGXzXnXrXt.n.n.n.n.X.} d < , 8 e.7XyX`.n.t.u.v.`.R.).`.7X7X).).b.b.H.`.5XtXrXc.d w l w y $.:.$.| | &.T S =.f.L.Y.D.D.F.q.D.Q.F.r.o.G k k $.q.G.S.&.e.Z &.=.2.e.=.w.5.&.9.I.R.q.Q m N h d V V V V d d N d 3 * * 0 * 2 0 3 4 3 f m C d q q 3 2 3 w 5 4 q d q 3 2 q l d l M m d l w w d q % 1 3 1 3 q q d w q l l m d 3 d m l w 4 1 w V S l w 5 5 7 7 < < < 6 p p v p 6 6 7 7 < 7 f f f 4 < 6 6 5 5 w 5 4 2 2 3 < % % 1 1 f d d w < % 2 6 6 1 5 q 5 2 2 w d d f l M w 5 w w f q % < 2 5 5 6 6 w w 5 2 2 1 3 % % % % % @ @ 3 2 f q 2 4 3 q q 4 C =.-.-.D M M F 6.=.Q V R 1.1.U Y Y Y V U u r N U N N N N Y F S z m M D D F S z G Z Z M Z G } A c G =.&.*.*.r.*.>.:.o.H n c :.r.| n v v c b G | v v } | *.*.F z 8 x } X. .v v { O.O.e.,.,.,.o.>.<.:.:.G w 5 f m M M l l 6 w Z =.=.G A c 7 8 z x n c v A o.} n } G o.X.n v G | G G } v b A v 8 v n n c x x p x 6 6 6 6 5 6 6 w 6 6 A G z D S S &.x x ",
"@X@X@X@XY.Y.Y.Y.Y.Y.E.Y.U.L.L.E.E.R.R.R.E.E.W.W.@XE.W.E.E.@XE.W.W.E.U.U.U.U.U.L.U.L.K.K.K.K.L.L.Y.Y.Y.Y.Y.@X@X@X$X$X@X$XW.E.E.E.E.W.W.W.E.U.U.L.R.a.) h.B.h.i.s.a.h.i._ _ ( s.s.s.B.B.B.s.B.C.C.B.B.N.V.V.! C ~ 7.p.1.~ 1.8.d.K.C.N.s.A.C.V.8./ ( V.C.V.T.XX;X;X9X*XW.N.7./ ! 1.~ 1.K.M.K.U.U.D F ! 2.Y.=XU.N.s.p.1.1.~ i.a./ ! N.T.d.s.N.8.7.V.8.8.d.m.U.F.E.=XrXrX$XU.E.T.M.f.7.( U Y 2.9.! Y 4.K.tXtX6.6.d.N.Z.=.0.7.U d d 6 2.W.U.-.G K.T.K.*X0X:XeX@X6XeX6X#XdXtXwXpXcXVXxXsXsXiXsX<XL.N.T.>XaXvXbXMXvXcXzXzXaX:X:XvXzXwXzXvXzXzXcXvXvXVXAXMXMXpXW.R.).+.@.].u.u.n.).'._._.| 7 < F #XqXrXrXrXE.R.U.6X8XJ.H._.7X`.`.(.b.b.).'.7X`.c.Y M C z l x 6 F z v A $.q.2.0.D.K.T Z 9.w.k.S.;.A o.9.;.v.H.J.G.G.e.e.r.w.G.F.;.G &.F F ;.w.D.w.S 3 0 0 e e e m d q l C d 3 * 0 t 0 2 * 2 q q f Y ! d 3 3 3 q d m f 3 3 q q 2 2 5 q w 3 d w 5 f 6 5 3 2 1 3 3 1 5 w l M e q d m l 6 4 5 w m l l d w w w e e 5 3 2 @ @ @ 7 8 6 8 7 7 p x w < @ 4 K f K < 1 4 1 4 4 6 5 1 2 1 < % 1 5 q 3 q m l w 4 < < 5 l w w d M q 4 f m q 4 q q 5 4 4 5 w 6 % @ @ < 4 4 2 4 1 4 2 4 q 3 @ 2 q 3 2 3 e m d q 1 < 4 q q 3 2 m =.7.=.V V Z 2.1.1.Q ! 1.3./ R =.! U U U W U e q e e e m M D B B M M Z D J | A Z &.Q Z Z G F A G G F G l l S D Z G T Z G x y B A B } c x 8 x B y 8 x B | A k 6 8 8 8 v { { } X.>.>.<.*.:.o.X.| X.*.o.F z q l M l l Z M w l Z &.&.F A A x x c c v p p p n G A n v v b v v A  .B A c p c c v 6 8 b v v n c a p 7 8 8 6 7 6 7 7 c c A G x k Z l | | G ",
"Y.E.@X@XY.Y.Y.W.Y.Y.E.E.E.E.E.U.U.U.U.U.E.E.W.@XR.R.W.$XW.W.$XE.U.E.E.E.L.U.E.L.F.K.D.D.K.K.U.U.U.Y.Y.@X@X@X$X$X@X@X@XE.R.R.R.Q.R.W.@XR.R.$XE.L.A.s.a.B.i._ i.i.s.B.s.s.s.a.V.a._ B.C.Z.V.B.C.C.V.B.V.N.i./ D Z -.N./ ~ ! 4.7.N.a.s.8.g.V.8.1.7.( A.C.|.XX;X<X>XeXwXL.1.! ! d.7.D ~ d.K.N.d.K.m.c.1.7.W.*XY.U.g.1.~ 8./ 8.d./ R / s./ 1.M.T.d.1.! 1.8.1.=.Q q.m.m.6.D &.6.6.Q ! / 8.3.U V ! =.S d C m.L.2.d.K.$XW.m.3.R U U m q f 6.8.V ! P.1.Y d.*XzXzX@X9XwXaX!.tXQ.=XvXFXFXCXzXdXfXhXpXpX:X;X:X>XzXvXCXvXcXaXsXcXvXzXvXvXhXfXzXbXvXzXcXaXcXcXxXvXAXvXaX0XG.v.J.b.@.#.@.(.8XlXJ.6 % Q 5X).(.).yXlX6XJ.`.7Xb.t.@.`.'.8X8X'.n.u.@.O.,.<.M.e.:.Z 6 < < 7 < 8 l T r.S 5 5 S m q T F G A z c | e.e.F.F.G.v.e.e.w.9.w.c.w.&.l z 5 6 f z 9.2.m % * * * = q h d m C d q 3 0 0 e q 3 1 1 h h d Y U d 0 q f f C S V w d f w 5 w q 5 q d f 5 < < 3 q d q 3 q q 5 6 6 l V 2 @ 1 w m d 5 q w l w 6 k 2 < 5 4 f f 3 < @ @ 2 6 p p 7 < < < 6 1 < < 4 6 6 6 6 4 < 1 6 q q q q 3 1 < 1 4 3 q 4 2 d d d 4 4 2 2 6 l l V Y m d d q 1 1 4 2 2 4 4 < 3 2 + + @ 2 q 4 4 3 2 4 3 3 d 3 % 2 q q q e d d f q 2 2 5 5 q 1 % d 6.m.6.=.! Q =.=.D Y 1.7.p.! U W R d f N U d e e e d d d d M M D T D D T T F D F &.F Z G $.z x Z Z &.&.6 6 w l k k M B k 6 6 6 8 y z z x y p v x 8 y x | B 8 6 8 x v v } { o.X.>.,.X.{ n G n v x x Z F S l l M Z x Z F S z z H F F G G c c p 8 8 8 7 8 v b n G 7 < 7 7 8 7 8 8 8 8 6 x x n p p b v p n n c p 6 6 z 5 2 6 6 < p H x z x l Z p o.=.=.",
"Y.Y.@X@XY.Y.Y.E.@X@XW.E.E.E.E.E.E.U.U.Y.Y.Y.E.E.E.W.@X@XW.E.W.@XE.E.E.E.L.U.E.L.L.K.K.K.K.K.U.Y.U.Y.Y.oX@X@X$X$XY.E.E.E.R.R.R.R.R.R.E.E.E.@XK.V.s.s.B.B.a.i.s.a.s.B.B.s.s.B.V.V.A.C.XXC.C.A.Z.A.V.a.V.N.i.8.1.l V 8.8.1.! R ! / V.Z.N.Z.N.1./ 8.a.A.T.XXXX:X,XpXeXzXW.2.1.1.8.1.S l V 7.M.K.U.U.!.m.d.@X=XE.K.p.8.~ 8.8.s.a.p.3./ 8./ ! 8.N.7.Y ! K.=X7.D S R Q =.-.Q D Q Q C C ! 8.p.R N V =.! l d M D 1.m.7.=XzX9XM.~ / / h l ( +XZ.3.3.C.3.U 8.Y.zXdX:XeXcXSXR.Q.6XwXhXvXvXeXY.zXfX9X9X0X>X,X<X*XdXvXMXvXvXfXaXcXMXvXvXvXvXsXzXzXvXdXdXpXeXeXvXvXCXFXLXLXSXCXVXqXb.{ [ @./.]./.8 $ 7 ,.t.t.t.'.8Xb.O.@.b.b.H.(.`.7X).'.]./.+.9 8 v -.L.K.9.Z 6 @ $ $ @ q l ;.=.z < 2 Y R G $.*.z x G | ,.*.A :.v.y.r.:.y.e.:.e.e.e.e.A x 8 8 l z =.=.m * * & * = q d q q d d d f d 0 1 q q 1 0 f f q m m q 3 d f f M D Y m V m f d M e q d m m q 1 @ < 5 d w e d m q q q w 5 @ @ 1 3 d d f d d m 6 < 2 @ @ 5 f m f w 2 < 5 5 7 k z p 7 7 < 5 1 7 6 5 6 4 4 6 4 1 3 3 q q q q 3 3 1 2 4 2 4 2 3 d e h f 5 2 2 5 M l ! ! m e e 0 2 1 2 1 1 2 3 5 4 @ X $ + % 2 1 4 3 3 3 4 3 e q 2 4 q q e q q f e q 3 q w 6 q 4 1 3 Y M.m.1.=.=.! Y m S 7.7.! U U U N q e h V h f e d m m d d m M S T =.=.&.T T S z M D z x M c z c M F =.k 5 5 f 6 6 z Z x x x y y 8 8 8 8 8 k v c c x 8 c c 8 8 x c b } X.X.o.:.,.O. .} A c n H p 8 8 k x k Z $.Z y Z B B T Z Z F | &.F c x 8 7 7 9 7 8 c v } } p 6 6 8 v 7 < 7 8 6 8 v c } } n { } c n n x 8 p k Z k w x k 6 8 x k z x x G G :.e.=.",
"Y.Y.E.Y.Y.Y.Y.Y.Y.W.W.W.W.W.W.E.W.W.W.E.E.@X@X@X@X$X@X@XW.W.W.@X@XY.Y.E.U.E.E.L.E.U.U.L.Y.Y.Y.Y.@X@XY.Y.Y.U.oXY.E.Y.L.L.U.R.R.R.L.F.R.E.Y.V.i._ s.h.B.V.V.a.s.B.i.s.N.a.i.s.a.B.A.A.XXT.T.Z.B.a.B.s.a.N.8.8.7.Z d ! s.d.7.! 1.d.g.T.Z.K.N.1.1.N.XXXX+XoXC.@X=XpX<XeXtXL.M.d.d.7.q.Y C 1.N.*XtX*XU.M.K.Y.L.W.M.p.8./ 3.p.N.p.N.V.p.p.3./ ~ ~ -.~ Y 1.N.7.Q Y M M V 1.7.! V M S Y 8.1.! R R R ! 3.R R C d Y d.! m 6.9X$Xs.s./ V Y Z.cXsXZ.R 3.p.3.j.a.C.sXeX9XaXSXzX7.m.zXzXsXwX$XK.wXwX*XwXvXAXvXeXL.@XfXAXvXcXzXaXaXvXvXvXvXAXAXvXMXbXeX0X*X*X~.~.dXaXeXeXsXVXSXFXFXPXZXxX=Xn.[.u.7 7 p { [ p < O.(.O.s 9 { y.).7X7X7X'.'./.{ % @ 2 U a.5X6XG.<.Z 6 q l T T D R m m w w l -.q.G.w.c A <.y.R.y.:.A o.<.e.y.v.e.*.e.9.G G o.>.v.y.9.M M =.V 3 2 2 * 2 0 q m d m m d V V e 3 e h d * + * q m N e q q q q f l m d m d q d V M d d d e t 0 0 0 q q 5 e Y ! S m d e q q 0 2 3 m m m m m w < < 4 @ < 6 l m w q q w 3 % 1 5 6 z M d 2 2 1 4 1 4 6 5 4 5 5 1 < % 2 4 % % 1 % % 4 4 1 3 2 3 3 3 0 5 5 6 6 6 f l ! Y m e q 0 e q 1 % % 2 1 % @ $ + + @ @ @ 1 2 2 3 q 3 0 0 3 1 0 f q 3 3 q d h e 4 3 f w 2 % 2 q Y D.M.-.! 2.=.Q ! 4.d.7./ U U U R m d U R R N N m N m e e V S S Z T &.=.$.S S M M M M Z M A x x $.;.9.G M 6 k k k 6 y 6 x c B B y 6 8 y x 8 v v c A c c b A v v } *.>.*.X.X.>.X.} } } b x c c p 8 8 6 x k M | z 7 B $.Z F F ;.;.$.A Z x 8 8 8 8 8 7 8 c A n c } n n n c k 8 8 p 8 8 x p p b { } { n n n p 8 8 k x x x z x x p z z c k y A Z z | A ",
"Y.Y.Y.Y.Y.Y.Y.Y.Y.Y.W.W.@XW.E.E.@X@X@X$X$X$X$X$X@X=X=X$X=X@XW.=X$XE.Y.E.Y.U.E.E.E.Y.U.L.U.Y.Y.Y.Y.Y.Y.Y.Y.Y.@X@XU.U.U.R.R.R.U.U.W.R.R.Y.V.i./ h.B.B.V.V.B.s.s.s.i.i.V.V.i.8.a.B.a.B.A.A.Z.V.B.V.V.B.N.V.a.8.8.=.Q d.N.s.! ! 7.8.i.Z.K.M.d.1.8.T.;XoXY.Y.K.U.L.9XrX9X6XW.U.m.M.D.m.! 1.U.U.=X9XW.M.m.K.K.m.L.M.s.a.8./ i.N.a.p.Z.g.p.p.p.g.d.1.7.~ V R 8.1.8.1.8.Y 1.d.! m m Y -.! Y R R ~ ! 3.3./ ~ U Y C ! ! m D f.$XM.N./ U C ! :XwXZ.! 7.! V 3.7./ 0XtXtXfXCXDX9XY.dXzX>X*X9X=XzX9X6XzXvXVXMXnXwXY.9XvXsXcXcXzXcXbXvXbXvXmXAXAXvXzXpX0X9X9XrX*X9X6XQ.!.G.#XuXcXbXZXLXLXSX6Xn.[ 7 z n O.t.O.p >.).(.u.+.{ n.'.`.'.7XnX8X{ < % t e ~ k.=XtX).R.f.$.;.k.H.$.S M C =.2.2.T ;.w.G.e.} <.G.v.H.G.<.r.y.G.y.e.e.<.,.v.v.| &.w.v.H.v.9.6 7 D C 1 * 2 % 1 2 4 q m Y V m R U U N N V h 0 % 0 N Y Y m q 5 q d 5 5 5 q q d d e m V d e q t 0 0 0 0 e q e m R Y V V l d m d q e C Y V N d q 3 4 2 2 @ @ 2 5 l w 5 5 4 2 1 1 4 w d q q 3 2 2 < < 1 5 4 4 6 6 1 % % 1 % + @ % @ % q q q q 3 0 0 2 3 4 3 5 < 5 5 q m q d q 2 4 q e q 3 4 2 % % % @ @ + % % % % 2 2 0 0 0 0 0 0 0 e q 1 % 4 d N d e 3 2 3 4 1 1 3 3 m 6.f.2.1.-.=.! 1.d.g.p./ 3./ U U V Y ! 3.4.U U N N C N V ! -.Y m M D D S M M M M k z F G x x 6 x F ;.&.M y y l k 6 6 5 x Z F B y 8 x c c x b v x A  .c A  .c b X.<.:.| } *.,. .v v b n n n n p p x 8 p 6 6 x z 2 y Z z k l Q =.Z x n v 6 7 8 v a 8 8 x b p v c b A b A G v v c x c n v a a } } } b v x x p 7 6 w z x Z 6 8 6 x M Z x x Z | x c A ",
"Y.Y.Y.Y.Y.E.Y.Y.W.W.W.W.W.@X@X$X$X$X$X$X$X$X$X$X$X*X*X*X*X=X=X=X$XW.W.W.Y.U.E.E.E.Y.U.U.U.Y.Y.Y.Y.Y.Y.E.@XE.@XE.E.R.R.U.U.R.E.W.W.R.R.Z.i._ i.a.a.a.B.a._ _ i.s.s.i.N.N./ 8.B.V.a.V.V.N.Z.V.Z.Z.A.V.V.Z.C.V.8.6.7.d.a.8./ p.P.N.a.Z.Y.M.d.! 8.T.:XoXN.K.M.6.-.U.6XW.$X6X6X=XW.W.E.6.-.m.D.U.D.m.6.q.U.Y.D.M.N.a.a.p.i.i./ i.3.a.a.p.g.p.V.T.1.M.8./ 8.d.7.8.! ~ N R 1.! U V ! 1.C V R ! ~ ~ / 3.s./ U V N V N N M l 0.T.s.N U V V d.oXV.! ! N d N C e oXrX7X6XwXAXMXeXdXeXpXhXfXwXcX:XW.mXAXvXfXqXnXfXoXfXsXsXcXbXbXcX0X~.@X=XeXzXiXeXwX$XL.G.=X*XoXL.G.0.2.P.oX6XfXwXvXSXSXMXrX{ 7 a n n &.e.b e.7XyX).).H.).yX`./.).NX7X7 $ 4 h 2 x ,.H.!.).7X).H.J.).I.$.=.F T 2.6.m.L.D.G.G.,.*.k.J.G.v.v.:.r.:.y.H.y.y.G.v.v.H.v.w.H.y.&.z x 5 w M m 1 * 3 0 e 3 q 3 q m N V C N C h t h t 0 3 0 m V V m d d d m d q q q q d m d e m e 3 2 * & & = * 0 0 d N f e f h h h m q 3 d U U m e 3 q @ @ 2 3 , , 2 7 4 6 6 5 3 2 4 5 5 5 q q d f q q 3 1 4 6 4 1 4 4 < % % % @ @ @ @ @ @ 1 4 q 3 2 q 0 0 3 < 3 5 5 f l l d q d q q 4 3 d d 3 1 * @ @ $ @ @ 1 1 4 1 2 1 2 0 0 0 0 0 0 e f 0 * % 3 d N e e 0 % 1 3 3 3 4 4 d Y 6.8.=.T R ! 1.p.g.3.~ g.M.3.1.3.g.p.1.i.~ R U R R Y R 2.6.R M Z T T T D F F Q &.S Z F z x x y x M M l y l B y x y 6 z S F z 8 8 k v x c v v y y c x x b c } X.e.:.:.:.,.,.} p 8 v b b n v p p x p 6 < < 7 6 6 6 6 5 < < 6 k 8 k n b 8 7 6 x v p 8 x A v x b n v A b v 8 6 c n n n n n p b } o.} v p x z 6 5 6 l y $.z 6 < < k z c A x c y 8 x ",
"Y.Y.Y.E.E.E.E.E.Y.W.E.W.@X$X=X=X$X$X$X$X$X=X=X=X$X=X*X*X*X*X=X=X=X@X$X@XE.Y.E.E.E.Y.U.U.Y.Y.E.E.@X@X@X@X@XE.E.Y.U.R.E.E.E.E.E.W.Q.R.K.i.) _ s.s.a.s.a.s.i.i.a.a.i.i.s.8.8.s.B.V.V.V.V.N.A.V.N.B.V.V.V.g.V.Z.8.=.8.d.8.8.s.XX@XK.Z.Z.Y.M.7.! 6.Z.@Xm.Q 6.D.q.r.6.m.6.D.W.=XtXtX*XeX*XY.M.M.U.7.7.d.7.d.m.D.N.8.3.p.Z.a.p.8.p.8.i.8.d.N.Z.K.@X8.8.p.7.N.g.g.! h d h R 1./ ! ~ ~ / U V U ~ / R U ~ / ~ W h N V N U m w m 6.~ d R R C h ~ 3.~ ~ U h V Y f oXtX7XQ.F.mXMXdX0XcXvXAXxXfXiX*XU.zXAXAXzX6XrXmXE.wXwX*XeXzXwX6Xk.y.y.F.U.9X=XK.6X9X@XM.K.=XOXL.m.r.:.K.U.Z.#X$XwXfXcXCXSX9XG 9 9 6 H :.n } b././._.b.'.7X(.@.y.lXJ.2 * f f 2 0 m  .} >.J.J.y.<.e.9.Z F x F F C C -.9.$.T &.e.J.H.e.<.G.v.:.*.,.G.J.Q.H.y.e.v.H.H.H.,.x 6 x S T C m e h N Y Y m m q 3 q f 0 0 0 0 * * * 0 d N e q e m m e d q d f w q q d d d e q d e 0 * * & & * * 0 0 e 0 4 3 0 e f f e 0 q d h N m m m m q 1 3 5 w 6 5 < < 5 q 6 4 4 q M l 3 4 5 f q 5 q 3 < 3 l l 5 4 3 1 2 % % * % % @ % % @ @ q 3 0 e 3 e t 3 4 w l m l f w m d d m d m Y V 4 % 1 % 1 @ @ % 4 7 5 6 0 1 * 2 3 0 0 f e f e 3 1 1 q d m q q 2 @ @ 1 4 3 2 3 d C ! 2.1.! =.! 3.p.p./ W p.K.Y.*X#XP.d.1.i.( ^ ~ 3./ Y ~ 1.1.Y M M M M B T T F &.;.Z l Z B z $.z y y w 6 6 l M k Z S M M F Z z y z c x c c v 8 8 6 8 8 x | $. .} >.:.:.r.X.b v b c n } n x 8 p x x k 6 < 6 7 7 7 6 6 7 < < < < 7 8 x v p 8 p n v c G | b n b b c 8 v b 8 , , p } n n b n v n } } b n z p z x 5 w y w Z F w < < 6 6 6 c x 8 8 k z ",
"Y.Y.E.E.E.E.W.W.W.W.@X@X@X@X@X@X=X=X=X*X*X=X*X*X$X=X*X=X=X=X*X*X=X=X=X@XW.W.E.E.U.U.U.U.Y.Y.Y.Y.E.@XE.@X@X@X@X@XR.R.U.U.R.E.W.W.$XP.a./ _ B.B.a.B.a.a.B.a.B.B.N.s.i.8.8.8.s.a.B.A.B.V.N.V.d./ s.A.C.C.g.a.g.7.Y ! 8.8.N.Z.C.g.M.Z.Z.K.d.=.D 6.8.1.! M Q K.U.U.M.q.-.D 0.U.*XtXtXwXwX9XY.D.W.=XW.W.@Xd.m.M.q.d.p.N.XXZ.C.oXC.g.a.8.7.K.M.N.K.m.7.Z.V.g.3.! C d N C U V U R ~ R U ~ Y Y ~ ! ! ( ~ ~ ! / ~ ~ ! ! ~ V m d m m V U U ~ R ~ / / ~ U N D Y f M.E.).6XI.eXmXzXeXzXzXvXaXhXhXdXW.qXvXmXtX6XW.zX=X=XtXE.Y.<X*X$Xy.q.w.K.Y.eX@XD.L.6XwXW.K.:XwXqX=XD.e.f.D.f.v.D.K.U.9XvXvXnXq.6 % 7 ;.<.n c u.u.u.u. .J.7X_.@.u.yXt.2 2 w d l w e 5 w B e.I.e.*.,.F w m M S S m 5 5 D 6 5 &.G.Q.I.S.y.v.v.9.<.e.F.Q.F.G.w.y.v.v.H.e.A 6 l Z $.=.d q d N U Y V V m q N C 0 * * * # * ; ; t m N q q q e e q d 3 q q d 3 3 q e e q e d d f 0 0 * * 4 t 0 4 0 t 0 0 2 2 3 q e e d m h d e N m l e 5 3 q l 5 6 5 4 q 5 5 5 q Y =.m 4 5 d q 4 w q 5 5 5 w 6 5 4 2 1 % % * 2 @ @ @ % % % 1 e q q m q 0 0 d q Y m q q f m d e V 1.V V ! Y 3 @ % % * % @ % 2 2 4 q 0 2 2 3 1 1 0 h q d q 3 1 @ 4 q q 4 3 3 % $ $ % 5 3 3 q M ! 2.1.=.8.3./ / 3./ U ! M.@X:X,XXXp.C.C.V.a.s.p.8.! ! Y Y S M M l y l S &.$.&.;.F z z z l G z k y w 6 5 k Z Z S F T G S B x x A  .n n { b 8 8 8 8 8 G } | A c G | *.:.b 8 8 b  .n n v v 6 p k 6 6 6 6 6 6 4 7 6 6 , < 2 7 7 8 p p v v v c A A n A } v v n } } v v v p 8 7 k } n G } } n n b { b n v p x k 5 6 w y 6 x z y 5 7 6 6 p y k 8 z | ",
"Y.E.W.W.W.W.@X@X=X=X=X@X@X=X*X*X*X*X*X*X=X=X@X@X=X$X=X=X@X$X*X=X=X=X=X$XW.@XW.U.E.U.U.Y.E.@X@X@X@X@XE.@X@X@X$X@XR.U.U.U.E.W.R.R.K.s._ _ a.B.B.h.B.B.V.B.B.N.a.N.V.8.~ / ( ( 8.s.V.s.Z.V.M.7.Y 8.A.Z.C.C.Z.Z.M.-.V / g.OXXXC.g.K.C.P.Z.d.! D 6.! S F C D f.D.U.M.G.-.S 6.q.m.M.U.=XwX=XK.K.W.9XW.@XeXY.Y.D.N.N.i./ 8.A.Z.P.d./ s.V.Z.M.Z.M.L.L.1.3.8./ ~ U h N R ~ U U ~ Y Y V V / ! ~ ~ ! 3.8.8.3.7.8.! 3.8.! R Y m M l m V V m Y V V R R U N C Y W q 8.f.S.tX9XK.=XQ.6XzX,XaXcXVXfXzXrX9X*XD.9.w.w.=X9XL.=XU.M.P.$XW.v.K.L.K.Y.:XW.y.e.G.=X*X!.k.=XeX6XR.L.m.m.r.:.o.o.G w.dXzXDXrXc.4 < | <.o.c O.b._.(.b.'.'.'./.(.'.{ 6 K S Z o.-.D k 8 { ..e.<.O.>.;.! Y S $.Y S m 5 z z k F k.R.).I.y.e.y.r.:.,.9.e.k z G e.v.<.<.<.| k M z B D q 2 d N N m m m m ~ 8.V * # * * & * - - 0 d N q 0 0 3 2 3 e 3 3 q q 2 @ 1 3 q e d e e e f h t * 2 q 0 0 d d f h 0 % 1 d C V M m m d f N f e m M q S S l f w w e d q q m Y S m w d d 5 < @ 1 4 6 5 < 4 w w 1 1 % % 3 1 % 1 0 0 % 1 3 q 0 d m q 0 e d d l 4 q q k 6 3 0 N Y m d d f 4 < < < 4 1 % * 4 4 2 3 0 1 3 0 4 * 4 q 5 w 4 < @ @ 4 3 3 4 3 4 % $ $ @ q q 3 3 m -.1.! Y ! ! ! ! R U N ! M.E.@X,X,X#XOX#XP.Z.g.7.4.p.8.1.Y M m l w w l M $.Z M T G x k k y w y k w 6 6 6 w l M Z M M x x z y 8 c } } b v v v x 8 8 k o.:.G G A | *.o.H v p 8 b } x p c p 6 k x 6 6 K K 8 6 5 6 8 6 7 7 6 y k c b n n c v v x n } c v 8 8 v n { v v p 8 9 8 b o.G } n n c v n b } G n c c x < < 6 6 < 7 k M z 6 6 8 x c z x k :.",
"E.W.W.W.W.W.W.W.W.=X=X$X$X$X=X6X=X=X$X$X$X$X=X=XW.W.W.W.$X$X$X$XW.W.=XW.$XW.$X$XY.Y.Y.E.E.E.E.@XE.E.E.W.W.E.Y.Y.!.U.L.Y.R.Q.$XP.s./ / a.B.h.h.B.B.B.V.B.h._ s.8.( C C 1.8./ 8.V.C.a.V.Z.Z.3.8.Z.B.V.M.V.C.P.K.D.~ / C.;X;X;X#XY.+XY.Z.7.Y Y 8.! ! 7.Q D q.m.M.m.K.0.Q 1.-.D.m.K.=XeX*X@XM.K.=X$XY.eX*XW.L.Z.g.p.! / 7.p.d.3.p.g.m.M.M.M.Y.$XY.Q h Y Y ! m h U ^ U ~ ( ! R R ~ / ~ / ( R V V R R ~ ~ ~ R / ~ R R C D C l h C U R Y C h U / U U U C V m Y 7.4.dXdX~.$Xm.Y.fXeXaXAXbX<X6XG.f.m.9.;.<.w.U.9X$XY.$XY.D.m.D.D.D.L.L.E.W.W.G.r.>.R.9X*Xr.q.*X*XW.L.K.Y.e.<.<.o.;.7.9XfXCXAXvXd.6 n X.| n n O.O.b.(.yX'.(.(.].n.< q B $.o.6.2.=.b 9 8 9 9 < 7 F e.G.f.=.D z M M d l T =.D F q.H.Q.I.k.e.o.A x z c < < z G >.| *.v.G.w.;.l l Y d e h h f d h V ~ 7.Y f * % 2 2 * * * & @ 4 0 3 3 0 1 % 2 0 1 3 q q 1 @ 1 5 6 q e d e q d f 3 3 q q 0 e m f f d f 2 3 m S Y ~ ~ D Y C Y C l D V d C D C e 6 w q e 0 0 h R C d m Y V 4 $ @ @ % 6 6 1 w w 5 @ % % 1 3 1 * 0 q q 4 % 2 e q d d q q q q 5 5 2 5 3 f 2 2 2 4 q 4 d 1 1 1 < 4 2 2 2 1 2 4 2 3 3 < < 4 q e 0 0 e 4 5 1 % % 1 5 q < 6 5 5 0 1 @ < 4 4 4 3 S 1.1.R C Y Y Y Y N h t Y d.Z.Z.*XaXuXXXd.3.p.p.! R =.R N m m y y l u M l Z Z l M x y 8 6 x 6 z M 5 5 w f 6 f z l x l y 6 y y 8 x A G n p 7 8 v x n c &.&.&.r.>.>.*.G c p c n c 8 6 8 v x 7 7 6 p 6 k x p 6 6 6 5 7 7 7 5 7 p v v p b v p p p v b c p 7 7 7 8 v v 8 8 8 7 7 8 c A Z c c a v v n n c c B n x 7 @ 5 7 6 6 7 7 x 8 6 k x z k 6 6 A ",
"W.W.@X=X$XW.$X=XW.=X=X=X=X=X=X=X=X$X$XW.W.W.W.W.W.W.W.W.E.E.E.E.W.W.$XW.W.E.$XE.E.U.Y.E.E.E.E.E.E.W.W.W.E.E.E.E.U.R.Q.W.U.E.U.g.i._ s.B.B.h.h.B.A.B.V.B.a._ 8.! Y C Y 8.7./ / p.V.Z.N.s.V.1.8.P.A.Z.d.p.N.s.p.M.V.A.C.+X,X>X:XY.Y.@XN.1.Y ! 8.7.M.Y.q.-.D.m.m.m.W.W.q.m.8.U.W.U.eXpXwXzX=XW.@X=X9X9X9X=X$XK.Z.Z.d.d.3.8.d.p.d.d.8.U.=XY.K.p.M.7.~ ~ R R N W ~ R W E ~ V N U / / R ~ ~ U m m N C Y Y R ! ! Y U U V V m h m C U ! U U ~ / / ~ ~ U U U N m V 6 ;.9.6XnXW.W.rXwXzXmX0XN.M.f.f.!.c.q.r.w.M.$X@XY.$X6XG.e.D.R.Y.K.M.Y.=X*XW.w.<.y.W.tXK.7.$X9X=X=XW.Y.L.G.H.Q.E.@X0XuXFXFXFXzX:.{ A G G o.b a { v @.{ [ O.n...@ 3 x :.o.p p } G.F.tX9XfX:X0.z x v.v.:.H z z &.D Z Y R S M $.:.*.>.e.S.G.y.:.:.r.&.| :.:.9.A *.S.S.F.;.G Z Y q q d e m ~ 8.1.D d 3 3 1 * e t * 0 * # * 0 q 0 3 2 3 q 3 2 2 3 3 q q 3 e d w 5 q q e q q f q f f f q f d d d f C D C V R 1.1.1.! ! ! 1.! 1.1.Y m d f q q q h h g 0 0 d h h h h m m 2 @ @ @ 1 w 5 2 q 2 @ + + @ % % % @ 3 0 q q 2 0 e q d q 3 3 2 1 2 2 3 d 6 w 3 4 1 % 1 4 w 4 1 1 @ % @ % % 1 2 1 % 2 1 1 < 3 d d e q 5 1 2 1 1 4 1 2 q 6 6 6 3 5 5 2 3 5 3 4 3 C 1.8.! m Y ! V N N h U / 1.3.p.XXOXZ.3.R U R R V l m m d l M M M y y l l l l m D S Z M x x k F T y w w w 6 6 k w k l x k y x k x B A c p 8 8 v v c A r.=.A A A n v c B } A x 7 < 7 8 c x 6 7 6 p 8 6 8 z x 8 y 8 7 7 7 6 6 p x 8 7 8 p p p 8 p v x p 8 7 7 6 8 7 , , , , @ , 7 8 p p p H z c G c p 8 x x z x 7 6 6 x z 6 6 x c 8 y x x 8 8 k Z ",
"=X=X=X=X=X=X=X=X=X=X=X=X*X*X=X=X$X$XW.W.W.E.E.E.E.E.W.E.E.E.E.E.E.W.W.E.E.E.E.R.R.R.R.R.E.E.E.E.E.W.W.W.E.Y.E.W.Y.E.Q.R.U.C.V.h.s.B.B.|.V.h.B.C.|.C.B.V.B.s.8.~ / 1.1.1.8.8./ / s.V.N.s.d.! / N.N.Z.Z.a.V.N.N.Z.T.A.V.P.+X=X,XoXA.K.N.8.Y ~ 7.N.U.W.m.-.m.K.M.m.9X=XK.K.m.K.W.N.=X=X9XwX9X*XM.Y.@XL.U.Y.$XK.K.Z.7.1.8.d.1.! M.K.! q.K.K.@Xd.7.f.a.V.a._ U W / / ^ ^ U U V Y ~ / W / 8.~ Y Y V Y ~ ~ R ~ R R ! ! Y C m V C U ~ / ~ R / / ^ ~ U N h h C C Q z H K M.nX=X6XrX9XeX6XK.K.@XY.D.!.G.m.f.f.m.U.W.W.@X6XG.G.R.$X*XL.d.M.W.$X*XE.y.<.v.=X*XD.@XtX9XtX9X9X$XH.v.F.S.D.*XwXCXSXCXAXG.{ b H G o.o.{ p < { [ [ u.t.{ @ % 7 c D G.tXfXAXgXgXVXSXCXAXmXD.$.H.e.r.r.=.q.;.Q Q T l 6 k y v } :.9.H.H.y.v.R.6XQ.G.<.e.&.F F z F S H l d 1 * 0 e V / R d q 1 3 2 3 f e t 0 0 - - * q q 2 1 2 e m e 2 4 q q h m e e l w q q q w q w w f d f m d d m m N m ! 1.Y R ! ! ! ! ~ Y Y Y Y Y ~ Y C h h f e h U U C h g t 0 f h f d q < @ @ < 1 2 2 2 3 1 $ X $ + @ @ 1 % 4 4 2 2 1 0 e 0 f q 3 4 1 2 4 4 3 6 6 q 3 3 3 1 < 1 3 4 5 1 % % $ @ % @ @ @ % 1 @ 2 2 5 w q w w w 2 1 5 w 5 1 4 6 d 6 4 < 1 5 4 5 3 2 1 = l ! 8.! V ! =.! U U ~ a.Z.Z.a.g.oXP.3.R R m e q e q w d e l l M M w w y w 6 5 w M M Z Z x 8 6 Z T M l k k k w w 6 w l M l y x c c l z x c v 8 8 x x A &.S 7 7 6 6 6 c A } c 8 7 7 6 k c x 8 p 8 k k 6 8 x x x z Z k 6 8 8 k p 8 p k k p v p 6 8 p p 8 p 8 8 y 8 5 < , , , , < 7 8 6 8 p v v v n H k 6 6 6 x x x y 6 k M 8 < 6 x 8 z z z k x A :.",
"=X=X=X=X=X=X=X=X=X=X$X$X=X=X=X$X$XW.W.W.E.R.E.R.E.E.E.E.E.E.E.W.E.E.W.E.E.E.E.R.R.R.R.R.R.R.R.R.U.E.E.E.U.U.Y.E.Y.E.L.R.U.V.B.B.B.B.|.|.A.V.B.A.B.B.C.C.V.V.V.s._ s./ / 8.a.i./ g.Z.V.7.! Y d.A.T.oXXXV.C.#X<X;X=XC.V.Z.T.=X*XK.d.N.N.8.Y Y 8.7.m.M.K.m.U.*XK.2.m.U.6XY.M.m.U.q.N.m.Y.U.Y.@XU.K.N.d.K.W.Y.Y.d.d.d.8.d.d.! V m.9XW.0.q.8.K.M.! p.p.Z.|.|.a.^ U ~ / ^ W U / 8./ / / 3.p.7.8.1./ ! R U R ~ ~ / 3./ R V V ~ Y U ~ ~ / / ~ ^ / ~ U N d l V M Y V D m M R.G.Q.tXwXwXW.L.U.$XY.f.K.6X$XE.E.K.D.K.L.R.@Xc.m.R.9XwX@XS.D.W.L.Q.$XR.r.r.U.*XQ.L.Q.*X9X9XeX6XH.<.v.v.9.D.@XaXCXCXSXrXo.n H } } { v a < } <.{ O.v < $ + 4 2.6XeX1X3XZXVX2X1X;XZ.;XzXDX! v.w.G.R.!.H.y.F S D S M G v v } :.;.H.R.k.,.y.).).R.e.9.9.&.k 6 z F Z l d h h U R 1.R d 3 q 4 w 1 q h t ; * * - - % e d e e 3 3 e d q d h m Y R m d d d d d d q w f 4 q d d d d C ! / ~ ! ~ ! U C d q q m C m C C h V Y Q Y U U h f U U C h j 0 ; * 0 0 0 f 0 2 6 4 3 2 1 % @ 1 2 @ @ @ @ @ @ 2 4 3 2 * 2 0 0 e e 0 e 0 4 3 3 5 6 5 q q 2 2 3 5 1 < % % 4 7 < 1 @ @ @ % $ @ 4 % @ @ 2 1 3 5 5 w l l w 6 l z w 6 5 5 w 4 < % % < < < 1 % % * w Y 1.8.R Y ! =.R R p.T.XXXXV.V.V.Z.3.U d e e w l d w d w w w w w w 6 6 3 < < 5 w 6 6 x 6 6 6 l G S k 6 5 w 6 w 5 5 w y y w 8 k M 5 6 k p 8 9 8 x z z z z 6 7 8 8 8 c c c p 8 8 8 x y k x 8 6 6 6 8 p 8 8 p x c A k 8 8 8 v 8 7 x Z x K x c x 8 p K 6 7 6 8 6 7 7 7 < < 7 8 k x 8 7 8 6 8 n n c k l 5 < 6 y 6 k x 6 5 x k 5 y z 6 x k x c z z x ",
"=X=X=X=X=X=X=X=X=X=X$X$X=X$XW.W.W.E.E.R.R.R.R.R.E.E.E.E.Y.U.U.E.E.E.@XE.W.E.E.U.R.U.U.U.U.R.R.R.U.U.U.U.U.U.U.U.L.U.U.U.A.s.h.B.B.A.|.|.B.A.B.V.V.B.B.V.V.Z.C.Z.B.A.V.i.a.B.s./ g.Z.Z.A.7.=.Z.OX;X,X;XOX+X;X>XiX:X@XY.Z.T.OX=XY.Z.Z.M.1.Y D 7.q.0.7.7.6.6.W.U.q.9.m.$XK.0.-.6.f.d.m.W.U.m.m.W.U.M.K.=X*XW.=XT.M.d.3.8.8.~ m 6.9XtXK.q.R ! M.d.7.( 8./ a.V.E t N U U / 8.i.8.a.8./ ! / 8.d./ ! / ! R ~ ! 3.3.1.! R Y V Y ! ~ U U / / / ^ / ~ V R C m V Y R Y ! Y l H | e.=XwXwX=XwX$XU.P.P.L.9X$XE.qX$XU.Q.W.$X@XG.G.U.$X9X9XE.W.6XR.F.D.E.G.9.Y.eX:XG.G.Q.9XW.!.6X$Xe.v.H.R.E.K.P.wXvXSXMX:.p p n n { a 9 7 Z n 7 8 p 2 @ h P.jXeX-XZXPXZXZXZX3X1X1X+XN.AX8.n <.H.Q.Q.H.v.G M G ;.$.*.| | *.y.F.).).).y.| <.v.<.;.9.;.F H Z Z D M C ~ 3./ W U C q 0 q e w d 5 0 t * & & * # * 2 0 0 e m e 3 q d m C R R Y U N d l l q 3 q w w d f 3 f m m Y 1.1./ ! Y d m Y Y d q 3 q f d C C C Y R ~ ~ ~ Y Y D ~ Y C U L r ; & - * ; g e q f 6 f 6 4 1 1 3 5 4 1 < < 4 < 2 3 3 3 3 e q 3 q e 3 0 3 0 d 5 4 6 5 4 d 5 3 5 5 < 1 % % 7 < < < @ 1 1 2 % 2 q 2 % < @ @ 4 q 5 w k f f f k w w w w f w 5 6 < < < < < % % % * f Y -.d.4.! =.3.7.M.V.Z.C.V.p.3./ p.3.U e l C V M w w d w l 5 5 w w w 5 5 2 < 7 5 6 6 c x z z x z M y 6 7 6 6 w 3 2 3 5 w w w 6 z w 5 x 6 7 7 p x x 8 6 w w l z z x M x p 6 6 6 8 x y y 8 7 < 6 6 k 8 6 x p k 8 8 7 7 7 8 x x 6 y c z p 8 H z x k f K 5 7 6 6 7 < % < 6 6 8 k 8 6 7 8 6 6 z n x 6 5 5 5 w k 6 6 x 6 5 6 6 6 x A y x z z S M 6 6 ",
"=X=X=X=X=X=X=X$X=X=X=X=X$XW.W.R.R.R.R.U.U.U.L.U.E.E.E.U.U.U.U.E.@X@X@XE.W.E.R.R.U.L.L.U.U.U.U.U.U.U.U.U.Y.Y.Y.Y.U.U.W.Z.i.i.h.A.B.A.|.B.h.B.a.B.V.a.s.A.A.A.|.B.C.XX|.h.h.V.V.Z.T.C.V.V.p.7.C.OXOX,X;XoXA.A.+X1X9XoX=X@XY.K.Z.d.V.M.Z.d.! Y 6.6.-.=.-.d.-.Q ~ 6.D S -.=.=.-.&.m.L.U.W.U.d.d.=XY.d.d.N.@XY.@X*XT.p.1.1.~ D m m ! M.D.0.1.! 7.d.! Y V U / a.3.U ^ U ( 3.s.~ C h e q 3 d Y ~ U ~ / 8.8./ / 3./ 1.~ U Y V V ~ ! ~ ~ R / / / ~ U U R C M V R Y U R C m C &.F q.*XwX9XcX*XD.q.R.G.R.F.K.qXqXE.W.=XW.E.R.W.6X$X@X9XW.D.U.Q.W.c.F.Q.G.R.*X;XW.G.H.$XF.v.G.tXW.G.c.G.W.Y.D.W.tXfXmXW.F 7 7 k v { v K < % < 7 < V *XmX0X1XxXSXZXZXZXZXZXPXPXVXCXVXLXCXJ y.J.Q.Q.J.H.G.f.e.k.;.r.*.| *.;.e.y.y.).).e.e.v.A z F &.&.F G m d q e U ! / U 0 1 * 3 3 q w q 0 2 * * ; * * # & 0 d e q q e m d m l m m h e d C m l m 3 1 f l f f w 5 l ! 1.6.1.~ Y Y m d w D 0.=.~ m h C V U Y Y V V C h C Y ! ! Q C h h h r r ; # & # * 0 0 w 5 4 < 4 3 4 4 4 1 < < 5 6 < 3 2 4 q q e q 0 q q q 3 3 q d 4 2 w 5 4 l 5 3 6 w 5 4 4 < % < 7 < % % 1 1 < < < < @ @ $ $ * * < 2 5 6 6 5 f w w w f d 6 6 6 6 1 < < < % % @ = w V Q 0.7.4.8.g.g.Z.V.a.! U U U ~ / / 3./ 7.p.R d q M M V V y 5 5 5 5 6 w 6 4 7 5 f x M F G G z z z x 6 6 k y k 6 2 3 2 3 q w 5 k y w k x 6 8 x p y 6 6 6 6 l M z x x 6 6 6 y 6 6 8 8 8 7 < 7 6 x x 6 7 8 8 x p 8 7 7 < < 6 x 8 8 x z k 8 x k k 6 4 6 6 7 5 y 6 7 < 7 k f 6 6 6 p 6 x c 8 < 2 6 < , 3 y l k 6 6 k f w 6 < 5 k M y l Z F T Z 5 6 ",
"*X=X=X$X=X=X$X$X$X=X=X$XW.W.R.R.R.U.L.L.L.L.L.L.L.U.U.U.U.U.E.W.@X@XW.E.W.E.E.U.I.I.L.L.L.L.U.U.U.U.U.U.Y.U.U.U.J.U.C.i.( i.B.|.|.|. XC.h.B.i.s.a.a.s.A.V.A.C.B.|. XZ.h.a.A.C.T.C.Z.a.8.s.T.,X-X%XOXK.q.1.a.XX0XpXY.Y.U.T.T.K.8.p.g.K.@Xd.Y Q =.D C S f.8.l M 6.Q S D Y R Q J m.*X9XY.D.! ! Y.L.1.Y ! N.M.N.Z.A.7.8./ R ! V d f l Y ! 6.Q m ! 8._ i.B.B.i.i.s.i.i.i.~ / R 8.wXvXHXmXY.Y h d C D ! 1./ 3.~ ! / ~ R U V U U ~ / ! / / / / / U V V M M C Y R R R V N R =.Z S q.dXaXcXW.w.r.w.9.G.v.0.E.rX=XW.W.W.=X9X$X=X6XK.$XW.m.F.=X9XE.G.G.w.y.!.=XeXJ.t.G.G.e.<.!.~.6XW.R.R.U.*XR.F.$XdXzX~.f @ < 6 8 < % $ @ @ < 6.vXaXA.A.3X3X3XgX3X-X3XgXVXgX3X3XZXPXKX#Xy.v.J.Q.J.R.5X).v.9.;.e.o.G *.%.*.c c ,.J.H.R.).r.A A ;.:.G G S N q 0 f q q q 2 1 % * 1 q d e t * * t t ; * # # 0 h e 3 * 3 d m M S C m q 3 3 q 5 3 q w f M m 5 3 w V ! 6.-.Q C C Y Y Q ~ M Q q.0.7.~ m C V Y Y Y C h g f C ! / / ~ U C h h h j r ; - & # * * 4 3 4 1 5 4 < 1 < @ @ 2 5 4 4 q 4 4 q d q e d q 5 q d 5 3 2 < 5 f w w f 4 5 4 4 6 w 5 < @ 1 < % @ @ 4 @ @ < 1 < < 2 @ $ + X $ < < < 6 w l d w d f l 6 w w 6 6 < 1 1 < % % * 5 m T -.8.7.p.K.p.i.a.V.3.R V Y 4.R ~ p.g.Z.M.R d q M M C V l 6 7 2 1 6 6 w 6 6 w z l y G Z c c H Z M k l l k k 6 6 6 6 < 2 4 5 6 8 6 5 f 8 x x 6 6 6 f 6 5 w k M x 6 7 < 5 2 2 5 6 8 8 < < 7 6 6 k 6 7 6 6 x k z 6 7 < , 7 p p 8 8 k k 6 6 p k 6 4 6 6 7 2 y 6 2 6 6 6 K k x x z 6 k Z k < @ @ $ @ 4 w 5 7 2 5 5 5 6 6 7 5 6 6 w M Z M S F m k ",
"6X=X=X$X=X=X=X$X=X=X$XW.E.R.R.R.R.R.U.L.F.L.L.L.E.E.E.R.U.U.E.W.W.W.W.E.E.E.R.U.I.I.L.L.L.L.L.L.K.U.R.R.U.L.U.U.H.L.a.( _ B.B.|. X+X%X|.a.B./ 3.j.a.i.i.i.B.C.C. XC.V.B.C. XT.A.V.V.V.V.K.<X2X>XOX+XU.D.N.K.<XwXzX*X$XY.Y.K.Y.L.Z.Z.d.K.8.V M =.D m M d.M.Q Q 7.1.Q ~ 1.8.Q D 7.@XW.d.=.! R 8.Z.7.1.8.8.7.7.N.Z.N.1.8./ V m M m l m Y -.Q V ! ! s.V.-X X) _ B.h.i.^ h d.wXwXdX*XwXDXHXHXwXm 5 f Y Y / 8.U ~ 3.8./ ~ R U R R ~ ~ / 3./ / ~ V m N m l f C R R ! =.U ~ ! F C -.0XaX2XY.R.G.m.D.L.R.D.L.$X@XU.R.tX6X9X=XU.=XU.R.W.F.Q.9X0X#XF.w.<.<.H.W.0XQ.v.n.b.H.G.v.J.=X6X6X6XQ.9X!.;.L.=XtXzX8.@ X < < @ @ + % l uXVXVX3X3XZX3X3X3X1X;X-X X%X-X1X3XxXZXPXCX9Xn >.H.).R.Q.R.).v.;.&.r.r.&.B A | z c c e.J.6X6Xw.e.e.e.;.&.G Y d 0 0 q 1 5 3 3 < % % 1 5 e d 0 * * 2 0 * * # & 0 h N h q 0 e C M T S m q 2 < 1 2 4 q l T =.D C Y ! 1.Y V D ! Y ~ 6.1.7.6.Q =.6.r.1.Q m V Y Y V N m e ; j R R m g g g 0 0 0 0 f f h ; & # + = 1 q w w 5 < < 1 @ % * 2 4 4 5 d d 3 q d w q w 3 4 q q 3 5 1 1 w w 5 6 5 4 5 4 4 w 5 1 < < 7 < @ % < 5 @ @ @ < < < w 2 + X X $ @ @ < 1 5 q q m M f 6 6 w 5 5 5 < 1 1 1 2 1 4 4 m D =.! 1.8.M.g.3./ j.g.~ U R p.3.3.V.V.i.R N m e y w d M M w 6 6 6 6 l 6 6 f 6 k l l z c x x c Z A M Z Z k k 5 6 y 6 < < 1 5 p 8 6 w f k y 6 6 6 6 z w 5 6 w k k 6 7 , < < 2 6 6 7 < , 7 k z 6 6 p 6 6 8 8 6 x 6 7 7 < 7 8 6 6 x z z k 6 x c w 4 6 k 6 5 y 6 6 x l k f z M x Z p p c 8 7 , @ < 7 6 6 5 7 7 6 6 6 k k k z x 6 y z M 6 5 f k w ",
"W.=X=X=X$X@X=X=XW.=X$X@XW.E.E.E.R.U.U.U.U.L.K.F.K.U.U.U.U.E.E.E.U.E.E.E.E.E.U.R.!.U.R.L.K.U.U.R.K.L.K.L.K.D.K.K.C.B.B.A.C. X X X X X|.C.B.s./ 3./ / 8.! R ! 8.a.s.B.B.V.XXXXOXOX+X;X>XOX;X;X*X@XK.M.7.Y.T.N.m.U.eX9X@X$XY.8./ V.6.1.Y ! V m C Y V M Q 0.D.w.&.&.D Q Q 6.6.2.7.7.m.7./ / ! ~ ~ 1.1.8.d./ ! 3.4.! 6.7.7.8.8.1.! g.K.N.3.M.T.P.d.d.s.h. Xi./ ^ ^ / U m q.7.*XXXV.Z.<XxXgXPXKXKXLX Xd m D Q 4.3.8.8.~ ~ W ~ ~ / / / 8.~ ! 3.W U R R U h V Y Y R / / h U 3.d.! M.6XtXJ.G.W.9XuX:X=X=X@XL.=X=Xw.y.6X$XR.!.D.Q.$XY.E.=X=XW.#X=X6X).G.c.J.F.$X6X*X*X:X9X~.!.b.<.t.G.F.$X*XW.c.G.G.R.fXmXQ X X % 7 @ l *XCX-X+X-XxX3X X:X;X X4X3XVX%X%X XA.Z.,XZXZXLXLX%.v b t.<.t.n.v.,.n p A ;.2.Z A | F ;.B c | G.v.| 9.G.S.e.=.D d 2 1 4 1 3 3 4 1 2 % % 4 4 3 4 * # + + + % % * 2 3 4 4 q e h m C V h h d 3 2 1 q m ! =.6.q.;.e.w.q.c.r.f 4 D 6.m.D.c.r.0.d.1.=.R Q J V C h m d d 0 & + ; L L * o o . X @ 2 h j j j ; # & * 0 ; 4 l k f 3 4 * % 1 2 % < < < 5 3 q 3 5 q 5 3 5 6 q d q 1 3 5 q 5 5 5 < 1 q q < 4 5 4 4 4 w 3 % @ @ @ * + + @ $ % @ 1 @ @ $ % 1 1 < 1 @ 4 M V M M k 7 % < 1 1 4 1 4 < 4 4 4 6 e S Q =.Z T 7.d.p.p./ Y ~ d.d.3.i./ ! 8./ d q w y u u l 6 z M l d f 6 6 6 p k k l m l l k k k 6 8 8 6 x p f 5 5 1 4 3 5 % @ < y y 7 7 d f p l e q 6 8 y 7 6 6 K x 6 l 6 % @ % 4 q 2 2 @ @ 7 v H d w 6 y 7 6 p K p k 7 , @ 7 x x x k z n H H z Z x 6 6 w 6 6 z y 7 6 l k f k x z x l 6 6 5 7 7 7 k 6 5 5 % 7 8 k x Q =.p.Y D.oX8.Q H F M 6 f M S ",
"=X=X=X=X=X$X$X$X=X=X=X$XW.E.E.R.U.U.U.U.U.L.L.L.!.U.U.U.U.U.E.E.R.R.E.E.E.R.R.U.U.U.R.R.R.U.L.K.D.K.D.D.D.D.D.M.V.V.Z.|.|. X%XXX XV.A.C.C.a.3.8.8.i.8.8.1.8.a.N.B.a.s.a.+XC.;XsXaXaX0XA.;X:XT.N.Y.L.8.K.=XT.N.M.@XW.W.@XT.! ~ s.! 1.~ 1.! Y d V ! Q =.-.7.0.Y m V 1.8.d.K.M.N.D.N.! ! p.1.! 1.7.1.! d.d.V Y 1.7.7.8.1.8.8.g.N.K.eX*XZ.V.M.K.T.A.B.a.h./ / _ ) ^ U ! @X*XiX>X>X,XaXmX&XxXSXLXJXKXSX|.4 d F ! ( / / / ~ / / / 3.8.s./ ^ U N Y ~ ~ / ~ ~ R ~ ~ / s./ ! p.M.d.=XdX9XW.W.@XwXwX9X$X$XK.G.Q.`.R.R.$XL.F.R.L.!.9X=XE.Q.6XeX$XE.tXtXG.9.v.G.J.U.Q.6X=X6X=XR.J.t.>.e.G.=X,X=XG.H.Q.L.9XNX7.@ % < 4 U sXxX2X$XL.K.B. Xp.U j.|.OX%X%X.X-XgXxX X%X3X3XZXKXk., < 8 v c x p c x c F &.&.$.z G D ;.&.| | F.w.c F e.w.w.F B w 6 3 3 3 q 4 4 3 5 d f 3 3 % * + + # # * r t 0 0 e 4 0 3 3 3 N C m d d d q w M ! Y Y 1.6.;.Q 9.q.9.0.=.l 6 Q 0.q.6.&.Q Q D M Y S M D V C N V h g j ; = h h r & X o X o * 3 d N g & & = # & - & * e G C d 3 * @ % < 1 5 < < 7 5 w 4 4 q 5 2 1 q d e q 1 5 5 5 4 4 5 < 4 2 1 2 2 < 1 1 1 w 4 @ @ @ @ % + + + @ @ 1 @ @ @ @ 1 2 2 % % 1 q V C d w 6 < 1 1 < 4 q 4 1 < 4 4 4 3 e S Q &.Q T 7.d.d.g.g.R Q M.U.p.3./ U U V M l 5 q y l M k m z z l l 6 5 6 w f l f l l m l z 6 7 5 7 < 6 x l 5 , 2 2 1 @ 1 1 2 y 6 7 4 5 f l k x K 6 6 f 5 q 6 w 6 y k 5 @ % < 5 3 7 < , @ @ 7 6 6 7 7 7 < < < 7 9 7 7 @ @ 2 z n B y y B y M l K k w q 6 f f f l l 6 6 6 k k w 6 6 6 6 6 6 6 y 7 6 6 6 5 , 7 6 k 6 -.M.p.Y 9.W.=XE.2.m l k M D D ",
"=X=X$X=X=X=X=XW.=X=X$XW.E.U.U.U.U.U.U.U.U.U.U.U.U.U.U.U.U.U.Y.Y.R.U.E.E.R.R.E.R.U.U.L.L.L.K.K.K.F.F.K.Z.M.Z.V.g.h.B.|. XXXXX+XOXXXV.Z.P.T.Z.N.g.i.a.s.s.p.p.p.N.a.a.i.s.C.A.<XeXaXsX@XZ.9X@X8.d.@XK.7.g.Y.T.K.Y.U.q.q.K.K.! ! d.7.d.1.! 1.1.l m ! 4.=.~ 8.T.T.N.C.+XOX#X=Xd.8.K.d./ 1.p.p.7.g.V.a.3.7.3.N C ! ! / Y d R M.K.N.8.d.@XY.d./ / g.V.V.Z.B.h.i._ ^ U d.K.8.g.V.s.XX X-X Xj.h.-XxXPXLXLXKXvX_ < 5 V R / 3.! R ~ ! / 3./ / R V d N U ~ R R R ~ ! R / a.p.! / 8.d.=XdXdXpXeX$XE.W.W.=X=Xw.e.<.G.Q.W.W.$X$XE.U.U.6X6XU.U.=XtX9X@X9XrX6Xv.<.v.y.v.H.R.~.=X=XF.J.v.e.G.E.=X6X6XJ.S.Q.L.D.zXS.< < z Q.mXsX-X3X4X3XZXZXZXPXbX%Xh.|.|.+X-XgX3X3X%X%X3XZXVXLX$X< 7 < , , , @ 6 6 y x M S z < 7 6 M M l l ;.=.z Z M -.;.x Z m V l f w w 5 5 f f f d w d % % & * - * 0 h e f m d t 3 % @ 1 d m l d w d D 2.7.2.Y d S 1.d.0.6.6.q.0.2.Q Q 0.q.-.D Y Y V l d M M S V V C m N N h j L g r = * - o o & 0 f q 3 f = + + & + = & # * 0 d w q 3 2 < % 2 q l 5 1 1 4 l w q e d q 3 q m d 3 4 q 4 5 4 5 q @ % % 1 3 1 % % 1 1 2 @ $ @ % @ $ @ @ @ @ @ 4 % % 2 % < 5 4 < 4 5 l m d w 5 1 < 1 1 3 e q 2 4 3 4 4 3 3 e V Q =.Q Z ! d.d.d.f.8.Q ! 4.R ! 4.R N y q l w w l k w y l l k x 6 6 6 7 6 f l x l l k k k y w 5 < < 4 8 y 3 2 * * + + % 2 2 5 4 w f 6 f k x l 6 6 6 6 w 6 k w 7 7 2 < $ $ % < @ @ $ $ % 2 2 3 f 4 @ @ @ % % < 1 @ $ $ $ , 7 7 < 7 < 7 7 8 6 7 8 6 w 6 m f f k 6 6 6 6 k k 6 5 5 5 6 5 5 6 6 6 6 7 5 6 7 2 w k @ 1 7.D.1.&.G =.K.f.d 2 w 9.9.r.",
"=X=X=X=X=X=X=XW.W.W.W.W.U.U.L.L.L.U.U.L.U.U.U.U.U.U.U.U.Y.Y.Y.Y.E.R.E.E.E.E.E.U.W.E.L.U.E.Y.U.L.K.D.P.Z.V.Z.h.a.A.|.+X%X%X+X+XOXXXN.V.V.V.N.a.p.i.a.s.s.8.! p.V.g.i./ N.N.N.<XsXhXsXK.K.qX$X8.m.@XN.8.7.K.Y.P.K.U.q.6.m.K.1.R 1.d.d.1.! 8.q.Y C ! =.! s.A.0XzX>XpXpX;X0X;XR U p.N.7.3.p.M.M.V.a.p.p./ U Y Y D m m C C ! M.8./ ~ R 1.p.d.! R ~ 8.a.i.a.V.h.i.U M.L.Y.@X+XOXC.,X2X>X2X-X1XvXxXZXKXLXLXKXKXFX^ r R 1.1.i.U R / / 3.~ ~ U U N V V V m R R R R V V R / U U ! ~ 7.*XeXwXwX9XK.q.K.6XQ.F.J.v.v.G.Q.6XwXqXtX=X5X6X$XD.K.U.E.*X9X6XdXrXR.X.<.t.G.G.H.`.6XtXQ.Q.J.R.Q.6X*X*XtXR.v.Q.R.F.tXS.5 e.6XQ.K.:X0X2X1X1X-X1X1X3X3XxX4X4X3X3X|.B.%X-XgX+X1XVX3XLXY.< x 7 7 2 2 1 4 5 4 2 5 l 5 @ @ @ % $ @ 2 w w 5 e q S &.=.0.0.0.! V q 3 5 f d d d m l w 5 q q e t 2 * t q d d 4 2 2 @ @ 1 2 1 5 w V =.0.M.d.0.4.m M =.m.6.=.0.U.D.-.6.2.m.m.Y M C d C m w C Q ! Y D m C C Y h f g g = + * * X . & e C e = & + # = ; # # & & * 0 q 3 q q 5 3 2 5 q q 3 1 2 4 f f d d C m q q d e 3 3 5 1 6 4 q 5 @ @ < < < @ % % 2 1 @ @ @ @ 1 % @ @ % @ $ $ % 1 2 % @ 2 w 3 4 w 6 5 6 q q q 2 < < < 3 e q 4 3 3 4 4 5 5 e V S Q =.T R 6.d.0.0.8.=.D V W R R U m q 2 q l l M l 6 w l k 6 w 5 5 6 6 6 5 5 5 w l f k x z l k y y 6 6 6 5 2 * * * % 1 2 < 5 6 w l f q 6 6 5 4 < < < 7 < @ % < < 5 < * * 0 0 0 h P E |.gXgXxXxXgX|. X%X1X1X%X-Xh.E U g j U L K 6 7 , < < , , 7 8 8 6 z k k w 5 k x f x k 6 7 6 7 7 7 6 6 6 6 6 5 6 7 < 2 w M < X V c.8.&.k 5 T 3.! k < 2.Q.<.",
"$X=X=X=X=X$X$X=XW.W.E.E.U.U.L.L.L.U.R.U.U.U.U.U.U.Y.E.E.E.E.E.E.E.E.E.E.W.W.E.E.Y.W.W.W.E.Y.Y.Y.U.D.K.V.a.a._ a. XXX-X-XOXOXC.C.T.g.d.N.s.s.8.p.V.B.a.V.a.s.a.s.8./ / a.8.s.=X0XsXpXD.q.M.D.0.f.@XY.7.d.M.@X@XK.$XU.m.K.U.7.~ 1.4.1.! Y 1.8.Y V ! Y R N.Z.9XzX:X9X9XT.T.K.V h ! 8.1.7.V.8.8.8.8.3.3.3./ / ~ Y m m C 1.d.1.~ ~ / ! U V Y U U U ~ ~ / ) h.i.W 3 W.S.K.7.d.W.K.oXoXwXcXcXvX,X+XC.#XbXCXLXLXKXKXZX( d ! ! R R R ~ R ~ ~ U U N m d d d Y ~ V U V N C ^ U / N.Y N Y.9XrXtX6X=XL.=XtXtX6X6X!.m.e.F.6XrX6XtX=XW.W.=X=X@XU.U.~.6X6XeXrX6X9.<.t.G.G.H.J.R.Q.Q.H.R.Q.D.qX$X=X9XQ.G.R.6XR.G.q.7.E.K.|.-X^ L m N R ~ 3.3.h.|.1XgX X.X1X%X+XC.|.1XV.Z.2X-XSXD.$ 6 1 7 6 5 6 w 5 4 < < 5 4 2 < 2 % $ * 3 d 3 1 d m S D S.L.D.D.q.=.M f l m C M f w k 6 6 w f 4 0 2 2 3 2 3 1 % 1 2 @ @ 2 d f M S -.6.7.q.6.=.R Y ! 2.7.6.q.D.D.d.Q 1.1.N.K.8.! R C V C m Y Y m m N h N V V t 0 - - = # * + X # * g h 0 * + X X & ; = = * & + * 0 3 q q 5 q w w q q 2 * 2 0 0 3 e e V Y m e e q 4 q 5 1 7 < 5 2 @ % % % % @ % 1 1 1 % % % 1 2 1 < % < % @ $ @ * 0 1 1 4 3 1 4 3 2 < 4 w f f 3 < 2 5 w d d 3 < 4 3 4 4 4 e Y T Q 4.2.=.6.6.&.=.R M S V V ! R V m 0 1 4 d M Z c z k x 6 6 7 7 6 5 6 < < 7 7 7 7 7 < < < < 7 < < , < < @ @ $ $ @ @ @ < < 7 7 3 5 7 < < < < < < 1 @ @ 2 0 U i.A.%X%X3X3XxX3X-X2XgXVXZXCXVXgXxXxXgXgXAXCXSXSXFXCXZXZXIX3XZXZXzXOX;XC.a.3.R e 3 7 < 7 5 7 6 6 6 w l M y 6 7 < 6 6 7 7 w 6 w w 6 6 6 6 1 2 < 7 , @ p.D.-.l 6 z 4.K.Z.4.< 5 9.Z ",
"$X$X=X=X$X$X$X$XW.W.E.E.E.U.U.U.L.U.U.U.U.U.U.U.E.E.E.E.W.W.W.W.E.W.W.W.@XW.E.W.W.@XE.E.Y.E.$XY.K.M.V.B.s.s.s.B.XXXXOXXXT.XXZ.V.C.M.f.N.8.N.p.s.Z.V.i.i.N.a./ Y R 3.p.i.a.T.0X*X>XpX*XD.2.2.=.T 8.M.K.Y.M.U.@XU.=XU.q.M.K.K.d.M.d.8.! Y Y ! m R ! 1.d.K.M.=XqXM.d.g.7.! ! ~ V R 1.1.8.d.! ! ! ~ 1.! 1.p.p.p.3.! Y Y / 7.! ! / ~ R / ! Y ~ U ^ R U / ^ / / ^ U L.e.U.Y.W.m.Y.$XM.g.Z.p.g.a.&X0Xh.|.3XZXZXVXFXKXKX;X/ m Z =.U U U W R Y W U Y V U Y R ~ Y V N C V E ~ 8.@Xd.Y K.6XW.L.=XtX$X=X$XdXfXtX=X6X6XR.Q.6X~.D.G.G.S.R.6X=XU.E.`.6X`.=X6XdXQ.<.v.R.F.v.v.e.H.Q.H.R.F.q.W.L.@X$XU.U.Q.8Xv.,.L.*X;X%XxXZX3X3X,XgX3X3X.X|..XXXh.%XOXs.|.+X XXXj.XXC.a.+XhXSXtXX < 7 < 7 6 7 6 5 5 6 6 5 5 2 1 w 0 @ * 0 Y m V ! M f f e.R.G.G.D.f.0.-.D C V l f l f 6 6 6 w f q C Y M q e q w M f 6 l Q q.q.q.m.D.m.m.6.C V Q Y 1.! ! -.7.1.Y V U ! 3.8.8.1.! Y R N d Y 1.d * 1 0 h U V C t 0 ; - = = 0 = ; g d f 0 = = & + X + * 0 ; & # + @ 1 % 1 4 3 q 5 4 3 0 * * * 2 0 1 q d Y R C q q 3 1 q 3 < < < 3 2 % 1 % 1 2 @ @ % % 1 % % % 1 2 1 1 2 2 2 % @ $ % 3 e q 2 4 1 3 2 @ < w m d w 3 1 3 5 q d d q 4 5 4 1 1 % e ! 1.T -.2.;.2.Q Z S Y l l C C 1.7.! V e 2 2 l S G x 6 7 p l m V q h d 6 2 3 5 f 5 q S R N f S =.~ C e q q d e t 3 0 q 4 2 1 < 7 @ @ 2 7 % % 1 0 / XX X%XvXVXSXSXSXZXPXSXFXSXZX2X1XuXiXsXaXxX1XsXvX>Xh.Z.OX1XxX,XOXOXaXvXgX>XgX3XZXZXSXSXPXZX3XgX2Xs.f % @ < 6 8 k x w q 5 < @ 7 p 8 6 5 5 6 6 6 k f 6 < @ < < @ @ p.0.l < < l y D ~ 5.Z < 5 e ",
"$X=X=X=X$X$X$X@X@XW.E.E.E.E.U.U.U.U.U.U.U.U.U.U.E.E.E.E.W.@X@XW.W.W.W.W.@X@X@X@X@X=X=X$XE.E.$XT.B.h.B.h._ h.h.A.%X+X+X+XT.C.C.A.XXT.K.d.7.N.B.s.V.C.B.i.a.s.~ V R a.a.i.V.@XpX9X9X9XW.c.q.Y.0.d m Y d.K.1.d.K.E.$XL.0.1.1.d.q.d.d.4.! Y C Y Y 1.d.Y.Z.N.N.@X$Xq.6.7.1.Y U ! ! U R ~ / ! U Y U R ! ~ / p.V.Z.8./ ~ / ~ 1.3.! 3.! ! 8.p.8./ U ~ R Y ~ R / 8.^ / K.;.q.M.7.0.d.! Q j.;X;X>XgXvXgX-X%XgXgXVXLXxXSXKXKXJX+Xw N V U U U U U U R / / / / R ~ ~ Y N V R V C V D.U.7.q.6XE.F.=X=XW.@XL.qX9X6XQ.=XtX`.R.W.9XW.F.I.J.F.R.W.F.G.J.).Q.R.Q.eX6X:.v.J.y.y.>.r.H.J.H.R.y.e.G.R.P.$Xc.H.v.t.O.v.@X#X-X.X) ^ V.|._ h.|.3XZX3XxXxX4X4X3XuXoX#X1X1X&XV.P.p.U  XZXAX$ 8 5 w 8 d f 5 2 5 6 f f 5 @ @ 5 w 4 @ < d m ! -.f % < n y.R.W.U.F.F.f.! M m 5 f f l l f M D D -.q.6.&.D Q -.&.0.6.0.q.K.m.m.0.0.m.N.d.! N C R U U V N N U C U U U U h h h U Y U h e V 1.! q 0 m d h m d m h 0 ; r r j N f h h h d 0 q 3 * * + + & - & # + * 0 3 2 1 2 0 3 2 % < 1 @ % % * 3 3 3 l D m d 3 3 < < 5 4 1 < 2 4 2 < < @ < 2 1 1 % % % % % % 2 2 2 3 q 4 4 < % $ + < q 3 1 5 1 2 < @ < w l f 5 1 < < % < 4 5 d w 6 1 % < 1 d R 1.S T 5.;.Q T F F Y V l Y Y ! p.7.m N N d m Z Z y 5 f N.1XZXPXZX3X-X XB..X-X3X-X3XZXPXPX3X-XSXPXxXVXxX-X3XVXxX4X-X3X4X|.h._ _ P U h.-X4X4X.X` |.-X+X%XhX,XvXMX,XA.=X0X@XQ Z e.L.qX$XY.eX>X;XOX,XhX,XC.Z.+XiX2X2X|.Z.iX1XVXgXOX>XsXgX1XZXZXCXCXLXLXVXB.N $ @ < 6 x 6 1 4 1 < 5 w 6 6 < @ < 5 k w 5 4 2 % @ < 2 5 7.V @ 1 q M z M D f.=.3 4 1 ",
"=X$X$X$X$X$X$X@X@XW.E.R.U.U.U.U.U.U.U.U.U.U.U.E.E.E.E.E.W.W.W.W.W.W.@X@X@X@X$X@X@X$X$X$XE.E.$XM.h.h.B.h.B.|.+X-X1X-X-X2X;XC.C.A.+XXXK.7.s.V.V.a.V.Z.N.i.a.a.8.Y s.OXZ.V.g.T.wXeXwXtXR.=.F Y.Y.N.2.=.2.d.! S S -.f.L.Y.1.D 8.d.1.4.1.8.1.! ! d.M.p.M.1./ N.Y.U.d.D.M.d.p.8.V.a.3./ ~ / ^ R U R ! i./ 3./ p.8.~ U ! ! V ~ 1./ ! 1./ 3./ / / ~ R / R ! / / U h V.N.K.T.p.1.p.~ 8.U.#X>X,XaX%Xh.j.$X6XL.~ 8.3X3XIX3XZXKXKXSXs.h V 4.i./ / / U W R / / / U U / ~ V U C C m 1.=.m l G.6XtXwXwX$X6XW.J.$X).Q.F.!.!.R.F.tXqXR.G.H.v.<.R.J.y.v.J.H.J.J.wXnXv.t.H.G.y.y.<.y.y.<.J.v.J.H.F.c.v.@.@.@.O.H.S.K.XX XXX,XXX1X+X;X|.h.` B.%X.XxXPX3X%XB._ ) h.XXuXXXP.&XOX%XZXFX4 7 w l 6 d f w w l 6 l Q M 4 1 6 6 l 4 4 5 M Q l < 4 4 k A :.v.S.G.D.m.0.! C q f m M Z T 0.m.q.K.U.m.d.q.c.D.0.m.m.m.d.D.q.-.D ! ! ! U h g U U h h g g r r t r g t 0 * 0 0 g h e e h N Q Q d h N e q f f d 0 = 0 g U V V h e f h r * t * ; 0 0 0 0 0 & # + % * 2 e 0 2 0 3 3 4 3 1 @ % % % 1 5 q f f 3 q 3 3 1 4 5 3 2 1 5 1 1 1 3 @ % 1 2 < % 1 @ @ 1 3 q 2 5 5 5 < < 4 < $ $ @ @ @ @ 3 < 3 2 @ @ 1 5 4 1 % @ < 2 2 2 2 e w q 3 % % 2 e Y 1.R C &.=.T S G F R Y S R S C =.2.l N ! Y V Z z z =.ZXKXLXPXZXLXFXvXVXgXxXSXLXLXLXVX1XxXhXZ.B.,X,XgXGXSXCXSXCXFXxXVXZX3X3X1XVXiXOX-XCXLXSXiXXX|.Z./ m V U +XaX>X^ N 4.$XY.V C Q -.D.$X#X,XZ.1.7.K.@XY.3.p.P.@X=XAXs.U E T.0XeX-XxXvX-XxXgXVXCXxXgXPXLXPXZX-X( % % < 7 6 5 5 1 4 q q < @ @ 5 w 5 7 1 2 2 % 2 d C M.1.l Z D M l M m 4.4.3 4 3 ",
"=X=X$X$X$X@X@X@XE.@XW.W.Y.Y.Y.E.U.U.U.E.E.E.E.E.W.E.E.E.@X@X$X$XE.W.W.W.@X=X=X=X+XW.$X$X$X$XK.a.B.B._ _ B.%X1XgX2X3X2X2X1X+XXXP.T.Z.N.p.g.V.C.Z.V.C.B.a.N.N./ / C.>X:X@XZ.d.@X@X=X$XF.Z f 7.D.d.6.! ! 6.8.Y C Q Q m.=Xq.Q 0.M.M.N.7.d.7.! 1.K.f./ ~ ~ -.6.F.R.F.W.U.M.T.N.Z.N.a.i./ a.s.a.p.8.8.s.s.s./ 3.3.U U ! Y m V ! ~ R ~ Y ! ! ! 3.~ ~ / 1.8./ / / R $XK.R.F.0.M.Y.$Xf.=./ g.i.g.XXhXgX1X_ _ 3XgXSXVXKXKXJXKXKXKXKXwX! y f C ^ ^ 3.! / / ~ ~ W R / ! U P N f V 1.Y 3 5 q.v.6XdXdX0XdXrXQ.Q.Q.Q.F.>.,.J.H.Q.6X6XG.G.J.y.H.).J.J.J.b.J.Q.6X7Xb.o.<.v.v.J.e.:.v.<.y.v.v.y.y.+.O.@.u.v.=Xm.Q N.B.V.Z.3.^ h.h.A.-X2XgX1X-X4X4X.X-X1XxXoXOXoXl.p.M.T.g.Z.1XPXKXV 7 y l w k B C Z Z z M $.;.l w < 5 z x z 6 B $.4 % m Y q.2.A } n :.0.F.m.4.=.V d m Z Z 9.D.D.S.c.!.D.m.7.7.d.p.8./ 8.1.8.1.1.1.Q Y h * # * g P h C j g g g g r 0 ; 0 g h h e f 0 0 f N ~ U h d f 4 0 d h t 2 * * - 0 h V N g 0 = # + = & * * t 0 = * & + # % < * e q 3 5 3 q 3 1 < 1 @ @ % 4 w 3 q w 6 w f f 5 4 5 4 3 5 3 % % f d 1 < < < 2 % @ @ < 4 2 2 1 3 5 < % < 5 2 2 2 % $ @ 1 1 < 5 5 < 7 5 4 2 2 % % 2 3 q q 5 3 3 w 3 < % 1 q C ! ! M D Q Q S S S D C f C C l V ! U d m Y V M d 4.$XVXZX Xh.i.V.-X X X3X2XgXaXsXsXZ.^ ) &X;XZ.XXgX1XOX+X;XsXpXaXiXvXFXCXsXZ.@X*X#X,X2X<XT.8.! V.|.C.a.~ ~ $X:X#XK.7.a.N.7.1.Q 1.Q H 6.oX0X$XQ -.6.R 6.d.M.U.9Xs.iXvX+X3.3.g.oXZ.%XsXOX-X|.;XVXcX1XxXVXxXFXLXPX-X) 0 + < 5 5 5 5 6 6 % % < < q 5 5 2 4 % < 4 S T =.Q D J 6.S f d e B D 5 0 2 ",
"$X$X$X#X@X@X@X@X@X@XW.W.E.E.E.E.W.W.W.W.W.W.$X$XW.E.E.E.W.@X@X@XW.W.@X@X@XW.@X@X@X@X$X$X#XT.i.s.B._ ) h.|.-XgX2X2X2XgXxXaX%XP.oXT.N.d.d.Z.V.N.a.a.Z.A.V.N.8./ V.;X0X0X9XM.! 7.0.U.6Xv.6 l 1.M.d.d.m.d.q.! V -.m.D.m.W.M.7.7.M.K.M.N.d.7.Y ! M.g.1.Y V ! R =.d.U.<X@XK.oXoX;XXXa.N.N.T.P.V.Z.8./ / i.8.R U R U ! ! ~ R V ! R C V d U ~ ! / ~ R 3.N.p.~ / U 1.9X7.f.D.L.0.=.4.2.K.T.P.g.#X) XXg.T Z d.,X1X-X) ~ t ) VXIXZXKXKXJXW.V 5 f U ) / ~ E Y ~ / ~ ~ / ~ U V m M S C 5 % 6.G =.Q.=X$XtXtXW.6XtXtX).e.t.H.y.S.6XdXW.F.J.t.y.b.v.v.J.v.H.J.J.`.J.X.} >.>.v.G.J.R.H.b.J.b.n.<.@.{ y.qX1XgX>X Xh.h.|.|. Xh.) ) ) ^ h.%XgXVX3XVXSXCX3X3X XP.f.5.$.T V g.oX1XZXKX7.7 6 5 6 w y k z y z Z D ;.B y 2 < M Z l Z &.D * 1 V 7.9X0XK.r.} b &.G.W.d.! / ! V k M m.D.m.q.m.U.D.1.1.q.7.q.7.8.8.1.! 8.7.~ N h # . X * t r h U g 0 j g 0 t g g g j U C 0 q 0 f d h R V N C m d f h h 0 0 4 * + 4 j j V h t % = = 0 * = 0 0 r 4 0 0 * 1 1 @ % q 0 2 3 w d e < < q q q 3 3 4 4 6 f 6 f l l f 6 6 5 4 4 1 < 1 f M q 4 < 4 5 1 @ @ < 3 2 1 1 q 4 1 1 5 6 6 5 < 1 % 1 q 2 < 5 w f w 4 4 1 2 2 4 3 d m m w 3 3 5 4 < < 1 q V ! 1.Q D Q T k m V D C w f m l m R S h N V D d N |.|.~ ( ~ V / XX,X;XOXuXuX$X1.Y P.#XT.N.+XhXgX;X:X9X! d D ~ ! p.K.E.pXvXCXZXxXZXCXCXVXxX1X%X X X%X>X;XC./ OX#XP.oXoX;XY.1.Q Y 8.1.&.H ! #XwXm.~ ~ R N.T.g.3.P.T.V.>XvXpXp.7.f.7.a.#X=XZ.a.a.oXOX>XsXwX,X1X2XFXLXKXZXB.j = % % % @ , % 2 5 5 5 2 3 4 % < < 2 m M Y V l d -.D q q 4 3 f f f % ",
"$X#X@X@X@X@X@X@X$X@XW.W.W.W.W.W.W.W.E.E.E.E.W.@XW.E.E.E.W.W.W.W.E.oXW.@X@X@XoXoX$X@X@X$XoXB.( s.B._ |.%X-X2XgX3X;X1XxXxXxXuX;X>XOXZ.N.M.Z.Z.Z.V.g.Z.Z.V.s.s.V.$X,X:X9XqXm.-.q.D.9X6Xw.l M -.M.L.U.D.D.D.7.1.f.U.$XD.K.K.D.d.N.d.f.d.1.8.R 8.M.8.~ R R ~ U C Y N.pX9XP.P.OX,X#XV.s.s.a.a./ 8./ / / s./ U U U U U ~ ~ ! Y Y R U R N Y ! / ! U N U 8.! R ~ h M.@Xp.0.M N m 7.M.M.7.f.M.K.7.Z.#XXXV.%X3XIXIXIX3XpX&XXX.X1XZXZXZXKXKXHX).8 0 I P U U U R ~ U h R i.^ Y C m M C M 7 G.c.=.R.=XW.6X$X@X@X$X6XQ.H.v.t.t.y.S.wXwXW.!.y.<.v.H.<.v.H.v.H.t.J.H.y.>.O.v.v.).8X`.`.Q.).b.u.@.+.v.dXgX2X3XxXgX.X.X|.|.%X1X2X X X%X Xh.|.3XxX4X X3XPXZX1X|.F b c B y T M  X3XKXs.7 8 f f 6 7 7 8 7 7 Z &.F A p 5 5 S A k | D d 3 w M 2.0XhX0XoXy.$.$.5.D.M./ / 7.Y S Y N.N.7.d.M.K.m.6.q.m.m.m.q.6.6.-.! N.8.d 0 N 0 @ 3 h f 0 h h t t g 0 0 t e j h h U N f h j f f f d d N U N N h N h d d j 0 = f d 0 h h N h h f t = - t 0 t 0 0 e e q 1 < 1 q 0 1 2 q m e 4 1 d d q q 5 6 5 f d w 6 f f w 6 6 5 5 6 1 % < 5 k w 4 < < < 1 @ @ 4 3 4 1 1 6 5 6 5 6 f k 7 @ < 3 5 w 2 @ 1 5 w 5 3 5 2 2 3 3 3 q m m e 3 4 w 1 % % 1 3 m 1.7.=.Q =.S w l M D D m m M S T 1.S M m m 6 N h.3X4XV._ i./ 3.V.a.c.q.d.N.! U ( +XgXsX1X-X3XZXgXiXiX|._ ( ( P P ^ ^ g.P.;XvXcXsXaX=XsXxXxXvXVXVX2XxXbX XB.-X>X-XC.<XpX=X1.S m d S =.J M 7.V.T.3./ / g.OX+X;XOX#XP.g.$XDXwX/ V 1.d.N.V.V.a.C.OXoXOX;XgX2XsXiXsX1XcXGXLXVX1Xh.U t $ $ @ @ < < < < 2 2 % % % 1 6 < x M q % q q 1 q 0 f m q % @ ",
"$X#X@X@X@X@X@X@XoX@X@XW.W.@X@XW.E.E.Y.Y.Y.E.E.E.E.W.E.Y.Y.Y.W.Y.Y.Y.Y.Y.@X@X@X@XY.T.@X$XoXB.B.A._ B.-X1X1X2XxX2XOXOXaXxXaXgXgXxX>X@XU.M.Z.P.A.8.V.Z.C.a.3.a.T.:X*X@X@X9X@XK.@X=XwXR.9.D Q ! T d.K.0.m.W.@X@XK.M.E.L.L.D.D.N.8.8.M.q.-.Y m / 3.U h U / 8.R N h s.0XwXK.7.N.Z.T.Z.g.8./ / ~ ~ / / / s.3./ 3./ U C h U U U U N U Y h h h U U U U U ! ~ V h h $XK.d.R N ! 4.! ! 8.7.C.C.V.:X9XP.-X3XxXPXCX%X3X3X.X.XIXIXZXZXVXsX1XxXJXKXNX/.@.G / ) I V G z d h E R R U m m C M 2 D q.q.F.9X=X6X6XW.$X~.W.Q.R.`.e.>.H.y.S.6X~.~.v.y.y.R.H.w.v.v.v.n.v.v.H.y.J.lX8X).yX(.'.(.u.+.@.+.Y.=X<X>X>XOX%X X X|.B.h.B.B. X-XZXZX3X3X&X XgXCXVX|.s.1XZXSX/ 1 y $.B 5.P.1XZXKXg.< c D H 3 % @ $ % @ 5 F F ,.} l d w 4 2 f q e h R V ! L.6X6XR.y.k.9.n z 6.m.! S m 1.1.d.d.d.N.f.M.d.7.d.m.m.q.6.1.Q D ~ ! d @ q R m d V Y m f h U g * ; 0 t 0 0 f h f e f d N f 0 f f 4 3 d d m N h N d d h j h h N h e h V V h e = = = ; ; 0 t t q d m e 1 < 1 3 2 2 2 q m e < % 5 q e q 2 3 q w w 5 6 f f w 3 5 3 4 5 2 % @ < 4 4 1 % @ % 2 < 1 5 4 6 6 4 6 k 6 6 6 6 6 6 < < 4 5 q 3 2 2 4 5 q w w 5 3 q q 2 4 q d d 5 2 5 % @ % 2 3 m ! 7.=.Q F M w w f l ! S S &.&.T 2.2.T l 5 7 P.vXCXZXgX3X|.h.( h..X%XxXZXVX2XgXsXsXaX,XiXOXC.uXaXaXAXhXhXvXiXV.V.a.^ h.P.Z.Z.*X;X#X/ g.,X1XeX9X0XvXeXzXwXZ.Z.XXpX$X@X@X$XU.d.K.d.8.m.M.P.P.j.#X%XZ.i.3.s.V.+XiX:XoXg.4.L.MXMXT m a.a.Q C Q 6.=.6.U.D.Y.wXvXcX,X+X2X2XgXVXZXLXLXZX4X` ` ) j 4 @ @ @ < 7 < < @ % + # ; t * * 2 0 h h ~ p.N + % ",
"#X$X$X@X@X@X@X@XoX@XY.E.W.@XW.W.E.E.E.W.W.W.E.E.E.E.E.Y.Y.Y.Y.Y.Y.Y.E.E.@X@XY.Y.Y.XXOX+XC.B.B.a.i.%XgX1X-X<X2X2X*XT.-X2XgXgXgXxXiX@XD.M.g.V.N.7.g.V.C.a.3.s.Z.=XW.=XW.W.9X*XrXeX*XF.&.C Y Q D -.K.m.m.W.=XwX=XW.*X$XU.6.6.q.6.7.D.D.=.C N / ! ~ ~ / s.p.R V R N.*XzX=X! Y ! d.N.g.g.s./ ~ U / s.g./ ~ 3./ ~ ~ U h U U U U d V U N N N U U U R U U V / U 3.dXm.8.R V m U U U R M.#X;X+Xh.i.|. X4X3X.Xh.h.3XSXJXvXcXc.*.|.IXPXZXVX3XZXKXJXNX7X/.'.v.W ^ C E E ~ U m M < K z l k 7 H 9.,.Q.Q.R.).R.H.J.G.6X6X*Xf.w.W.R.9.$XD.$X6Xf.G.tX9XW.J.R.w.G.v.G.R.W.tX7X`.b._./.u.u.+...J.rXAX=XC. Xh.E ` |..X4X1X%X%X Xh.E ) |.2XZXxX.X` ) 3XSXgXZ.B.-XAX4.l $.D.;.4.%XZXKX! , c z p % X X o o $ + % , z } 6 6 1 % @ % 0 V 7.M.T Z &.e.e.G z =.e.>.x Z 9.;.D D d.d.6.7.f.f.m.D.m.6.0.d.7.6.6.6.-.Q ! V d q V Q l m Y R m m N h 0 + & 0 0 0 0 0 d e q h C U h f h h 3 q d q h C N C N N C C N h N h h Y V h e 0 * & & ; 0 t 0 t f d m l w 4 1 5 2 1 4 3 e e 1 < 3 q q 3 2 w q 4 3 q q d d 3 4 4 4 1 1 2 1 @ % 4 3 2 @ % 1 3 3 2 5 6 6 6 6 z H p 6 6 4 5 4 < 2 3 5 m C q q 0 0 q q 4 2 2 2 3 4 q q q e w w 6 4 4 4 2 2 d R 6.7.~ M l w w w 6 l l C &.D f S =.=.l q R >X1XgXgXwX2X%X|.C.<X3XVXFXKXJXFX2XOXZ.1.Y s.XXg.M.g.p.N.=.N.@X>Xh./ C.i./ V.M.R s.XX#Xg.OXsX+Xs.K.7.M.=X=X*X@X8.7.M.*X9X9X@X9XK.W.@XM.f.P.K.M.K.*X>XOXa.3.a.s.N.wX@XM.#Xd.2.D.DX@XV ~ ! Y S V Y Y D Q 6.D / #XpXOXN.sXmXiX%X1XgXZXSXFXLXLXLXZX3X|.P * + + + + @ @ < < , @ @ % 1 h V R d.=XN.j U ",
"$X$X$X@X@X@X@X@X@X@XE.E.W.W.W.W.Y.Y.E.W.W.W.E.E.E.E.E.Y.Y.Y.Y.Y.W.E.E.E.@X+XY.Y.$XOXXXA.V.B.B.8.i.2XxX1X-X,X,X-X$XP.+X;XuXuX1XiXiX*XK.d.g.P.Z.g.g.N.A.s.p.s.N.@XU.*X@XU.eX=XdXdXwX6Xr.S ! Y M Q q.q.-.m.E.9X@X@X9X*XW.Q Q 0.0.2.K.K.! U U 3.3.i.s.s.s./ Y ! 7.d.T.dX9Xm.-.V ! s.s.8./ ~ U U ~ i.a./ W ~ ~ W ~ U h h N h d e N U N V U ~ / 8.! ~ h f / V P.zXm.! R R U R ! ! g.P.L.7.~ V.|.|.|.1X X3XLXSXLXZXa.V , X ' uXjX7.D.vXmXpXvXJXLXJXlX[.].;./ U Y D J m 5 f 4 K l 1 f % < < 8 =.0.f.D.k.f.L.U.L.L.$XU.K.K.W.m.6X@X@XpX,XeXcXvX>X=XeXY.wXW.9XdXdX9XQ.`.b././.#.@.n.(.NXmX,X+X%X X.X3X3X3X3X.X.X X1X3X-X1X1Xh.h..XxXLXPXgX3X3XVXvX-X|.0XjXk.B $.G.f.;XVXLXY 7 c y @ $ X   X . . X X X + * @ @ + + % 0 V ! K.=Xw.F G 2.5.G G 9.H.H.*.x M 2.0.1.7.d.2.0.K.K.D.m.6.-.7.0.1.! 7.7.8.1.! m C Y ! =.V V Y V m m m f & X + - ; 0 e f h d f h h h d d d d q f d f d h h h h C m N N h N d h V h q j j 0 * # - 0 0 0 h h N V Y l 4 q l 3 1 5 3 3 q 2 1 5 3 1 % 2 q 3 0 f h d d f 0 4 1 * * 1 * % % 1 2 * * * 1 % * < < f m k k k x p 6 6 6 5 5 3 4 6 q 2 q q 2 0 0 2 3 0 1 4 q 0 0 0 0 3 2 4 3 5 w 3 3 3 2 1 e R 2.6.=.M w f d q 1 3 d V T F M M M V q h .X2X1XVXgX;X2XgX2X2XxXVXxXsX|.C.OX+XZ.! Y C 8.P.1.! ! Q 6.F q.!.Z.h.h..Xh.i.T.XXi.i.V.M.6.8.pXpXC.V l Y m.U.U.W.D.Y.U.~.=X$X@X9XK.D.U.m.6.m.9.6.m.E.M.Z.Z.P.K.s.! Y.@X! U.~.Q.q.=X9X/ / R C Y Y / ! ! V -.Z D 1.K.+X=.=.U.eXpXAXvXxX-X-X2XPXLXLXPXPXZX.X^ g = & + X $ @ < + X + % w 5 S -.c.m.1.d.",
"@X@XE.E.E.@X@X@X@X@X@XE.Y.Y.Y.Y.W.Y.Y.Y.Y.Y.U.U.Y.Y.E.Y.Y.Y.Y.Y.@XE.Y.Y.Y.Y.@X@XoXT.a.h.|.A.i.W s.sXvXsX2XsXiX%XK.Z.XXT.;XuX,X,XiXwXY.g.Z.Y.N.p.g.N.N.d.N.d.d.K.M.=X$Xm.D.6.=XwX9X`.v.! 1.=.H M 1.K.q.6.U.6X9X9XdXzXrXq.=.q.D.f.L.D.! Y R p.N.V.N.a.a.! ! 1.1.! p.:XdX*X@XD.N.s.Y U / 8.U U U U 3.V.g.p.i.! W ~ U C C h d h V ~ U ~ / R R R U R W V ~ ~ 0XW.m.0.R m d N e W D.=.! -.f.XXB.3XZXCXVXZX3X.X%X.X|..X%XxX X$ % h..X~ k k.7.Z.VXxXGXGXNX8X'./.(.J.J.D.e T ! / R j h.a.C.h ~ OXOXT.=X*XY.M.U.W.wX*X:X=X+X$XY.@XdXmXvXcXAXcXAXzXpXmXAXsXwXzXtXrX6X'.'./._././.b.dXJXcX;X;XXX,XiX,X3.N W p.g.a.C.|..X3X3X%X%X1X|.R g.XXgXSX1X3X;X+X9Xd.3 5 y 5 Z q.+XxXKXK.7 @ + $ + X . X o o & + + # - g E E P E / 8.0.L.F.w.F.R.$XG.S.G.G.J.J.v.S d Q 7.! R ! ! =.q.q.0.6.-.6.q.7.8.! Y D V C d q d m V ~ Q C N f q f d g + X # o # & & ; t f f f 0 0 q N h d d m d h V V h f e h 0 e h t 0 0 0 f 0 * 0 e 0 0 - 0 0 3 0 h h h V Y C d e d 3 < 3 3 2 q e q q 4 < < 3 3 % 4 f f q 0 q 3 5 2 % 1 2 % @ 1 1 % @ % * * % @ @ 4 m d 6 f 6 6 p 6 6 4 4 3 5 4 5 3 1 1 % % % % % * 2 1 q f d f q 0 0 0 0 4 2 5 1 1 4 1 * d R Y Y Y V d M S m d d d d m D C z l q N  XxXVXxXxX>X#X1XVXxX>XxXVXgX1XC./ t U 3.~ R U U g.d.1.! ! K.k.P.aXaX<X2XVX3X|.sXvXOXA.Z.g.M.m p.wXdX*Xq.9.f.R.U.D.S.D.G.tX6X@XE.=X$X=XtXtXD.G.G.Q C D.U.U.Y.g.d.7.1.L.Y.-.-.;.D.$XU.@X7.N.8.7.7.7.7.3.4.! Y Y ! D R R V m N w S Y.oXcXSX1Xh.C.>XiXsXxXSXPXKXLXPX3X3X4X` ` _ ( j j U R q l f w $.5.5.",
"Y.Y.Y.Y.Y.Y.Y.@X@X$X@X@XY.Y.Y.oX@X@XY.Y.U.U.U.U.Y.Y.Y.Y.Y.Y.Y.@XoX@XoXY.Y.oXoXXXZ.V.i.h.|.B.3.( s.sXvXsX,XpXaX,XT.oX+XA.oX:X+XZ.:XfX$Xd.N.N.7.p.M.V.g.V.M.8.1.7.f.E.W.F.w.J S.~.9X6Xe.=.1.-.D ! d.E.m.6.W.=XU.W.dXzXzX$Xm.m.m.d.d.M.1.U ~ a.a.a.j.i.i.~ ~ ! 3.~ 3.P.9XwXwX@XZ.s./ 8.g.i.U U ~ U s.XXXXM.Z.p./ i./ ~ ~ U U U R / ~ / / U U U R N R / Y ~ wXU.U.7.M M d N N Y W e W ! p.+XiXxX-X X|.|._ B.gX3X3X3X4X.X.X3XKXCXK.E ) h.j.;XgX>XgXLXGXNXlXyX].].8XyXL.6X6X$XOXXXCXxXvXOXuXSXvXsXhX:X+XU.@X9XzX9XwX;XzXwX@XM.9XvXzXzXsX0XrX=X6XdXzXwXrXqX8X8X7X'._./._./.J.zXHXcXT.6.g.Z.8.h U a.g.a.j.XXZ.h.) h.|.%X1X-X%Xg.l.g.R ^ XXB.XXsX#X0XdX&Xu 5 S B -.1XZXKXoX$ .   o + # + # * 0 h N V U U 8.A.Y.P.g.f.m.S.I.G.w.F.F.H.,.*.f.k.e.<.;.T d l M m U / V N V Y V Y 8.7.1.! ~ V N N d q * 1 q f h U U h h t g j f g * # & # * # + & 0 0 0 q q 0 q N d f d m d C N N f 0 = t * * r r ; 0 0 0 g r 0 t t 0 r t * * e 0 0 0 h g h h h q 4 < 1 2 2 d m m e 2 1 1 3 1 1 3 d q q d d 3 3 4 2 3 < % % 2 @ % % * * * @ % < q d 4 < 4 1 6 6 k w 1 1 5 6 4 4 1 1 1 % * @ % % % * % 1 4 e 0 3 0 2 3 3 4 4 5 3 4 % @ * h Y V Y M Y S C m M D V d 3 5 m M z M l R +XxXSXxXbXaXP.-XgX1XXXT.sXaXaXdXzXZ.3.V.V./ h h 7.P.1.Y M 4.2.4.K.OXXXh.gXvXXXOXGXvXeXT.d.U.M.=.S.R.!.v.c.q.G.Q.6XF.Q.G.S.tX=XY.$XQ.~.W.6XQ.Y.6XD.d.D.S.9.L.M.M.f.1.K.g.U.@XD.0.9XwXK.7./ N.M.g.1.d.p.R U ! V Y 1.8.~ ~ U U R N C f U -X1X|.B.XX>XaXxX2X-XVXLXLXLXLXPXPXZXZXZX3X-X-X-X_ / V 1 2 z F ",
"U.U.Y.Y.Y.E.@X$X@XW.Y.Y.Y.Y.Y.Y.Y.Y.Y.Y.Y.Y.Y.Y.Y.Y.Y.@X@XY.@X@XT.T.@XY.T.XXXXXXB.a.p.a.i.s.XXT.A.2XvXaX-X1XcXpXOX<X=XN.K.,X=Xq.M.fX9XK.M.K.g.f.d.8.a.M.M.1.-.Q -.U.!.D.m.J S.6X~.~.S.6.m.D.q.D.c.6.-.~ 9.9.Q 2.m.*XrXrX6XD.7.! ! 1.6.! / s.a.i.( ( 8.! / ~ 3.3./ 8.7.d.Y.Y.M.Z.V.p.d.p.3.8.i./ / ~ ~ ~ 3./ ~ ~ U h U / / 3.i.p.( ( / / 3./ 8.U C ~ ~ U 0X$XU.7.C m e N u u e e U _ T.:XXXV.i.Z.R i.gX.X3X3XgX%XB.3XPXPXxX` .XZX3X-X%X+Xf.L.dXfXbXFXHXMXyX'.'.yX'.lXrXrXnXrXMXwXtXQ.J.mXaXpXuX$XzX=X6XpXOX&XiXK.9X=XeXtX6XW.rXtXW.6X6XQ.tX~.tXdX6X6X'.'._./.u././.'.aXFX=XD.@Xd.~ m R g.C.%X X.X|.|..X%X1X%X%X|._  X1X-Xh.h.&X:XOX,X;XOXL.P.d.0.D.g.y.f.p.1XZXKXA.  o . # h W I I U i.K.@X*X=XY.v.J.J.).H.H.G.Q.tXR.R.F.;.=.v 8 *.<.A k Z &.F x d d Y 3.( U W U m V ! ! Y ! Y C h N h d h h U / U U ^ ^ ^ L L P U U U P L L P L g ; 0 t 0 1 0 2 0 f d 3 q d f d 0 * * * 0 0 ; r g L L L P E U U j L L L h r 0 ; 0 * & & * - t h 5 1 q q q w 5 w f C m w 2 < 4 7 < 1 6 5 6 m l 5 4 4 q 6 q 3 2 1 @ 1 2 2 % % % < 1 q q 2 1 1 5 f 6 z f 4 3 d d 5 < < 4 4 % % 1 % + @ * % % 2 e q 0 e e e 0 3 q w 3 < % @ % q R ! D D Y T C m m m d d e 0 q q x x d ) V.,XgX3X2XuXN./ C.>X>XOX+X;XT.T.;XC.a.s.s.a.U U / g.8.7.1.7.c.r.6.8.( / C.1X;XZ.aXAXvX0X$XD.R.G.r.S.L.w.F.2.9.G.F.S.6X7XG.U.`.6X~.~.6Xw.9.S.D.qX*XW.K.m.F 6.0.2.f.7.7.2.7.0X=XK.K.9X6XL.3.3.8.N.p.g.p.d.! 1.U ~ 3.3.R W R R ~ R ! ! ~ a.B.h.B.B.%X1XvX,X+X%XgXVXZXSXZXFXLXSXPXLXPXLXLXLXPXZX-XB.s.7.",
"U.Y.Y.Y.Y.W.W.@X@X@X@X@XoXY.Y.Y.Y.Y.Y.@X@XoXY.Y.Y.Y.Y.Y.Y.Y.Y.Y.@XoXU.Y.oXXXC.B.B.Z.a./ ( C.iX@XC.iXcXvX,X+XaXaXxXcXsX>X;XwX9X7.q.0XpX*X@XP.Z.C.a.N.N.p.M.d.1.R =.m.0.q.Q.U.W.6X6X6X!.9.!.L.7.D.6.D 1.7.q.F z C F D.F.6XzX9Xd.1.! 1.2.1.p.8./ 1.! 8.g.8.7.d.p.8.~ U ~ Y ~ 7.3./ ~ ~ ~ C ~ a.g.s.~ U U R ! / / ~ ( ~ ~ / / / i.d.8.~ ! ! ! ~ U f h U ~ Y sX@X1.=.V e l N u e e e R N.XXZ.V.V.) +XxXxX%X-XSXB.%X3XIXPXZX Xh..X4XB.^ -XXXj.B u 4.&XuXgXxXLXHXrXlX'./.].'.'.'.`.8XQ.Q.S.>.6XwX6XW.9XrX6X6XtXU.Y.eXc.J.f.$XzXH.e.F.6XR.J.v.$XfXpXtXrX`.`./._.n.n.@.@.@.u.tX=XT.bXeXP.~ U p.XXa.h.B.h. X%X1X%X-X X-X1X3X3X3XVX3X3X3X.XB.|.uXpXl.A u , @ u I.5XU.+XiXJXp.@ & # 2 <.<.y.e.v.J.).6XtXqX$Xv.J.H.G.w.e.<.Q.).v.<.| b G 8 x Z &.k 1 q Y T M V / 7.g.V.s.3./ ( / ! Y ! ! D -.0.f.6.-.2.0.m.f.9.S T 7.d.1.8.0.S.f.q.q.1.! ! ! ( E R ~ Y V U U U U U h P h g r r 0 g j P U P E ^ E E E E P P E P P P P U P g g g ; & & & = - ; * * 4 e h N h f d m C C d 2 5 5 2 1 4 3 5 l l 5 4 4 q M m f 3 1 1 0 2 2 2 1 % 1 3 w q 5 3 4 < f 6 m f 2 3 5 3 5 6 4 < @ % 1 % @ % % % % % 2 q 0 d d e 0 e N m m 4 @ 1 @ @ q V Y D R Y ! C d q q q m m d q 3 w 6 h 4X3X2X%XC.XXOXa./ a.OX0X0X,Xg.8.3.p.a.+XA./ g.^ U p.M.7.! ! 1.7.d.M.8.Y Y N.T.V.g.Z.T.aXHXvX;XY.U.K.K.D.0.Q.Q.Y.$XS.o.v.J.6XQ.~.tXwX=X`.v.e.&.G r.r.9.F.D.=.2.0.=.Y M.U.0.S D.m.D.D.M.U.U.1.N R ! 1./ p.N.8.8./ ~ ! 8.! U R U Y / ~ p.V.B.B.B. X#X0XhXZX3X3X-X-X2XgXxX1XOXOX,X9XhXhX2XCXSXSXJXKXLXPXLX",
"Y.Y.Y.Y.W.E.E.Y.@X@X@X@X@X@XoXY.Y.Y.Y.Y.Y.Y.Y.U.Y.oX@X@XoXoX@X@X$X$XoX+XoXT.a.A.V.|.h.( B.>XxXOXOX1X1XcXsX,XiXiXxXvXaXiX>XaXzXY.m.Y.0X9XU.M.M.A.i.g.V.d.T.@XM.7.M.W.U.D.U.Q.=XtXdXrX~.G.W.U.0.q.! -.d.m.0.C l l D c.q.m.=XrX=XK.a.8.8.d.V.s.8.8._ i.a.p.g.P.V.s.~ R ! Y Y 1.3.3.U h U h N / 3./ ~ U R ~ / / / / / / ~ U W ~ p.N.d.! R Y ! ! C d N ~ V ! fX@X7.f.Y V M y 2 5 y N =.p.3./ 3.) %X2X1X.X3XgX) .X3XZXPX3XB.-XZXVX4XB.( -Xh.1Xf.c 5.j.wX9XvXAXHXmXNXlX]././.(.'./._.6XtXR.| 6X6XtXK.wX6XL.D.=X=X0.zXF.b.6X<XW.e.v.f.qXF.H.S.rXMXzXyXzX8X'./.]./.n.@.@.+.6XhXF.W.zXA.~ g.V.C.C.s./ a.h.B.|. X&XsX1X-X%X%Xh.|.hXhXgX1XuXuXOXj./ P.E w S R N 5.G.E.Y.P.LX/ $ * = d r.*.>.r.v.y.e.G.L.6X6Xe.G.G.y.w.q.e.v.v.o.n v c Z < @ % 4 % % 2 V =.1.8.Z.@XC.N.Z.p.a.Z.p.1.=.M.1.V =.K.L.M.M.K.D.K.D.K.1.1.d.N.d.7.d.L.L.M.M.d.8./ ^ 3.3.3.1.! / ~ / ~ / / / i._ / E ^ E ^ E E ^ E E E E E E E E P P P P P U P P P P U L h g g g h h g r r h h h e 0 0 0 f d q 2 3 4 4 % 2 3 q d 5 < 4 w d M w 5 5 5 q e 3 5 3 1 < 1 q d d d w 5 5 M M f 5 3 2 1 2 w 2 1 % % 1 4 2 1 0 0 2 4 2 3 d q N h e 3 q m f w 4 1 2 2 2 5 M D C Q Y R C d q 3 0 d m l q f 5 6 U 3XZXVXgX1X+XoX+XT.;XpXpXpXsXwX+X/ 3./ a.s.R XXZ.p.p.4.! d C Y R ! d.p./ U a.XXa./ M.7.! 0XFXAX1X+X=X9X*XD.G.`.L.Q.F.G >.e.J.W.W.@XpXdXnX!.c.F.e.<.r.9.L.W.D.m.W.M.1.d.M.q.Y U.$XU.qX@X6.D.7./ 7.8.1.~ p.A.N.8./ ! R ! 1.! ! ~ m ! / / / +X+Xh.B.K.Y.:XvXVXxX1XiXvXuX>XT.8.q.E.D.A.OX|.C.1X1X3XCXSXVXCX",
"@XY.Y.Y.@X@XY.Y.@X@X@X@X@X@XoXoXY.Y.Y.Y.Y.Y.Y.U.Y.Y.Y.Y.oX@X@X$X$X@X$X#XP.a.a.A.A.h._ B.;XsXsXXX;XsXcXcXaXsX>XOXsXxXxX2X;X2XcXsXiX>XgXpXU.M.m.m.g.N.N./ / N.Z.Y.=X<XwX=XD.W.=XW.tXzXzX9XtX6XR.Q.M.Y.K.L.m.=.D &.q.F.D.M.d.K.$X$X-XZ.p.V.%X%X XC.h./ E ^ 3.p.8.3.V N Y m N Y W / / N W U U R ~ ~ / 8.8.~ R U h h h h h h h W ~ 1./ 3.! U U N V R 1.~ U s.dX7.! 7.=.Y w , 3 V R 4.g.d.l.g.C.1X1X+X X+Xh.E 3XLXSXSX%X1XZXLX3X3X4X4XVX.X` h.g.y M R S.c.e.E.dXdXNXNX]./.].].]././.'.rX6Xe.v.J.rX6XtXrX6X6X6Xc.K.dXR.y.Q.dXJ.5.D.W.rX6XR.5XzXbX8X'.8X'.'././.[.@.@.x.+.dX>X5XzXK.T V 3.3.a.a.C.Z.V.C.a.V.C. X XXXgXgXgX2X Xh. X2X%XXXOXOXP.P.*XqXP.d.f.D.7.=.w.m.:XKXW.< 5 w X.<. .X.o.:.o.| | X.y.(.:.,.H.).I.e.v.>.:.v 8 6 6 5 $ $ + # * 0 N 8.d.m.7.7.8.~ C 3.p./ 8.3.1.1.7.-.T 2.K.D.K.K.W.E.W.$X@XY.Y.Y.T.T.K.@X$X$XW.R.U.K.d.1.1.4.3.7.7.s.8.~ ~ ~ R ~ 8.s.s.8.s./ / / / / / _ / / / ( ^ ^ ^ E U U U U U U U E E R ^ ^ W W R U h h U W U V N h h e 0 0 1 2 0 2 2 @ % 3 q q 1 @ 2 5 f 4 1 % 4 4 3 q q q 2 3 q q C V C M l C Y D l 5 5 5 2 5 w 5 1 @ 1 2 1 1 * 1 0 e 0 3 1 3 e 0 d e e 0 2 4 < < 4 4 5 q 5 3 m m m ! ! Y Y m e 3 e h m M w q 0 3.+X3XxXCXVXiX+XV.+XT.OXpXcXcXaXcXsXp.R U s.XXZ.T.P.T.Z.g.M.! 4.0.d.3.8.N.s.U i.,XOXZ.V.1.T M T.FXAXsXY.U.U.F.9.v.c.G.H.e.v.>.:.9.Q.U.oX0XmXzXD.v.w.;.9.U.m.G.W.c.w.D.K.Y.K.d.S =.D.m.L.$X2.! ~ 8.p.Z.P.T.N.i.a.a.8.3.3./ 3.p.p./ U V 3.g.C.OXi./ ! 7.0.~ Z.T.N.R ~ / U / 7.1.T =.2.~ 8.oX3.=XiX1X<X%X%X<X",
"@X@X@X@X@X@X@X@X@X+X+X@X+X@X@X@XoXoXoXY.Y.Y.Y.P.U.Y.Y.Y.Y.oX@X$X*X#X:XoXV.i.a.a.p.R s.|.;X,XsX<X>XsXCXbXiX,X:X#X2XxXcXxXsX2XxXVXAXCXCXcX@XK.0.m.d.D.M.! D q.Y.=XW.W.wXwX*X9XF.w.S.6XzXzXdXwXtXtXY.@XE.U.L.D.6.6.Q.6XU.K.8.8.Y.Y.+XT.p.V.-X1X%XV.Z.3.d d R Y U ~ N m V Y R Y U R / / ~ U U U W / a.s.a.p./ U h N h h h f 0 f f d N ~ R N e e R 3.1.R U V.dX@X$XY N N q m S M R P.oX4.R ~ %X-X%X|.%X+X%XuXZX3Xh.; I PXZX` |.gX3X1X1X; ` h.2.f.d.e l L.o.0.cX<XrXlX]./.].]./.[.[.'.yXrXQ.e.Q.6X6X!.`.tXW.tXS.wXdXtX<.G.rX8XI.K.6XtXrX6XQ.rX8X(.].].'././.[.#.[ #.#.n.`.K.rX@Xd.N d ! N ~ E ^ s./ a.g.V.a.3.Z.h. X%X4X2XVX2X-X-X%X,XM./ g.7.@ $ y ;.v A B Z D.Y.aXGXR 6 w l } X.} X.O.} } c v n v  .,.X.v.H.J.G.).).H.*.y 2 , * * - 0 e U 1.d.M.U.U.D.7./ Y f V R d q m ! 2.R R 1.0.2.R 2.K.E.@X*X*X6X6X@XK.K.T.U.Y.*X*X*X=XW.R.U.K.d.7.8.1.s.g.p./ U U C U ~ / ! / 3./ / i.a.a.i.8.s./ / i./ / / ( ^ ^ ^ W W U R ~ ^ ^ E R W W U L h g h U R ~ R U U U h P h h h d e 1 * * * % @ + 1 1 3 % + + * * * 2 3 1 @ 5 l l S M C l D Q Q d w 7 < < < < 5 6 3 2 2 * % * % % 1 3 1 2 @ 2 1 * 0 * 2 2 1 % < < 5 4 1 4 1 1 d m V 1.1.R R R m w m C N m l q h |.-X2X,XaXgX-X+Xg.C.;XT.;XcXaX,X>X#X~ R / W i.C.oXP.,X#XoXoX7.=.d.p.p.i.s.s.~ 3.9X0XZ.V.~ f.R 2.wXAXDXcXpXY.m.6.:.9.6.q.G.G.y.G.D.Q.6XtXtXdXDXrXR.U.q.f.U.U.K.Y.K.Q R M.*X$X=X0.-.d.@X@X$Xd.1./ ( i.3./ T.#XP.P.Z.a.p.a.i./ / i./ / V N / Z.P.! R l V 8.! ~ R ~ h m q 0 U 4.0.=.R p.! C / R 1.8.s.Z.Z.Z.Z.",
"@X$X$X$X@X+X@X@X@X@X+X@XoXoX@XoXY.Y.Y.Y.Y.Y.U.Y.Y.oX@X@X@X$X$X*X*X*X:Xg.i.( / / ~ ~ XXOXoX+XpXcX2X2XCXbXaXiX,X:XsXcXcXCXAXVXvXcXvXMXAXvX=XK.1.-.-.6.m.M.K.D.D.K.m.6.Y.9X9X9XU.q.6.0.R.zXmXdXpXwX*X9XrX9XdXnX=Xc.m.U.D.D.q.8.f.M.Z.C.N.a.C.-X|.i.p.! q w m m l M N N N m m N U ^ / i.~ R U R U ~ / 3./ 8.a.s.R U ~ / R U f 0 3 4 4 3 5 3 f N ~ ~ ! U V Z.wXY.P.M.! l 5 2 3 l T 7.N Y M.+X2X#Xg.#XXX#X%X X|.|.' .XPXZX-X|.VX,XZ.P E gXZX-X8.q e &X/ =.tXM 1X2X`.].].]./.[.[.[.[./.yXnXmXI.6X6XfX9XtXtXf.NXR.qXdXwXJ.$XzXrX8XW.zXrXzX6XQ.7X'./././.].[.x.[.#.#.@.u.(.b.U.pX>X^ e R q U j.g.C.Z.V.C.|./ / Z.j./ j.h.h.) h.XX1XgX3XxXgXgX%X,Xl.z.3.3.B c B T g.XXSXMX< p Z M z c x n } o.o.} n } a a X.<.<.>.<.v.`.`.'.G.z * = f E 8.M.M.U.W.W.U.Q.!.f.d.N.8.U m d q f l 8.K.d.0.d.f.2.D D M.M.M.K.E.*X9X*X@XT.N.M.@X9X@XW.R.F.F.Q.Q.U.D.6.Q / 7.d.7./ ~ ~ E ~ ^ U ~ ( / ( ~ / 8./ ~ ~ / / a.a.s.s.a.s.s.i.i./ / / / / ~ ~ R R R W U r r g g g U E / U U W / R R R ^ R N h e 0 0 0 t 0 0 0 2 # + # # * * * @ @ 4 3 q l q d f D M d 5 5 1 % @ @ @ < < 4 3 1 % 2 2 1 1 1 1 % 2 1 2 % * % % 2 2 1 < 4 2 3 1 % @ @ % q m V 1.6.=.! 1.C m q e l m q q Z.xX3XxXiX;Xs.s.T.D.Z.>XpX0XvXcX2XOXOXU N i./ ~ ~ p.3.oXoX*X*XY.7.! ~ 3.V.C.+XV.Z.vXzXT.P.~ d.! 2.S.*XpXvXFXFXvX*XL.Q.*XD.q.9.:.F.!.v.y.o.v.H.G.nXkX6XG.W.=XY.Y.@X=XK.d.K.eX9X:XY.7.K.U.9XwX#XoXC.V.V.8.! 8.d.7.7.p.a.V.A.B.s._ a._ s.8.~ i.~ 8.7.=.D Q i./ / ! U N ! ~ U / 1.-.0.7.p./ Q D W N U ~ ~ U p.V.",
"$X$X@X+X+X+X#X#X#X#X#X#X#X+XoXoXY.Y.Y.Y.U.U.Y.Y.oX@X@X@X$X$X:X9X9X*XT.p.3./ s./ ^ s.>X,XZ.7.d.oX;XOXaXcXpX0X;XOX#XoX#X>XiXsXpX*X=X9XzXzX*XT.d.1.6.q.M.M.Y.K.d.6.0.=.f.K.@XeX9X=XU.c.F.6XdX9X:X:X=X=X*XU.9XzX6Xq.q.m.m.m.=.! 7.g.T.+XZ.i.8.M.p.W U U h N d d d w d d h N h h R ( i.a.i.8.~ ~ U U / / ^ ~ a.Z.3.R ! ! R ~ ~ U V V m m C V ~ / ~ Y U V N A.zXZ.d.M.Y R l N l q w $.5.I.@XZ.#XP.oX#XC.j.B.B.&X-X3XSXgX&Xi.XXOXW r .XSX2Xh.E 3.R r W P.e L.~ A.VX9X'.].]./.@.[.x.x.[.].'.DXtX8X6XrXrXtX`.J NXy.J.kX6X).7XeXwX(.v.tXtXnX`.(.tX8X/./.[.[.[.x.@.#./.@.b.(.`.zXcXXXh.R Y e ~ R R g.a.a.C.|.|.|.XX|.g.E i.%X&X4.R P.oXU.=XaXuXXX|.z.4.$.f.T w x d.L.#XLXnX7 8 H m S Z x k A X.<.<.>.<.X.{ v O.{ n a } y.v.y.r.z 0 f V 8.M.L.U.D.D.U.U.U.6.V Y Y ! V m m M V M Y ! D D &.=.&.G z G G c F ;.0.m.d.! V m 2.F.9X*X5XR.F.F.R.I.I.U.D.6.! 1.8.7.2.6.7.8.3.! ~ / ( ( ( / / 3./ ~ U ~ / / s.a.a.a.a.j.s.j.a.s.8./ / / / / / / / / E L L L P ^ / _ ^ / / R E ^ / / / ~ R U U W W W P L P P r r ; ; - ; 2 0 0 2 % 2 m e d f d q 4 3 3 2 2 1 < < % % 1 4 < 4 3 2 2 3 4 2 % 3 3 3 2 2 % 1 3 1 % 1 1 < 1 @ % @ @ 1 q m M D Q ! Q ! d q q 3 w q 1 U 2XFXZXxX2XOXZ.g.K.XXZ.K.pXpXaXAXAX>XOXi.U a./ U U W V U U d.@XU.d.p.1./ a.Z.C.s.Z.pXpX$X*X1.1.Y C T f.M.*XvXHXGXAX9X~.6XtX6XW.<.o.!.v.9.:.9.c.:.v.zXrXG.m.U.G.D.U.U.*XU.D.@XwXzX@Xd.Y.@XW.=X#XM.A.T.Z.1.! D Q 6.d.M.Z.Z.T.C.B.s.C.a./ / R Z.p.~ =.3.0.! R U Y ~ Y / d.a.8.3.1.&.6.q.4.7.8.-.1./ R R Y Y p.1.",
"$X@X@XoXoX#XOXOX#X#X$X$X#X@XoXoXK.K.K.K.K.K.K.K.Y.Y.oXoX@X$X:X9X:XP.s.^ / / / / U 8.;X,XT.N.~ Z.,X>XOX>X,X,X;X<X:X@X@XOX#X:X9XzXtX:XwXfXpX0X,XOXW.K.K.P.*X=XW.U.Y.K.R.S.U.6XwXwX=XK.F.G.Q.R.~.E.K.~.R.c.m.U.=Xq.5.;.S -.R R V.Z.C.-X XB.a.K.3.U R / i.( U V C h m h N U U U / / i.i./ ^ U ~ / / i.i./ R ! p.8.! ! R V U 3.~ ~ ! ~ V R ~ R ! 3.! / ~ U d.dXY.d.m.g.-.V M M w u y B u 2 g.P.g.W Y h.C.|.,X%X1XCX-X) ) g.XXA.h.%XKXh.0 h.) ^ W * N / P.N 8.>XVXAX8X/.].]./.[.#.#.[./._.mXrXnX6XG.rX6X`.:.kXH.a H.R.I.H.eXwXO.S.!.7XH.@./.rXlX_.].[.@.[.@.#.#./././.(.tXzXeXsXpX~ d h / R 3.R U U / |.XXZ.|.&X1X-X-X%X X%X/ 3 y 8 , y V 0.oX0.g.$.B B x &.Y *.qXKX5X< Z n &.S.S.q.M } o.<.<.<.<.X. .} o.{ b p 8 a s x M l h m V 1.p.K.D.m.m.S.D.m.-.S M V ! m m m S Y C R ! D w 6 4 5 l M 6 w f C D m d q 3 f C d.m.E.$X6XQ.I.F.!.R.Q.R.Q.W.0.-.6.m.S.m.D.M.g./ / p.g.g.g.p.i.i.p./ ^ R E / a.s._ _ 3.i.a.B.B.B.B.s.i.) ) _ _ s.s.i.i./ / / / i.i.3.^ ^ ^ U U U ^ ^ / / / E / 3.~ R W P P h g g g r r j j h h h 0 0 h e t g h 0 4 * * 3 e e q q q 0 2 2 < 4 3 2 4 2 2 4 * 3 3 2 4 4 4 3 0 % 1 1 % % 1 % @ @ @ 1 e N S M l l V C q % 0 4 7 < 0 -XxXCXSXxXsX,X0X>XaX1XP.8.Z.,XpXvXAXaX;XoX/ / s.( / a.M.P.g.N.$Xg.4.g.V./ / / / / N.9XW.@X=X1.Y S V Y d.w.r.Q.dXzXmXDXzX;X@X*XtX6XD.$X9X=X6XU.Y.N.m.rXnX6XE.D.W.W.W.W.0X#XM.Y.Y.mXwXU.U.@XW.W.#XZ.s.@X:Xg.1.6.! m.M.K.$X+X;X+X+XZ.A.V.i.p.U Y 7.U W R XXV./ / a.s.s.8.i.8.7.3.1.D Q 7.=.R 4.1.Y ! ! ! ! R 1.g.",
"@XY.oXoX@X@X#X=XOXOX#X#X@X@XoXY.K.K.M.M.M.M.K.K.M.T.oXoX+X*X:X0XZ.i.! E ^ _ h.-.m Y V.1X1X,XXXOX>X2X-X2XsXgXxXcXdXbXvXcXaXaX9X9XtXeX,X$X6X9XhX9XD.D.K.*XzXsX:X6XU.W.6XU.W.6XY.$XR.c.U.w.0.r.=X=XU.W.!.m.G.D.=XK.0.6.V 6.q.8.C. XT.+X-XC.Z.N.8.! ( a.s.i./ / / / E U U R ^ s.N.a./ ~ ( / R ~ i.3./ / ~ ~ ! g.d./ ~ Y V U W ~ ~ ~ C C R Y V R R V ~ / / d.rXm.=.g.d.Y q w y 5 u 7 @ 2 5.L.4.e 3.#X,X;XC.+XaX,Xs.E a.OXB. X-XZXFX%Xj ( h..X|.^ * R j a.K.d pXxXwX7X[.@.].].].[.#.x.[./.yXrXnXyX5X(.8XrX<.`.`.6 e.rXv.G MX=XT 6XW.rXO.s n.'.lX/.]./.#.@.[.[.[.[./._.v.wXdXY.zX+Xt 2 ( Z.N.Z.a.j.) h.h.B.B.|.+X-X X%X<X3XZXZX3XE / e @ < 6 u 2.5.5.u k < F R f.dXKXY.7 H F F q.J.G.$.} G :.<.<.O.b X.z p { { n w 5 2 % 3 d m ~ 1.d.8.6.m.m.m.q.D.S.w.=.S Y 1.! V l d C ~ ! 1.p.Y d q 5 f f 6 =.Z.T.f.Q S V V R 7.*X@XQ.=XtX6XR.R.R.Q.R.e.S.Q.G.9.0.f.v.G.w.D.U.d.3.8.7.N.M.d.7.a.Z.N.8.s.i.a.a.i.i.i.s.B.B.B.B.C.|.B.h.h.h.s.N.g.V.Z.V.h.V.s.i.s./ W U U U U U E W U ^ _ _ ^ ) i./ W h 0 r g 0 r r g g g L P P L g g g r r r 0 0 0 ; & = 0 f q 5 w 5 1 % * 1 4 3 4 1 < 3 1 3 3 2 q q 5 < 4 % @ $ $ % % % @ @ % * e C C C d q q w 3 % 4 4 5 % V gXCXVXxX2X,X;X#X=XvXvX<Xm.q.T.:XwXfXzXeX@X8.^ h.i./ 8.A.=X:XT.=XM.R R / ~ / i.3.g.$XrX+XE.6XE.f.7.! ! J r.e.D.W.G.v.Q.9XkXfXfXpXcXgXvXzX:XpX0XeX9XL.wXnXtX6X@X@XL.9XfXzXwXrX9XL.dXdXeX6XY.Y.@XY.U.7.@X>XT.V.1.7.d.p.h.A.Z.;X+X>X>X-XT.N.N.~ N d.d.K.K.&XC.p.a.Z.Z.P.g.8.~ ! d.6.=.Q 2.1.M C R / 4.Y Y ~ ! ! 7.",
"@X@XoXoX@X@X#X;XOX#X#X#X@X@XoXY.Y.K.K.M.M.M.K.K.U.P.@X@X@X*X$Xg./ / 8.( ^ i.h.D m U i.>XcXgXaX0XsXsX<XsXvXVXvXgXsXbXvXaXgXvXwXwXdXdXwXG.<.!.wXI.9.q.D.K.@X<XW.@XU.W.W.U.W.U.m.S.6.-.K.F.r.D m.W.=X=XW.!.!.K.W.=XK.K.7.N.C.C.A.C.C.+X<X%XC.d.1.d.Z.M./ R / i.s._ E ^ / / / / 3./ ~ / i.s.p.i.i.8.i.s./ U U 7.Z.g.( ~ U R W R Y R V R ~ R V N N N ~ 8./ d.rXq.l Y Y ! l y y 5 y 7 , u T N ! oX,X&X7.j.g.g.Z.h.V.%X;X-X1XVX%X%X4X.X.X-X1Xh.q d * W C.L +XC.C.CXvX*.[.[.[.[.[./.x.x./.].yXyX6XrXyXv b.nXG.<.R.M l.zX6XA bXM.5 wXrX`.+.9 @.n.lXn./.].].@.@.@././.n.'.6XMXzXdXcX( g ^ OXC./ 3.j.XXXXV.C.|.C.|.h.h.h.|.%XXX X3XPXZXZXZXZX1Xj.W y y u u 7 6 e.3.*.*XKXN.7 G F J =.e.w.G *.n | ,.>.} p a x < 7 6 5 1 2 2 2 m Y 1.8.8.d.=.6.0.m.m.q.D.F.G.q.Q R 1.! V C M C 7.4.4.T.U.d.! V m 5 5 d.,XXXN.7.0.7.V V Y 7.L.6X6X5XF.k.G.R.).Q.e.5.H.Q.F.9.w.R.F.q.G.$XE.U.K.M.K.M.7.3.7.d.7.8.a.i.8.8.i.s.a.V.Z.V.A.A.|.+XOXXXB.s.i.s.a.a./ ) ) / U W / R U U h U U U E U U U / ^ h h U U h t 0 e g 0 ; ; r t r 0 r r ; r g g g r r r r r ; ; * * * 1 3 q 3 % * 2 1 1 2 1 % 1 3 1 2 4 3 q q 3 1 3 3 1 $ $ @ @ @ 1 @ @ % e m D S M q 3 q q q 0 w 1 4 K.xXAXVXaXaXiX;XM.d.L.wXfX*XM.=XwX@XY.Y.oXN.8./ s.V.Z.a.g.C.Z.p.=XP./ / i.s.3.p.p.Y.$X9XeXU.K.@XK.! R S V D e.G.q.:.X.>.o.v.7XnXdXvXMXMXVXgXaXvXcXpX:X0XzXwX9XpX>XM.M.9XwX*X=X*X$X*X9X6X0XwX$XP.$X9XU.Y.@XK.M.8.N.M.d.j.oXC.oXZ.*XaX0XT.A.8./ ~ Y.@X$XP.XXXXV.XXV./ i.g.N.8.3.3.! ! D Q T S ! Y ~ 7.1.! ! =.7.7.",
"@X@X@X@X@X@X#X#X;X;X#X#X@X@XoXY.Y.Y.U.P.K.K.K.U.Y.Y.@X$X*X@XV.s.i.h.i.( a.V.s.V U ~ 1.N.,XhXVXxXvXgXC.=X;XaXaX2XsXgXiX>XsXcXdXrXrXzXvX6Xo.J =XW.!.d.f.9.6.w.:.! q.U.Y.K.Y.D.6.6.-.9.D.F.w.:.q.L.Y.W.Q.W.R.W.U.=X=X=X=XT.XX+XXX+XOXOX-XOXXXK.3.a.a.a./ ( _ / / i.( _ a.s.i.~ Y U R / p.s.a./ U ~ 8.8.! U R ~ 1.7.1.d.8.~ U U ~ ! R ~ / 1./ / 3.3.~ / R ! eXU.D =.=.4.4.$.B 5 y u M W e N j.R R R / 7.R i.|. X,X1X|.-X1Xh.B.3X X%X1X1X3XE w N L r 1XE L OX#X1XJX8Xn./.@.[.[././.[.]./.].yX).yXlXe.).9XR.6XnX| tXMXrX5.wXK.% 7.nXH.o.9 t.@.yX'.@.].lX]./.].].].n.'.`.rX=XdX0X_ B.-XZ.E ) i. X|.h.Z.V.a.W W j.g.Z.h.V.&X;XsX-XxXZXIXZXSXgX%Xl.5.u y 6 y k.f.u tXKXa.< G | >.*.O.,.n F x o.v.e.n 7 p q @ + @ @ 1 q d m Y ! M.M.q.q.6.0.q.m.D.c.S.G.G.v.r.Q Q Z M C C C 0.D.L.@X@X=XK.N.M.p.! p.Z.p.3.g.P.M./ N q q N 2.2.2.D m M 2.Q.9XqX$XR.J.Q.E.R.J.R.R.R.E.$XtX9X@XU.M.q.! 1.7.6.8.p.8.8.a.i./ s.a.a.i.a.Z.V.C.C.Z.V.C.V.a.h.V./ ^ ^ E U P U U U U L U U L L h h N h h 0 0 h U h r 0 0 t 0 r 0 0 0 0 - ; ; ; ; ; ; r ; ; ; r r ; ; & # & * 3 4 2 % 1 2 % % 1 1 % @ @ % % 1 1 3 3 1 1 5 3 % $ $ $ $ @ 4 1 % 2 e U Y S C M m f q w 0 1 1 U ,XgXVXxXaXP.OX:XY.U.m.D.pXdXK.U.0X:X$XZ.Z.g.N.Z.T.=XwX*XT.oXC.T.+XZ.i.i.a.i.i.i.M.Y.wXwX9XL.2.0.7.Y R ! V M m 9.K.Q Q K.9.r.r.E.U.m.c.~.AXvXaXaXvXvXpXzXMXzX;X>X;X>XM.W.0X@X6.D.$XK.Y.Y.D.m.9X@X6.K.$XU.E.$XD.7.@XeXpX,XeX#XoXK.P.*X:X*X+XN.1.! T.Y.M.p.K.P./ 3.p.8.! 3.d.g.3.! Y Q D D Z C T -.C ~ 8.7.7.-.7.! ",
"@X@X@X@X$X@X#X#X*X*X#X#X@X@XoXY.U.P.U.U.K.K.K.K.Y.@X*X9XY.p.i.a.B.h.a.h.A.B.) U U / 8.D N.>XgXvXAXgX@XW.V.>XxXgXsXxXeXeXsXaXiX>X*XwXfXrXv.q.>XuX9Xq.e.G.S.J.v.q.q.W.9X0XdX9X9.r.&.0.S.9.&.Q m.Y.=X=X=X6X=X=X6X=X<X*X*XP.|.C.+XOX>X-X-X%XZ.C.a.3./ / _ i.8.( / / _ s.B.B.Z./ ! / ~ R ! 3.i.R N ( 3.! R U R C V ! ~ 1./ R U R / 7.1.8.8.8.7.d.d.1.~ ~ ~ V *XtXm.! l M S T B u M w u e Y R 4.4.R 4.U / T.T.%XgX1X%X3X3X-XOXXXh.j.4./ .X3X4XU * h / XX2XP XX0X0X*XnXmXrX/./.].].].].]./._.yX`.(.8XQ.6XF.Q.fXnXX.6XbXR.y.rX6X8 @ nX).b p O.#./.NX/./.yX].'.8X'.(.(.8X(.6XR.nX#XOX>X2X/ / a.a.h.) |. Xi. X-X%XgX1X2X2X3X,X+XOXU.$X$XQ.#XP.:XiXXXP.0.5.R y 5.w.X.`.JXD.7 F X.<.,.t.t.G x p X.J.b.X.6 p q % X + % f m S Y ! 8.M.d.d.0.q.m.f.6.9.c.c.c.G.G.r.F S V C S S l Y 8.oX:XT.@XT.+X9X9XT.7.p.p.8.Z.P.V.p.! C d q m Y R V d q d 2.*XwXqX6X).F.v.v.J.J.K.Y.$X*X9X,X$XE.L.D.6.7.q.7.8.7.3.8.i.) / ~ / 3./ ~ ~ / p.g.3.i.Z.Z.s._ i./ E U U E P r r g W ^ ^ E P h h j t 0 3 1 2 f h j r 0 * * - 0 0 0 0 - - - - - ; ; - - & * * - - ; * & o # * 4 < 4 % % % % % 4 1 $ $ @ % < 4 1 2 2 @ < 2 < % @ @ @ $ @ 2 2 4 3 e U -.=.S V Y m q q 0 7 3 s.|..XxXVXcXZ.a.=X*XU.K.q.M.0X9X*X:X;XfXwX;X*XT.T.T.@XeXoXT.>X;X:X$Xg.a.C.+XZ.C.Z.T.Y.0XwX6XG.;.=.7.i.( i._ ~ J ;.L.:X,XvXAXVXhXcXwXY.S G >XAXmXwXpXcXxXVXHXDX:X;XXX=XrXE.@X9XR.F.6X6X@XqX9XL.9XrXK.D.!.D.G.6X@XR 1.U.*X0X*XP.p.d.p.g.oX9X*X@X8.m N.K.M.Z.Y.K.~ ~ ~ ! g.g.M.d.1.! C D =.F D M F Q Y ~ ~ Q -.7.m.1.",
"@X$X$X$X$X#X#X#X*X*X$X#X+X@XoXY.oXY.U.P.K.K.K.P.XXOX@XC./ ^ B.|.B.B.|.B._ / R Y D ! 1.U ! M.=XpXcX;X*X*XXX,X>XT.+X>XuXhX9XF.v.J.J.~.eXvXvXMXcXpXtXR.J.F.S.G.S.Y.Q.U.U.R.=XrX=Xw.=.;.S.r.G p Q L.*X@X@X6X$XU.@XW.W.*X=XC.C.N.Z.XXT.XX+X+XC.Z.V.a.j.a.N.a._ _ i./ i.a.C.T.+XN.8./ U V U V Y U h V R V U ~ V N C Y m h C V Y ~ Y 1.1.Y R ! 7.d.8.8.! 1.! V K.9XD.d 5 q 5 y w u w 5 < 2 w l < 3 R 7.@XoXK.#XuX-X1X,X,X2X3X%X X3X3X3XcXY.p.%X4X.XE 0 / AX%X XgX;XW.H.`.nX8X'.].].]./.[./.'.yXn.#.b.6XQ.E.dXcXmXG y.8Xe 1.fXvXI.q W.Q.y < ..[ s 8X'.@././.].]._.n.yXH.yXR.=XmXT.bX>X) .X4X.X|.|.A.i.U W h.XXh.i.) a.3.p.W U * t r r 3 u u u z.B 2 5 T c B B %XgX3XPXN.1.d.6.w.:.>.<.A x A <.b.(.(.H k f 3 * * t h U ~ 1.d.D.M.0.f.6.q.c.D.m.9.S.w.e.y.e.<.;.J F 6.q.;.=.S k T S.S.D.9.K.$X$XK.p.7.1.! 3.p.i.p.p.3.N e m R S C m N m 3.N.K.9XfXjX:XoX#X-X=X@XY.Y.oXoXI.$X5X$XW.E.L.L.L.Y.d.g.V.3.E U N t e N N d e d Y ~ ~ / / U h L U h h P U h & & - r L L g r ; ; ; - 0 e d d w q q t * * # # & 0 t t 0 r r * & r r 0 * # & & * * & # # O O & 3 3 4 1 1 < % @ % % $ $ @ @ % 1 4 4 % @ % 1 % 4 w 6 < % @ @ % 2 2 0 m -.1.Y m V D m q 5 < N +XB.B.-XxXcX,XN.K.9XY.L.K.8.m.*X,X0XuXaX;Xa.T.C.s.Z.N.Z.K.C.>XsXeX9XK.oXOXC.V.|.C.P.@XoX9XfXzX9XY.Z.K.D.q.G.Y.>X2X3XCXSXvXCXaX>XAXJXFXeXN.<.6XwXmXdX>X;XfXhXvXzXpXoXf.6XeX:X#X:X;XpXfXdXwX9X*X$X=X=X$X$X9X*X$XwXL.D l 6 f N.7./ d.M.7.p.=X@X$XM.m M.d./ 1.XXsX%X%X-XZ.A.d.1.! ! 1.! R Y -.=.m m C Y 1.! C T 2.2.m.",
"#X#X$X$X$X#X#XOX#X#X#X#X@X+XoXoXP.P.P.T.T.T.oX@X#X#XZ.s._ h.|.|.h.s.i.~ R U D ~ C V ~ U p.D.K.XX#XP.W.U.g.XX@Xm.~.9X=X6X!.9.G.R.J.~.9XaXvXMXvXdX*X~.J.w.S.U.f.m.=Xm.6.c.D.Q.!.e.9.e.G.9.J D D m.@XD.m.D.U.d.D.U.Y.=X=XT.Z.d.V.a./ a.V.Z.A.V.C.V.g.a.a.i./ i.a.s.a.N.V.a.s./ ~ R h h R V V V d V V C U ! R Y V C d h V ~ ! / U R Y V Y V ~ 7.1.1.1.3.3.! m.rXU.R y M w u M M 5 e w e y 2 3 Y p.P.oX&X:X#XC.,X>X%X>X1X1X,X+X|.gX%XU 1 h ) 3X%X%XE r 2XxX-XVXpXzXG.J.8X(.].]././.[.]./.'.'.+.+.v.rX$X$XzX9XzX`.Q.tXc r.nXvX6X-.6X6X{ $ { /.{ +.'./.n.@./.].'.@.'.v.lX9XsXeXeXbX<X2XZX3X1XgX-X) ^ B.|.s.W t L R h.j.j.) g.g.P.g.Z.l.4.W U W d w B S R ;.k.vXZXPXKXR.8.f.6.v.y.<.<.*.b X.t.v.(.J.6 q 3 3 3 e N U V V 1.d.m.D.0.0.-.;.;.G.R.F.G.w.q.w.y.*.=.-.&.q.m.2.! Y d w S 0.f.Q G ;.f.d.7.f.2.1.p.p.p.i.8./ h f U 3.! R V Y U g.p.1.@XfXwXW.6XwXvXpXwX6XS.<.v.G.y.G.S.G.G.W.6X6X6XE.W.Z./ E R V e t h N N e q V 4.1.R U L g r g e h h L L g r ; ; r r ; ; 0 ; ; 0 t h N C m e e e 0 ; # & = 0 f t j P g - & 0 0 - & & * * - - - & # O O & * 2 4 4 1 < < < 1 1 @ $ $ $ @ @ % 2 2 2 % 1 1 4 w 6 1 1 @ + + @ * 0 N =.! Y m m Z M d 6 < W %XB. XgXvXxX,XC.d.=X*Xd.A.N.!.=XiXiX>XvX=X/ 8.a.s.C.Z./ d.s.+XpX0XeX@XZ.V._ C / i.V.@X#X$XpXdXrX=XL.T.;X:X=XpXAXhX=XdXwXoX*XoXL.pXvXVXAXDXfX$Xc.m.zXAXhXvXhXzXBXzXpXK.D.qX9X*X=X:X0XwXpXwX9X*X9XY.9X*XY.@XwXeXwXzXK.&.l F @X@Xd.! 7.p.g.9X$X@X7.q K.=X! m ~ N.a.C.@XC.V.a.8./ / 1.R ! ! =.! / / 8.p.d.! V V T 6.m.",
"@X@X@X@X#X#X#XOX$X*X#X#X#X+XoXoXoXoXoXoXY.T.oXoX;XZ.i.i.|. XZ.a.3.U V ~ ! V F / Y D D M 2.K.L.P.Z.P.Z.N.p.Y.U.0.w.c.G :.Q.J.v.H S K.*XsXaXvXMXvXsXaXvXwX6X=XR.e.R.G.c.c.w.G.w.:.o.o.w.q.6.6.-.f.*XW.D.D.W.K.Y.@XE.=X=XT.g.7.g./ / A.V.g.Z.Z.Z.C.V.s.a.a./ a.V.K.a.p.7./ R D R R m C R V V U V V V V N C V V m m q m N ~ ! R Y ~ R Y ! V m ! ! ! 1.3.8.! 1.wXF.2.M y w w w e 5 5 u e e N g.P.$Xd.P.+XV.C.C.>XzX0XXXi./ 0 h s.V.S Y ! W r ` ZXZXVX_  X,XzXOXzXrX~.u.'.]./.].@./.[././.(._.@.#.G.wXwXrXMXpX=X7X7X5Xv.>.tXzXnX@XzXrXv., k t.(.{ t.u._./.../.].@./.b.lXrXdXeXzXiXaXbXxX2XgX X|..X2X2X1X%X-X,X&X|.E P ) j.h.P.Z.V.3.3.g.V.OXXXXXP.P.g.f.E.:XVXZXFXCX9.r.w.v.e.y.O.*.,.<.t.O.<.v.;.% * 2 e m U Y ! Y Q f.K.D.F.D.G.f.0.6.9.w.S.J.F.F.F.H.y.w.9.:.9.w.-.D S m 5 f =.S.S.;.-.d.M.M.K.f.p.g.g.p.7.3.! N d ~ / 8.p.8.! R 3.p.1.1.f.@Xm.F.U.tX$X5XH.,.{ o.o.9.v.<.o.o.9.!.R.6X6X6XK./ U h f q q d m m m m R g.7.V h g r 0 r m N N N h h g - * 0 ; & - 0 r 0 0 0 0 0 e d e d q 0 0 * * 0 h V h h h h ; # * 0 - - & * & & - 0 ; - # # & & 1 5 2 2 7 1 < 1 1 % @ + $ $ + $ + % 1 % % 1 1 2 3 4 * % @ * % 1 3 h ! ! Y m d f f w K 4 h.3X4X,X2XVXvX0XY.d.K.pX=XK.M.K.Z.Y.:X#X:X>X@XP.Z.Z.V.C.s./ p.Z.,X0XM.p.N.B.s./ C.#X:X0XfXwX,XdXtX`.U.OX>X2X-X1XvXOXa.,XcXOX9X9XU.6XrX9XeXrXzXMXMX6X9.J.tXMXmXzXwX9XaXwXY.@X:XK.q.Y.9XeXwXdXdXrXrX9X6X*X9XL.R.U.D.6XE.K.2.D.zXdXU.d.m.P.K.Y.K.9X@Xd 8.@X1.V T 1.R ~ / 7.p.3.1.7.! Y U 3.1.! / / p.g.Z.3.! ! C 5 l D ",
"@X@X@X#X#X#X@XOX#X$X#X*X#X+X@XoXoXoXoXoXoX+X#X:XXXa.i.B.+XZ.R Y Y T ! 8.=.V =.p.! Q ! D D 7.W.T.U.Z.g.d.7.6.-.C $.-.D F 6X$X=.S S.W.@XwXpXpXwXvXmXvXvXmXmXeX6Xw.D.R.W.~.Q.6XJ.o.G J Q =.6.-.Q 6.6X6XK.9.q.d.K.K.P.#XoXK.d.7.P.Z.N.T.A.N.Y.+XXX+XoXC.A.Z.a.C.B.8.8.~ ~ ! V C U R Y U C m V Y U N V U U m C C V M d m h U U U U ~ ! ! ! V m D ! ! -.! ~ R ! tXU.D.4.5 y e 2 M N u u N j.g.3.N 4.p.p.Z.OX:XsXT.V 0 e 3.i.g.p.L * 0 e 0 L / ) ` .XSX1XV.K.qX*X*XU.~._.@.[.#./.@./.n./.n.n./.#.9 v.rXtXqXMXGXdXy.Q.6X).y.e.<.nXNXbXrX(.9 @ <._.X.O.b O._.+.+._.@.n.b.8X6X6X6X9X,XcX2XgX2X1XsX1XgXgX%X&X X%X_ B.%X3X-X%Xh.i.E E j.i.s.h.i.i.i.g.j.p.P.9X$X0XgXZXSXVXS.| G y.9.:.v p n <.,...{ } 5 * f R Y ~ ~ ! C C ~ K.W.U.E.Q.R.D.m.D.S.S.S.Q.Q.R.H.J.Q.F.w.9.G.F.q.1.Y ! R D C F e.k.m.L.=X$XY.C.V.g.d.p.d.d.7.V h R R ! 1.8.1.1.! $.Y M Y L.w.G.G.f.o.<.t.v.e.5.c ;.5XF.w.e.q.9.S.F.Q.Q.6.Y P e 3 1 1 3 f m d N 3.g.d.U r t 0 * 0 m m h g t 0 = # & 0 * # # - r 0 * - * 0 0 * * 0 e q 0 3 3 d U ~ U U h L 0 = & ; 0 t ; * * * * 0 I r - # O & 2 5 5 6 1 @ @ % * * @ + + + + + @ % @ * @ % % * 1 1 * * * 1 3 2 + 2 V V V m d q 5 6 6 d 3XZX3XuX1XvXAXfXdX>XK.T.=X=XP.M.K.@X$X$XK.#X0X&Xs.a.T.T.,XoXC.Z.XX>XP.p.a.s.a.V.V.Z.0X0X:X:X$XqX=X=X*XsXcXcX-X+X0X>X-X>XvXaXgXsX6XG.H.J.J.c.W.$XjXDX6Xp { '.MXHXVX1XpXnX*X*XzX9Xf.K.wX:X:X9XdXwX9XwXY.1.W.R.f.K.m.Y.*X=X! Q E.wXU.D.M.K.K.M.d.9XdX8.~ N.d.8.p.oXZ.C.Z.M.P.oXV.8.8.s.p.a./ ! j.p.U ^ a./ / ~ S l f T ",
"@X@X@X$X$X$X@X@X@X#X*X;X#X#X#X#XY.oX#XOX@X#X:XXXs.B.h.|.d.~ M H D ! 8.1.~ ~ p.Z.~ Q =.&.D D N.0X#XN.1.1.D D 0.;.c.F.Z 6 G w M 9.6.~ Y.zXzXcXiXvXMXbXbXvXDXMXMX6XD.U.9X*XwXnXeXc.r.o.9.9.q.7.6.d.U.W.-.1.6.N.Y.M.N.K.T.oXZ.Z.,X1XXX+XC.XX%XOXOX+X+X XC.C.C.|.p.~ R V S C m m N U Y C C d N U W U N V V Y m C V V h C C N V m m ! ~ 8.8.! m d ~ 8.=.~ R U ! tXD.4.7.Y e w 1 l m W N q 0 e e 3./ p.Z.XX#X,X4.1 t 3./ V.a.W / +X%XB.` h.I E B.B.) +X2X8.Y.d.*XQ.t.+.v.O.@.u...n./.u.y.u.(.(.[ +.H.mX6XwXzXDXMXG.,.).tXtXr.+.zXzXmXfXv.O.X { `.X.<.<.b O.+.O.u.u.b.(.'.6XQ.6X`.*XwX=X2X2X2XxXgX2X1X|.A. X) ^ %X1X-X%XsXxX-Xh.%XgX4X|.A.V.g.&XM.L.6XE.G.U.,XgXgXaXvXU % @ y.S.w.M @ 7 F >.{ o.x % q D ! V 1.-.Y M S =.q.F.D.U.U.D.D.D.G.R.R.Q.R.Q.Q.R.J.`.6XQ.Q.Q.6XW.m.0.M.d.2.G c A ;.w.U.=X@X@X@XM.7.d.p.d.g.8.U N R Y V Y =.7.-.4.! T T R P.0.R.Q.R.b O.v.J.J.G. .n H.e.} 5.D.`.tX~.v.v.-.C U h 2 % < < 2 4 e R p.d.1.~ U h h e t % + # # & # # + + # - * & ; 0 0 = * t h 0 o o - 0 t 0 * 5 d M ! ~ / ~ U j = * 0 4 0 = % 1 2 0 t 0 h r - # : t w 4 1 < @ % 4 2 2 & + @ + + * * * # & * * * * 2 2 4 < 2 3 4 % + * q l f f d e q w % U gXZXxX1XaXcXvXdXzXpXdX:X=X=X+XT.N.Y.@XW.M.P.:XOXV.7.T.OX>XiX<X+X;X>X,X+XP.Z.B.-XXX|.>XsXuXiX0X0X>X>XsXaXcX0XM.T.cXcXsX>X9XqX6X*X9XH.H.J.W.+X=X~.W.6XDX6Xa s n.NXLXgXeXwXE.+X=XwXW.K.zXpXpX*X#X;X9XdXrXK.K.9X$X=X=XK.9X9X*X8.7.@XY.M.7.D.K.*XK.@X*X1.q Y d.K.7.K.XXZ.p.d.7.g.N.N.B.V.a.B.a./ ~ ~ ~ ^ _ 8./ 4.1.7.1.m.",
"=X@X$X$X$X@X@XOX@X=X*X;X#X#XOX#XOX+X+XOX=X*XXXB.B.C.s./ M M M S Q 8.s./ ! 1.8.d.1.V Q -.-.D Y Z.C.a.XXg.Z H <.,.;.:.7 7 K f -.-.J Y Z.pXzXzXwXwXzXzXzXzXzXmXAXMXdX:XeXwX9XwXzXzX9XY.6X$XW.U.c.m.!.*Xm.d.d.M.@XD.Z.XX+X-X-X-X>XiX>X+XP.+XoXZ.N.g.N.Z.C.V.V.Z.d.Y V M S Y m C U V R m N f U U R R U ~ U R R U U V V Y U U U V V ~ 1.1.1.1.~ D Y ! ! / 3./ ! E.0.T p.g.t e t d 2 u U q N ! e =.U 4.7.K.P.~ m 3.P.1.W i.( _ / U U B..X3X3X-X Xh.B./ V.Y.W.q.&.b.b.s n `.O.O.@.n.b.t.b.b.u.H...u.y.rX~.6XmXvXfX6Xt.v.zXzX<.@.eXMXcXnX7X'.A n J.y.;.y.>.y.b.H.b.@.n.`.b.8XQ.7X`.$XtXtXvXbXAXvXgX2X2XgX2X,X>XuX X^ ^ W ^ L ^ .X1X-X4X%X&XZ.3.W g.l.B =.f.Y.sXxX.XXXqX0 X X e.y.G.D $ $ f o.o.:.z 2 3 m R m 6.-.Q Y Y Y m l M T S S T =.2.G.R.R.R.`.`.J.Q.).6X6XQ.`.tX6XE.K.q.7.q.f.:.p H &.d.K.T.#X+XM.8.d.d.0.7.1.R U / R R m Y ! 7.1.Y Q 2.~ 4.w.S.Q.6XG.v.J.H.b.t.O.p A n } I.6X8XrX6XD c Q V U U l 3 3 5 5 q q Y ! V Y Y U U W W N & o + # * - - # & * 0 0 & & * 0 0 t j h 0 o . o 0 h e 0 w d m Y / 3.~ U f = 3 t 0 0 3 3 2 0 h h g h h ; & : t e 6 6 7 1 4 4 2 @ @ $ $ $ @ % * 3 4 4 3 3 4 5 5 f 5 5 5 2 1 % + % q d q e w 6 5 1 f B.3X3XxX2XgXbXMXcXaX:X0XvXwXwXhXfX0X9X0X;XN.c.M.+X=XY.T.;X>XsXiX,X>XiX1XaXxXVXvXAXSXAXDXvXvXAXAXAXvX2XiXiX>XY.! s.>X;XoXm.;.*.<.e.Q.G.e.I.tX$XqXW.Q.Q.I.DX9X7 9 v.DXHXzXpXwXpX*XpXdXXXaXvXzXrX=X9XzXzXkXzXwXdX=X=XwXU.=X9XzX=XN.Y.7.N.K.N.N.Y.9XwXwX#Xd.C H D H -.8.1.D ~ ! / V.C.C.|.s.V.V.a.( _ B.s.( / R C ! 1.-.6.",
"@X@X$X$X$X$X@X=X#X#X#X#X#X#X#X#XOXOXOX#X:XoXC.B.Z.g.~ N H D D Y ! / / / 8.q.1.8.~ C V =.q.! ~ @X-X-XxXbXG.a s s 8 p p A Y ~ 6.! =.1.W.wXzXrXW.Q.`.`.`.`.!.$XwXmXAXzX9X6X6X=XzXmXmXdXdXwXtX6XU.K.G.W.@XT.P.g.K.M.K.&X;X1X-X%XsXaX;XoXA.K.K.1.R R 1.3./ p.i.p.1.m V S S ! C m V V C N N h V U ~ / / / / / ~ ~ R R U Y U U ~ ~ ~ ~ ! 1.7.7.7.1.! ~ ~ 3.a.8./ D.2.5 Y g.R N / h 2 e V 3 e e * 3.P.P.K.P.g.p.Y R Y W M.,XV.^ U h h W B.h.3XZXxX-XA.N.g.1.U.m.m y.7X<., tXJ.s y.| @.O.y.b.t.,.t.b.(.'.).`.eXHXdX8Xb.J.AXcXv.+.BXdXzXNXtX'.8X{ v.8XQ.H.| G.8X`.b.+.<.`.v.nX6X6X6X6XzXdXbXdXaXxXxXVXgX1X-X2X%Xh.h.^ ` _ B.Z.&XC.P.K.Z.XXXX,X1XsX5X0.=.g.K.*XxXSXVX2XhX^ . . 2.e.,.k + X % 5 6 6 2 1 e U Y w =.! T C C D 5 3 6 w 5 f m M d C S T ;.F.`.`.R.F.F.R.`.Q.R.R.K.w.Q T ! f.D.&.G F 7.N.V.T.P.g.7.d.d.d.4.Y Y Y U ! 3.! ! 4.0.6.=.7.f.d.d.D.e.v.`.tX6X`.b.@.t.b.X.G ;.Q.Q.J.H.H.F.M l 6.! Y U N h h U U h e U U m d h h h N V N r - 0 0 t r 0 - - ; 0 t 2 & * ; * r P g 0 # # + * r N V M m M N d N h g q 3 3 1 3 3 3 0 0 0 h h g h h j ; - 0 0 w k 6 5 5 3 3 % 1 4 1 @ $ % 5 w f f f 5 5 5 4 6 5 1 1 2 4 % @ 3 e h h d 5 4 1 % i.,X1X3XxXvXvXvXcXaXzXpX#X:X,X0X1X:X9X9X9X,X*X9X9X0X>XpX:X;XsXsXsXcXsXxXVXxXxXgXcXxXaXaXvXsXaXaXvXAXcX>X1XgXsX9X-X<X,XY.7.m.m.L.I.f.U.~.G.U.I.k.D.F.Q.tXe.6XGX!.v G 9XHXvX1X>XcXpX$X6X$XK.$XrXpXJ.F.eXxXkXpXeX*X@XW.9X9X=X9XdX9X*X0X@XZ.@XW.N.N.#XiXhXaX,XA.Y C h N Y 8.4.3.g.C.V.a.a.V.V.s.a.a.s.B.Z.V.s.~ V 4 d T =.Q ",
"oXoXoX@X@X@X@X@XOXOX#X#X#X*X*X*X;X;X:X>X#X8.V.B./ Y C m D T ~ 8.1.1.8.d.8.7.1.1.! V D Q 2.D l 8.:XaXcXvXvX9Xm.-.=.m.c.*.=.8.N.q.1.d.U.U.tX6X<.X.<.e.e.F.=X#XU.6XzXvXdXwX9X=XwXrXwXfXqX=X9X6X$XK.q.7.@X;X:XoXM./ -.M.K.@XY.d.M.@X=XM.Y T Q C M S R 1.3.8.~ ! Y V Y Y V S M d m M N U R W U U / i./ / / i.3.8.8.! Y / 7.8.! ~ / 8.8.8.d.d.N.d.d.d.3.3.A.a.N.Y.W.l 7.7.0 # h h.t e / 0 e / 7.P./ 3.oXR % 2 R h.i.h.) g L P g g ` .X%X1X^ U C.2XgX,X9X=Xc.tXD o.6X8X..S.mXH.k.y.y.t.<.).H.v.'.O.y.b.'.lX`.HXvXlXu.y.8XHX~.@.lXhX=XvXmXn._.n.+.J.rX6X<.`.8XG.(.(.`.R.@.7X5X).(.`.8XtX*X<XdXsX1XgXxXvX1Xh.) / %X%X%XE ; r L & . $ e @ @ y , $ C d.Q.Q.W.pXVXPXPXPXLX3X` P =.G 8 @ + X + $ $ < 3 d M Q 2.2.0.q.=.Y R 1.! 1.! Y M d m l f f d d l ;.Q.6X8X`.R.v.Q.`.!.6.2.6.9.q.! 7.S.D.9.0.d.d.p.V.M.g.2.7.0.0.2.V m Y 3.g.g.d.f.K.K.D.d.M.K.Y.W.E.F.F.v.e.v.Q.b.u.n.b.H.t.<.J.y.e.} <.J.F f -.6.Q ! U C C ~ / U h C V V m N U ~ U N C U U U U h h t t 0 0 2 0 t t t r * ; h h r 0 r t t e N V V C M e d h f 0 3 3 2 % 3 0 0 0 0 0 0 e t h h P L r 4 2 4 5 6 4 4 5 4 4 6 6 4 @ $ < 6 w 6 w 6 4 6 f f f f < % 3 4 @ % 2 q d m 5 4 3 E -XZXgX3X<X+XpXwX:X=XeX9XpXeX9X>X>X9X!.!.E.+X>XsXcXvXAXAXSXAXSXSX2XXX>X,XOX;XuX>XXXXX#XOX;X;X+XT.7.M.@X*XY.@X9XW.@X#X9Xg.oXf.m.T.T.W.G.Q.6X*X;X@XS.q.w.6XtXJ.J.DXMXk.| >.R.NXkXR.L.tXF.v.J.<.r.6X9XJ.e.L.eXzXzXzXpXdX@XwXzX*X9XzXwXfXvXpX=XeX=XY.d.N.Z.K.pXpXOXXX#X-X%XV.Z.C.N.a.|.B.B.V.B.C.V.a.i.a.V.C.p./ U Y q 3 M 6.0.",
"@X@X@X@X@X@X@X@X+X@X+X#X#X*X;X;X;X:XwXW.~ C ! =.Y D R V M B Y 7.d.q.M.q.D ~ ! 7.8.! -.Q D T Q Q i.eXsXaXVXSXvXeXdXbX=Xe.5.8.2.0.1.P.6XF.H.J.v.<.e.F.<.S.rXzX=XG.~.wXzXwXrXrX=XU.Y.wX9X@XE.R.W.=XY.M.$X#X#X0XwXd.m F Q c.m.D D 0.U.q.S D D m Y ! V ! 4.R U R Y V Y V m m m C V C C U E U U ~ i.a.i./ / 3.p.d.7.1.! / / ! ~ ! 8.d.7./ / 7.N.d.8.8.p.p.N.N.P.U.dXM.d.p.R h * / U t N 0 u e 3 3 h e 2 L P.#Xh.h.^ E ; ; ` 3X3XZXZX3XB.` h.|.) h.|.A.P.$XU.tXrXF.v.J.O.v.F.6Xe.v.Q.H.e.J.J.b.H.{ { (.7XlXn.lXvX8Xb.u.(.rX`.n.v.mXmXfXrX/.@.@./.H.`.8Xy.`.H.*.*.J.zXH.@.`.`.).(.'.J.Q.tXtXwX*X:X:XC.C.a.XXZ.a.U ; L ^ s.Y h W E u W W e R R %.y u $.$.F $XsXxXZXPXPXIXgXh.2 2 < @ + # @ @ 1 f m m U 1.9.D.f.w.;.0.q.2.0.M.2.Y M w m m q 3 e l e 5 M 5.G.).8X7X8XrXW.D.q.! 1.K.0.q.D.M.D.L.M.a.a.V.Z.M.7.7.0.0.6.Y m Y d.d.d.8.=.1.M.Y.p.7.g.M.$X5X$XtXQ.X.>.`.)._.n./.b.b.b.>.| <.>.G.R.K @ Y m.2.! V m j d N Y m N V m V U U ~ ~ R ! ( / ~ C d 3 3 3 e q 1 4 d C U U j e h t 0 & t h h t h N S C w 3 q h h 0 3 3 2 2 0 e 0 0 0 0 e 0 h h d g r r 0 2 @ < w 5 < < 4 w 5 5 5 1 2 5 6 q q w 5 < 5 l f f 6 1 1 3 * @ % 2 0 e e 3 j h.1X3XgX2XhXaXOX:X$X@X=XeX9XwXdXfXsX:X*X<X;X1XhXAXhXvXcXaXOX^ i.2XAX,XT.V.a.a.Z.+XOX,XpXpX:XpX9X9X9XY.Y.m.f.E.I.R.Q.R.;.U.K.U.q.D ;.F.K.y.v.Q.<X>X#XL.y.e.6XdX*XU.*XHXaX&.k 8 F.Q.rX`.5X$XW.R.v.F.E.rXtXF.S.5XwXwX9X@X*XD.K.W.E.@XdXwX0XdX:XY.K.=X@X$XY.oXg.9XaX>Xh.XX1X-X X X+X+XXX+X+XC.V.V.XX|.s.s.i.s.V./ N m Y M m m V -.",
"@X@X@X@X@X@X@X@X#X#X#X#X#X*X*X*X;X0XqX| 6 C C V C D Y R F T ! 7.0.1.1.Q M C Q d.8.8.6.D l C &.Q D M.9XaXxXCXCXAXSXHXdXH.m.8.1.1.1.M.tX6Xv.v.!.!.G.~.y.y.R.rXzXE.J.R.9XwXwXrXrX6XW.=X=X*X=XR.K.E.$XK.@X@Xa.T.cXoXY f K H Z z k z S T D Q D d C Y Y Y R Y Y ! U Y Y N C C Y Y R Y ~ / / ~ / 8.a.N.V.a.p.3.3.! D ! 1.! R R ~ / 8.s.7./ 1.d.M.d./ ! / 8.a.s.d.7.p.#XY.P.p.i.3.i.W W N e h h N e e U p./ 3.0 r & X # h..X` ` h.1X3XVXKXKXLXZXVX2XB.>XT.=Xw.W.tXrXF.6Xv.J.o.=Xv.s F.dX!.J.).J.X.[ 7 @.'.rXu.yXMXJ.b...O.Q.rXn.@.NXHXmX8X]./.[ _.@.(.6XtXrXv.H.{ v.nXG.n.7X6X).n.(.b.).`.6XrX6XY.$X9X@X#X;X,XOXU h.-X%X|.W 0 # - h.|.%Xh./ E j.y 2 5 T k.E.9XqXdXvXCXZX3X) $ 1 1 % < * 3 1 4 q m d V -.5.9.q.0.q.R.U.q.q.2.T l d e m m q 3 2 2 3 2 1 3 q M f.).tXQ.;.=.6.2.! M.U.U.Y.K.K.K.N.s.p.Z.T.M.0.0.q.f.d.! U 1.2.Q M D S R 7.M.M.d.d.0.6X6XF.7XrX'.(.`.H.b.b.(.J.H.J.y.w.S.*.y.L.4 $ f M.Y.M.1.~ Y ~ R R N N d m Y ~ ~ / / 1.7.M.M.! V m q q 5 f f w f M C R R U U U e - # * t 0 * e h M m d q d N h e e q q q 0 e 0 0 0 0 0 q j h h t - ; 3 < @ < 5 6 4 3 6 w 5 5 5 5 4 4 2 2 4 4 1 4 w f 6 6 5 5 2 1 % @ * 4 0 0 * g V.FXVX-X+X&X9XfX0X0X9XeXpXwX*X:XpXsXaX0X>XgXVXSXAXaXN.8./ U V.8.U Z.vXbX,X1X%XZ.C.oXg.;XmXvXpXpXdXdXzXeXfX:XK.U.M.7.6.:.Z c.~.D.U.M.=.z.P.$XL.-.6.Y.9X*Xv.<.R.6XeX*XS.iXGXT.q < B l F.fXnXdXpXfX@X$X@X6X@XE.e.y.9XzX9XY.@X$XY.K.W.d.M.Y.$XwXoX$XK.W.Y.P.K.=XV.;XcXvXC.E  XXXB.|. X|.h.a.B.a.s.s.g.XXV.N.s.a.C.a.^ h R ! 7.! d l ",
"@X@X@X@X@X$X$X$X#X#X#X#X=X*X*X#X,XeXD.8 k D Y C C ! ~ 4.Q =.! =.! ! D Q T D ! 7.7.1.2.D M D D 6.Q 6.$XdXpXbXaXvXDXHXzX`.G.Q -.Q D &.W.tX`.U.K.R.K.W.K.w.9.m.9X9X`.F.F.6X6XU.G.R.W.W.W.6XtX9X$XE.@XP.K.=XN.N.0XiXT.D 6 7 6 k p p l z m S Y d m Y V Y Y Q D Y S ! V m U R R R R ! / 8.s.a.s.s.8.( s.Z.a./ 1.! R ! 4.! ! 1.8.8.3.8.d.8.8.d.d.1.1.1.7./ a.8.1.7.m ,X9X#XP.&XP.p./ R L e U U h * t 3.W U ; * . X ; - . o & ; t t W R N.<XVXZXxXFXxXaX>XeXR.U.9XtX6XQ.$XnXG U.tXA $XrXQ.Q.).J.{ +.< ..'.rX[ '.DXrXO.@.#.(.tXn.[ yXeXmXyX/./.[ /.#./.8X`.tXe.e.J.<.eXQ.(.v.6X7X+.n.(.8X`.`.`.R.R.6XR.m.@X;X>XC.;XxX.Xs.E I ` 1X X%X%Xh.|.4.M 4.l 0 N 0.oXOX1XpX0XgXZXZXZ.N 5 4 0 2 6 1 3 1 4 0 d C =.f.e.;.9.9.w.G.F.c.q.T M l m m m m m l q 0 0 0 3 f e e d k 9.e.Z q m 8.d.D.Y.Y.K.M.g.V.V.a.s.A.K.7.7.7.7.d.m.8.! 3.S l 3 f M Q =.q.D.U.7.o.G.H.| *.J.).v.y.o.t.b.'.`.y.G.6X6XQ.5.w.d.3 + q 8.oX@XY.K.M.K.K.M.1.V q m U R R 1.7.d.U.Y.M.! C C M l w l m M M M m l l m m e 0 - # & = * + 1 t l N M h h m U U N h e 0 0 q 0 0 f e e e h h f 0 - - 2 % < 1 4 6 6 5 5 4 w 5 < @ < < < % 2 4 4 6 f 6 6 5 5 5 1 % < 1 * - 4 t * W XXgX3X|.a.p.K.~.9X0X#XuXwXdX9X*X,X9XsXsXeXcXvXbXOXV.a.|.%X%XsXVXaX1XgXCXxXgXgX1X+X>XOX-XuXsXiX;X0XsXaX;X;X>X;XeXwXT.K.G.M.0XpXoXoX>X;XpX<X+XT.o.s { 6X,XQ.q.m.L.*XrXQ.Z.hXDXs.3 M R 7.U.f.wXmXpX$X$X9X=X@XK.S.G.U.rX6X9X=X9X9X=XtXm.q.7.K.M.2.U.*X@X=XXXD.@XP.OX;XsX,X~ a.P.a.p.p.p.~ R U / V.V.a.s.s./ / h.C.B.V.3.p.T.K.m.7.Y ",
"@X@X@XY.Y.@X@X@X#XOX+X#X*X*X;X;X9XU.D l D D m V R 4.3./ D &.! F Q ! =.Q D D Q 7./ 7.1.Q T D Q T H G r.G.Q.nXdXpXVXDXAXzX*XN.! &.n z 9.W.=X*X=XU.G.W.:XW.F.w.U.*XtXQ.H.J.6X!.r.e.F.L.D.U.=X9X*X=XwX0X:XeX=XP.oXaXhX%XC.N.~ d 5 k M C D Y Y Y m l Z S D T T D D D m U R ~ ~ / / i.3.3.8.s.a.i._ ( s.V.g.~ 3.7.1.3.d.7.1.-.~ ~ R ! 8.0.7.7.8.1.8.1.7.i.3.a.8.D.e h ~ V.M.g.D.p.p.R W U h u e 2 e t e +   . - h - - r I I I ' : o o / XXoX:XdXhX>XzX@X=X`.v.J.`.v.v.pXNXf.m.zX!.6X=XwXQ.v.n.s n., a b.lX#.t.GXHXn.[ @.).nX(.[ 7X~._.].x.[...].+.b.'.n.tXtX;.7XG.=XJ.H.!.W.tXJ.`.(.`.J.).`.J.Q.6X=XtXqXiX1XaXaXsX%X1XVXxX3X4X.X3XxXC..XE L |.R U p.T.T.aXiX-X-XgXCXCX7.k 2 3 3 3 5 q e e e e V ! w.G.e.&.-.;.;.<.e.G.U.0.=.l d h m m Y Y R U m w 2 3 3 5 7 < < f Q ! 1.d.M.D.K.7.! 1.Z.P.+X+XoXZ.8.-.p.0.2.0.f.d.3.R q 4 5 6 f l D &.J 0.-.} ,.>.x p { y.w.<.<.b.).6X`.y.:.:.R.Q.v.c.0.2 % D 8.M.E.@X#X:XoXoXP.4.d 0 M Y N m ~ -.6.m.L.f.D l f l l l f k z m l l w 5 w l d 0 * * * % * @ * * q d V R U N R W h h t 0 q e e 0 0 j h e t h t ; - 0 1 @ 1 2 5 6 6 1 @ $ @ < @ @ @ % < % 3 q 3 6 6 5 w 4 5 5 3 1 < 2 * * ; ; ; ( V.s.C.oXK.p.M.U.K.K.Y.@X=X=X*X9X*X:XwXpXeX0X,XC._ a.%X1X,XxX>X>XsXvX,XiXVXVXcXvXxXaXaXsXaX1XsXsXaXxXAXxX2XsX,XiXvX1XOX,X-XxXVXxXxXCXCXSXFXLXAXxXT.7.D.U.I.I.f.M.p.*X=X=X$XHXxX8.Z 1.7.8.=.oXAXHXwXF.`.~.W.R.F.!.F.E.Y.=X$XwX9X=X9X6X=X$XW.E.6.N.T.=X;X;X>X>X;XsX2X-X2X X) %XA.a.a.j.3.8.8./ / 8.Z.3.3.i.s.) s.V.+XM.7.M.K.D.U.m.",
"Y.Y.Y.Y.Y.oX@X$X@X=X=X$X*X#X;X0X$Xr.x d ~ Q M T 8.7.8.~ S Q =.T J / p.! M Y =.Q H Q Q ~ D Y &.! Z H H F w.rXzXpXeXzXbXAXvX0XM.S n G U.6XD.U.9XF.c.!.9X$XQ.F.K.U.tX~.G.D.9X6Xv.9.c.D.D.m.K.R.*XK.@X:X*XeXpX#XoXwXcXcXgXcXsXK.=.B 5 m -.Q C ! M z z z Z Q =.C m Y V ~ / ! / i.p.p.3.i.a.a.8.V.Z.N.8.8.8./ p.M.g.p.p.8.8.7.1.! ! 1.~ 1.d.p.7.1.1.8.( s.p.j.3.U.m t A.N.Z.p.! 4.g.7.d t u 3 $ * # # 0 0 t r o : ` E ` .X4X3X4XPXZXB.I ; a.Y S `.v.K.J.v.'.J.G.`.J.G.N.MXwXR.~.zX~.6XrX~.Q.(.<.yX8 9 n.`.n.s dXNXn.[ 9 v.nXJ.@.R.NX/.[.[ _.w.lXb.`.(.v.`.8Xy.v.~.9X).J.H.Q.`.`.J.J.).J.`.7X`.8XtXtXW.U.0XsX>XiXgXvXCXxXxXxXxXVX-X.X%X2X2X1X1Xi.i.Z.&XOXsX1XvXaXxXSXZXU 6 4 2 w q 0 q 0 e h d Y 6.D.G.S.r.;.=.9.e.S.F.Q.R.S.&.l l l l C V -.! d 2 2 1 % % < < 7 4 V Y N m d q w < < D M.oX#X@XK.! V -.q.0.0.d.8.7.p.~ 4 < 5 5 6 f d Y D -.&.:.;.q.=.X.>.>.:.:.v.`.7X8X(.t.<.r.;.y.H.H.w.3 % Q 2.2.L.Y.T.T.! V m l 3 e M M m w d M m ! Y C d f w l z z k k l M V Y V l K l d 2 * & * & @ % = 5 q d V R Y h C U h N h e d d 0 0 0 g U P f j j g r 0 3 < % < 6 f 6 7 < 2 % 4 4 q 1 < < % 1 < 6 < < 5 5 7 4 4 5 < @ * * 0 g I I _ s.V.|.s.8.N.:XeX0X:X*X9XeX,X+X*X:X=X>XaXZ.i.V.C.B.E h _ a.OX+Xa.oX>XsX#X X+X>X1XcXcXiXiXvXvXcXvXaXsXsXcXcXbXvXaXvXCXcXaXxXCXSXgX-XaXAXxX-XvXAXJXJXHXzX0XU.~.D.U.m.R.Q.`.M.rXHX=XM S 0.D.D.E.*XGXFXm.E.pXeX=XK.L.U.U.R.E.R.=X*XW.E.@XpXfXzXeXY.T.=XaXMXxX2X>X+XaXcXsXgXgX X<XOX3.N.Z.M.p.N.N.d.8.T.Z.a.V.A.C.A.B.N.Z.d.7.7.f.m.f.",
"Y.Y.Y.Y.Y.Y.Y.@XoX@X$X*X*X:X=XqXD.D z m Y C m Q 8.8.6.~ Q Q Q Q D 1.d.~ C ! 8.V C ~ =.D S Q :.F G H Z D r.=XzXpXrXeX9XzXAXMX9XQ H r.tXrXE.6.W.Q.r.W.qXL.!.U.K.!.rX6XD.D.=X6XF.S.D.!.U.L.D.f.Y.E.;XOXM.oX:X:XoX+X<XpXaXxXvXaX,XV.m M Q Q C D M 6 l k M Y ! D D 1./ / 3.3.i.a.p.i.8.p.s.s.a.V.V.a./ / / 8.d.N.d.7.1.1.7.d.d.8.8.8.! 1.8.1.7.8.1.7.8.8.Z.j.3.M.8.L 1X9X#XP.2.p.p.V 1 t h e t t o       X : : ' ' ; g ; : ` -X3X|.2XxX+X$XU.H X.<.e.y.O.<.rX6XQ.U.J ~.9XMXJ.S.HX`.W.6X6XJ.6Xe.7X,.9 ].`.(.s rXlX_.@.+.(.8Xn./.J.nX'.[.#.'.=X6Xb.'.J.O.(.J.v.b.Q.6XJ.v.Q.6X6X7Xb.(.`.J.`.`.`.`.Q.tXtXtX0X2XsXaXaXxXxXxXxXxXgX|.+XgX2X2X%Xa.h.h.h.a.8.C.+XgXvXxXvXFXZXp.z 0 h V d h f h N R U ! d.f.S.G.w.e.q.S.S.J.Q.6X7XR.w.T C f w Y R =.-.l < < < % % % 1 6 4 l R / R d 3 d 3 1 M 6.0.f.M.2.C M 0.S.f.f.d.=.4.g.! f q q 5 w 5 4 Y 9.S.w.e.;.-.-.,.:.G p A H.H.H.J.b.y.H.G.e.<.y.G.R.Y q 6.m.0.d.m.M.m.q q M M m Y Y Y S m q q d C d f d m k Z F G x k l M V V V V l q q 2 * * * % % * q d d e f h h h h h h h h f h C g t ; t h h h U P g r r 0 1 < f w 6 6 6 5 6 4 1 e h e d 5 1 4 7 7 < < 5 3 4 7 6 < % @ # * L ) ` ` ` B.%X,X,X>X;XAXAXcXaXiX,XzXvXpXzXvX,XOX>X+Xa.s.i.^ U U V h N.i.~ XX>XgX,X+XB.|.OXiXaX0X,X#XpXsXsXsXwX*XoX;X0XaXcXVXxX2X,X%X1XAXvXOX1XAXvX>XcX0XcXDXGXJXLXzX*XU.Q.!.F.U.U.M.=XzXzXD C Q ;.6.q.~ sXKXDXvXVXcXcXcXmXsXwXwXqX6X*X9X$X@X$X@X@XpXfX*X#XT.OX,XOX;XoX~ 3.Z.T.#XpXOXV.A.R 3.8.7.d.! C 8.C.C.Z.a.a.V.C.C.Z.i.Z.d.7.d.8.! ! ",
"oXY.Y.Y.Y.Y.Y.Y.#X+X@X:X+X#X=X$X&.Z Z M D H z Q R / -.D Q Q Q Q Y =.1./ 3.N.K.N.! / ! D F J :.&.&.M Z z H q.9XwXQ.Q.Q.tXzXMXMX9XS.6.R.tXrXW.6XtX:.R.dX$XG.K.S.r.6X9XR.L.W.W.G.G.m.0.W.*X#XM.m.F.dXpX@X#X*XwX;XY.W.9XiXaXaXcXAXVX#X7.M Z G G Z Z m f l Y 4.1.8.p./ / 8./ / p.p.p.g.p.7.8.p.8.8.a.s.~ ~ ! 1.d.d.m.N.N.d.7.7.7.7.7.7.8.! ! d.N.7.8.8.1.8.j./ / -X) i.8.j.g.g.N 1 0 W W h h e W ^ |.|.h.h.` ` 4XxX3X3XFXSXxX1X2XcX>X;XwX$XQ.`.Q.rXI.q.J.7 c.rXW.6XK.r.m.=X~.< qXNXG.Q.v.H.rXtXrX(.s /.O.yX@.'.J.yX@.u.).R.@.b.6X).].[.].7XnX7X/.(.'.O.n...O.>.R.`.*.Q.6XQ.).v.t.(.(.b.(.).6X6X6XtX=X6XeXsXsXdXfXaX2XaX1Xh.h.XX%X%X|.%X+XB.1XhX;XXXK.T.,XvXxXgXCXSXVX7.k h P m N C h N R 8./ Y q.S.S.S.q.S.Q.R.r.:.S.Q.rXtX6X6X!.r.&.9.&.x 6 w 5 5 4 2 2 3 5 6 6 6 l Y N q 2 3 % % 5 5 5 k k M -.0.m.D.D.M.f.4.7.P.g.~ U N m C d q ! w.Q.6X).G.H H v.H.<.o.o.H.(.(.v.,.t.y.v.e.<.e.9.H.f.! M.Y.@XY.d.-.V 5 l D M M 2.g.d.d.R d q d h e f m l k o.*.| z l m l q 4 0 d e 0 q 3 3 0 e 3 1 2 q w d h d g h h h h h h h h P ^ U g 0 0 t e h U U L g r 0 q w w q 6 f q 5 f h h R E ^ i.3.V 0 q 5 < < 5 q 5 < 1 % = 0 g ^ h.h.B.%X%X%X%X%X<X,X+X,XxXCXCXcX;X0XvXzXeXwXOXC.OXXXXX>XsX;XXX%XXX^ i.h.E C.%X2XcXaX,XsXhXsXsXsXzX>X#X9X9XwXvXzXwX>XcXaX2XCXvX2X2XvXgX1X,XT./ Y.#X$X6XL.0XaX-XgXFXKXSXaXuX0X,XaXxXVXSXvXvX,X@Xm.-.C Q ~ Z.gXAXVXAXDXvXdXMXFXSXSXGXCXSXcXiX*X9XwXwX>XhXsXmXpX$X7.7.T.P.R m Y M d Y d.8.8.! 1.! Y 1.1.~ i.C.-X+Xs.a.Z.;XV.i./ i.M.M.M.7.d.d.",
"+X+X+X@X+X+X@X@X$X;X#X#XOX+X*XF.z Z S M D H z F ! -.Q F -.Q Q Q D Q 1.p.a.A.T.B.1.8.! S J D F &.2.C z M H m.*XrX6X=X=XwXaXcXCXAXwX!.Q.tXtX9X=X~.o.R.dX9XW.D.v.:.D.U.W.L.L.U.9.S.m.q.;X>XiX:X@XU.:X=XT.+X*X,X#XT.K.9X0X0X;XsXvXVXaX;X~ M S V Y ! R ! 1.1.1.8.8.3.8.8.8./ / a.Z.Z.M.M.N.p.p.3.i.V.a.3.~ ! / 1.q.d.d.M.d.1.1.1.8.8.d.1.1.! 3.7.8.~ =.! Y 3.) a.2X3X1XC./ U ! e * 0 2 2 & t P r - ; I ` %X%X4X4X3X3X-XgX3X-X XN.K.U.D.E.E.J.v.9.R.tX9.tXr.e.`.6XzXeXe.D.Q.J.G $.rX&.H. .X.F.dXwXH...@.[ tX_./.J.yX+.[ `.(.n.'.NXv.]./.].mXvXrX'.b.(.n./.[ y.Q.6XH.e.tXQ.J.).t.t.(.(.b.).).`.).`.6X6X).6XtXtX9X9X:X>X>X>X>X>X#XZ.sX2X,X%XOXuX;X3.3.d.g.iXxXxXxXxXFXVX! 5 @ # q f h U R 8.N.8.D 0.S.G.c.;.;.F.W.9.Z D e.).6X7XrXtXQ.).Q.q.C 4 f f d h m N d f 6 6 6 l l 3 * 2 3 % 1 f f w f 6 V g.f.q.D.D.d.p.8.3.V.V.i.~ U V C d d ! =.U.rX'.J.} n H.(.u.t.e.Q.6X'.b.t.t.y.y.e.:.| F e.W.Y.#X;XeXpX=XN.Y m Y S M m 1.8./ 8.~ N e h d 2 0 d w k o.:.o.G M M l q 2 3 0 e e e 3 q d d q 0 2 3 5 d V N U P h U U U h h h j P L g r 0 r h L r r r ; ; q f f 4 f l f 5 5 C / s.j.i.^ ^ ) / h d 2 % < 6 e 3 < 1 * 4 g ( |.XXs.h.xXZXZX1X+X-X>X;X>X1XsXvXMXcXhXmX9X=X$XM.oX#XOXN.;XwX;XV.V.B.) B.%Xi.B.XX1XgXgX>XXX;XpXaXsXcXvXaXcXsX>XvXvXaXsXiXsXsXxX2X X%XaXxXOXN.=XK.L.8.f.K.6.*XMXwX,XpXGXJXGXSXGXSXFXFXFXFXLXFXAXvX@X1.J ~ ! N.;XuX>X*X=XD.D <.Y.Y.<X=X9XHXFXMX9X@X9X6X$XwX@X*X9X6Xq.1.M.K.K.Q 8.M.1.N =.K.M.d.1.8.! 1.p./ / B.-X+XA.a.C.OX;XC.OXP.M.f.! ! q.q.",
"Y.Y.Y.oX@X@X@X@X@X=X$X&X;XOX*Xq.p M M z H D z S 6.6.1.7.=.D T =.D ! 3.j.h.N.A.( / 8.! T T F C D $.M C S f Q D.tXdX:XdXvXcXsXcXcXdXU.!.6X6X9X6X6XG r.9XwX=XU.R.S.m.6.D.L.U.E.6.c.M.Z.;X1XaXpX0XOX,X*X+X;X0X0X<XOXY.Y.*X>XoX;XsXcXxXcXOXN.1.Y =.4.1.d.Z.M.a.s.a.N.p.8.p.p.i.Z.T.V.g.V.Z.p.p./ i.a.p.d.7.8.4.! 1.1.8.d.M.d.7.7.s.p.7.1.7.1.7.N.N.1./ 1.Y ~ /  XVX3X%X,X%X3.R h t R 2 1 # * t r 0 r E g g ^ 3X3X3XgX1X2X2X2X>X=XY.S.w.R.J.S.e.>.o.`.`.v.Q.>.J.r.eXY.r.S.!.S.~.Y L.v.O.} >.o.eXpXtX..#...W.'.@.H.8X/...'.'.b.).HXR././._.vXSXzXyXJ.`.b.n.O.Q.tXv.t.Q.rX<.).`.H.b.'.J.(.'.(.J.J.`.Q.J.J.`.`.R.=XtXqXqX,X,XxXgXaXXXsX-X XC.+X;Xg.! D.f.P.1XVXVXVXZXLXCX1.6 * & 1 2 N 3.p.d.1.6.2.q.w.I.f.;.&.w.!.9.C l M 9.R.7X6X6X7X8X7XtXR.-.8.p.M.g.P.oXf.! m l l H w % * * * % 3 w l f l m 4.g.7.q.m.f.1.1.1.~ / 3._ s.i.8./ R 1.d.&.9.tX'.`.H.e.b.b.n.X.X.Q.8X8X(.t...t.y.H.G.:.*.w.rXzXaXpXeX,X=X$XM.! Y V V m S D D D d e 0 h f 3 0 d f z :.:.&.;.&.Q Y C f e 0 d e e 3 q d e 4 1 2 q q q d d N U h U ^ ^ L L L L L L L L r r r g ; ; r r r q 5 6 6 f 6 5 d N / B.V.a._ ^ E E ) ) U q 1 3 4 3 4 q h U ^ h.|.XX|.a.a.gXSXZXxX-XOXcXcXvXcXcXzXaXpXdX9X8.-.D.q.f.oXXXi.i.8.~ U 8.a.B.+X+Xs.i.i.XX|.OXZ.V.+X>X>X>X,X2X>XcXxXiXxXCXxXaXsX-X1X2XxX1X%XaX1XzXK.6.m.=X/ F D.6.0.$X6X5XL.0XdXvXAXxX<X>XsXaXaXCXGXGXHXAXT.8.Q 6.K.$XqX$XR.!.Q.o.O.t.{ O.y.t.E.gXDXAX>X1X6Xw.w.D.q.-.!.m.D =.! U.K.d.N.! Q M.Y.g.7.N.T.A.d.C.|.XX-XVXaXa.U C.XXXX+X;Xg.d.f.8.-.7.q.",
"T.T.Y.oXoX+X+X+XY.oX#X&X+X<XE.F x M V Q D Q G Z Q Q -.6.Q Q Q =.7.s.s.7.1.~ / i.s.8.8.0.2.=.Y -.T D T S C C Q L.wX*X9XwXzXvXzXwXpX=XS.R.Q.=X~.rXX.J D.R.~.W.R.9X$Xm.d.U.$X9XK.W.$XoX#XuXpX9X$X=X0X9X:X,XaXpX0X;X=X+X;X0X;X=X;X:XbXvXgX1X Xi.d.q.7.g.V.Z.V.a.a.V.g.d.V.V.V.Z.V.V.Z.V.C.Z.g.8.8.8.d.M.Z.M.p.1.=.=.8.8.M.K.K.K.T.M.d.d.d.8.7.N.g.8.8.8.8./ / V.VXxX2XXX|.M./ / * ~ U U / |.%X2XB.^ ` |.h.h..X.X%X-X-X,X;X@X@X@X9X6X9.:.J.J.G.J.o.J.Q.v.R.J.J.:.L.tXv.9.6X6XU.qXf.6X<.9.S.&.fX1XmXO.#.[ v.'././.yX/./.(.).+.u.`.8X'.[.x._.LXCXnX`.`.b.u.e.!.J.b.).pX=XQ.yX`.J.J.J.J.(.`.J.J.`.7X`.Q.).).Q.6X9X@XY.#X:X>XsX>XiXiXC.C.P.Z.h.~ ! ! 3.:X@XT.=X).6XzXLXPXT.z h r 3 0 V 1.p.7.Y Q -.9.0.G.y.w.5.S.G.e.-.=.;.e.J.6XQ.Q.6X7X7XyX8X`.6X8XrX8X7X8X`.v.D V Y Y m f 0 4 0 0 d m T F -.2.D.L.M.m.m.M.7.! ~ 3.8.3.8.N.V.M.s.g.oX$X&.< :.`.).`.).b.v.b.@.{ t.6X7X`.(.@.t.*.v.J.Q.S.w.6XpXpXeX=XK.V.=X*XN.! ~ Y m V F Z M w 3 3 f h h m V M M ;.;.F D T =.=.D d h V V N V e 3 3 2 % % 3 d d d d h N h h h U W P P E P L P E P L r L I L g g L g e 3 7 1 4 5 N ~ / ^ ^ V.C.h.^ ) ^ ` .XB.) ^ ^ E ^ ) a.B.|. X XC.V.Z.s.B.-XVXxXxX<XXX;X;X,XiXpXfXMX@Xd.M.1.V 6.-.8.j.XXV.|.>X+Xh.C. XA.XX-X,XOX~ ~ i.! / a.i.i.V.|.V.i.i.%XiXiX-XiXsX1XxX1X1X-X2XvX1X,XiXT.K.&.;.6X7.6 S L.Q.w.G w.c.0.Q x J ;.M S *X,X;XaXAXgX>XcXAX#X1.6.U.@XL.!.H.G.=XW.m.k.G.;.m.v.!.OXS.tXmXaX=Xc.<.!.F.:.r.c.D ! -.M.M.1.7.Q 6.U.9X#Xd.N.oXXXp.V.%XXXC.#XcX,Xi.C.XXP.V.V.Z.d.Y.Z.p.p.d.",
"oXoXoX+X+X#XOX+XY.oXoXoX+X,Xf.l K f V R C F D Z F Q -.-.S D D T 8.a.V.p.R N i.V.s.~ ~ d.N.d.1.6.-.Q Q S -.Q T 6.qX@XW.E.qXzXzXwXdXdX=XR.Q.Q.D.W.y.r.G.v.S.W.U.9X6XE.D.U.=X*XM.Y.@XK.$X:X0X9X@XY.eXpX;X+X>XaXsX;X*X*X>X>X>X;X=X;XsXvXVXcX>XC.C.g.d.g.V.A.Z.g.a.A.A.Z.Z.V.A.V.V.C.C.T.XXXXC.Z.a.8.8.M.K.K.M.d.7.2.7.1.8.M.T.K.M.d.M.M.M.8.1.3.8.i.8.! 3.g.8.i.sXaX,XOXOXK.3.p.h g.a.0 & # 0 h.-X1XxX3X3X3XVX-X2XiX+X,XY.D.R.U.@X~.R.c.r.G.`.~.v.H.).F.y.H.`.~.q.7XdX! D.F.R.0.D.:.J.9.o.o.dXxXwX<.#.[ /.'.'.(.lX+./.'.)./.O.<.<._.[.[.'.FXAXDXlX(./.n.`.Q.y.Q.rXaX9XtX`.`.`.'.).'.8X'.`.'.8X7X`.6X6X`.`.6X=X9XdXdXpXiXiXiXC.s.P.XXP./ U R @X#XoX0XoXC.XX=XwXaXSXSXd.6 * g m V R ! 7.1.V D F S S 2.w.q.;.q.S.S.S.0.2.S.R.R.Q.6XrX`.6X8X7X6X7X7XyXlX8X`.`.F.T V Y S R e 0 e f h ~ 3.d.q.K.Y.U.Y.U.L.L.D.d.U U p.XXoXZ.C.M.g.a.M.=X6XH.7 v (.7X8X7X(.n.b.n.+.O.).7X`._.n.t.X.b <.tX6XR.R.E.L.W.=X=XoX$XwX9Xf.K.XXp.~ ! V S d 3 0 0 e h V Y S C =.-.Z Z Z Y Q C m C Y C N V e 4 1 * 4 q q w f d q 0 h j C j f j U U U L L P ^ E I L P E ^ E P I I P h q 4 3 h / h._ ( h.-X,X%X X X|. X%X%X|.B.+X#X%X<X>X%XOXOX-XOXC.g.s.-XxXCXSXVXiX#X#X:X:X+Xd.7.Y.M.V R 6.! 7.d.a.+XcX>X0XaXsXiXXXXXC.OXZ.B.OX^ t W h N a.h.) i.a.A.Z.C.;X;XaX>X>XiX-X,X-X-X+XC.,XcX,XxX0XM.;.p e.F.=.V 9.~.J.n n c.d.D.D z Q D C L.iX;XiXAXiX+XpXMX9XT 9.K.W.S.w.G.v.$XmXfXY.R.!.F.Q.!.`.O.O.b.y.9.w.9.D.G.W.U.K.q.=.Y d.U.1.1.=.-.8.d.K.p.~ 8.Z.i.V.XXa.B.a.C.=Xd.~ 8.3.Y Y Z.Z.L.Z.M.p.g.",
"#XoXoXoXoXoXoXXXoXoXT.oXOX<XD.x K x Y Y C S ! =.-.Q Q -.Q T F F 8.V.d.! ~ / V.N.8./ i.V.A.7.-.e.6.Q 6.Q Q Y S C $XW.m.c.tXpXwXdXdXzXtX6X6X6XR.~.W.c.~.Q.r.R.R.W.$XW.W.R.*X*XU.OX+XK.E.N.K.T.T.8.T.:X0X,X,X>X>XOX0X:X;X#X;X;X,XOX*X>XcXVXaX;XT.g.M.K.Z.Z.T.Z.g.M.K.M.A.V.V.Z.C.C.C.C.Z.C.V.p./ ! 3.8.7.M.M.M.M.q.8./ ! 7.M.N.d.d.M.d.8.! / 3.i.a.p.! ~ 3./ / C.vX>XOXXXZ.~ / / L 3.^ h.) h.|.B.B.1X2X<X X|.%XOX+X#X*XE.D.m.c.w.J.R.R.v.<.y.G.R.<.b.J.R.v.v.rXW.R.VXvX9Xr.v.J.d.S.&.G.} X.9XvXAX6Xb.#.@.n.yXb.lX..+.8XJ./.7X7Xu.x.x.[.].CXGXGXAX'.n./.7XG.y.6XwXfXzXrX7XrX8X8X).'._.(.).`.`.).J.J.J.).R.R.6X6X6X*XwXwX$XU.P.:XXXi./ d f.Y.7.~ R U p.XX;XwXdXdXmXHXdXw.h E ~ ! / 1.7.R l M T S w M J =.&.=.=.&.S l q l &.*.y.e.`.b.).R.`.6X`.R.6XlX7X`.`.R.6.6.! C U N C U U R Z.C.OX+X#X:X#X$XY.oXL.K.K.8.! p.a.Z.V.M.p.3.p.d.v.J.J.} } `.8X7X'.(././._.n. .y.`.`.(.u...O.X.>.y.F.Q.S.=.k &.H.!.d.1.4.d.1.OXgXhX<XT.s./ U h f d V U U S D Z F T Y D V M M d m m m d d d 3 3 1 * q 5 5 4 3 q e d P I L L g g P P P E ^ _ .X XB._ i.h.|.|.B.^ ^ _ s.3./ / _ %X-X XXX-X2X2X-X,X2X2X1X1X1X-X XXXXX|.C.XX+X;XOX,XOXOXV.B.xXVX2XVXSXaXfXwXwXzX*X7.m C ! W Y -.D d.XXa.R a.%X,X,X,XaX;XOXh.E / h U U / 8.~ U P E )  X X-X%X,X1X;X,X,X0X>X;XC.XX|.C.C.%XbXCXVXSXmX9X9.-.-.q.f.q.m.W.W.-.6.M D R -.! -.Q J R ! d.:XpXW.rXmXdXF.6XT.U.~.!.R.S.w.Q.7XeXD.U.!.S.k.H.!.<.b O.R.G.q.-.-.D.Y.*XK.q.S m 7.Y.M.1.8.d.1.d.d.1.! 1.4.j.a.a.C.OXXXV.1.~ a.d.d.! 1.M.N.g.M.M.Y.",
"oXXXXXoXoXXXXXoX XT.oXoX+X<XI.M 6 H -.! ~ 8.M.m.6.! Q F ( ! 2.4.Q Q Q / a.Z.C.Z.d.-.6.N.V.8.1.d.-.Y 2.1.V C M k 6.W.U.=XdXdX9XtXeXzXcXrX`.).6X~.~.m.G.W.6.c.U.$XW.U.U.W.=X@XM.K.T.T.Y.7.N.C.Y.7.1.N.OXpXsXiX;XOX;X=X;XOXoXoXoXP.T.OX>XcXbX2X,XC.M.d.d.Z.T.Z.Z.Z.N.N.N.8.8.A.XXT.N.s.s.a.a.d.7.3./ 8.d.d.g.N.M.M.8.8.1.1.d.7.8.d.8.1.1.1.8.! 3.p.! ~ ~ / 8./ / zX<XOXXXZ.V.U h W j j i.) P ) ) j.) s.+XC.+X;XXXoX!.G.U.U.!.w.e.e.v.9.6X!.J.J.y.y.O.e.H.R.S.G.Q.6X@XcXMX:XH w.9.$XF X.t. .6X,XSXnXJ.@.[ [ 7Xn.yX/.+.J.6Xu.`.BX(.#.#.[.].vXJXJXGXlXn._.yXH.7XQ.fXfXdXrX7X).(.).`.`.(.J.).`.J.J.`.`.`.J.`.`.tX6X6X6XT.U.M.9XZ.s.P./ ~ Z.T.3.N ! Y.0X:X@X6X:X;X9XmXcXG.;.U R R 3.d.7.Q m 6 w F C M V z f D e.9.F d 2 < 5 D Z $.G Q.H.J.!.!.`.).v.J.yXyX7X7X`.G.f.4.V C ! R R Y R K.P.M.Y.U.@X$X#XK.@XF.E.@XP.3.U U 3.s.g.d.7.d.d.;.H.`.b.X.t.J.b.b.(.^./.(.b.v } J.7X'.b.t.u.J.b.n n r.G.y.} A 9.-.R l 1 e V oXiXcXxX2X;XC.g.~ V R U C V ~ R Y m Y C d f f l l l M d f f d 0 2 * @ % % % 4 0 h U i.a._ ) E P E ` ` E ^ B.%X<X-X%X|.B.B. X XXXg.a.B.B.s.a.V. X1X1X.XB.B.B.%X-X-X-X-X+XC. XXX|.%X-X%X|.B.B.OX<X-X-XOXZ.B.xXvX3XgXxXsX0XY.M.@XM.! ! ! L.m.Q ! 1.Z.;XC.) j ^ V.iXiX,XXXZ.B.j h / / / 3.8.C h h g h / i.Z.C.C.+X+XsX&X&X,X<Xs.C.+XXXC.A.sXCXVXSXGXSXCXcXK.;.c.F.U.K.#XvX#X-.D C Q T M $.0.V M 7.E.6XW.tXzXc.0.rX9Xf.).tX*Xm.m.c.c.6X6XR.6Xc.6.F.=XeXf.9.6XdXrXU.6.m.f.9Xd.q.8.1.p.K.p.7.d.T.N.K.Y.M.p.a.a.s.s.a.V.XX#X+XN.N.W.@X@X@XN.g.p.g.Z.Z.:X",
"+XoXoXoX+XXXoXoXXXoXOX&XXX-X@XT K S ! ~ ~ 3.N.a.N.q.D &.8.1.f.0.Y M C 3.Z.C.N.V.N.-.6.N.7.1.7.d.6.! 1.=.Q J S z 8.m.q.E.wXfXwX=X*XzXvXrXW.v.G.S.6XwX6X6Xm.9.E.*X=XK.K.L.U.M.d.d.N.K.T.d.N.*XwXY.M.d.p.+XpXfX>XXXOX=X;X:X#XoX&XoXV.V.V.,XvXxXsX=XK.N.g.Z.T.T.C.P.N.s.V.g.i.a.N.s./ / i.a.N.N.a.p.s.1.4.7.d.N.M.Z.d.a.d.1.7.d.d.d.d.7.7.7.8.R R R / / R Y / R ~ sX>X;X+XY.P.p.e h W W / |.B.%Xh.%X|.i.V.N.K.W.U.m.m.0.9.D.!.S.:.o.J.G.R.R.R.H.y.} H.v.7X6XrX6XQ.yX6X,X,XvX=X5 q.m.tXG <.{ I.0XVXzX~._.[ @.(.(.'././.e.nX(.J.9X7X@.#.[.'.VXHXLXFXmX`.lXnX6Xb.6XmXvXdX`.`.`.8X`.8X'.'.`.'.7X`.8X8XJ.J.Q.6X6XQ.R.Q.=X=XrXtX9XT.XXXXaXcX#XU R ! Z.oXY.&X@XQ.mXAXmXAXGXU.M d C Q 6.! R C f 5 k F Z Y ! l 6 z &.&.V q 1 % * 4 3 3 7 R.Q.Q.J.w.v.G.o.k G <.`.8X6XI.D.6.6.2.f.p.p.1.7.K.M.0.0.q.L.@X$XK.Y.D.M.Z.p.R N U 3.g.M.V.Y.@Xf.;.>.J.).*.6 6 7 a  .b.n.b.(.n.v.'.'.8X'.b.n.'.'.>.{ o.y.v.y.r.:.T Y V 2 0 V $X,X,X1XaXcXgXsX;X3.N h d d C ! Y M V l 4 4 f l l l M m d M H 4 % * 2 0 L U ) h.+X%X1X1X<X-X-X-X|.%X-X XB.C.+XC.a.|.-X+X+XC.h.s./ / _ / ^ / s.C.%X%X|.h.|.|. X-X;X+X+X+X;X>X>X-X-X-X,X+XZ.V.XX|.+XOX+XZ.) %X2XxXCXvX;X:X$X@X+Xm.R Q ! ! m.7.8.3.XXoXV.+XoXV.! V.dX>XC._ C.a.R s.XXOXV.a.~ U ( U U ! C e f ~ s.7.9X9X@XY.#X,X|. XXX XV.g.cXcXaXVXvXAXGXAXsXY.U.S.X.n Q.dX@XK.1.Y S l l F =.Q z S.6XG.R.E.=.q.eXdX7.R.6X*XU.R.6XR.J.J.r.R.J.y.J.6XwX9XQ.U.~.tX~.m.m.2.E.M.*XY.Y.K.P.U.D.d.M.T.d.@X@XC.a.a.i.B.,X>XZ.+X,XT.;XV.Z.g.a.P.oXoXoXY.P.*X",
"OX+X+XOX+X+XoX+X+X+X+X#XXX-X$X1.p M G D Y ! / M.K.1.D 9.N.8.9.J l H D p.|.V.s.s.3.S T 2.! 1.K.Z.1.-.d.q.1.Q D G p.M.m.=X9XfXdX*X9XdXdXfXwXQ.J.w.J.zXzX0X*Xv.G.@X*X9X=XY.Y.=X@X@XY.Y.=XK.1.U.6X=X$XM.g.P.:X:X,XoX#X*X#X,X,X;X;X>X#X#XC.OXsXaXxXpX$XK.Z.Z.Z.C.C.C.a.a.V.V.a.8.~ ~ ! p.g.V.A.V.V.Z.N.d.7.1.1.8.d.N.d.N.d.1.8.d.V.7./ 1.8.p.p.1.3.3.7.~ U Y / ~ / wX=X@XY.oXd./ ! V e 2 N C.E Z.Z.h.B.,XN.V.K.K.m.!.R.m.9.!.R.v.e.<.:.e.e.J.`.J.<.v.b.>.t.<.`.Q.G <.J.6XzXxXCX8.Q W.zXv.t.+.k.aXsXvX>XyX@.@.t.`.lXb.yX>.8X'.'.*XrXu.x.x.`.DXCXGXLXfX(.].rXQ.y.8XrXzXrX7X`.7X8X7X7X'.`.7X7X6XrXrXtX6X`.`.6X6X6X6X6X~.$XtXfX9X:X,X:X+X3.g.$X#XM.oX$Xg.p.f.E.iXaXzXAXHXY.9.m 5 M ! Q S Y M k S Q T Q 1.Z k f w 6 f q 4 3 q 5 d U l f.6X6X`.R.R.Q.q.K % 7 w.tX6X).F.<.9.G.D.M.Y.Y.oXT.7.Q D &.D.U.@XY.U.K.3./ W U ~ ~ p.P.d.d.$X9Xm.!.v.>.<.r.D z 6 7 6 X.+.u._.'.8XlXyX8X'.n.u.b.b.t.<.e.v.G.v.y.r.;.-.Y q e d L.;X;X0XiX>X,XsXiX|./ N m q m =.! V C C h j C e w k l w w f 5 % % q U ` |. X%X-X2X1X>X-XOX+X<X-XC.C.-X+XV.V.XXXXV.Z.XXZ.h.) R h V ~ s.B._ ) i.C.-X-X%X%X-X%X|.|.XXC.|.XX>X>X-XXXV.B.XX+XV.a.XXT.N.Z.K.A.i.C.OX-X>X2XsXsX0XeX9XD.U Y 1.K.U.Z.V./ i.P.XX;XsXC.i.a.*X9XdX$X+XoXZ./ a.OXXX|.Z.B./ Y ~ M.K.p.~ U h Y 1.Y.*XwX@X,Xh.p.K.+X-Xj.,XxXsXgXsXaXcXDXAXvXwXr.n 6 n e.-.2.7.R ! 6.Q 6.;.F H G H.G.G.R.=X9XcXpXq.c.6XW.=XF.Q.Q.Q.R.F.F.H.r.y.).6XG.y.e.G.6X=XU.U.=.6.D.:X*X$Xg.K.Y.N.m.M.K.7.7.P.a.j.a.C.P.@X=XZ.-XsXXXT.XXZ.g.M.Z.T.0X*X@Xd.P.",
"+X+X+XOX+X+X+X+X+X+XXXOX+X-X;X7.s z n c Z Y ~ D.D.=.S 5.A.1.D C Y Q D 7.C.B.B.a.p.=.=.-.Q 6.M.s.-.=.D.M.-.Q J Z 4.M.M.*XwXzXdX9XqXrXwXvXAXzX6X<.<.Q.wXhX0XW.G.U.$X*X$XU.M.Y.M.M.Y.=X>XK.Y S Q 0.=XY.P.g.+X+X0X>XOX$X:X,X;XoXC.,XuX,X+XXX#X>X2XxXsX*XZ.a.g.C.K.C.a.V.a.a.p./ / / 3.p.V.Z.V.N.N.V.V.N.d.! ! 8.7.d.d.N.d.1./ 8.d.8./ 3.3.3.p.p.p.3.d.3.U V ( / q.rX`.U.D.M.M.p.8.8.~ R t h t e U / ~ R 1.M.K.oXM.q.G.R.G.:.9.`.9.<.e.y.X.n :.Q.Q.<.<.t.b.O.o.`.J.+.+.Q.wXbXxXoXF w.tX;...[ D.gX>XzXsXnXt.@.u.J.lXu.'.b.b.6X).6XrXH././.`.vXcXGXFXrX@.[.'.(.).).qXzX7X6X6XrXlXrXrX7XtXrXzXzXvXdXdXrXtX6X6XQ.Q.R.!.6X6X6X=X=X*XK.p.K.XXZ.3.U 1.g.U.d.D.@XpXVXVXxXCXwX! ! h q d d Y V V S Z F C S D 2.F x l f 5 w f l e q q W 3.Y =.k.Q.rXnXlXlX6X6.Q &.F.rX7XQ.J.y.v.y.D.L.=XwXE.d.8.q.0.o.;.K.@XK.d.8.V C N h q 2 0 ! R 0.6X6XD.).J.J.w.D D &.o.A Z O.n.n.(.H.6XrXnX8X`.n.@.O.t.t.t.y.y.e.<.v.y.-.C d 2 2 5 f.OX&X:X>XXX+X;X>X>X|.) R N h V Y Y 3.XX-X+XOXV.s./ ~ U m d e h E i.B..X1X%X|.XX,XOXOX+X-X%XOX+XA.C.+X-X%X+XOX+X+XXXXXC.s.i.s.s.i./ V.C.|.|.+X>X-X%X-X;X-X%X|.V.Z.V.Z.|.XX X|.|.V.( _ C.XXOX<XOXg.8.8.8.h.C.|.+X-X-XxXiX,X0X9X*XC.8.V 1.M.K.B.i.j.Z.i._ 2XgX+Xa.M.Y M Y ! 7.V.3.! V.+X+X,X+XC./ U / 7.P.oXZ.N f U U / :X=X,X+X7.=.d.|.XX XsXAXAXcXaXaXvXmXDXFXzXM.D 6 k M C Y 2.1.R Q Y D G F :.w.J D f.6XzXAXpXc.e.D.m.$XR.G.w.Q.W.Q.J.~.v.v.H.Q.v.,.y.F.tXK.U.6XW.f.m.d.d.d.d.K.m.7.7.g.P.g.U 3.j.i.i.i.U Z ;.K.>X<XZ.=.V.+XT.M.1.~ d.Y.Y.M.$X",
"+X+X+XOXOX+X+XOX+X+XXX%X+X%X-XM.v Z G G F ! a.K.m.! V Q 8.V Q -.g.d.Q 7.C.N.N.s.p.8.2.6.8.q.d./ -.! d.6.V D Q Z Y 7.m.K.=XzXdX9XpXwXeXzXAXSXvXR.9.v.~.wX9X9X!.R.$X*X@Xm.K.=XL.K.P.>X>XZ.2.Y l V d.N.Z.Z.,X#X,XiXOXT.+XOXoXP.j.XX0X@XZ.N.8.@X,XxXZXsXP.p.Z.oXT.C.s.a.i.s.p.s.a.s.i.8.a.V.N.N.N.p.V.N.g.4.7.N.d.! 1.d.d.d.d.d.8.! / 3./ 3.8.p.g.d./ / R Y ~ ~ q.`.Q.H.k.D.@XoXg.^ W E L r g - # & e N N e p.M.q.0.;.G.!.Q.e.e.J.v.w.v.H.n n w.R.J.y.X.O.(.v.c.`.'.b.w.Y.MXmX$Xv.n.7XG.+.[ =XxX9XwXzXmXR.u._.<.NXG.t.(.H.Q.).Q.wX6X(.(.`.dXmXGXFXDX@.[./.[.t.H.dXdX8X8XrXrXwXwXrXrXzXzXnXvXzXfXzXzXBXrX6X6X6X).6XrX=XW.@X@XY.$X=X$XZ.j.P.P.T.d.d.Y.6X9X9XvXSXFXFXwX3.R d g e 3 2 0 m Y T C w l z &.=.S Z M w M M Z Z m M R R m q M :.S.Q.`.6X6XG.5.*.;.J.Q.J.J.F.F.F.W.=X@X$XM.6.1.7.9.z p J m.K.d.~ ~ ~ U d 4 @ $ h ~ f.tXtXQ.H.v.J.J.J :.w.:.G A | <.O.y.e.S.Q.7X7X`.H.t.t.v.y.<.y.v.w.:.v.G.6.d e 0 q l f.OX#X0X>X,X;XoX#X>X1X-X|.B._ R ~ / |.vXCXCXSXCXVXgX-X|.a.h.h.|.%X3X3X1X-X%X|. X-X%X%X%X;X,X%X|.|.|.|. XXXXX X+X%X%XXX Xh.h.A.C.B.h. X X&X;X,X>X1X1X,X-X-X%X+X X X X X%X-X%X%X-X-X XB.|.|.-X<XOXOXoXd./ B.XXOX;XiX>XaXvXVXCXAXcX;Xg.! V R Z. XC.a.~ U ^ |.iXV.~ M./ m Y R 3.7.@Xd.V V ! i.XXC.Z.g.U d ! 4.7.8.Y Y R =.oXY.OXiXK.V ! p.$X+X;XvXAXAXCXVXvXCXvXVXSXSXcXg.! d f M M S D Z J T =.r.r.k % f q.f.E.mXMX6XD.$Xv.F.6XtXw.c.!.J.c.r.o.!.6X6XQ.c.y.<.W.W.U.6XE.6.U.Y.K.f.d.U.M.! / g.M.3.W R / s./ ) C S F.2.Z.@XM.Y U C.,XoXa.3.R M.K.7.K.",
"+X+X+X%X%X%X%XOXOX%X%X%X+X+X-X#X=.z Z G A R 0.6.J D C C Q C Q 1.P.K.7.s.N.8.7.7.8.1.! ! 8.8.=.Q &.! 7.~ V Q &.D D 2.W.T.@XvXzXeXpXpXwXdXvXAXAXzXR.<.Q.tX*X9X6X~.9X@XW.m.m.=X=X@X$X>XeXP.f.p.1.! 1.d.oXA.T.XX,X;X;XY.+X+X+XoXM.Z.OXZ.M.7.Y N.OX2XxXcX;XC.T.+XOX+XN.a._ ( 8.a.a.s.p.p.s.N.V.V.g.V.T.N.M.f.N.d.N.! 3.N.N.N.d.d.V.g.g.p.3.! R ~ 1.7./ / p.V.a.1.D.`.H.v.q.-.7.p.M.i.|.h.E r ; L L ^ _ E i./ ! M.q.D.9.=.o.v.G.J.e.:.H.<.y.v.v.m.S.J.`.e.w.c.!.R.Q.H.H.dXwX@XwXL.,.@.t.v.O.+.tXiXY.F.Q.wXtXy.7X*.tXrXt.t.o.B H.Q.$XtXtXF.J.dXcXAXFXJX).u.x.x.u.).wXrX8XrXwXdXzXdXzXdXzXzXcXcXAXAXMXvXzXrXwXrXtX6X6X6X6XtX*X9X9X9X:X*XoXT.M.p.1.f.U.L.I.Q.R.6XrXDXGXzXp.! U h W r * 2 m C m l k z M M F D T T Z Q S l M S Q R V l 3 f z w Z X.v 6 7 7 7 7 G 9.v.S.m.M.9.U.*X9X@XY.M.2.Y C 8 6 7 M d.p.~ / ~ U N m q @ 0 R d.W.6X!.v.b.J.r.M D ;.A x x ;.o.x 2.0.w.(.'.`.).`.`.`.).J.v.y.J.Q.J.J.H.q.V C d V ! f.,X:X#X;X=XY.N.V.XX-X1X2X2X>XT.C.XXXX%X%X>XcXCXFXCXxXxX2XgX2X2X1X3X2X-X-X-X+X%X%X%X%X%X+X+XXXXXXXXX+X-X%X+X X+X%X%X-X1X-X%X-X-X,X%X X%XoXV.a.C.;X1X>X%XOX|.C.|.-X<X2X2X<X-X2X2X1X2XsX1X,X1X>XOX-X1Xp.U / 8.Y.pXeXZ.N.T.0XsXvXaXzXpX+XN./ a.XX+Xa.~ V.V._ ;X+X8.M.=.V Y R 7.U ~ 7.Y l C Y p.7./ 3.! 1.V Y d M V ~ ! Y g.T.s.OXeXK.p.7.M.Z.h.-XpX;XhXSXAXSXbXcXAXCXAXVXvXY.1.~ V m D =.e.w.r.9.D < w C 7.! Q G.nXNXY.tXQ.e.w.rXtXL.W.Q.`.6X;.w.6XtX=X=X6X5.0.R.!.).~.F K.@XE.W.q.d.K.7.3.d.1.R R / R ~ R R g.K.Q.6X! 1.f.-.~ 8.oXOXV.1.d ! d.! -.",
"%X%X%X-X-X%X%X%X%X%X-X%XOXOX-X1XT.n c } n S G G H M S F C F J S 2.q.N.A.A.8.-.! R =.1.8.B.d.&.G T Q 8.! Q &.Q D G Q =X*X+XvXzXsXsXpX9X9XdXzXvXAXmXU.m.6X=Xm.c.!.qX=XK.1.q.E.@XY.oX;X>X#XP.g.p.p.8.p.oXN.1.~ K.T.M.m.@X,X,X*XOXXX,X+XP.M.! 8.C.;X9XcXgX,XT.T.XXOXT.XXZ.i.s.V.g.a.p.p.s.a.V.a.s.N.XXV.M.d.d.7.M.d.1.d.g.Z.g.p.p.1.7.3.~ R U R / p.p.g.g.V.V.g.W.8XH.G.w.0.0.Y 3.3./ s.B.B.%X2X|..XB.^ ( U D 7.2.w.D.S.9.o.} A <.H.F.Q.F.e.-.Q w.S.S.6X6X6XD.6XnXdXQ.=XcXvXwXK.A ....p 9 >.=XaXU.v.H.pXwXE.6XwXD.wXR.<.o.Z 6XQ.6XwXzX9X7XqX9XvXFXKXDXtXx.x.x.b.rXzX7X6XdXzXdXpXcXwXcXvXvXvXAXAXvXvXfXdXdXdXtXtXrXrXtXtX6XtXdXdXeXpX>XV.3.K.f.d.q.0.9.y.J.).).dXGXMX:X@X#XV.Z.U h R 1.m d l C S Z k F D Q 2.=.;.T M m D Q ! C l m l m 5 < < 7 @ @ % 3 6 Z ;.&.T Y ! ~ M.$X9X@X@X$XY.N.6.G z M ! Z.K.Z.p.~ R U U V e q ~ L.L.E.w.*.X.n % + 1 z M m H -.o.6 l G o.b.'.(.(.).'.6X).`.H.H.J.).6X).F.S.d.! f N 1.f.OX*XZ.P.oXOXXXOX,X>XiX1XsX0XP.T.wX#XC.XX@X0XaXVXvXiX1X>XiX2X>X<X<X;X|.a.V.V.V.V.Z.XX;X+XC.XXOX#X,X1XcXaXgXiXgX1XsXgXgXhXgXsX2XsX%Xa.A.;XK.8.s.XX;X%X;X,X+XV.B.C.+X>X>XOXXX;X,X;X;XsXgX1X,XOX%X-X+X~ S -.C R M.Y.D.0.T m.>XvX<X=XuX,XC.a./ / i.3.U a.+X/ Z.XX8.p.4.! 1.R 3.~ h ~ / 7.=.Y 8.d.1.1.1.d.! ~ ~ ~ 8.~ / 3.Z.P.R W P.eXP.1.1.a._ Z.OXM.;XmXDXSXCXbXVXvXvXMXAXAX>Xd.D D $.&.5.e.o.o.=.d S Y d.1.C :.E.HXzX@XrXtXS.F.nXdX9X9X9XzX=XD.).7X$X9XnXE.6.c.o.e.`.m.2.L.K.U.W.=XY.M.g.M.M.7.~ s./ U U R 7.W.L.tXY.g.V.M.d.! V.XXZ.d.m.1.7.D.! ",
"%X%X%X-X-X%X%X%X%XOX-X%X-XOX4X1X<Xo.z Z H S n G G &.&.o.D &.Z F &.8.s.C.V.=.&.F T 2.N.B.A.M.;.G &.Y -.-.! T D D G D K.+Xs.;XpXaXvXvXfXwXtXrXwXxXDXvX@Xc.J.G.e.d.6XtX=X-.7.K.*X$X*XOX>XpX0XXXV.g.d.8.M.N.1.V q.D.q.Q 7.&X>X;X#XT.;XOXXXY.M.s.Z.q.<.;XVXxX*XT.+X<XOXOX+XV.s.a.Z.Z.Z.p.8.s.s.a.B.V.XXV.7.7.M.d.N.7.! 1.1.p.! R ! ~ / 1.! / ! 1.7.d.g.g.i.i.a.g.$X7XQ.v.w.0.U.Y.7.Z.XXZ.s._ h.h.h.^ g.&X*X$X=X$XE.D.F.S.!.H.y.>.} n &.k.w.`.tX~.r.z 8 A m.rXrX6X=XtX6XcXxXCXvXeXH.[ [ O.9  .W.eXc.J.w.9X6X+XOXAXK.W.rXq.!.O.Y.rX6X9XvXeX`.6XwXbXzXFXFXAX[.#.x.(.8X9X6XrXdXzXzXvXvXvXAXSXcXsXvXMXAXAXDXAXMXzXrXrXtXrXtXrXzXzXrXwXsXiX;XoX:X#XE.D.D.W.E.J.`.tXtXmXFXAXP.0.K.=XY.$X9X@Xp.d d f l l B M G G T 2.! =.Q D l M &.2.S M C C C f < % 1 % = % + % 4 f l V Y 4.! 1.p.M.d.N.@X$XM.q.9.6.8.d.L.@XXXj./ / 3./ U e h 7.9X9XrXrXw.n 7 X . q &.-.~ Z S n 5 % < p @./.(.(.b.(.).).7X7X6X`.7X6XR.Q.L.d.S f V g.&X;X9X:XoX:XiXiX1XsXdXwXaXvXpXg.p.9XoXg.p.K.9XeXpX0XK.Y.:XuXgX,X;X1X1X|.j.h.XXXXP.P.T.OX=XT.+X*XOX;X>XsXvX2X-X2X%X-XsXxXxXvXgX1X>X,XZ.d.$X$XT.V.T.;X;X;XsXxXiX>X;XXX,X+Xa.V.XX;XOXXX>XiX>XOX+XT.C.s.D G 1.T R Y q.m.R.6X5XVXVXsXqXhXiXC.B.a.i.3.3.U a.+Xg.M.P.M.g.! Y C R 4.Z.a.Z.C.g.p./ i.7.1.! p.P.j.p.g./ ! / 1.7.g.XXoXd.C.+Xa.R Q 8.Z.V.M.K.W.:XvXSXLXSXAXSXSXvXAXSXSXcXM.M z n n c 8 v -.4.! 0.K.d.Q &.L.mXAXdX$X6X6XD.W.tX!.!.~.6XR.y.v.b.R.:X6X@Xq.S.>.G 9.6.=.f.E.U.=X6XW.$XP.K.@XY.i.N.a.8.! s.Y ! M.K.L.M._ a.&XP.+X;X;XP.=Xd.! d.Q ",
"%X%XOX-X-X%X%X%X-X%X%X%X%X+X<X-X-XJ m A G D Z | | G o.F J &.F F G 9.w.=.F F 6.7.-.~ ! R d.g.8.8.8.! D -.Q S S M m f Q G.Z.d.K.=X9XeXcXwX6XQ.tXwXxXAXmX,X@X$XR.0.c.!.F.G G q.L.T.Y.9X:XeXzXaX;X=XV./ 8.7.d.p.g.*XY.d.! q.K.d.f.0.8.8.Z.OXOXZ.oXM.( ~ U.sXxX2X-X2X,X<X,X-XC.p.M.K.A.8.8.p.g.A.M.d.d.M.N.M.d.1.7.7.D Y ! / / R / s.8.Y U / / 8.p.s.s._ / p.d./ c.`.b.y.G.f.m.8.1.~ Y U 3.^ U R V.XXK.Z.D.m.9.9.o.9.G.S.e.<.e.!.6XQ.!.!.D.K.M.oXxXJXLXVXpXW.6X6Xy.t.v.J.Q.6XdXW.J.O.7 a v.wXY.U.U.R.<.J.G.G.D.fXsXK.U.U.=Xm.&.dXP.P.zX6X6XeXmX6XbXAXCXMX#.[ v.9X*XW.6XrXrX6X6XfXhXhXMXvXDXGXSXAXvXAXbXzXwXtXrXrXtX6X=X=XtX6XqXwXdXfXzX=Xs.q.S.9.;.5.<.S.U.7XtXAXJXGXeXtX0.4.d.Z.6XqXm.Y R Y V l Z A V l G :.F Z G } x l D ! C G T R Q 1.m 0 1 2 3 2 1 @ % + + 2 ! 1.~ h l V R 1.g.g.g.M.T.,XXX3.p.g.N.N.N.N.N.a.~ h r.6.*XmXnXnXkXrX6X!.M.R.$X$XqXQ.c.-.Y z p H <.u.t.b.b.n.6X`.`.`.`.`.`.J.H.F.E.E.c.q.@XaXhXsXzX0Xm.E.wXeX;X:XdXdXeX9XK.H p >.o.o.z x Z $.;.| x T Q c.=X9X>X;XOX,XOX%X;X;X$XK.g.#XOXZ.Z.XX+X,X1X2XzX,XOX@Xg.3.i.OXhXVXvXgXiXiXwXwXeXzXiXOXXX,X0XoXK.>XaXhX1X>X,XC.Y Q 6.f.T.>XaXgX;XOXOX<XP.i.j.) _ s.M.d.K.L.=XwX@XY.qXwXeXwXwX0X+XOX+X XA.s.^ i.6.-.M.K.Y.N.! Y C h i.p.Y.;XC.@XN.8.V.#Xh./ / j.C.B.;Xg._ g.g.Z.i.+X;XOX2X2X,X>XZ.XXa.R 1.p.m.m.e.6XmXDXAXSXGXSXZXCXHXFXxXV.V p k ~ C.|.M.d.d.f.D.D Y $XDXCXSXvXG.H.v.H.t.H.X.y.J.J.Q.E.!.F.H.H.J.r.m.Q.S.S.6.D Q 6.q.L.E.Y.K.K._ N.XXV.V.C.a.0 e / ! 7.:X#XXXoX8.s.Z.K.-.-.D.6X7.V q.$X",
"%X%X-X-X-X%X%X%X-X-X-X%X-XOX-X-X2X9.M z H Z Z G F Z z M G &.F Z A :.:.G F ! 7.2.1.Y R R 8.N.8.d.N.! S -.=.Z C S C M M m.+XN.Z.@X@X=XeXwXwX6XrXfXvXvXvXvXeX@X=XM.G.m.9.&.Z 2.f.Y.@X;X;X0XpXsX>X=XY.N.3.~ 8.d.g.Z.P.P.4.1.4.Y / 8.~ R a.+X|.3.p.d.8.! 0.OX,X,XaX-X-X<X-X%XOXs.1.N.T.N.p.7.p.M.M.d.d.d.d.d.d.d.d.1.~ ! 1.1.1.8.a.N.N.! ~ 1.! / 8.i.p.V.p.p.4.~ m.7Xb.y.v.5.;.q.d./ / 8.3.i.s.a.a.a.~ Y 1.D.G.F.R.9.o.e.G.v.v.9.r.6.c.m.0.d.U.@X;X;X<XeXwXwX=X@X*XtXv. .>.,.v.J.J. .7 < X.wX9XU.R.w.W.R.w.c.W.zXMX!.F.6XR.D.r.6XE.M.0XrX5XwXrXtXvXvXVXMXn.n.~.'.b.).6XR.D.~.tX8X6XeXcXvXSXCXFXCXVXAXAXMXMXzXrXfXrXrXrXrXBXrXrX9XwXzXsX0X:XE.G.9.k.H.R.6X6X).J.dXFXJXdXF.G.L.1.d.-.7.D S m e q q l x M m S F Z H Z G n G :.T F | &.=.D V q 1 2 4 3 q 3 @ % * % 3 ! 6.! U R 7.T.@XT.M.m.L.D.m.0.2.! ! g.oXY.T.T.N./ Y Y.D.6XNXHXnXnXNXrXrXmXdX9X~.6X`.!.D.K.G.w.X.+.@.n./.(.(.`.6XR.G.J.J.H.v.H.Q.6XtXW.U.wXvXpX@X9XY.2.M.0XgXgX1XsXaX:XK.Q 6 6 n G &.=.;.Q =.;.&.M ! 1.N.@XuXiX;X+X-X<X>XiX>X@XN.g.&XiXcX>X0XwXcXsXsX1X;X+X:XM.~ h / #XcXVXvXaX>X0XpXpXiX;X#XOX;XxXcX1X1X,X,X-X-X;XC.! ~ 8.7.P.gXgX1X<X>X>XsXOXB.V.B.p.M.$X@XK.N.N.M.s.8.M.9XwX#XC.C.Z.XXC.A.XX+XV./ -.7.d.T.P.T.K.g.d.U / p.Y.+XY.Y.d.M.Y.+XC.g./ d.T.C.>XpXC.V.g.V.V.s.p.d.P.0XU.XXC.+X+Xd.7.4.2.Z &.f.K.wXzXzXmXGXLXZXxXFXJXLXCXaXpX9X=XU.7.-.Q 7.d.Z z K.HXGXAXGXwXG.v.H.y.Q.J.e.w.G.Q.F.c.W.R.R.Q.K.Q q.S.D.c.;.Q S D D.K.M.K.@X1./ N.3.p.C.Z.W V d.D.N.oX9XC.OX@XR U 7.d.-.Y Y.*Xq.m.K.",
"%X%XOX-X-X-X%X%X-X-X-X-XOX-X-X;XsXc.M x H Z Z D C d w d G J o.o.o.:.:.=.;.6.6.=.6.Q ! ~ / 7.8.d.1.-.D =.T M M D S C l 3.,X;X+X:XY.!.W.=XwX=X=X:XaXAXAXMXMXMXzX*X9XE.w.D.=.7.8.K.K.K.+X0X0X0X<XT.#X+XT.N.N.K.V.1.g.V.R ! 4.R 4.4.! R 3.OX;XXXXXd.s.1.! V.T.+XeXOXOX1X-X-X>XC./ / K.V.Z.p.! 8.d.8.d.7.1.1.8.8.8.1.7.d.p.d.p.p.V.P.N.3.8.8.! 1.p.a.g.g.g.K.4.~ m.`.v.y.G.y.G.=XK.d.N.Z.~ h 2 0 h p.N.N.7.w.9.w.w.!.R.w.<.<.w.R.`.=X*X*X$X$X:X=XwX:XT.W.W.9X@X;X0XpXxXbXcXcXXXM.6Xb.{ 7 p tXL.=XQ.e.J.v.Q.o.r.pXzX!.;.Q.&.6.9.W.=XW.@X8X(._.'.`.rXwXaXpX7XtX;X=XK.W.W.9X9X6X5X`.6X8XrXzXMXDXSXSXAXAXAXAXMXnXnXnXrXtXnXnXrXtX9X:XwX0X9XP./ ! Q q.S.q.k.F.F.`.8XnXbXGXmXR.e.H.D.S.2.K.M.0.-.=.R M k q l H &.&.A Z Z G  . .o.A Z G $.$.q % @ 1 2 3 q e q 4 4 0 q q C ~ ~ Y D 6.Y.*X=XK.:.r.:.J D &.Q ! K.*X*X=X@XM.8.1.6X6XrXNXNXlX8XlXlXnXMXDXNX8X`.7X6X6XtXJ.b.+...t.n.n.(.6X7X7X).).Q.Q.`.Q.R.W.9XwXR.f.6XwX=XM.M.K.N.M.oX>XaXsX0XpX9X=Xq.Y D &.T 2.f.E.f.M.$X=XK.Z.N.A.#XiXuX>X,X;X>XiXaXaX*X+X$X0XpXvXsX,XZ.>XvXvXiX;Xp.P.Z.7.Y N R g.0XvXaX>X0X>X:XoXZ.XXOX;XvXAXVXgX;X;X-X-X>X*XT.d.D.U.$XiX>X,X,X>X0X,Xa.i. X Xa.N.#X9X*XY.N.T.@X@XK.Y.wXwXXXC.V.|.OXC.Z.Z.Z.P.K.U.M.d.1.! d.d.d.~ / p.K.N.Z.Y.8.m.@XP.p.T.K.N.oXT.T.,XXXp.3.~ 3.s.a./ d =.=.3.a.a.g./ d.d.7.2.=.d.=.M 7.m.d.U.GXGXdX:XdXDXGXJXJXSXzX*XU.m.-.Q 8.D z D @XDXJXJXLXgXE.J.c.!.6X=X!.c.c.G.q.S.J.I.6X6Xq.0.w.U.6.&.T S -.U.6XK.! 1.V V 1.8.Y 1.M.$X#X$X@X9X#X0XP.8.T./ V R 1./ C ! Y.7.Q q.",
"%X%X%XOX-X-X-X-X%X-X-X%XOX-X-X>X;X:.M Z G D D D C w l V Z F o.:.o.o.:.9.6.2.6.-.-.! 1.1.8.7.1.! Y 6.6.-.D C S D T T V 1.,XvXgXiXpXW.Q.=XdX0X;X*XeXcXvXzXMXFXSXzXfXqX@X*XL.M.8.m.m.d.Z.eXpXsXaX0XOX;X;X@XY.:X@XN.a.s.! d.K.K.K.g.3./ / C.;X;X>XC.p.R Y K.$XN.T.T.C.-X>X<X<X+XZ.3.8.8.N.d.~ ~ 1.2.d.d.M.7.1.7.d.7.p.M.N.P.Z.p.p.V.Z.p.7.1.! 1.M.C.g.a.p.d./ Y q.tXJ.G.H.v.9.m.6.M.N.p.M.#Xg.Z.3.p.8.d.2.F ;.9.S.9.e.w.v.v.y.:.&.&.6.d.L.$X@XW.K.E.$XR.F.@X$X$X@XL.*X6XR.R.6XI.G.H.).y.*.S.!.W.Q.R.v.v.(.X.w.wXvXK.;.w.S M Q d.d.U.R.8Xn.[ n.v.v.J.).Q.).G.S.F.R./././.@.@.@./._./.n.(.(.).`.rXmXAXVXvXMXnXrXzXzXwXrXrXrXrX6X9XdXwXwXsX,X+XM.L.L.I.F.S.R.).).rXzXAXsXm.G.`.7X`.tXdX=XU.D.q.&.M l q x Z &.*.*.G Z X.*.o.6 4 f Z m l 3 * % * 2 3 3 0 w q = * 3 m Y ! ! 7.-.7.f.Y.$Xm.n c x x z &.6.8.N.T.oX#X#XT.7.8.6XrXNXnXnXyX6X7X8X8XtXnXnX8X).`.).v.v.<.n.@.n.b._.b.t.).rXrXrXtXrXrXrX6X6XwXwX0X*X$XwXwX$XM.K.@X#X:X@XK.K.W.T.N.:XzXdX=XW.W.F.L.6X9Xd.1.*XmXMXvX0X>X:X>XiXsXsXhXcXaXaXsX*X=X:XwX0XaXsX,X8.U oXcXaXaX;XiXpX0XP.U f e p.,XaXvXvXsXM.8.p.oX*X#X0XaX3X1X,X0X1X1XiXwXeX=X9XqX9X0XwX9X>X>XwX+XU _ %X-X+X+XOXoXoX#XK.K.=XwXoXg.T.;XT.XXC./ / s.s.a.M.K.K.*X9XW.1.D 1.M.7.~ ! d.*XT.N.M.d.M.:XoXp.8.! d ~ U ~ 3.i.~ R N N A.-XC.U V ~ ~ ~ ! / Y 1.M.! 1.3.M.Y.! -.-.w.;.$XnXG.o.y.H.S.,XSXLXLXGXvXzX$Xf.1.R M K M -.Y.AXKXKXAXzX=XY.$X9X6XR.D.!.!.c.v.y.6XwX@X$XR.R.D.6.-.f.L.K.Y.9XY.K.8.D Q 6.m d d p.;XP./ K.*XXXhX,X>XiX,XM.d.8.! M.$XL.m.m.",
"%X%X%XOX%X-X-X-X%X-X%X%XOX-X-X0XN.k M D G D D D Z Z F D J G Z o.o.G o.r.r.-.-.;.-.Y ! 1.8.N.-.R Y 6.6.-.Q D Q Q =.Q C ~ T.,XiXaXpX@X*X9XbXvXpXW.6X9XsXpXpXVXFXMXfXqX*X9X@XW.N.M.!.N.d.@X*XiXaXsX0XsX,X@Xg.Z.P.Z.P.Y.K.T.=X=XOXA.p.p.a.XX,X+X;X+XP.7.R d.$Xf.M.K.M.P.OX;XOX+XXX8.3.i.a.d.8.8.! 1.d.8.d.M.d.7.8.7.p.V.Z.P.V.p.8.7.3.1.! R ! ! V.V.V.a.i.1./ ~ q.tX`.J.Q.).G.9.=.=.! U t e f Z.T.>X*X$XE.W.Q.F.9.=.=.| o.n Z r.e.K.6X6X*X=X=XW.J.v.E.@X=XJ.G.b.b.v.b.b.b.b.v.v.9.v.Q.R.H.H.e.y.G.Q.S.<.O.<.y.F.wX6XJ.J.R.M G E.0.F.e.J.<...n.c.<.R.S.F.S.e.H./.u.+.@.#.@././.].yX].].].].].].'.tXmXMXzXrXnXzXzXnXnXrX6X6XtXrXdXzXdXbXxX>XOXT.P.I.(.).`.tX).J.rXvXLXAX9XQ.).).J.6XsXfXeXR.m.2.&.2.=.x x G | | | o.*.:.l % + # 0 @ @ + = * 3 q q 2 0 0 e % @ 3 m Y ! 4.d.V.Z.XX:XwXW.6.F M M =.0.M.d.g.T.T.OX+XT.6.m.w.F.8XrXnXNXdX8X8X7X'.yXyXyX8X7XJ.X.O.>.u.@.u.H.tXrXQ.`.dXrXrXqXqXwXpX9X0XvXVXvXvXvXmXwXY.M.@X*X%X;X#XC.a.g.M.g.Y.fXmXzXrXtX6XQ.E.0.m C K.pXvXvX>X;XOX,XaXaXiXsXpXsXsXsXpXwX*X0X>XiX:Xm.J 4 C OXaXhXiXaXcXhXsXP.d.7.P.0XvXvXsX=XZ k F 0.D.K.+XiX2XaXfXzXaXsXaXfXwXwXwXqX9X0XwX9XpXwX0Xg.U h.V.|.oXoXoXoXoX9X*X+XOXpX,XT.s.P.N.a.a.a./ / s.Z.W.=X9XtXtX*XM.Y 8.d.d.7.3.! Y.:X@XM.=.1.M.p.3.R ~ R i.i./ / / ! 4.! U V.%X,Xi.R Q / M.d./ 7.d.#XY.1.g.Z.0X@XM.1.K.L.;X9Xm.r.y.6X!.S.R.*XAXGXAXAXHXVXwXZ.8.l l Y =.L.fXJXKXLXzX9XY.!.$X6X5XW.Q.W.L.G.Q.tX6XW.$XW.L.0.1.q.D.D.M.Y.@XoXK.1.R 1.8.! =.! a.T.a.N.>X;XaXuX;XpXsXT.d.8.1.W.Y.K.m.2.",
"%X%X%X%XOX%X%X%X%X-X-X-XOX-X-X>XD 7 f M H V S G G &.G S o.F Z o.o.Z H &.6.0.6.&.Y D ! 8.8.7.1.7.=.1.Q =.Q S D Q ! Y V 1.L.Z.+XsX>X+X*X*XwXcXzXW.R.W.*XdX0XaXAXAXmXdXwXeX=X*XOXT.K.@XY.Y.K.*XwX<X;XpX>X@XZ.P.Z.L.>XaX0X@X=X;X,X+Xg.7.V.XXiX,XOXOX>X;Xi.~ M.M.s.a.d.1.1.d.d.~ ~ 1.p.N.N.N.N.M.1.1.7.7.d.d.d.d.d.Z.Z.M.Z.Z.8.8.8.7.8.7.R Y ! 1.g.g.a.a.a.1.d.d.m.Q.J.v.e.e.e.9.6.=.M V N h h V h f C 2.m.S.S.w.9.e.w.w.:.G :.e.v.F.!.U.T.K.N.K.W.Q.6X9X5Xv.b.t.+...X.e.e.G.=.7.=.9.2.y.L.J.G.F.S.v.v.+.t.@.{ F.*XD S.w.tXC D f.=.W.e.!.e.t.5.f.G.C.N.E.S.S.| < @ $ o X < y c | <.t.O.{ b._./._.'.rXvXMXmXmXNXnXnXBXmXMXNXmXrXdXzXvXvXvXvXMXaX>Xg.-.y.e.G.6X6XzXvXLXFXfXJ.H.J.).`.wX0XM.f.$XrX6XN.U l k z A | X.G Z q + X .   X . . . # # + * e 3 e e d 2 1 d C 8.Y.f.7.6.6.D.=XqX9X@XU.U.oX*X#X#XP.Z.T.P.OXY.M.K.tXQ.D.D.F.6XDXMXBX8X'._.7XyX8X_.b.+.+.b.H.H.n.v.I.zXAXdX7XpXzXfXfXfXhXcXvXiXiXVXSXAXAXpXC./ i.oX0X2X1XsXvXgX&XP.#X$XpXmXNXmXnXtX6XF.-.-.K.*X9XpXhXhXaXsXaXaX0X*X9X,X#X;X0XpXfXeXwXsXiXsX=Xc.l 3 3.uXpX;XXX-XaXAXhX=XoX9XdXmXmXsX>XU.L.U.T k l 1.#XiXhXmXvXcXaXhXhXaXaXzXfXfXaXsXwXdXzX9X3._ ,X-XOX0X>XOXoX+X9X+Xa.a.,XpXsX;X;X0X;XC.Z.V.g.+XM.m.W.@X=XeX@XW.V 7.K.7.! 3.1.p.@XeXW.d.0.d.8.8.~ 1.p.i.s.i.p.p.3.4.7.1./ h.,XZ.U l h 3.T./ m / OX9X7.~ g.K.@XM.N.@X$X1X2X>X=XOX=Xq.F.J.G.9XvXaXaXsXaXMXzXvX9Xg.Y M z M L.vXFXGXGXAXeX9XW.E.L.L.U.E.e.<.G.~.w.G.$XL.6.1.f.D.m.6.2.8.d.i.p.8.8.@XM.7.3.! N.K.+XT.XX>XsX;X+XY.N.M.Y.8.L.U.D.d.7.",
"OXOX%X%X%X%X%X%X-X%X-X-XOX-X-X<XG 6 l m Z Y Q F F Z G T o.F J :.:.G H &.;.6.&.S S Y -.7.d.-.-.7.7.q.-.=.D S Y Q Q D D Q D.N.Z.,X,XP.=X*X9XpXcX=XG.U.K.*X*X0XfXmXmXvXdX9X;XpX0X@Xm.@XwX*XL.+X:X@X@XY.M.M.T.$XL.M.C.=X;X@XT.Y.oXP.g./ a.Z.,X2X;X<X1X<XA.( 8.N.V.A.1.D H 6.q.H f -.p.p.p.7.8.d.7.8.m.7.8.3.8.N.M.N.d.3.8.8.8.8.8.8.a.M.7.7.N.N.V.V./ 1.8.-.1.V D Q.J.H.J.J.J.J.e.Q F V U U U N R / 4.M Z G 9.F.S.r.9.e.e.G.G.G.!.E.U.T.M.M.@XE.6X~.v.>.{ a a s a { a 9 p  .o.&.2.q.T ;.L.G.U.R.G.e.v.@.+.+.n e.zXm.m.! U.l m.R q ~.H.H.J.R.S.M.&X+XM.Q.<.p @ = f C : ; N f q m C k l 8 X @ 9 [ /.].zXzXvXvXmXnXnXNXDXmXNXNXnXmXDXMXmXMXmXvXcXVXAXcXdX=X=XQ.tXrXzXFXAX6Xy.b.'.`.`.6XwX*X6X6XQ.=X*XzX:XL.=.l z c 6 5 # X X   . X X .     X o # e d m m d d N C V p.K.=.M H n O.v.6XdX>X9X,X:X;X+X@XT.T.K.K.K.m.-.U.rX6XR.L.I.).nXNXMXnX(.u./.'./.#.#.{ ..Q.1X3XxXaXiXhXvXfXtXiXhXzXvXfXaXsXvXaX>X1XsXVXvXXX3./ a.V.a.T.+X;XcXvX>XC.;XsXcXmXmXzXrXtXQ.*X@XP.T.Y.Y.*XpXeX0X>XsXfX*XW.=X*X$XP.P.,XfXsXhXaXhXcXaX0X@Xp.p.7.N.*X:X>XfXvXmX9X6.=.q.tXzXaXvXSXmX9XV 7 1 l D.:XpXcXmXAXAXvXcXaXaXvXvXcXcXfXdXzXMX=XV ^ -XiX1XdXvXsX>X;X#XY.7.d.Z.;X>X>X,X;X;XOXV.a.V.9XU.-.6.L.W.tX6XwXq.1.d.1./ / ! d.Y.K.m.d.d.M.Z.Z.8.Q ~ ~ _ A.g.3.g.M.8.R V a.OXV./ C m N ~ R N Y p.K.Y.p.4.1.P.p.V.P.T.1X;X<XeX;X@Xm.F.=Xl.qXfX0X,X0X=X;X*XwXGXGX=XY 4 4 &.U.Y.>XFXJXGXvXhXpX:X@Xm.F.v.A Z J.R.R.6X=Xd.T 0.m.F.m.m.W.@XoXC.Z.T.oX3.R ~ R 3.R 7.P.A.+X+X@XM.=X=XM.*XK.U.=XU.W.D.",
"OXOXOX%X%X%X%X%X-XOX%X%XOXOX3X<X,.x C V F Y &.J C S &.! o.G Z &.*.G G ;.&.Q Q &.-.Q Y Q 6.-.S ~ 7.q.-.=.D Q -.Q Q D Y ! M.d.M.0X9XM.!.6X0XuXvXwXW.M.1.=X@X=X*X#XvXAXzX9XaXVXmXwXr.Q M.E.Y.P.OXT.L.K.K.Y.Y.Y.N.-.8.6.m.m.7.M.d.d.V.R Y U a.-XOX<XsXaX-XW.M.d.d.8.d.7.6.g.K.-.Q 7.V.g.8.1.1.q.8.m.d.2.! 1.7.d.8.! ! 7.8.8.8.~ 8.p.d.V.d.7.7.8.~ / ! R Y T Q D -.7XJ.J.G.v.<.e.q.0.G.d.U h h 3.8.~ 1.7.0.-.F F e.!.W.!.H.G.e.v.!.c.L.@X6XtX`.).n.+...+.u.O.+.o.n n w 1 % + + + 1 Y ! ;.g.H.D.G.R.G.F.t.t.+.{ H.R.!.R.=.R.r.!.U.m.`.6XwXqX>X,XA. XP.U.k.6 % 4 f j D O + H k K m D &.~ 7.o . U 8 9 #./.].yXlXmXzXzXrX8XrXlXNXNXNXNXHXDXDXAXzXvXSXGXAXgXdX9XQ.Q.6XpXVXvXtXn.b.).`.tX6X6XkX8X7X7X6XD.c.;X:X9XK.Q z M h 0 & = & # + + o X       + e m V l d V ~ ! D Q M 1 1 M G A A U.=X=X@XK.Y.@XM.M.K.$XoXY.f.;.z e.G.<.X.{ [ @.'.'.nXNX'.@./.'.`.`.7XI.:.F.9XfXSXSXaXaXhXdXcXaXhXsXeXpX;XoX9XiXaXcXsXcXcX,XoXP.,X,X:X>X%XXX,XaXaX>XaXMXAXMXzXfXdXeXeXdXhXP.~ K.$X*X$XU.g.a.&XpXzXpX9XpXwX:X9X0XfXhXsXaXcXcXhXaXcXcXhXZ.Y 7.=X9X$XG.9.c.J H =.9XpXiXvXAXzXm.6 K d m p.:XiXxXCXAXAXCXvXAXMXvXMXAXvXcXzXvXDX+XU _ %X,X+X*XpX0XpX>X$X9XY.M.T.C.XXi./ 3.i.i.a.C.P.$X@XK.6.d.M.U.U.W.K.7.8.3.8.! m Y Z.d.1.3./ 8.8.8.M.8./ ! / a.3.U 8.p./ N V V.+XA.XXd.d.T.P./ d.7.j.3.g.$X$X7.oX*X@X@X@XpXzXW.=X9X@XU.U.9XL.Y.;XwX=X@X9X:XK.g.#XaXSXDX9XoXZ.Y.#X&XXXdXAXMXDXMXmXcX:XK.$XQ.e.;.F.Q.6X=Xm.Y -.D.D.-.1.N.@X;XP.P.oX,X;XC.@XoXP.Z.d.Y.E.D.U.wX$XY.@XM.K.M.K.G.9.9.G.",
"+XOXOXOXOXOXOXOX+X+XOX%XOX;X1X0Xe.x G S S D 1.=.C D D Y r.Q &.| G Z o.:.&.&.=.-.Q S C S T =.! Y Q ~ r.6.=.-.-.=.D V Y Y M.d.1.oX=XN.c.Y.;XeXmXdX=Xc.Q !.F.K.T.K.eXmXdX:X:XeXzXmXW.Q Q K.W.Y.@X=XT.U.U.W.W.L.6.;.r.Q ! r.J 7.f.f.1.Y U ~ N.:X+X+X<XxXpX>XY.g.7.3.m.W.oXZ.T.M.7.3.r.7.! ! / 4.! 1.6.6.6.d.N.M.7.~ D ! 8.8.d.7.d.N.8.1.8.8.8.1.Y ~ c G M S R ~ 8.6XJ.b.b.v.v.G.I.L.0.d.R 2 @ 0 m ! 9.w.w.r.;.&.F Z H &.9.e.G.G.F.Q.R.R.S.c.v.t.{ u.b.Z p b <.F l j f f ; + g = % @ 4 C f.E.m.M.U.f.D.9.u.+.{ v.;.9.r.4 R.v.H r.e.8X6XjXsX<X3X.X.X$Xm.f * g j j j n   + D D H C ! 3.J -.+ . R ).#.[ [ x.[.].lXlXDXNXlXyXkXnXNXMXMXNXMXMXMXfXdXdXvXGXSXZX>X~.`.6XdXmX9XJ.b.b.`.).(.b.O.O.t.v.).6XtXR.p.g.K.9XwXP.Y 0 % % * - * * & - = & & & * f N N d h Y ! 7.Q H 6 7 z -.D.2.C T 6.-.D D q.U.U.K.Y.N.Z.K.q.m.:.X.b b a 9 , s (.7X8X7X(.b.b.tXkXnXnX$Xo.6 6 r.,XuX2X2XxXAXVXvXvXfXpX>X,X;XsXaXcXAXvX>XOX,X1X+X1XsXxXvXaX1X1XsXaXaXuXsXzXeXhXAXcXhXiX>XY.f.g.T.9X6XL.!.XX+X9XuXhXfX;X*XpXzXfXaXhXfXaX>X>XxXaX*X#XsXfXdX9XE.W.R.y.v A c.Y.=X9XwXpXfXhXbX0XM.! p.~ M p.sXvXAXvXAXDXAXAXmXmXvXvXmXzXcXsX:X:X~ ~ h.a.8.-.m.9X@X*XpXwXpXpX0X=XOXoXC.a.Z.P./ ~ 7.7.d.d.D.L.M.M.K.D.K.Y.K.d.Y C Y ! V g.g.M.Z.N.g.T.C.a.a.! ~ m V W U / 3.=.! Y N.XX%XZ.! R Z.0XZ.Z.g.d.8.! Q 7.8.d.=XpX9X$XW.W.m.m.9X9XE.m.U.@X@X=X:X9X*X$XeX9XD.U.Z.2XVXMXzX<XV.a.oXM.m.K.K.K.zXGXAXvXaX,X=XU.Q.w.e.e.D.U.6.C f.D.0.D.f.g.+XC.C.N.C.sXpX;XXXC.oXY.C =.T =.m.6XR.q.D.6.Q U.U.6.F q.",
"+X+XOXOXOXOX+X+X+X+XOX%X+X#X-XiXw.x z x Z z Y D V Q Q V J &.&.o.F o.:.<.r.;.-.&.Q S D Q T Q ! ! 6.6.6.=.-.2.-.T D F D S 6.d.8.d.T.K.m.m.M.M.=X=X=X6.D q.D.d.8.6.;XvXaXeX9X=XW.9XmXeX*XW.K.N.d.D.U.M.7.M.Y.D.6.Q ! ! 7.3.8.V.T.#XXXC.OXOX+XOXZ.p.T.,X>X2X%XXXN.! Q N.oXP.oXY.p.R C Y Y ! ~ ~ C V 1.8.7.d.g.V.d.1.Q C ~ ! 8.1.1.7.1.8.d.d.7.-.D m z G M m V ~ 1.Q.J.b.v.b.v.y.y.q.F m V 8.g.d.2.2.6.9.G.H.G.9.w.S.c.9.v.J.v.S.G.G.c.<.v.b.t.a ;.4.X X e =.T H C j f C ; & U f f f 4 % N K.K.N.Z.Z.@Xd.v.O.n.v.G n -.4 !.(.c.9.G.`.6XVXZX3XZX3X4X>X3 + 0 ^ U j j D o + C Q ~ ( N.M.m.9.X . / mXH.i 9 #.#.x.[.].lXNXDXNXNXNXNXnXnXnXNXNXDXMXrXtX6XeX,XaXfX6X).6XaXtX`.'.yXyXyX`.t.t.t.@.(.`.).Q.6XtX9XdX9XY.Y.M.1.d = = 0 0 0 0 0 t t t r r r h U C N ~ 8.6.8.=.n n :.S.6.@X*X0.Z T -.Q D &.q.q.1.1.d.M.d.! W.6Xe.Z 5.k.v.G { yXnX8X`.7XrXzXAXAX*X!.0.7.1.3.&XhXgXxXvXcXvXhXiXhXaX0XuX:XpXAXvXcXcXaX>XOX,XsXgXiXsXiXgXvXxXxXcXaXaX>X;X,XV.C.aXvXaX,X;XP.P.:XuXpXY.-.D.hXpX=X:XfXfXwXwXhXcXzXpXwX,XfXfXaXhXhX9X:X0X0XdXaX9XY.r.n p <.$XuXuXpX:XXX*XdXSXSXVXpXaX=XL.Y.sXvXcXpXaXvXfXsXfXpXpXiXpXpXsX>X;XOXC U |.Z.8.1.m.U.M.Z.@X:X:XP.:X>X0XOX,X;XoXP.8.Y ! 2.q.D Q Q 6.L.K.0.D.U.Y.d.7.Y ~ 1.1.U.K.@X@XK.d.K.Y.8.d.! D m Y p.8.4.1.1.p.~ Y p.g.Y C V R g.C.#XOXd.4.=.2.m.! ~ 7.Z.$XK.K.8.N.M.:X9X$Xd.K.K.=X9XoX$X*X9X:X0XoXT.N.Y.:XaXzXdX0X:X#X0X*XdX9XZ.P.vXAXCXvXAXcX>XpXpX9X*X:XeX9X-.0.7.2.L.oXp.M.P.+XM.M.K.zX:Xd.3.1.U.=.V M M Q f.d.m.6X$XD.qX9X*XU.q.",
"+X+X+X+X+X+X+X+X+XoXOX%X+XOX-X0Xc.K k x z x V V D =.=.Y D J -.&.=.;.:.*.:.;.-.-.-.Q Q Q T Q 6.2.-.=.-.D Q Q &.Q &.;.F F 1.s.N.8./ 8.0.-.J &.0.q.Q.D.T 6.R.R.9.k.*XcXwXeX:X@XT.K.=XeXvXzX=X!.m.f.T.Z.M.M.K.Y.Z.M.M.@XsX>XaXsX;XOX+XOX;X>XOXA.g.a.M.C.+X1X1X2X;XV.! ~ p.V.T.OXT.7.-.6.-.-.1.! ~ 3.6.6.8.7.g.C.V.p.1.! R Y ! R Y 1.7.d.M.m.q.7.-.D M C m m Y N.T.6XJ.b.b.v.y.y.e.-.&.0.d.7.Y 4.0.D.v.e.e.y.v.e.<.<.<.y.t.e.o.<.e.,.v.J.b.X.p y d     g U ~ Q Z H m H j o   g f f j N = % R #XZ.V.|.C.C.Y.r.v.t.v.o.Q f F.H.c.$.H.`.~.AXCXZXPXZX3X0XX - h P ( Y U J o 0 Q Q ~ N.A.N.A.U   > h.fXlXs i 9 [ [ x.[.].yXzXMXnXlX8X8XlXnXnXmXMXzX).J.(.).6XfXdXwX7XwXxXQ._.(.'.`.tXrXtXrXrXR.G.R.8XrXrXrXqX6XD.7.N.Y.0XZ.g ; r r 0 t 0 t 0 e h h j h C m m / 6.6.! D H r.y.w.4.g.C.Y.2.S Z =.9.6.q.0.Y 8.K.K.6.Q Q.tXD.q.=X1XZXVX9XrXfXfXzXjXhXVXVXvXD.r.! W.wX:X,XgXaXbXaX;X>XpXsX0X;XXX1X0XpXzXcX;X%XiXvXgXgXxXgXxXvXsXiXxXsXgXcXaXcXgX9X0XY.M.;XdXeX:X*X:X9XuXfXpX6.z q.hX0X6.! :XnXmXaXcXaXiXaXcXiXVXvXvXvXaXuX,X0XiXeXfXfXwX=XK.c.c.K.;X,XiXiX,XoXoX=XY.*XwXdXfXvXAXAXcXdXpX:X#X:X:XuXpXuX1X>X;X,X>X%X+XU ^ %X1XZ.8.7.d.M.Z.+X:X;XA.N.C.T.OX+XT.Z.N.6.&.T 6.K.q.q.1.! d.K.6.7.M.=XK.M.! ! ! Y =.1.N.-.-.=.D ! -.1.8.7.1.8.7.s.1.! ~ R ! S Y R S =.;.R R i.;X0X@XT.g.K.Y.6.6.~ 8.#X;X*X:X:XY.Y.:X*XK.*X=X:XzXfXwXY.*XdXfXsX0X$XD.W.>X$X@X4.p.:XcXOX,XfXfX=X;X>XvX2XxXFXGXSXvXvXvXAXsXzX@XZ.7./ L.:XoXd.K.dXpX:XP.,X#XM.f.q.W.U.f.Y D ! M.0.Y K.#XP.9X@XeXwX*X",
"OX+XOX+XOX+X+X+X=X+X+X+X+X@XOX:Xq.7 6 m M l M D Q Q ! R D F &.:.=.:.o.G G F &.6.6.6.=.Q Q Q -.-.Q Q -.T Q Q &.Q ~ Q D -.M.XXOXA.8.1.d.0.0.K.L.D.tXW./ 7.K.=XM.Y.>XsXaXaXaXpX9X9X:X+X0XVXxXcXsX<X:XsXaXsX0X0XiXpX<X>XaXcXVXAXiXOX,X+XZ.|.|.+XOX;X%X XC.-X2X<X2X<XT.s.g.a.N.+X*XV.g.M.g.7.7.6.6.0.6.-.-.1.p.T.T.N.A.N.8.8.V.N.a.N.M.d.d.8.7.d.8./ ~ R 1.g.K.@XW.~.J.t.t.b.v.v.w.0.9.D q C Y f.S.w.;.| X.X.o.o.<.e.<.e.O.<.v.y.<.O.O.{ 8 x B 6 +     C Q ~ ~ Y V U H m & . j j g j U h % X g.C.A.XXC.-XOXm.v.t.<.<.Q d D e.w.e.q.8XtXmXCXPXPXPX3XY.  ; U U ^ ~ P Y g P ( ( _ A.A.A.B.-   I +XfX8Xb.@.9 s 9 9 #.[.[.].lXnXzXzX'.'.'.yXnXMXMXzX6X6XJ.J.).=X*X9XdXhX).(.).'.7XyXkXrX6XnXmXrX6X6XQ.6X7XtXtXdXeX@XK.K.8.U U L h t r r h h h h C N N m m D =.6.2.-.F Z J o.-.-.Y 8.Y.K.7.8.d.d.-.=.-.Q m.E.f.0.L.9XdX0XaXfXmXAXVXhXvXzXcXcXcXcXvXaXcX6XE.K.qXE.Q 4.@X#XP.C.XX;XiXaXaXVXvXVXaXsXiXgX1X1XxXgXsXxXvXgXgX2X2XgXCXVXsX>XpXvXVXvXVXaX2XgXcXcXvXxXgXgXsXiXiXXXZ.U.sXpXM.! Y.tXpXcXcXL.S N.U.:.H.zXSXAXVXxX>XwXzXsXcXvXdXwXvXvXpX0XwX@X,XcXeX!.N.>XsXaXvXMXAXMXvXzXpXwXwX,X+XXXC.C.+X;X,X,X+XZ.h.a.s.^ ( |.2XcXwX+Xg.M.Y.T.T.@XT.C.=X,XpX#XV.C f Q m.&.G 2.w.m.D.N.7.0.1.! 8.d.d.P.N.! C Y m d D Q D T =.-.! V / 3.1.Y R i.3.U 3.=.D =.D l 6 f T 0.7.! m.9X=Xm.d.Z.eXN.1.9.F.dXSXpX@XY.M.@XP.M.:X9XL.*XwX0X$XM.K.9XsX0X@X$XL.P.,XN.Y.M.! sXvX<XT.@XK.*XzXsXvXaX<X-X2XAXVXVXvXcXvXvXzXfX9XW.L.T.K.d.! N.*XsX0XV.K.P.P.M.Y.eXwX9X*X#X#XY.d.K.Y.*X=X=XeX9X=X",
"OXOX+X+X+X@X@X@XOXoXT.XX@X@X#X9XL.k y m M l l V ! Y Y N C -.J J o.G H Z G D Q ! =.-.Q =.-.F J -.=.T Q D M Z D D Q J D ! Z.>XaXpX9X;X:X:X=XwXwXD.Q.R.9.5.9.F.K.=X9X<X0XcXhXhXdXzXeX@X@XwXaXvXvXsX>XsXaXaXvXcXsXsX>XOXOX,X,XaXpXXXOX,XOX+XOX2XgXgX2X-XXX+X,X,X2X1X;XXXP.p.8.Z.OXT.Z.N.d.M.8.1.! 4.2.1.q.N.p.V.T.C.V.V.C.T.T.C.T.Z.V.8.~ Y / s.a.N.C.T.XXoX@X=XL.R.(.b.u.b.v.y.e.;.&.S Q V &.q.e.y.9.<.,.X.<.y.v.v.v.v.v.v.J.y.t.@.a 9 x 7 < c -     d ! / / ( ~ ^ ! U = o U g g U ~ C j X h V.a.Z.%X%X XL.y.<.,.y.6.M l -.G.v.c.Q.rXnXzXKXKXLXgXR   : U ~ ^ E L U U ( ( ( N.A.A.C.L . . B.pXwX7X(./.#.[ [ 9 i 9 [ x./.].lXlX].yX7X8XyXnXMXzXtX8X(.b.J.8XwXzX*X6X'.(.).(.(.b.).8X`.`.`.`.).yXtX6XH.f.D.R.U.L.$XK./ h t r g g P U P U U U h N N N N Y ! ! =.Y T :.Z Q Q C q.L.@X+XZ.OX+Xd.1.7.M.M.M.Z.! 2.9XwXvXcXxXvXdX>XeXvXAXcXvXCXAXAXAXvXfXqX=X@XK.1.! g.:X#XZ.oX>XsXgX2XsXVXSXAXvXvXaXgXgXbXsXC.;XaXiXhXiX;XsXhXvXAXcXY.A.>XVXMXAXmXvXvXvXvXhXxXVXVXcXgXgXCXvXaXgXwXwXdXpXrXaXgXxX9Xk.s.Y @ < 8.,XvXCXxX>XK.,X>X>X;XK.Y.1XgXgXhX#XT.1XxXiXT.oX1XvXvXvXaXiXaXpXeXpXsXiX,X+XB.s./ ^ ) B.B._ ^ E ( _ _ C..X-X-XaXcX+Xa.V.T.Z.T.K.;X0XpX;X#XT.N.Q Q m.q.m.7.! 7.U.9XL.f.2.R M.d.Y / V.a.C C R Q Q 6.-.Q Y ! 7.1.! 3.p./ R i.V.s.V.1.m ! 7.=.D ! 8.p.M.1.! m.U.D.1./ *X0X#Xf.0.E.Z.=X9X@X$X:X@X1.=X*XN.K.*X0XK.f.@XU.eXzXU.9X#X#XeXXX#X:XP.pXAXSXsX<XT.K.:X,XgXcXaXAXcXvXCXvXcXcXmXMXzXmXzXMXmXwXK.#XY.m.U.Y.;XT.$X#XK.q.7.Y.Y.qXdXwXwX=Xd.6.c.c.r.6.tX9XD.",
"OXOX+X+X@XoX@X@XT.Y.Y.Y.Y.E.@X9XY.p 6 d C x d f N h e e C -.&.&.F D Z F ;.-.1.! &.-.=.=.;.&.J :.Q Z Z G Z G D D &.G F S ! C.+XzXmXaXaXvX>X=XU.w.e.c.w.k.m.q.6.T.U.U.m.=XzXsX>XsXzXeX9X9XwXzXMXdX0XaXcXsXvXxXsXcXsX,X;X,X;X,X>XOXOXOX+XOXOXOX,X1XxXsX-X|.XX>XiX1X;X+XT.V.g.N.T.=X;XT.V.K.d.7.7.7.7.1.d.M.j.V.XX+XC.T.T.V.8.s.N.N.Z.V.8.p.V.C.XX+X=X=XOX+XY.Y.T.Q.J.u.@.O.>.<.<.9.;.;.Q -.G.G.G.G.e.e.y.t.t.y.y.t.<.<.v.H.H.y.t.{ 9 p 7 @ 8 2.t .   = ^ B.a.s.~ U V U = + U P C U C P j X X j / V. X+X XY.e.,.>.<.&.c.l =.F.Q.Q.m.9XnXfXPXKXPXZXU   & U U ) _ ` ^ P ^ _ B.A.T.C.( X   : iXmXdX7X(.n./././.@.[ 9 9 [ x./.].yX_._.(.8XnXNXnXwX$XH.b.n.b.).9XcX6X(./.(._.(._.b.(.`.6X`.'.'.rX8Xv.F.J.G.R.6XtXE.E.E.$XK.~ h r r h C C U U h N C V U U U U ! Y ~ D J q.D.=.K.*X$XM.Z.+X,XC.p.p.d.Y.@XK.8.8.8.7.7.*XMXcX-XaXxXxXhXVXvXxXCXCXAXvXzXwX0X9X:XY.K.P.#X:X;X0XcXCXAXSXSXAXAXVX,XC.*X,X>XiX>XV.~ d.d.4.P.P.P.,XaXiXaXcX*X@XaXAXaXsXhXcX9X9XW.@XwXvXCXhXaXhXVX>XgXFXzX6XrX:XoXaXSXCXvXmXMX9XI.Y.T.OX:X9XdXqXd.Z.:XfXvX0X+X,XxXxXaX>X,XhXZXxX0X9XsXhXaX,XOXXX%X-X+X X+X-X-X-X-X-XXXC.|.B.^ g r ^ i.i.B.OX.XXX%X>X0X;XXXOXoXM.Z.g.V.s.*XY.Y.=XY.6.V 8.A.T.T.a.8.N.=XE.K.@XM.T.Z.7.~ U / 8.! R -.q.K.W.K.M.2.1.8.R Q ! / U m D / a.8.! 3./ ~ ! 8._ V.XXp./ M.D.f.f.=.0.Z.1XOXT.M.c.P.*XM.Y.9X9Xd.Y.wXT.T.Y.mXwX-.m.q.*XfX6X9X,X;XwXpXwX:XK.*XfXSXSXCXiX>X;XOX>XcX1XvXxXVXCXCXVXcXvXfXpXpX*XwXzXzX$XP.wXR.q.6.=X#XoXU.U.R.U.9XY.9.;.6.Q m.m.Q q.f.M 6 9.$XK.",
"OX+X@XY.Y.Y.Y.Y.L.Y.U.U.Y.U.E.=XY.6 4 e m M C j h g 4 t Q Y D C d D D D Q Q =.Q -.2.-.Q F J G Z H H F F J &.F G F A G G V / ( Y.fXcXhXvXzX*XY.Y.$X@X:XwXsXcXaXcXsX;XC.OXpX0X;XaXcXpXwXW.K.,XzXwXwXsX1X1XvXvXcXaX>X2X1XuXaX>X;X-X,X+XOX>Xa.h U Y i.>X>X,XC.C.;XpX>X,X;XXXXXC.Z.K.OX#X+XT.oXT.K.Z.p.8.g.oXoXOX+XT.Z.M.g.7.d.Z.L.Y.oX#X:X,X9X0X,X;XY.@XT.Z.M.T.@XR.v.u.t.t.y.v.e.5.5.e.;.9.w.v.y.y.<.v.y.<.n.v.>.O.X.t.v.t.O.{ [ p 7 < @ < A ;.h &     ; / _ ( ( ( N E j g N h C U U U f .   . L  X-X+X%XY.H.e.:.e.=.U.H 6.~.6XrXtX0XfXsXSXKXLXaXN   . g L I ^ B.h.` _  X<XA.i.P X   L 2XsXdXrX7X8X'.8X8XyX'._.@.#.s #.[.'.'.].].'.8XlXnXNXnXrX`.n.t.b.(.tXtX'.n./.u.u.n.n./.'.yXyX7Xb.n.J.'.`.7X`.J.R.).6X5X$XF.F.K.*XfX9X/ h N N N W / / / ~ U h f N 1.6.M.w.~.Q.Q.rXnX6XU.Y.W.=XM.$X@XE.W.*X9X:X*XY.2.f.M.8.K.,XCXAXcX>X:XdXAXvXAXfXgXsXpXwXfXvX*X+X#XT.a.XXOXXXOXaXVXxXVXVXCXvXsX+X@XoX#X0X0XZ.V.#XP.3.d.oX#X*X0X,X;XiXpXpXvXvXuXpXfX9XM.*XoXp.p.#XiXsXhXiX>X2XCXLXcXW.6XdXpXsXCXaXOXVXxXaXvXvXmXAXaX@X=X$X9XfXcXaXSXJXAXfX9X$XK.U.rXDX2XB.8.6.&X>X-XB.B.%X2X-X%X-X1X2X1X%X%X-XOX%X-X3X%XB._ h.B.) h.s.B.A.V.a.a.g.s.C.XXV.V.V.p.! g.@XK.M.D.=XL.d.N.C.+X,XT.Y.P.Y.K.0.K.iX@XY.oXg.~ ~ p.K.7.Q ! ! N.T.K.M.d./ ! ! 8.=.d M ~ 7.d.i.3.3.7./ ~ W oXoX/ ~ N.7.W 0.3.4.M 6.OXxX;X@X~ V.N.1.T.0XT.M.$X=XwX$XK.U.D 6.9.0.K.f.$XeXpX@X#X#X+X@XU.#X>XCXJXvXcXcXiXgXvXcXgXxXvXxXCXFXAXvXzXfXmX*Xq.W.dXwX3.D.=XF.T K.*XK.oXU.S.7.K.E.U.!.d.! =.2.T m.W.G.6.=.q.K.",
"OX+XoXY.Y.Y.Y.Y.Y.L.U.L.L.U.L.T.oXl < 0 f h m h N h 4 e ! R h t e ~ R V Q =.-.Q -.6.0.;.T &.| G Z Z o.F o.F F G D Q &.T ! 1.! 8.T.@XoXpXzXdXzXdXwXeXzXcXcXAXhXvXvXvXcXcXvXvXzXzXcXsXaX+XC.OX:XiXsXeX>XiXcXcX1X>X;X>X,X,XiX,XXXXX,XXXV.*XZ.U U d U V.oXOXT.8.8.XX:X;X,X+XXXoXT.N.Z.Y.OX;XOXXXT.+XZ.M.M.K.Z.Z.M.d.7.1.8.Z.Y.Y.T.K.g.g.Y.$X=X*X@X=XT.@XY.M.M.L.@XR.H.b.b.b.b.v.*.F B x z D e.v.y.b.v.b.b.u.b.t.O.t.v.b.c.+.+...9 7 , @ , y &.e.Q r o   X h / ( i./ Y P L j j N U U N L =     . * )  XXXXXd.v.9.c.c.G.S.M H `.W.eXzXfXvXAXVXSXGXwXR O     r ` ^ ^ ` ^ ` _ C.s.j .   I 1XsX>XdXrX8XrXkXyX8X'.'.8X/./.x.#.@./._.'.'.yXyXnXnXNXnXQ.J.b.b.).`.`._./.n./././.'./._.'.'.8XyX).H.(.J.).7X`.`.J.).8XtXtXtXQ.m.9.Q.6X$Xj.h h h U U U ^ / R U D 7.G.G.G.w.v.v.).8X`.G.v.J.~.Q.6XrX6X6XF.c.=XtXrX6X6XnXtXm.F.tXvXzXaX,X;XeXcXpXhXdXpXpXfXdXwXwXK.7.M.d.Y 7.D.M.j.j.XX1XgXVXvXAXVXcXaXoXs.XXxXvXcXSXvX,X+X>X>X,XuXaXaXcXaXaXcXcXsXwX:Xd.! *XvX;XZ.oXoX,X>XE.$XvXLXLXOXq.U.zXHXSXGXvXeXGXSXhX2XiXhXmXvX#XL.+XOX#XiXaXgXxXvXAXvX;X%XK.c.sXCXT.-.0.%X-X Xh.h.1XgXgX2X1X2X2X-X X X+Xh.^ ` %X.X|.B.B.a._ B.A. X+XC.a.g.g.~ i.P.,X;X XZ.M.M.9XtX6X$XwXdX:X>XsX;XY.7.E.+XK.L.2.! g.V.~ R U U i./ d.K.d.! R ! N.m.D.M.8.g.=.1.D.M.g.V.8.3./ 3.p.3.~ Y V M.1.C Y M.W.8.! / g.1.1.T.sX*Xq.^ OXOX/ C.T.@X@X@XM.=XzXU.D.F m.Q.U.E.;.f.;XXXT.#XT.( d.Y.oX-XxXGXaXvXAXxXgXxXsX1X2XxXxXVXSXCXvXzXzXmXfXY.m.L.@Xd.-.T.=Xd.4.@XY.0XM.! q.W.eXrXwX0XoXY.d.Q M.M.W.6XL.q.0.",
"T.T.T.Y.Y.Y.U.K.U.K.K.L.K.L.Y.Y.=X7.3 * = - = h C h e e R U t ; = d h 6 S 2.=.T D D -.-.&.G G G x n Z &.-.D S Q J J Q Q =.-.T S ! m.q.*XrXzXHXDX9XK.W.E.L.pX6X~.=X=XeX>XdXvXAXAXMXxXvXvXvXaXeX,X;X=X>XsXaXaXhX,XT.+X,X,X;X;X,X#XOXOXV.XXOXXXP.i.U U ( 8.K.K.d.j.T.+X;X+XT.T.+Xg.7.i.Z.oX,X;X9X,XK.A.A.V.d.d.M.V.1.8.K.$X$X@X#X*XV.V.T.K.M.d.Z.*X=X;XY.T.T.@X*X$XH.b.t.u.t.<.| } o.&.$.:.y.y.b.b.b.b.n.b.t.t.t.b.b.b.t...[ 9 7 < , 7 x G ;.5.7./ g     + h R / ) E P j j h U E U j 0 X .   o o L C. XXX7.c.v.J.!.r.8.-.x 6X9XQ.wXvXsXvXFXCX$X,.W ' : : o O ; L E P g g & O   # ) 2XxXsX9X9X*X=XmXDXdXlXlX7X8X_./.x.[ #./._._.(.'.'.8XfXNXBX7XH.b.J.`.(.b./._.H.O...@.u.n.@.@.@.n.^.`.(.b.(.(.H.J.`.6X7X`.Q.).v.F r.F.Q.~.6X#X|._ ( ( ^ / / / j.j.6.U.H.v.y.G.H.).b.v.b.J.).).).).`.7X8X`.`.kX6XU.!.~.W.R.U.9XD.m.@X:X*X:X:X:X9XP.=X9X*XE.D.S.U.W.-.~ c.G.=.Y =.D.Y.Y.C.#XaXvXAXAXxXvX1XC.T.wXcXVX3XCXxX-X1X1X;X:XeXcXVXAXcXfXaXsXeX*Xq.=.d.wXJXKXvXbXzXuXE.G.D.0XvXxX1XeX9XR.E.gXAXMX,XMXKXJXFXsX>XgXcXY.U.wXVXAXsXVXSXCXxXPXKXKXKXZX2XgXCXvXOXg.C.-X3XgX2X1X3XXXs.C.,X,XXX|.%X|.P r ^ A.|.|.B.V.s.) s. XB.|.%XC.Z.+XM.a.B. X2X,X+XN.d.K.@X=XU.U.T.XX,XoX$X@XR M.T.Y.Y.Y.Z.g.D.4.V Y f C 1.7.K.Y.q.6.-.=.Q -.7.1.-.~ m d.XXV.P.p.Y ~ Y 4.d.7.Y ~ -.1.2.! D D.U.0.d.a.V.j.7.;.!.r.C.,X>XZ.P.M.Y.L.=X*X=XzXsX:Xd.f.R.K.R.F.k.:X#XT.N.Y.M.Z.>X+XC.aXHXiXxXVXgX1XvXxX2X2X2XgXxXAXAXAXvXvXzXdXdX*XL.Y.M.U.*XdX0XP.P.$XrX*XK.m.7.T.9XpX,X@X9X=X=XeX=XOX9X@XY.d.",
"K.T.T.T.T.U.K.K.U.K.K.K.D.K.L.K.W.K.m 4 * ; 2 N ~ C h h N V t - ; r g ; h 1.~ C C m M D T S Z Z H G o.o.o.F Q Q &.=.=.Q D S S D 6.W.W.Y.$X9XvXMXY.6.0.! Y p.K.m.K.T.Y.K.K.@XwXvXwX;X>XAXFXSXCXvX2XsXvXvXxXsXcXaX0XsXpXsX>XOX;X0X;XXXa.V.P.V.s.a.h.s.A.V.V.+X>X-XXX+X;XXXC.XXOX+Xd./ 6.q.m.q.D.Y.OXOXOX+X@X@X@XoXT.T.Z.V.M.K.E.*XT.K.C.N.V.Z.T.+X:X,XW.K.K.D.U.F.J.b.n.u.t.<.y.v.e.r.G.H.v.J.J.J.b.n.u.@.t.t.u.u.n.@.@.[ a 7 , 7 c x A A A :.5.1.( L .   X 0 P ^ E P h N U P g r ; .   . O # o $ Q !.W.N.N.S.e.G.q.;XL.D R.9XrXdXcXmXrXrXNXA X h =.u jXFX4X: O O o O   . r .XgXgXpXdXdXzXfXnXrX'._././.'.'.'./././.x.@./.@._.'.yXlXlXrXnXzXrXrX8X`.J.n.@./.@.+.@.u./.'.(.@.#.n.'.`.(./.n.n./.u.n.n.@.+.t.t.J.G.F.q.p.L.R.Q.rXnXQ.c.M.7.d.9.:.v.G.v.v.(.).'.`.J.`.'.'.6X8X'.8XyX'.'.`.).7X`.J.v.).`.Q.G.Q.6XrX$X5XG.!.!.Q.c.R.G.G.U.Q.D.R.I.U.dXzX9XZ.=XeXW.8.a.T.xXCXiXP.=XaXVXgXzXfX>XxXCXCXvXAXvXvXgX2XgXVXcXgXcXxXcXcXaX;XC.2XxX>XU.#XCXVXVXMXdXeX>XsXvXAX2XVXFXVX>XCXxX*.+.O.U.fXR.(.LXKXMX;XC.1XxXwXwXgXSXCXxXeXqX:X0XY.;XSXFXFXMXcXVXCXVX>X%X2X2X3X3X.X%X^ U ^ B.h.i.h.|.|.E L ( |. XB.^ ^ a./ i.|.-X%XiX1X X%XA.V.XXXXpXwX=X8.8.d.3.d.8.q.E.wX;Xs.Z.,X X-X+X#XK.@XoX8.m.U.d.M.7.8.7.! 1.D.q.-.Q Q Q Y ! ~ Q 1.C D ! V ~ 8./ R d d 7.a./ ~ 1.7.Y.M.~ 8.K.g.8.8.3./ 1.T q.6.+X;XXX8.Y.@X$XK.g.9X=XzXvXaXoXd.=XW.E.6Xd.Z.M.m.8.N.*XOXuXsX-XxXAXCXCXAXvXhXZXCXxX-X2XgXvXVXFXAXSXVXzX6XrXnXrX0X:.q.@XK.:X>X,XOXpXfXdXK.6.0.-.U.U.@XOX>X>XcXwX9X9X9XwX0X",
"T.T.K.P.K.K.K.K.K.D.D.D.D.D.K.K.U.R.H 3 e 0 e ! 1.V N N C U r t t t r 0 h 1.Q G Y S C S &.F Z G F :.:.| n Z G Z Q &.Q D S S C V ! @X*XM.8.7.T.pXY.0.6.6.Q ~ m.N.M.Y.K.K.U.K.T.@XY.d.N.pXcXAXCXvXcXAXSXSXSXAXVXsX;X-X>XiX*X@X#XOXOXT.N.g.P.Z./ s.V.C.#X=XT.A.OX,X>X:X>XT.P.XXOX*XP.7.2.6.2.-.! 4.T.*X*X*X<XOX=X:X=XW.m.q.q.&.A :.<.w.F.E.@XW.Y.D.M.M.m.D.F.c.S.!.J.H.n.b.b.v.y.y.v.v.H.v.t.n.v.y.u.n.b.n.u.O.n.O.+.+.+.9 , @ 7 c } *.*.n A G =.d.d.s.^ O     & L P E g r g 0 ; &       . X # # X @ >.n.t.O.y.S.W.=X@XF.J p !.wXwX$XrXrX(._...u 5.k.e h..XPXPXIX3XIX3X3XsXaXpX$X6XgXxXpXrXrXyX7X_._.].].yX8X8X'.'.]./.@./.u.@.b.'.8X8XrXnXvXtX$X6XtX'./.@.u.@.u././.n.(.(.(.O.O.b.7X'.(.t.@.@.@.@.v.u.H.7XyXrX5X$X!.G.J.6Xv.G.tXtX6XW.U.G.9.>.v.J.'.'.8XJ.8X8X).`.8XtXwXrX8X8X`.'.(.(.).).).J.6XrX8X6X).`.6X`.`.'.J.).7X`.F.Q.W.W.~.tX9XzXvXsXxXvXAX:X*XwX9X*X@X;XgXCXxXgXsXxXZXxX1Xp.g.aXVXgX-XxXCXVXxXVXCXAXSXCXxXsX>X>XaX0X+XxXnXtXJ.<.<.J.H.J.I.).fXxXxXHXHXPXPXSXVXSXSXy.@.v.D.:XU.y.gXZXvX1X1X2XcXfXVXVXzX9X=XW.9X9XrXQ.P.,X XZ.!.v.D.,XVXZXOX1XxX3X3X3X%Xh.V.s.Z.B.V.A. X%X%XV.A.B.s.^ r U g./ s.V.2X%X%X1X2X1X,XXXXXB.a.Z.8./ s.N.~ ! =.=.L.zX;X/ i.C.,XcXiX>XE.$X=XK.6.Z.#X:XwXD.-.-.q.K.7.m l C ! ! ! ~ 1.p.~ C Y V ! 7.1.Y ! Y / / ( ! ! p.T.Y.d./ C.C.8.a.C.Z.0.f.M.d.|.V.oXZ.Z.Z.P.Z.p.P.Y.*XaXMXdXd.D.D.w.=XU.T.P.M.d.P.oX,X;XgXsX2XaXhXaXpXfX>XvXVXVXgXgXsX2XZXCXCXFXSXMXeX9XrXzXmXL.Q K.K.M.M.*XD.d.Y.wX9XK.=Xm.U.W.D.9.G.f.D.=X6XwXfXfXdX",
"T.T.T.P.P.P.K.U.K.D.D.D.M.M.D.M.K.U.-.M m e U d.N.! U U V N h h N 0 e h / / U V R Q &.T -.&.G G n F &.o.G n n H H F 2.Q C S C S S 7.Z.Z.N.s.g.,X0XY.7.7.7.7.M.K.7.M.7.-.Q ~ 8.N.U.1.~ K.oX=X;X#X+XsXcXgXxXVXSXVXiXOX-X+XY.Y.*X;X;X,XOXZ.Z.g.U h C 7.3.1.d.d.p.M.A.C.@XW.@XM.d.K.P.d.=.D T Q f < 6 Z &.c.L.T.Y.Y.m.0.&.|  .p 7 p n X.r.w.6.=.6.q.d.8.7.w.E.m.6.m.J.J.b.b.v.t.v.H.J.J.v.v.t.n.b.n.n.u.@.@.+.@.O.t.t.O.[ < , 8 { O.O.e.v.v.v.;.7.p.D.g.g.h.^ ;     . o o O o       o L L g & # 0 # $ u X.+.+.Q.9X9X9X9XW.!.e.wXzX0XrXrXnX/.#.@.{ , e.E.-XZXPXPXLXFXCX2XgX2XgXbXzXmXCXAXMXrX6X6XtXzXrXzXzXmXrX7Xn.@.[./.@.u./._.b._.'.8XlXnXDXMXrX6XJ.t._.'.u.n.b.J.(./._.yXrXrXlX`.7Xb.(.)././.n.@.`.8X7X`.`.).H.Q.L.:.} v.(.J.J.6X8X8X`.`.`.v.J.8X8XJ.J.).tXnXlXrX8XyX8X).(.u.n./.b.(.'.7XyX8XlX7X`.6XyXrXrXdXBX`.6XE.W.W.6XrXtX`.`.6XS.G.R.*X=XY.Z.8.m.D.m.6X6X0XuXiXvXaXgXVXAXvX,XM.y.tXAXvX2XVXCXvXxXgXxXVXFXFXSXSXvXaX,X:XmXGXAX=Xk.o.p b v.Q.7XqXVXrXO.[.].7XsXxXLXSXSXO.[ b.*XOXA.D.xXSXLXSXGXSXSXAXLXCXv.<.;.:.o.| 5.:.9.6X=X;.*.*.=.-.A.#XC.V.-X3X-X.X_ U U e i.+X X X%X%X%Xh.^ ^ E L j ^ g.3.a.V.+X X|.` B.XXOXXXB.( E U R R ~ N.N.7.R ! R Z.*X+XY.M.#X#XA.! =.W.6X=XN.U U 4.=X=XM.U.D.U.d.1.M.N.1.7.1.C =.7.! Y =.0./ 4.! S / 7.! ! p.3.~ i.s.M.K.7.i.-X-X+X,X#Xm.1.1.K.,Xj.oX:XP.p.i.p.d.d.d.Z.OX;XdXW.w.S.v.D.D.>X-XXXOX>X,X-X,X,X-X-X-X%X-X%X;XC.-X+X+XC.M.;XcXcXcXxXvXSXFXAXdXqX6XtXMX9X@X$XY.N.=XE.0.Q m.U.D.9XK.K.Y.8.V 7.W.N.2.6.K.q.q.D.",
"T.T.T.P.P.P.K.K.K.K.K.D.M.M.M.M.K.L.M.-.C l ! ~ Y C h V C f d h U N R 4.g.R m m d m Q Q =.&.Z H c H z M z k p p Z S -.=.T Q T S D Y M.=X;X,X#X>XhXdX:XK.m.N.R.W.1.q.0.6.M M D 8.N.a.! M.P.P.Y.T.Z.;X,X;X>XsXCXCXvXsXiXeXY.d.oXOX,XsX>XC./ V h e d V d q Y ! V D D Q d.M.m.6.! 8.M.oXm.D m l < @ @ 7 6 F 2.q.M.0.F Z x x z k K k f z D J M z M d.N.6.Q S 0.1.Q 6.!.F.H.H.b.v.n.b.n.n.t.n.b.n.n.@.@.@.+.+.@.@.+.+...s 9 7 a {  .>.n.(.).H.v.r.F G T 2.d.M.V.B.` I & X     O : I ' _ |.h.) h e d + X $ 4 O.v.*X*XE.@X;X+XT.R.cXAXaX6XJ.rX].[.#.+.7 t.nXvXPXLXLXLXLXLXLXSXZXVXCXCXSXSXvXmXzXrX8X8X7X8XrXzXzXrXyX/.#.#.@.n.@.@.u.@./.'.'.7X8XVXMXzX`._./.t./._././.J.8X'.u.b.'.'.7X7X`.b.'.u.O./.n./.'._.'.7XyX7X7X$XG.G *.<.b.(.(.).`.'.'.`.`.(.yX7Xb.b.'.).8X8XyX8X8X'.n.n.u.@.n./.'.'.lXlX8X6XrXlXlXlXnXzXcXcXtXrXmXmXzXzXzXrX=X=XH.G.H.).7X6X7X8XtXR.v.G.!.G.r.c.c.6.W.@X;XsXpX>XW.R.F.wXAXFXAXSXSXgXVXxXcXxXVXSXVXGXGXGXAXvXSXFXFXVX1XK.6.w.R.E.zXvXZXwXX.[ n.rXhX<XDXVXxX<.[ J.NXDX=X6XnXDXSXgXaXsXvXzXLXVXc f 6 7 < < 5 f =.q.9.=.-.0.f.m.9.| 3.h.B.-X%X|./ U ^ E h.h.^ h.,X%X.XB.^ ) s.^ P / V.i.a.+X1X2X3X.Xh.B.a.i.N.C.Z.C.p.p.p.8.p.K.1.Q V ! p.oX9XU.g.3.-.=.&.9.D.~.6X~ V 3.=X=XD.K.M.K.8.@XwXY.! 7.1.! 8.7.! -.8.T.g.i.7.Y ~ Y N Y p.8.~ / p.oX@XoXXX X+X|.;X0XK.R ! Z.+XV.V.P.C.p.8.d.=XeXwXeX>X0XwX9Xw.-.0.F.D.,XOXC.1XgX,X>XXX%X-X1XsX1X4X XV.|.-Xm.J f 4 6 Q m.*XmXvXAXFXSXfXdXdXwXvXAXvXzX9XY.9X9XY.U.m.=XW.U.Y.D.K.*X-X|.vXcX@X6.D.D.F.F.",
"T.T.P.P.P.K.Z.Z.K.M.D.K.M.D.D.D.m.D.K.6.Q Q 8.( / ! ! M.~ h N U Y D S S ;.M f D d q d m D M l K K 6 < 2 3 6 p n F J D T ! Q Q 1.1.6.=XwXOX>X+XOX1X0XfXwX@Xd.c.N.1.6.6.6.1.=.Y ! 7.oXs.g.XXN.A.C.M.*X9X*X:X,X0XiXcXaX,X>X9X$XP.XX;X0XwX0X#Xg.4.m 0 0 q 0 3 e q w l w m &.;.;.9.f.Z.;X@X~ % @ 4 q C S H Z G G o.} Z Z z l l M m f q f l C D T Y p.N.d.! =.D.D.D.W.6XQ.Q.).J.b.b.b.n.t.t.u.u.n.b.n.n.u.@.@.+.@.......[ a a { O.y.H.n.u.y.y.y.y.y.e.q.2.d.7./ p.Z.XX%X|.|..X.X%X4X4X-X X.XC./ =.l $ * w A O.u.!.6XW.OX|. XgX#XVXLXZXjXw.G.].[.#.#.#.@./.yXrXMXSXLXPXPXLXZXCXCXCXvXvXmXfXdX9X6X).`.8XrXfXmXvXcXAXnX7X/.#.@.[./._._._.'.7XtXdXAXFXmXJ./.].b././.@./._.n._._.t.@.@./.H.b.t.u./.u.u.b._.'.'.'.(.H.y.<.<.G.;.} v ,.n.(.8X6Xv.).7X8XlX'.t.@./././._._./._._.+..._./.b.b.'.'.).7XrXtXyX8XJ.v.J.`.8XrX'.b./.(.'.`.J.J.).Q.7XR.J.`.6X6XW.W.=X6XQ.!.w.9.r.p G v.Q.6XD.E.R.W.W.L.S.M.oX;X0XvXJXLXxXvXVXVX1XaXVXaX1XgXSXFXAXGXKXJXJXLXCX>X@XU.L.fXHXKXGX5X} a $XmXQ.rXSXVXe...y.6XtX<.[ { <.zXxX:XT.@X,.E.pX:.f k V ! 7.+X-X%XM.7.R -.2.-.f.2.w ~ V.h.|..X.X%X%X%X%X%X X_ h.%X X%X.X|.h.^ P U h.V.a.h.C.-X2XCXVX+XV.a.p.Z.V.C.XXp.7.Z.8.~ d.d.K.d.Q Y 6.m.R.D.q.9.&.G F S Z r.=.U Y M.Y.U.K.m.m.~ K.@X1.V =.Y ! 3.8.! 1.8.a.;X1XC.~ 1.4.8.8.8.7.8.p.~ / 1.8.V.B.a./ p.#X0XK.3.P.T.! i.,X+XZ.N./ / / Z.>XaX,X*X$X*X:XL.M.$XsX0X@X%XsX>X;X;X>XXX X;X%Xi.! W e C 2.=.=.T S Z z S E.wXmXAXSXvXsXCXDXSXSXSXAXaXT.Y.$X*XqXK.m.*X@X9XdXW.U.W.-.@X9XwXK.8.W.@XY.",
"T.T.P.P.C.C.Z.Z.M.M.M.D.M.D.D.D.D.m.m.6.-.Q ! ( a.8.8.K.~ d U R ! ! S D D 6 l d.h = 2 1 % + % 4 4 1 % 4 5 w Z o.Z Q Z T -.D S ! 2.Q m.*XV.oXN.C.:XoX#X0X=XN.m.N.d.d.7.! p.7./ ! 1.@XC.C.P.i.a.V.V.,XsX0XsXwX=X+X:X;XT.#X9XdX:X&XZ.T.+X;X;XoXZ.! U h m h t e 0 q f d d m ! 6.-.6.p.Y.*XE.! h C C Q =.J G G G A A D F C d m T S M m m d M ! ! ~ ~ d.s.a.T.9X6XE.W.W.!.Q.Q.J.J.b.n.t.u.t.n.b.n.u.@.u.@.@.@.@.+.{ @...s 7 7 s ..O.t.u.@.t.<.<.>.y.e.D.F.K.K.M.V.8.8.s.s.|.%X%X.X.X.X4X%X4XOX7.w.v 7 @ < { n.n.b.n.v.,XpXgXgXvXSXLXSXFXfXG./.[.#.9 #.[.[.].yXyXmXNXMXAXFXvXaX,X=XW.6X0XwXfXmXmXzXzXvXcXAXCXzXwXaXgXfXdXu.@.@.@.@.u./.'.8XrXfXCXSXDXQ.@.@./._._.@.t./.+.u./._./.u.@.t.t...{ u.n.u...@.@.b._.(.H.`.H.e.9.7 x  .H.n.+.>.7X7X`.(.J.,.t.n././.@.@.n./.(.'.].n./.'.'.`.`.'.`.`.NXNXBXrX9XzXNXNXnX6XtX8X8X!.H.G.`.8XyXlXlXlX7X).H.6X6XR.U.$X*X*X9X6XrXtXrX6X=XW.L.y. .O.`.6X6XF.S.D.U.;.7.iXAXaXAXGXJXFXHXGXAXAXVXCXvXzXAXHX8XzXzXvXwX9.<.v.J.6X=XR.e.e.9.b.S.c.!.zXMX`.v.v.k.5.c 8 7 6 D.0XhXSXSXL.9.C.+Xd.=.&.Q 0.$X@XN.Q T S 7.1.D D Y U 7.a.Z.+X-X%X-X1X%X%X%X-X X X%X X%X X|.B.( g ^ C.V.V.V.) _ h.%XxX1XV.1.Y p.g./ R / 8.P.oXoX:X@XN.N.! ~ 1.-.!.!.c.;.2.J D V Z J 1.1.4.d.0.m.q.-.6.Q 2.Y.0.! Y ~ 1.! Q Y U / s.%X%XOXi.V R 7.Y Y / 8.7.! Y 1.~ Y R ! p.p.R #X$Xp.a.oXZ.g.OX;X+XV.a.Z.g.R Z.aX;XsX#XY.OX;X+X;X2XgXfX,X>X@XK.K.K.1.C Y 4.D z l 6 f l T 2.2.M $.Z 6 5 | 5XzXbXcXsXVXvXvXAXSXAXAXaXOXd.W.wX$XM.K.=XW.eX$XU.W.q.K.=X9XwX$X$X$X:X",
"Y.oXXXP.P.P.Z.Z.K.M.K.D.M.m.m.m.M.m.K.q.-.F Q q.p.1.8.q.C f U U T 0.T Q D 6 z 0.h * * * & + + 2 * * 3 q f l D J &.Q C C C M C Y =.l M d.7.P.d.8.K.T.P.#X*X>X;X+X=XT.P.Z.V.V.a.( ! N.+XY.7./ 8.! V.+X+XXX,X*XW.=X=X=XY.P.T.$XOXg.f.g.P.XXOXOXOXZ.g.7.! R U N f 0 0 0 q 3 q m M H M Y 2.f.a./ Y V F D Q F Z H Z M x z w 6 M D S D Z z f f V ! T T J Q N.W.tXqXE.U.G.9.e.w.J.(.b.n.u.u.u.t.n.b.@.@.n.@...+...+.+.+.{ 8 < 9 a { @.@.u.@.@.>.u.b.b.H.H.!.F.R.Y.oXXX,X#X%X-X%X%X%X4X4X4X4X4X+Xw.} a 8 @ 7 a @.t.t.O.<.XXXX-X3XOXxXSXSXSXFX).x.[.[.x.x.[.[.[./.].8XnXrXaXDXGXSXMXdXrXrXfXMXzXfXzXaXCXVXVXAXvXAXzXzXvXAXhXfXu..././.u.n.(.7XtXrXMXVXsXH.n.[.@.b.'.(._._.b.+.+.t.y.(.n.@./._./.n.@./._.]./././.(.`.J.6Xv.y.e.O.O.u.(.t.{ b.b.(.n.u.+.@.u.(.(.'._.'.'.7XlXyX(.(.'.).b.(.8XnXyX`.'.'.'.yXrXtXrXnXrXrXtXBXmXNXnX8X).J.<.e.).J.y.y.H.H.6X8X8XtXtX6X7X7X6XtXrXzXwXK.D.m.r.r.w.U.J J r.c.c.c.U.D.0.m.9X9X=X9XW.L.L.9XwX6X5X8XF.u.b.J.v.e.y.J.<.r.<.>.H o.,.F.`.Q.c.r.X.v.J.!.c.2.7.6.2.! 0.e.2.f.#XAXdXm.q.M.R M z l M S H f f f 6 ! 1.Z f C S 4.p.a.C.%X XXX|.|. XB.h.a.s.a.a.i.3./ / / U i.|.V.V. XB.s.|.-X1X1X+Xp.p.g.Z.M.d.U d 3.g.g.P.9X:XL.1.1.7.0.f.D.d.2.=.6.6.1.1.=.R Y 0.M.0.M.K.1.1.=.S 2.m.d.~ C ~ p.f.d./ / Z.+Xi.V.+XU N 2.=.m d Y ! R V Y 8.d.7.Y Y 8.U ! d.Z.a.j.C.a.N.s.C.OXXX$XoXZ.+XaX,XaXMXvXsXvXAXVXVX>XM.d.3.2.6.F Q z 6 k Z -.=.Q Q R M M F Z w R D C k 6 X.zXFXhXaXxXzXfXpXhXAXFXAXzXU.K.=X@X9XeXM.U.9XqXd.W.K.Y.*X=X=X@XK.K.9X",
"P.C.P.P.P.P.Z.Z.M.M.M.M.M.N.f.M.c.d.U.m.o.v F d.N.( d.d.M f l e d Q G F x 6 l Z 5 % = e 0 % 4 q = * 0 w q m Y Y Q S Q T M C R 1.J f C =.7.K.d.p.s.A.T.:XeXfXiX;X2XiXxX1X,X+Xa.i.V U 3.p.Y =.7.6.!.K.6.9.=X$XK.R.=X9X$XP.K.K.Y.M.s.s.Z.oX#X+X+XXXZ.N.N.a./ / U d q q 5 5 w q q f K 6 f m / ! D l K f C M l z z z l f 4 6 S S m m f f f f l Y -.! H M D f.E.R.R.R.S.| c ,.H.b.b._.n.n.@.@.@.u.u.@.@.+.[ [ @.+.+.+.a 9 9 { ....+.@.@.u.u.b.u.@.O.b.v.H.H.G.!.K.P.&XOXXXXX|..X4X4X4X4X-X%X!.;.G c 8 7 8 O.t.a { } f.%X-X3X3X3XLXLXLXZXPXpXx.#.[ x.x./.[.[.[.].].].'.6XzXvXVXvXwXdX9XT.=X=X9XsXvXvXAXCXAXvXMXiXaXvXAXvXxX).O.t.'.'.).7XrXdXnXAXDXzX`.n.@.n...@.n._.b.n...@.O.O.n.@...+.u.@.u.@.u././.@.n.b.`.8XH.H.).w.8 6  .H.).NXlX8X`.8X_.b.O.[ u.(.`.yX8XyX8X'.'.'.'.]._._.'.lXjX8X'././.'._./.'.).`.`.~.).(.).J.c.H.J.J.`.(.).`.Q.<.H.Q.`.).v.H.v.O.@.n./.b.J.J.~.zXMXDXGXcXpXzXzXU.L.W.U.1.m S r.v.<.v.v.<.,.t.@...@.u.u./.b.b.v 7 s O.v.J.w.=.-.Z Z :.e.y.G.e.:.J.H.y.v.H.R.=X*X=XG.m.U.U.G ,.~.=XtXjXI.$X=XL.m e r t g 0 * 2 0 h V V d w e Y D Y V Y ~ ~ R R V ~ R R R U N U j U U R / / Z.XXB.C.XXV.B. X-X%X|.a./ V.eXN.Z.P.8.~ / f.K.K.K.9X*Xq.U 4.P.6X5XqXG.Q d.K.m.Q ! R F q.w.Q M.K.-.2.6.J F r.7.7.Y J ( d.g.p.8.C.1Xh._ OXK.Y 1.Q Q m Q =.Y ! Y R 4.p.C q N V U ! p.g.A.A.Z.g./ / Z.P.>XT.,XiXcXfXuXaXcXwXwXpX;Xl.g.R Q Y l C B S &.Y G &.&.F =.0.&.T M M M M D -.-.=.F z e.rXnXqXwXfXbXVXZXxXAXVXmXkXrX<XW.=XdX=XU.=X6Xm.2.m.W.=XU.K.m.d.m.U.",
"P.C.C.Z.Z.Z.M.M.M.M.M.M.M.f.d.f.m.m.D.c.:.p H 2.q.1.M.N.&.C C ~ Q D Z c 6 5 5 6 w 4 3 0 q 3 w d 4 * 3 d C U D D V M Q =.T D Y Q Q D M C =.Y.Y.d.g.g.N.7.! P.OX;X+XOXsXsXsX2XOX|.d.^ U U ! R V C M M z l L.9XL.K.W.9X0X:XT.@X@XL.8.i.g.Z.oXT.C.T.N.8.8.a.8.8.Y m d f q q q w q w w 2 2 q V Y Y m f l z l l F Z z H f 5 f M l f w f d m M m V R ! D z 6 k T 9.e.,.e.| v A A b t.t.n.b.n.n.n.u.@.+.#.....+.@.@.@.+.{ 9 9 9 a ..@.@.+.O.>.b.n.@.t.t.y.v.v.v.U.W.E.U. XC.C.Z.Z. X-X4X%XC.V.y. .b b } p a o.@ , v F B.4X4X3XZXZXPXPXLXKXKXSXx.s $ [ #.x.x.[.[.[.]././.b._.7XAXDXAXvXzXdXzXdXdXfXzXcXcXxXcXaXvXcXgXvXvXgXeX6Xb.@.b.).6XnXMXcXzXvXhXQ.n./._.'._.u.b.'.b.n.+.9 7 [ n.n.{ a a { @.u.@./._.u.b.).'.).(.8XJ.J.v.>.O.b.t.b.b.>.t.t.s { u.b._.@.@.@.#.@.u./././././.(.(.8XyX'./.[.@.t.`.8XyXNXnXNXDXMXrX6X6X7X(.'.(.t.b.t.(.7X7XQ.Q.v.,.<.y.,.a X.b.t.>.G.Q.rX9X=X9XtX*XtXzXfXvXDXMXpX:XU.U.U.J.`.8XJ.J.o.G <.t.O.b.b.n.O.H f 3 f 0 2 % @ 6 J.~.S.;.r.Q.v.G.q.l 4 d ! d 4 D D c.W.R.U.m.0.R.).6XG.r.Z w / T.K.M.h $ 0 V.U ; h h h d 3 2 q q q e e d d l y q q 5 w w w 5 5 2 3 q q q V ~ 3.C.XXa.a.|.C.C. XB.^ +XsXN.R XX;XT.Z.p.p.! 1.M.d.7.m.Y.9XV.M C 6.S.f.U.d.Y d.q.Q T Y 2.0.0.6.0.6.7.7.Q -.;.7.2.-.Y D ~ / ! R / |.%X-X) 8.T.4.4.Y ! R 1.1.Y 8.p.R m V R Y S C Y ! 3.1.~ ~ / p.3.~ 7.1.C.8.V.V.P.#XoXZ.3.7.K.Z.1.! m d Y D S p w z 2.9.Z F &.T =.;.T M M D S =.D M S Z =.Z 6 G J.tXnXdXsXvXAXAXAXCXhXtXfX9XD.=X*X=X7.m.@X=X7.-.D.0.6.d.1.K.W.E.",
"XXT.P.Z.Z.Z.Z.Z.K.M.M.M.M.m.d.d.M.d.M.m.S.o.z o.6.6.q.6.=.Q 2.K.r.&.:.Z 5 6 4 6 f q e q d M M f f 3 e M R U Y h h d M T Q Z M D V Y M M =.1.M.K.oXT.V.8.~ p.V.,X%XXX;X%X,X>XiXiXOX3.C h V U U ~ l 5 k w p.@X@XY.m.M.Z.oXP.T.@XW.N.V.V.g.Z.Z.Z.P.N.V N ~ Y R V C V N d d d d q d d w w 3 q d m d d d f M G &.A G Z f 6 M M z m l l l C V f w f d V S M 6 5 k z z &.5.x x T $.;.o.c.b.b.n.n.@.@.@.@.@.+...[ @.+...9 7 9 { O.O.u.H.b.J.!.G.v.H.R.R.R.G.m.f.w.w.f.k.Z.oXK.K.Y.OXOXC.d.!.S.>. .<.O.>.>.O.v @ 5 X.;.|.4X4XxXZXZXZXZXKXKXPXKX].x.s #.x.#.#.[.[.[./.[./.@.+.u.5XwXfXdXzXdXzXdXwX:X>XcXVXVXVXCXVXVXgXVXgX2XwXuXH.@.b.J.7XzXCXAXCXvXqXJ.n.@.u._.'.'.n.t.J.H.b.+.@.@./.'._.b.} 9 9 @./.u.J.b.b.(.`.b.>.<.J.<.7 7 ,./...u.u.O.t.v.+.t.n.(._./.'.7 7 [ [ #.#.#.@./._.yXyX'.u.@.u.'.lXBXrX`.'.^.(.6XtXrXBX6X5XO.{ v  .u.t.O.H.).`.y.Z Z >.a 9 8 } H.'.8XnXnXmXmXzXrX).c.v.G.~.9XzX6XtXrXW.w.v.R.).J.e.=.0.! 4 5 h h     # o # M.M.8.V 7.=X6X).J.G.G.y.<.J.`.< $ * h Y f C 5 6 J f.F.e.S.q.9.Z 5 4 q 0.=.Y s.~ 1.1.K.d.1.N.T.8.8.Z.Z.a.R e e * % @ < 4 5 5 6 f d q 2 1 2 q 3 3 q f f q 0 R g.B.i.i.h.|.|.XXB.r r ) _ U U a.Z.8.N.g.1.R 8.7.d.d.C.iX,Xr.C J 6.9.q.D.! d.@X*XL.T S J m.K.d.! ! q.=.T D 2.0.d.i.h.%X X3.T ! XX+X-X+XN.T.! 1.T D Y Y R R R R ! m m Y ! ! Y Y m 1.U m Y 4.p.a.p.p./ 3./ i./ h.>X,XOXs.a.g.XX8.Y 1.8.~ D f.9.C H D 9.9.F Z D l D =.m &.6.Q 2.0.6.D T &.&.Z 8 c o.v.S.R.=XmXAXFXCXCXtXwXvX:XM.D.E.@X*X#X0X:XY.9XW.U.@XK.Y.D.d.",
"XXXXT.C.Z.Z.Z.Z.K.M.M.M.m.m.m.N.m.m.m.f.U.q.n n 2.7.6.q.e.&.r.e.J &.o.A z l 4 6 3 q q 3 l Z M f N q d Y U h U d h f d S G x k M m T S Z Q l ~ 8.U U a.0X,XoXXXXXXX|.-XXXZ.XXoXP.p.R U f = 0 0 d W m m q R K.=X=XT./ U g.XXT.@X@XN.i.s.p.3.p.g.M.K.! N V C V m V V V N C N d q f d d w 4 6 w w 5 2 d M Z Z Z z M M k f M f l M C M m M M f d q 0 m V V k 6 p z z r.S.z k M l Y D 6.v.H.n.u.t.n.@.@.#.[ ..+.+.+.[ s 9 a ..<.t.v.G.J.R.6X$X=X6XW.E.E.W.Y.W.@XR.S.G.U.@X$XY.Y.W.K.m.F.v.>...@.O.9 7 a ..[ < 7 k Y %X3X3X3XIXIXZXPXPXPXPXLX8Xx.[ #.[./.@.x.[.x.x.[./.'.b.b.J.6X:XwX,X@X=X@X*XwXfXcXvXxXAXxXxXVXVXxXVXVXsXVX@X<.H.(.'.dXAXFXLXsXqX_./.@.u./._.'.'._.'.(.u...@././.t.H.'.(.(.t.9 #.u.(.'.`.b.J.8X(.v >.(.>.a X.v.`.`.J.`.yXyXb.....t.H.y.).v <.u.[ [ @.u.'.rXyX_.@.@.yXyXrXnXnXnXkX).@.[ #.@.O.b.b.n.+.a 9 { O.n.t.@./.n.b.e.G k k v v { t.t.b.u.v.J.J.tXiXCXSXAXqX<.{ [ t.e.G.S.Q.Q.>.v.J.H.b.r.9.H K N * ; 0 U !.~.`.7X7X'.J.8X7X).).Q.G.Q.Q.J n e.9.@Xw.9.J.Q.8Xv.G.F.=X6XZ 9.0.f.~ + . . C -.m * * Y 0.9.U.~.R.=XzXiXaXgX-XC.E r P U t + $ $ 1 4 4 3 q 4 4 q 4 4 4 1 1 1 1 2 R a.a.s._ _ B.V.|.|.^ L P j E / / i.a.C.Z.8.! Y.@XM.Y.2XZXVX,XZ.6.L.5XM.K.m.W.9X*XwXE.r.-.m.U.U.K.m.d.w.;.D 1.7.Z.N.|.3X3XZ.p.8.B.A.B.XXC Y ! -.D D Y ! ! =.Y V =.=.C Y Y ! V ! Y ! g.Y =.p.p.p.p.3.p.%X+X|.%XB.C.|.A._ s.i.A.0XU.g.XXg.D 2.k.&.S f K n G x k z D J M e.m.0.2.;.Q Y Q Q G Z A } n p 8 9 { L.hXSXZXVXAXAXFXvXZ.M.$X9X9X;XcXvXP.+X=XK.M.oX*X*X$X",
"C.C.C.Z.Z.Z.V.V.M.M.M.M.d.m.M.M.m.K.N.M.T.Z.c.o.G o.X.<.9.6.9.;.Q ;.} { b z f d d m d 3 l G Z k N h h h h t U f t U V D =.F F S l &.T G F m ! / U C i.+X*XP.j.j.d.M.T.C.a.XX+XXXg.3./ E E E h h / 1.N.3.U M.*XeXpXoXR g E ~ 6.Z.Z.a.a.V.p.U R p.4.1.4.! V Y V V Y R Y V C h q 3 h 0 q f m d q e q q q w l k x Z Z z k l 5 6 l m H M M m w w 0 1 = 0 0 0 3 5 m h U 4.1.T V Y D F 0.w.H.b./.n.n.@.#.@...[ ..@.+.[ s s [ @.v.H.H.H.Q.W.*X#X$X@XW.6X@X*X=X$XY.L.F.Q.W.=X*XW.F.S.H.y.O.O.>.+.+.a  .y.n.} } 8 y B d |.3X4X4X3X.X4XZXZXZXLXPXdX@.[ [.].].8XtX8X'.(._./._.7XtX=X6XwXaXaXsX1XuXiXiXxXZXZXxXxXCXVXVXZXVXgXsXhXuXrXD.!.6XtXdXmXSXKXvXy.[ 9 [ u././._./...O.n./.u.+.@./.'.'./.b./._.u.u./.@.`.`.'.).b.b.t.a  .v.t._.n.u._.'././.u.+.O.b.'.<.9 u.'.7X_.n./.@./.].8X).`.(._.8X'.yXyX`.).u.H.$Xp.2.y.H.(.).v.(.(.b.J.v.6XzXzXzX$XQ.Q.'.`.(.J.).(.).H.7XrX6X6X6XwXrXeX6X>X,XC.V.^ 1.m.r.p p G 6 e.v.n w.G.m.9.!.r.w.6XG.J.J.`.`.J.w.<.,.e.:.;.Z x b <.| J.v.<.v.>.v.7Xc.6 J G e.G.>.b.J.G.c.z *.Q ! r E N Q Y =.Y q m 6.F.~.q.D.Q.Q.6XtXBXBXwXnXtX@XC.( j 3 1 @ $ 2 4 2 1 4 3 3 1 2 % 2 h V.|.B.h.s.i.a. X-X-X XE ( L g / / / / V.p.P.d.! 7.8.! D.R.$X9XzXeX;XsXeXY.G.c.m.D.m.D.K.-.r.e.r.6.m.K.|.#XD.;.=.! B.4X-X|.~ ~ 3.3.g.p.B._ i.a.8.! Y V M D ! 1.7.p.Z.3.R R Y m l R =.M.d.1.1.p.~ R U U g.3.3.P.XXXX|.XXB.h.+XXX#X8.m d L.*Xg._ D J c z S d.=.! R 2.1.=.2.6.f.f.F D D =.V m C S :.9.Z Z z K @ 6 r.tXmX,XvXFXVXwXU.K.@X@XZ.XXaX#XM.oX,X>X:X,X@X@X",
"Z.Z.Z.Z.V.V.V.V.M.M.M.M.N.M.M.M.M.D.M.M.M.Z.K.q.-.Z o.>.r.&.o.o.&.:.O.O.X.} J Q Q Q D l Z &.D f d m m f d N U h h ~ C V Q &.-.S C &.F &.D V 8./ ~ 3.8.! M.P.g.p.d.p.Z.Z.Z.Z.;X>XoXZ.V.h.|.N.8.1.g.g.T.T.g.oXY.$X0X>XXXi.) 8.m.g.Z.oXXXC.M.3.7.g.p.d.M.7.! / ~ Y R / ! V m d d f h e N m d d e d q q q 1 5 6 l S C M f f 4 6 f l l M M D m f q 0 = * & 2 3 5 q * 1 h Q T l M Q F 0.S.H././.b.n.n.@.@...[ @.+...s 9 a O.n.y.H.J.v.v.J.$X@X@XR.E.E.=X=X=X=XW.6X6X~.H.G.y.G.H.e.>.| O.<.<.+.O. .y.G.<.*.H.r.8 z q ^ 4X4XIX3X3X3XIXIXZXPXIX1X).[ (.'.`.rXmXnXyX]./.[.n.`.tX=XoX&X&X,XaXpXwXwXsXcXvXFXFXxX1X1XgXgXxXgXsX3X,X$X).b.).dXhXVXFXPXvXQ.u...s 9 ..@././._.O.{ [ +./.@...+...@.+.[ ..t.t.u.n./.b.H.`.7X'.(.v.b } y.'.'.t.X.n.{ O.O.O.X.t.b.(.O.u.u.b.{ s +./._./.t.O.'.].u.n./.@.@./.'.'.J.lXHXnX'.t.t.u.b.(.7X7X`.`.7X8XyX7XkX8XJ.J.`.J.O.{ +.y.,.<.H.`.yX8XrXwX9XrXrXrXDXMXtXrXmXwX2 $ y y p J.w.D 7 Z H !.`.G.F.F.Q.Q.<.r.R.!.e.-.9.!.7X8X`.y.6XJ.G.H.v.`.!.Q.8X7XtXrXzX=XF.=.D c.q.;.Z M ;.F.0.Q d Y 4.d.N.d.Y.U.G.v.-.T 2.9.Q D.6X6.Y m.eXeXzXfX+X#X1X+X^ g & * # 0 U h U h 0 g ^ |. XV./ _ h.XX1X-X+X-XC.|._ g r R a.V.V./ p.g.~ / 1.! 4.q.m.7.D.pXpXsX*XY.W.!.K.W.@X+X#Xm.6.0.;.r.7.M.M.V.7.Y Y 6.Q d.d.f.=.D Y R 3.3.V.Z.C.XXXXN./ 3.f d Y 4.7.3.3.U ~ U U R C Y Y 2.7.! ! 1.Y Y Y ! ! V ! / / 8.s.C.+Xg.a.T.wXY.1.8.=X<XsX2X~ 8.5.T l ! 1.-.Y T ! 1.2.Q Q 2.&.Q D 2.6.2.T =.0.D.;.F k Z M q l K.MXdXoXvXCX9XE.*X@XY.$X>XiXpX,X@XoX+XT.9X:XT.",
"Z.Z.Z.Z.Z.Z.Z.Z.Z.Z.Z.Z.M.A.Z.Z.Z.Z.K.Z.C.XXOX+XN.-.-.o.J G o.o.G n G | } *.<.r.:.&.:.F &.9.o.H F S C S Q Y m m Y Y l m T Y S V S &.F S Z V V f m 3.p.! d.Y.M.g.C.Z.+X-X%XZ.#X#X#X,XOXV.|.oX@Xp.3./ p.V.8.oXM.8.K.OXXXh.|.T.=XZ.p.p.oXi.~ ! 3.g.d.p.7.1.3.8.~ R ~ R V h m V C h V h m d f d f f q w q 1 4 5 5 6 f f w w 5 6 l M l M l S D C d 3 ; * * 0 0 0 t 0 0 0 m S m l ! 2.w.S.<.t.b.b.b.n.@.@.+.+...+...s s O.y.v.y.G.Q.`.(.J.R.Q.W.W.$XW.W.E.U.W.W.Q.G.S.y.J.v.v.y.<.y.H.u.t.O.b v.y.Q.qXU.e.Q.D.-.;.q N .X4X4X3X3X4X.X3XgX3X3X3XuXeXbXAXbXCXSXSXAXrXtX7XyXhXjXqX1X#X6X6X#XY.Y.E.$X,X>XcXZXxXVXxX2X3XVXxXiX-X:XoX).u.Q.zXVXPXLXLXcXqXn.n.b.u.+.@.u.b.b.+.n.u.+.[ n.@.n./.u.+.u.@...O.b.u.u.u.b.).).v.<.y.G.< x O.y.y.b.u.{  .,.H.).| (.7X,.O.b.'.,.{ [ n.n.@./._._._._.u././.@._.'.8XJ.b.6X).(.y.O.{ O.t.y.v.(.J.y. .,.<.H.`.8X6XG.X.<.t.O.b.(.b.t.{ O.n.(.).(.).6X!.!.R.<.Q.6XtXQ R l T o.v.Q.r.f M T F v.`.J.c.G.7X7XR.G 6 Z e.r.G.H.H.).J.J.J.7X7Xv.Q.`.7X8X7X7X6XtXNXrXrX`.v.H.6X~.M.R.8X8X`.).6XwXnXnXzXrX=X~.~.R.S.e.9.;.&.F.6XL.G.D.G.5X5XY V.OXMXJXSXOXT.C.V./ U g ; ; P _ .X|./ h ^ ^ _ +X|.s.+X-X1XcX+X^ j ^ / i.3.3.g.8.1.=.1.Y =.f.9.D 7.:X+Xq.d.0X,X;X>XiXsXiXpX@X@XY.q.1.6.M.V.p.1.2.d.6.;.Z $.7.1.-./ h.|.Z.Z.Z.Z.XXZ.N.+XM.! Y =.=.3.~ U R / g.p./ ! ! ! ~ U Y R U U / d.8.8.6.D l D ! / 1.1.S ~ @X9XM.~ 8.a.i.XX;Xd.m.M.0.-.-.2.! =.! -.=.D C Z =.Q q.D.q.0.0.q.6.0.6.-.x M Q l 6 K =.tXdXaXCX9X1.M.0.2.d.P.XX<XOXY.@XN.d.@X9XW.",
"C.Z.Z.Z.Z.Z.Z.Z.Z.Z.Z.A.A.Z.M.V.C.T.P.XXXXoXXX XoX0.&.c H A F J G A n n G o.X.*.} G &.J o.o.J o.;.F Z -.9.&.Y =.R Z m V Y d q f m D D 5 C D m q l Y Y ! 2.D.N.s.oX;X>XiX%X|.C.h.j.+X,X|.P.*X$X7.N R 4.8.3.#X;XK.@X#Xh.( h.|.=XoXg.1.i.~ / ~ ~ p.7.7.M.M.p.7.3./ 3.~ U V V V N V R U N e d m d l f 5 3 2 3 q 1 4 w 6 6 f f f m z l M l S D f q 4 ; * e m e t h U U R M Z &.C Q f.w.e.&.e.e.t.n.n.u.u.@.@.@.@.a s O.v.G.v.J.G.k.G.b.y.y.G.F.E.=XR.R.R.R.W.!.!.H.J.R.E.F.L.W.Q.J.v.y.t.,. .y.5.m.K.Z.p.Z.OXT.U.V * I ' ` .X-X3X.X%X.X.X|.|.0XhXZXPXPXZXPXLXLXAXAX8X'.rXdX6XY.s.-.<.p.D.m.f.D.E.@X,X1X1X1XsXgXxXxXxXgXuXiX0XW.t.F.aXVXPXLXSXhXoX<.n._.'.@.@.@.t.(.u./.'./...9 .././.O.9 +._._...O.b.'.u.O.J.8X<.b { b. .8 v <.v b ,.H.c < 7 6 $ ,.(.O.b.{ y.'.u.+.+.O.n./.8XrX`.`.b.(.yX`.'.`.J.(.(.(.`.`.8X8XJ.G.`.8XJ.(.`.).X.{ <.<.<.G.J.H.e.X.} O.v.b.'.7XX.s 9 [ s s [ y.c.R.rXR.&.&.k &.v.S.0.tXS.R.D.Q Q.tXQ.).).6XQ.9.G Q.6Xf.q.I.F.9.).6XS.J.J.G.v.G.NX8X`.v.v.v.v.c.^.n.t./.b.(.'.7X8XBXNXtX7X).J.(.7X7XrXnXmXnXlX`.W.6XQ.9.<.Q.tX`.6XR.R.H | ;.B M -.D $.A r.G.Q.8XrX8X`.m.i.i.N.A.%XXX( W / ) a.+XA.U _ |.V.+XsX%X_ _ R ~ a.a.N.s.! Y 7.R V d.E.-.q d.K.;.d.1X1X,X,XiX-X1XiXXXV.#X*Xm.N.oXK.f.;.q.s.V.N.s.p.h.V.1.C..X%XOXh.a.+X%XC.i.h.d.1.m Y Y / / U W U 3.p.i.8.3.! D V Y 3.j.) h.i./ g.4.4.&.&.Q D N 7.2.m 0.6X$XK.4.4.4.2.&XV.d.m.D.0.q.2.7.6.2.7.! 1.-.M z M M T f.2.;.9.9.9.6.=.F Z D Z z C l $.tXmXCXmXE.@XM.d.K.OXXX#X@XK.Y.m.M.*X9XeX",
"C.C.A.C.C.C.C.C.Z.A.C.C.C.C.C.C.|.|.C.XXXX+XXXT.V.d.6.G M H Z M H M G n n } G o.n n J D D J o.:.r.r.:.*.*.;.r.9.&.T V m e q e e 5 d f 5 C Y V V C U ~ ~ 3.8.3./ s.-X-X-X3X%X%X%XV.Z.XXXXXXT.K.4.U ! 3./ j.:XpX0X:X+XN.) _ N.E.@XD.p.s./ a.p.R d.N.N.M.K.7.7.p.p.~ R ~ R / U h N C V U f e e 0 h h 0 4 4 q e e w f f l f l l M l 5 d d f q 4 q 0 * 0 m S l d N ~ Y ! ! T T z S ;.;.e.;.=.=.>.b.b.n.n.@.@.+.@.....<.y.y.v.G.H.F.R.J.H.!.F.!.R.J.H.v.v.v.b.v.J.Q.Q.!.G.I.U.!.D.Q.v.O.t.t.<.G.L.P.&X%X X%X3Xh.;.W # ; - h g / h.3.U r E h L #Xh.IXZXZXZXLXPXPXCXMX+.[ [.yXmXxX1XM.D.m.c.S.v.e.e.k.$XXX+X<X-X1X3XgXgX-X+X,XuX,X$XQ.hXVXCXVXaXdXNX7Xu.n._.8X_.n.t._.b.+.n._.n.[ 7 O.yXyXt.X.<.'.).>.t.b.8X'.X.b.y.>.{ v { O.b.(.v.(.*.y.=.X @ % $ X. .9 t.,.p ,.a u._.(._.b.(.(.v.(._.(.yX8X`.'.yXyXnX~.).H.t.J.7Xb.y.).7X`.).6XQ.`.R.<.n < | H.J.'.7X'.`.7X8XkX=XT x 7 7 p 7 G.).d.S ;.9.:.Z o.w.H.J.r.p :.6X~.R.G.9.o.v.6X7Xv.,.G.6XlX6XR.G.v.!.R.e.o.9.J.8X<.`.8X8Xb.H.).`.rX!.c O.Q.v.R.tXH.<.J.NXnX=X6X`.6X`.6X).7XyX8XtXQ.G.6XrXc.:.J.6X`.).y.H.r.w.R.9.e.F.D y H v.F.J.).7X8XrX7X7XrX6XW.fXjXfX=X_ ^ ^ +X;XB./ ^ 8.M.0X>Xh._ B.i.i.^ E E / Y ! 1.-.a.iXiX7.1.M.w.L.2X2X9X=X;XOXOX*X@XZ.M.@XU.oXZ.A.7.D 1.d.C.+X+XN.p.s.i.-X2X4X Xs.4.M.XXV.B.|.A.8.C Y W R / / E h U R U / d.1./ s.a.XX%X,X;Xa.Y 7.1.7.D ! D.f./ M.T.~ d.D.K.&Xm.U.L.0.1.p.f.q.m.m.M.D.M.d.7.D.q.D.U.w.Q &.D H ~ Q Q S S Q q.w.&.F T S D 7.=.S 9.rXMXFXiX#XaXaXzXdX>X:X+X=XdXm.N.T.Y.U.",
"C.C.C.C.C.|.C.C.C.C.C.XXC.C.C.C. XXXXXXXOX+XXXZ.g.d.-.H V S d d m m z z z z z c x k k 6 K z H z o.;.:.:.*.| G G F &.=.V l M S V m C z H =.=.! =.3.3.i.U / ^ ^ ^ ^ |._ h..X.X.X3X4XB.B.|.OXoXoXP.7./ / 3.p.g.M.Y.oXT.g.3.3.8.U.+XoXZ.+XZ.V.Z.g.N.A.d.d.M.K.M.P.p.3.~ R / / N h h N V U 0 0 0 0 0 e 0 * 4 q w 5 f M C M l f l m f 4 5 4 4 2 2 0 3 3 l F Q M d w l N 1.M.L.9.&.F =.=.;.9.=.;.y.H.J.b.b.u.@.@.u.+.X.t.b.J.J.H.H.G.v.J.J.J.F.F.H.G.G.J.J.J.J.J.R.J.G.H.J.H.Q.!.J.H.<.e.t.<.<.G.Y.B.B. X%X4X3XL % h = * + 2 N $.%.%.%.k.z.W L ) ' IXKXPXZXLXLXLXSXSXH.#.@.H.gXSXZX&XZ.,.*.>.,.,.<.e.y.T.=X$X,XgX3XgX2XT.K.C.2X-X*X:XzXZXPXxXeXk.F.'.b.+.u.R.J.'./._.8X(.@.u._._.@.[  .'.yXyX`.(.7X8X7XJ.b.yXH.H.y.{ O.p u.H.b.yX(.).*.y.6 @ B $.6 8 A t. .X.n X.v { ..y.(.H._._.n.u.@.@.@./.n.@.t.v.nXlX7XyXH.{ O._.'.(.b.t.v.).wX,XzX!.7X(.X. .x p  .b.8X8X5X=XaXvXaX*Xq.6.7 7 G.fX$XT 2.p.4.2.f.9.5X6X6X6X6XQ.e.;.9.e.D.S.,.v.).`.<.).lX`.`.7Xv.e.$X6XG 7 &.c n v.).R.D.0.H.I.dXQ.*.I.nXrXnXlX).<.<.Q.rX7X`.7X6XH.v.u.t.H.`.8X`.8XtX7X8XJ.Q.6XnXH.v.!.Q.D.W.L.K.1.8.f.Q D M X.v.H.S.J.J.H.v.w.8XrXNXzXzXMXwXV.T.C.s.^ i.7.Y.sX1X_ R 8.N.~ / V.7.! Q 0.7.( -XxXZ.m Z =.-.C.T.6.d.XXT.oX$XD.K.7.M.M.U.oX,X@X1.d.D.N.Z.Y.K.M.d.j.+XgX4XN.! Q 1.V.8.a.2X2XXX1.7./ 1.! U / / U U N V 8.8.1.V.V.i.^ ( ! ! 1.1.D =.T 7.7.7.p.d.p.j.$X*X=X*XT.=XY.P.N.Q ;.-.=.-.8.q.q.d.6.7.d.7.0.U.D.D.K.Q C D Q S M V -.-.C m V T S 0.Q S G m.eXvXwXM.Z.Z.OX<XT.N.8.! Y.m.Q =.L.L.",
" X|.|.|. XXXXX XXXXXXXXXXX X X|.|.XXXX+X-X+XT.N.i.1.V C ~ Y C V Q D S C m m l k k k k k K K K 6 K H n Z G H z z z F 9.2.S S &.| F D z F :.=.! =.4.p.3.R / ~ U U j ^ ( _ B.` ' .X4X.X_ A.;XP.U.oXd.8.7.3.1.! ! g.T.+XM.! R 4.M.@XOXa.C.C.A.XXXXC.7.2.0.M.P.M.T.a./ / R W U h h h U R U t t r r 0 0 0 % q d 6 1 5 m C m l 5 w 5 4 4 5 4 f d q q e l S $.D m m d e q d M 2.w.G.;.M G F =.e.v.H.v.v.J.b.n.@.@.[ [ t.b.<.e.H.G.H.b.v.H.H.F.F.R.Q.Q.J.!.R.!.F.U.R.I.I.H.J.G.I.I.!.v.t.n.t.<.<.v.Z.-X-X-X%X4X%XP   o 2 * * 5 m ,.O.@.t.O.< @ # g 3XLXKXLXKXKXKXKXLXKXKXKXAXaXvXPXZXOXQ.e.&.&.;.<.y.v.S.G.Y.K.XX%X3XVXxX#XXX#X,X>X>XgXZXZXCXsXvX`.b.7XtX(.u.).`.b.n.'.8X8X/.9 s n./.@.[ [ t.t.(.(.b.).NX'.b.'._.t.7Xb.X.X.O.).t.b.y.y.,.).e.y A v.8 c 6 w l @ $ @ 7 O.n./.b.).).).).'.>.+.@.@./.n...u.@.@.O.6XdX).O.a >.Q.yXyXn.b.6XdXAXHXnXI.S.H.q.6 c b v.).8XR.).6XQ.G.v.v.G 8 9.W.D.W.Q E.7.U.D.Z 9.Q.q.R.r.D k 9.R.8.N M F <.b.(.t.v.`.y.J.G.;.k 2.rXrXw.w.S.w.:.I.9.*X1 e.H.v.c.v.,.(.b.O.R.R.<.t.J.).v 8  .H.y.b.(...O.b.H.X.o.Q.G.H.<.t.t.(.(.H.Q.lXlXQ.tX8XrXlXyXkXrXtXv.e.e.c.R.`.G.L.L.6XrXrXtXrX6X`.Y.M.8.3.t h 1.T.;X-X_ N ~ s.V.! d.7.8.~ 3.p.M.>X2XC.C x w f N.+XY 3.,XOX+X0XZ.7.7.s.8.7.4.N.T.7.f.p.V 1.P.d.7.d.3.p.XXXX8.1.1.d.P.XXXX1X%XZ.! 3./ 1.~ ~ ~ / E ~ R ~ V.C.B.) ( / ~ V C D 1.! Y ! R ! Q 6.D.M.3.p.$XY.Z.*XT.Y.aXgX1X2.<.6.7.1.7.f.w.M.m.M.K.U.2.q.9.;.m.m.6.6.2.2.Y Y ! Y T ! Z F Z 9.9.G x z M.9XwXW.M.d.d.M.Y.*X9XY.L.U.1.-.M.m.",
" X|.|.|. XXXXXXX X XXX XXX X X X XXXXXOX+XXXV.i.3.~ m C R R ~ ! ! -.1.1.~ M l p f 6 6 K 6 < < < < 7 6 p k z x 6 l z &.9.;.F F G G z x H D J T &.-.1.Q Y D H c c p c x l ! 3.E s.Z.a./ p.M.R D q.R ~ ! C C Y C W g.P.Z.p.7.1.f.U.Z.3.i./ R / 1.d.7.p.d.M.OXZ.Z.Z.p./ R ~ / h t h V U h 0 t e g 4 2 * % h d 5 1 < 4 6 6 w 4 5 4 4 q m q q d q 3 d M M M z w m d 3 q 4 2 5 l &.G 6 l G T q.e.o.>.H.J.H.u.t.O.+.+.u.t.t.G.!.F.!.R.J.Q.J.J.J.H.G.v.H.G.J.J.J.J.J.J.).J.R.Y.W.$XW.!.n.@.s ....p 2.XX X-X%X4XgX-XI X o : o X o 5 O.[ { @     ' UXZXKXLXLXZX3XxXh.+XFXZXZXPXZXZXxX;X/ R >.w.G.v.<.<.e.D.$XOX%X0XpX2XgXiX,X+X@XaXgXgXgXSXFXaXe.O.v.n.n.J.yXb./.yXlX6XH.).).yX7XO.[ /._.b.u.t.t.b.b.t.>.v.(.>.<.yXJ.y.*.H.`.y.t.v.y. .a y.J.8XI.>.).} y.Z c &., < < } y.O...{ ....O.b.(.yXe.<.t.t.`.,.8 7 7 @.O.J.`.<.<._. .} y.H.'._.@.{ O.).yX8XG.G.v.v.*.<.t.7XyX<.y.R.0.L.qXD.< S dX=XE.S C D K.U.5 S f.S.R.Q.~.6XR.=.Q 2.f.R F | G v y.).).e.G.w.R.=.v.J.`.n <.<.A G 9.U.M.G n e.w.v n v.(.y.=.z >. .G H.6Xr.:.y.y.`.tX).t.J.8XnX7X).`.n  .J./.'./.,.<./.b.t.`.7X`.n.n.b.'.yXnXkXQ.W.e.v.H.8XrX8XJ.Q.Q.G.J.`.$XqXK.M.s.! ! 1.N.,X|.s.U h XXp.1.R 8.7.3.=.G ;.C.&X7.<.R m / #X3.4.XXg.8.Y.@XI.@X=XY.U.g.M.Z.i.d.M.d.1.0.d.f.g.p.3.3.V.p.p.g.g.C.OX,X1XXXZ.7.3./ / ! 8.i.g.a.Z.Z.a.V.C.XX+XZ.Z.P.M./ U 1.! D ! ! C m d F 0.8.p.:X,X#XOXXX;XCXCXxXG.H.6.K.L.d.q.6.D &.0.M.L.6.e.r.F Q ;.6.F.9.6.8.! C S 2.7.D F F q.G.c.w.w.G.9XK.1.~ ! 8.7.~ d.eX9Xd.D.T.Z.Y.N.",
"|.|.|. X X XXXXX%XXXXXXXXXXXXXXXXX+X+XOXXXN.8./ 3.! U C R / 8.8.8.3./ 4.R M m z l 6 6 6 6 6 5 6 6 < 4 6 6 k k l w l m S T F F o.o.G G n H z H G G Z Z Z n x z p k z l w M S Q -.T S S 4.2.C S -.V V V q w m d U / j.h.a.! l Z G Y Y U h Y 7.7.N.d.! ! 0.M.d.d.f.d.-.Y 1.! d h U R h 3 2 t t h t 2 2 3 m d q q 2 4 6 5 q 4 4 2 4 2 4 4 4 q 3 3 q e d M z 6 k M M l l l k G G z l z z M ;.q.:.<.H.H.H.y.n.n.t.@.<.y.J.R.L.F.R.Q.).J.G.G.v.v.v.v.H.J.H.H.H.v.G.H.G.E.Y.@X@XW.!.b...9 8 :.1.T.+Xh.|.%X X|.|.h.` g .         X &.8 w     : 4XIXPXLXKXKXIX.XxXxXZXLXLXKXKXLXPXgX%X|.+Xg.f.9.*.O.t.y.v.F.$XOXiXxXgX2X-X%XXXOXsXgXVXCXVXSXSXqXQ.>.@.@.b.(.n.+.u._.nXnXyXnXnXnXyXt.{ b.u.u.u.O.(.'.u.b._.<.X.v v.H.y.p { H.).v.b.v.t.b y.t.nXkXG J.5.F.6 8 &.x ;.F } b 8 < 7 ..u.u.O.a I.rXH.9 ....`.<.v { O.+.s v.J.O.t.(.(. . .X.t.{ { v p } ,.<.o.b n <.O...O.b.b.H.*.k M 6X~.3 V 4./ e d.d C 1.=.m Y Z 0.e.9.W.&.&.d.4.V h @ 1 1 S =.| x | y.G.$.Q.&.&.Z 9.9.=.:.F.A n 5 V F.G.H.Q.k.<.y.J.(.L.S.w.9.S.e.w.e.G.G.} w.rXnXv.p p >.6XH.J.<.X.O.b.H._._.8X7XH.Q.Q.tXnX8X8X7XJ.J.7XNXtX).J.e.7 7 x :.y.&.y.r.n p V K.9X=XdXnXrX*XY.V.V.+X|./ a.N.d.Q ! 1.! 1.J / .X3Xa.q.M.d./ M.N.g.K.V.3.Y &.4.! d.K.&Xf.T.P.8./ 3.p.7.1.M.p.p.8.K.7.1.M.g.Z.V.A.+X,X<XC.p.1.3.~ R R a.p.8.~ i.N.g.V.s.h.Z.a.j.C.Z.P.d.p.! C ! 7.Y Y N D 0.1.V p.OX@X@XgX1XgXgXxXW.H.6.S &.-.6.m.8.-.6.R =.9.R.!.q.&.S G q.9.Y h d C Y -.6.D &.:.6.Q F J e.5XmX7.d d Y / Z.a.8.C.>X=XW.$X:XdX9X",
" X X X X XXXXXXX%X%X%XXXXXXXXXXXXXXX+XXXC.s.8.3.~ R U V / / / / ~ / / Y m f l d l l M l 6 6 w w 6 6 5 4 4 4 4 6 5 f f q d m M G G Z G F G H G F c n Z Z D Z G C C V C B n x H c M z B $.=.Q Q Y m V T C m m m Y R / Z.M.Y l Z z 6 e t 0 m S V ! R U V V M M c x l M S D C d h V Y e 2 0 e 0 t e 0 e e q 0 5 q 4 2 5 5 q 3 3 3 4 1 2 3 1 4 q d q 0 q z c x z M Z M M G M l D T M Z T T 9.q.9.9.G.J.R.H.b.v.t.u.b.b.b.v.!.W.Q.F.H.H.H.H.v.b.J.H.b.J.H.b.v.v.J.Q.R.E.Y.W.@XW.b.@.b H M.-X-X-X X%X<XXXZ.%X%X-X.X|.; : O . . 5  .u %.X ' 3XZXPXKXKXKXKXKXLXKXKXKXKXKXKXKXKXKXPXZXgXhXgX3XgX3X|.i.2.t.m.F.W.%X2XsXxX1X%XOX-X1XgXZXFXSXZXgX;XP.7X/.@./.n.n./.u.n.).rXnXrX8X'.b.'.t.t.y.v ..{ { b u.@.u.`.).7 X.y.<.,.7 x H.H.X.t.'.J.y.v 6XyXZ 6X9.B w Z D @ 5 | A y c n 9 9 u.<.b._.y.J.7Xa ....O./._.b.'.'.b.H.`.7X).J.`.y.p x =.~ ~ 6.f < 5.).J.(.H.).).v.y.J.b.7XnXw.9.6X6XT m R i.S q 1.! Y Y K.6.d.f.0.F 6.W.C D l m R 2 + 4 0.G.F.y.:.k I.%.k.6X=.M M F F.A rXtX6X6X=.J o.y.y.T v.,.t.7XrXrXrXQ.Q.e.H.v.<.v.J.y.).nXrXH.8 } y.b.7X<.). .<.X.u.t.7XNXH.nXnX=X=XtXkXzXwX`.b.Q.6XQ.'.yXtXy.c 7 7 v A <.H.<.4 $ Q 0.w.9.T R d.g.Z.iXsX>Xp.=.7.1.f.S.r.-.1.A.3X3X XA.g.d.Q ! V.+X%X%X|.7.S V U D Y p.V s.+Xa.p.7.V R ~ p.a./ R 7.m.f.M.g.g.V.a.XXOX|.N.1.Y / ^ U U s.p.! R R U Y 8.V.g.XXP.a.s.i.V.M.P.g.V V 1.-.! ! =.7.d.1.@XzX;XK.vXgXgXxXVX*XS.M.J Q 7.D.D.7.9.m.=.D H 9.v.v.r.;.G G T 1.4 % 4 w :.-.M D =.0.S G H x 9.NXD.V 7.Z.M.M.N.Z.Z.=XW.W.M.Z.,XoX",
"|.|.|. X XXXXXXX+X%X+XXXXXXXXXXX XXXXXC.N.8.8./ / ^ E ( i.3.! ! Y R C w 3 w d w q h C V M m C M M l w w 6 4 6 f 6 6 5 3 5 w d f k l z G G G G } &.=.=.&.o.o.G G G A H x A n H H F n Z F $.T D Y S D =.=.=.&.Y D Q D D =.D M Y d k k d M z z k C E ) P ; 4 0 4 3 4 2 w q q 0 q d l f d d q 2 q e 0 0 0 2 2 1 2 2 2 q 5 3 0 3 0 3 4 4 4 3 3 q d q 3 w z G A | o.o.$.S M S G =.-.Q T F &.=.;.:.c.S.R.W.J.H.t.b.t.y.t.t.v.R.R.R.J.J.J.H.J.H.b.H.v.G.G.H.H.H.H.J.R.R.R.W.$X=XU.v.y.U.OXXXZ.f.G x 4.U e g.C.|.%X X-X.X` E * X t * * t # B.IXIXxXPXPXKXKXKXKXKXKXKXKXKXKXKXKXKXKXPXh.s.O.v.Q.pXFXLXVX1X1X+XOX;X1XXX,X2X1X2XgXgXVXZXZXPXCXuXt./.v.u.@.b.(.(._.u.@./.'.zXrX'./.n.(.).u.u.O.v  .X.v 9 { u.v.yX,.< A ,.*.8 8 y.7X . .<.,.,.} e.8XH.rXS.3 0.L.x ;.p H o.z @ 7 n A >.X.{ O.[ +.t.t.[ u.t.u.b.a a { t.t.t.w.uX .*.F.G.&.x w M f.$.B A v t.).6XJ.`.6XG.G.F.f.DXnXM 0.!.D.Q m K.L.4.=.Y M.Y 7.=.E.6Xf.&.Q 2.S q.6.4 + 2 U d.J.'.!.rXrX=.F D.l E.9.x ;.z e.R.r.G.F.L.6XH r.G.9.9.y.J.y.e.6X@XwX*X7Xy.>.,.e.X.J.'.v.v.;.k.).`.`.<.`.y.6X,.7Xy.v.{ t.yX(.b._.7X'./.).8XHXDX6XQ.6XrX6XtXnXrX6XQ.| k 6 x F <.@X2.F G.).tXQ.F w.0.Y M.@X$X1.1.M.7.Y D H H | =.C.A.C.P.Z.Z.7.! _  X&X.X XN.D S ! M.! ! R p.oX8.! M.d.1.p.7.M.K.D V ~ 8.f.d.M.L.d.3.M.T.XXY.d.p.s./ ~ / 7.i./ R ~ 1.Y C W s.+XV.p.R 4.4.! Z.1.Y 1.! ! 3.Y ! 7.7.T.zXfXY.m.=XsXVXZXcXR.L.m.;.0.6.m.K.c.D.q.9.D ;.r.<.<.e.0.&.Q Y m d m S J F D D F 9.G *.&.z T =XU.m.K.V.oXZ.N.@XT.*XW.m.T.A.oXT.",
"C.C.C.C.C.|.|. XXXXXXX|. X XXXXXXX%XXXV.8./ / ~ / / / / i.i.~ ~ R V 5 = = 0 h V N N h U Y Q =.D R m w d f 3 f f 6 5 6 w 3 q l w w d l Z z H z n G G | *.X.o.n Z R T J H Z c A Z G G J F | | Z S Z F -.2.;.;.T Z S x k z z k m d m m m m l M l h V =.m * 0 0 0 0 2 * 0 0 0 0 3 0 e e d e 0 0 e 0 0 2 2 0 3 1 1 5 w e 3 3 3 4 4 3 4 4 4 3 3 3 4 d d q f l d S Q F | :.Z H Q ;.D l l ! Q J e.:.Q D.R.U.~.U.H.y.+...>.v.G.F.R.R.H.J.J.H.G.v.v.J.H.H.F.J.J.H.J.R.R.W.R.F.L.L.G.S.M.;X#Xh.) s.-.! a.^ g h..X-X3X>X-X%X|..X' O   .     I 4XIXZXZX2X=Xc.R.uX2X3X1X1XZXSXSXLXLXLXKXLXZX3X%Xa.V p [ +.t.!.mXKXPXZX1X.X|.OX;XgXVXZXZXZXZXxXeXdXy.O./.@.@.t.).rX6X_././.].7XNXnXrX).b.(.(.<.y.,.y.,.| :.{ b.v.,.7X,.A v b 8 n  .v.y.y.).>. .y.6 (.J.r.$.@ B $X5 *.x v H.*.v O.v.8XH.{ { J...O.[ b.b.| { +.J.u.[ ..<.b.n.v.qXH.e.z S E.6Xf.e M l e w < y 6 H I.L.@XD.e.F.5.H.).J.c y.L.0.U 3 2.E.L.Q 6.6 q q < D.f.L.V 5 M T 4.R l D =.=.F.nXrXtX6XdXf.Y M U.9.;.6X=.Z E.f.S 0.T Q.).9.F H 6 B Z p e.).H.H.,.tX9Xw.S =.&.6 8 ).Q.R.F.H.y.e.H.'.H.H.S.nXrXQ.y.[ b.yXv.t._.'.v.H.b.(.NXnX8X(.yX6XJ.7XyXtXJ.`.`.R.`.F.w.G.Z @ 8 x F F.S.S.Q.nXnXHXmX=X@XV.N.U N U f l M F R K.K.B.V.C.C._ 8.a..X4X|.3.! a.-XB.R p.g.f.R M 2.m.7.3./ d.M.Y Y S K l D D Q S M 1.Y.Z.U.K.a.V.8.8.8.1.7.p./ D Y =.Y S =.p.Z.1X|.s.s.g.#XM.1.d.Y 1.M.3.3.p.Q M K.9X9XM.d.eXaXZXeX~.9XwXL.M.9.;.Q &.q.K.L.2.=.M l Z :.0.4.d.f.~ R ! 0.=.=.-.:.J &.G n T T R 2.-.f.Y.N.P.=X*X9X9X9X$Xm.M.7.p.g.",
"Z.Z.C.C.|.|.|.|.C. X|.XXXXC.C.+XC.C.Z.a./ ~ R 1.~ R / / 3.1.! Y V f 3 * 4 f R ! V V h Y =.-.-.Q Z f 3 l l 5 w 5 % % 5 f 5 q q q 4 4 q d w 6 z B H p p k z A A b n G *.| G | | M H F o.:.:.*.&.Q D Z G F Q &.=.F Z G F G G G G M m N d d f f d h q N q 4 e e 3 1 * * 0 0 0 0 0 0 1 2 0 e e q 0 0 3 0 3 f q 2 5 d 6 5 4 2 4 2 1 1 * * 4 e w 5 5 0 f f 4 3 2 5 z G J o.&.:.*.r.&.M H F G &.;.G r.9.9.v.~.Q.F.G.t.t.H.J.J.J.R.J.R.J.!.!.J.J.J.H.H.J.H.v.b.J.F.U.@X@X!.!.U.K.T.OX,X-X+XC.+X-X1X3X-X3X2XpXeXOXC.@XC. X X%X3X.X:     ' 3X3XZXIXPX|.^ C l j L ' ) ` 3XVX4XIXZXPXLXPXLXPXPXPXKXLXZX%Xd.! 1.Z.gXZXZXVXuX#X+X2XgXSXPXPXZX;X9.D k.u.G._._.n.u.(.nX(.@.+._._.8XNXwXH.t.H.`.,.b *.y.7X .n 9 p y.,.y.b.,.| e. .7 >.y.).y.<.t.t.7Xp w.tX@ F S 6 9.y 6 y.G.`.H.H.b.e.R.,.b.b.t.<.n.+.b.yXR._.t.y.).t.t. .X.y.J.Q.y.e.Z x w S.qXwXF.C < S 6 y *.c | Q.U.6XL.F A B :.r.S.H 9XW.Y R m 1.1.1.D.E.$XD.1.=.f 5 Z T m.m.H m M D ! -.W.R.W.rX=.0.F.2.z G.9.F w.;.w f.E.l m.2.e.G.9.9.6XS Q &.Z J.e.7 ,.B G.R.nX$XF ;.6.7 n F $XQ.*.Q.9.y.).e.{ H.6XnX6X6X[ O.7X`.u._.`.).n._...y.7XH.7XJ.rX7XQ.wXlX`.`.`.J.J.7X6X6XQ.6XQ.Q.v.J.F.e.;.S.R.tXnXrXW.E.D.$X$X=XV.1.Y M m p.XXZ.C.|.C.~ / Z.j.i.a.M.2.g.-X Xa.a.Z.8.7.=.1.7.1.~ V / 7.Y ! ! D C m d m h 7.l.a.N.C.Z.A.A.i./ 3.m U / / / R ~ =.~ 1.8./ a.&XV.P.K.oXi.1.d.8.8.p.1.N.d.Y M Z.uXVXwXC.T.M.xXY.6XjXtXrXW.D.m.-.6.D.S.K.m.U.G.D &.f.-.r.!.K.M.p.R R 1.2.Q T &.G $.G F F S M Y d.9XT.7.7.p.q.-.E.6X7.M.Y.U.Y.",
"Z.Z.A.C.|.C.C.C.C.C.|.|.XX|.|.+XC.V.V./ ~ U V 1.! R / / / / D S m f 0 0 d V ! R V Y C Q ! Q -.S z f 5 w q w w < % % * * % @ * 3 * = * 0 3 2 3 e 0 3 3 0 0 q w 6 p n F G F =.S l l Z Z M Z Z S M d f l V V Q =.T S -.6.&.Z S C m m m m l d q q 0 0 d 0 0 e 0 0 * = * = 2 3 4 2 % 1 1 0 0 e 0 2 3 0 0 3 f h q e m z f 6 2 1 4 4 3 4 1 5 d f q 5 4 d l 5 4 1 4 6 M M T :.<.w.w.;.G D H Z Q :.=.;.F ;.v.R.W.Q.H.H.H.H.J.H.J.!.J.R.!.J.J.H.H.G.H.H.H.G.H.b.v.H.R.W.@X*XQ.!.@XsXgX3X1X-X1X3X3X1XgX-X,XT.Q F C k 9.N. X-X2XZXxX' ' I h.3X3XxX3XZX3X4X Xh.( |.3XgX3XZXLXLXLXKXKXLXZX1X1XzXfXiX2X%XgXVXsXiX-X.X4X3X1XxXSXxXgXgXZXSXLXPXcXQ.K.} u.).f.Q.rX'.t.yXyX_.@.+.n.'.6XNXyXb.O.,.b.{ b >.).7X<.7 7  .y.o.,.X.c y.y.A | G.e.,.v y.y.).&.5 ;.x 2.2.@ z Z e.H.,.J.).<.t.y.H.).6XH...y.`.b. .yXf.@.b.'.H.J.8X8Xy.o.H.J.J.J.w.w.;.5 l 0.D.0.D =.q.x y 8 7 S.D.U.mXz F 6 =.6 T M 4.$Xf.4.K.! V M 3 Y M.M S m.E.D.F S D 7.l Q d.7.m.0.z w R 0.D E.-.$XZ S Q D S.9.V M.fXl q.w.G < :.z E.D.D.;.k ;.S.F e.G.!.w.z q.D G.2.*.G f.Q.6Xn tX6X| e.Q.8 t.).6XH.`.O.n (.'.,.O.X.).<.t.y.t.8X`.8X(.(.NXnXQ.J.b.o.y.e.c <.J.Q.H.J.`.Q.e.y.y.e.H.).`.`.S.e.e.6XW.7.4.m.=XW.@XM.R R |.Z.|.XXV.8.1.M.p.~ Q -.R i.B.+X+X XC._ _ 8.3./ / / 8.g.P.Z.M.p.1.M.p.3.i.i.C.#Xs.3.Z.M.p.Z.g.p.j./ i.h.XXZ./ p.d.p.1.1.~ M ! 8.~ / 1.! 7.3.d.M.d.p.M.d.-.D W.iXAXAX=XN.Y.VXY.tXdX9X*X6X9X9X@XY.M.K.K.0.K.=XD.q.=XZ.N.M.M.K.K.-.Q Q Q =.9.=.G F G D D D T R 1.@X@XM.M f H 6 F 9.&.=.1.M.Y.",
"A.A.A.C.C.C.C.C.C.C.C.C.XXXXXXC.Z.B.a./ U V V ! ~ ~ 7.3.~ V f d m d h h h V ~ ! ~ U U ! R ~ ! m f m m w 1 w m 5 & + # * * * * * + X X + o X X . . X o X X o # o o # + o $ @ + @ % % + + % # % % * * @ % + + % % @ % 1 1 1 3 q 3 e q q q q 3 2 * = * 4 t t t 0 * * 2 0 t 0 0 0 3 e 0 * * * * * * 0 * * * 0 2 2 0 q 0 0 4 2 3 3 0 5 4 5 w 5 4 0 0 4 t t t 0 0 * * % 1 3 w S T -.m.w.;.q.c.6.;.6.9.e.9.m.U.@XK.!.R.R.R.R.R.R.R.R.Q.J.!.H.H.H.J.J.H.v.y.v.H.J.Q.~.=XY.U.U.=X-X1X1X-X2X-XXX&XZ.4.w D R 5 f Q S T 1.XXOX+X_ ` ` I r g ^ E i.gXSXLXLXKXKXPXPXPXLXKXKXKXKXKXKXKXKXJX2Xi.a { t.qXZX3X|.M.<XSXLXZX3X3X3X1X1XCXSXZXZXVX1X&X(.b.t.v [ 7XrX6X6X).(.b.@./.@...b.).R.lX).v.O.<.<.} <.H.G.J.<.p } b 8 } } n G.H.y.| e. .*.a H.b.X.r.< 6 G.Z %.x 9.6 G.y.y.8 ,.H.t...t.tXQ.X.O.v Q.H.X.kXR.9 a y.J.J.k.e.y.O.y.<.H.J.F.k.$XE.2.! 0.D.=.w =.9.6 M k J.F.< nX5 Z Y S w T 7.d.K.U.Y 1.K.d.d.M.=.M 2.d.l E.S.0.;.l 6 m w f.R.6.D.9.5 @Xf.Z T T C -.-.S F S.D.S ! @XS q.D.6XS.e.6 M d ;.D D.x S.S.tXL.Q.6Xe.D.k 5XU.H.S.$Xf.Q.o.r.NXe.w.6X*.y.).H.y.H.[ ..u.'.J.H.,._.'.v.b.7  .8X<.8X5XF.).NX`.`.'.).J.5XH.;.<.X.O.o.c G v.| <.n >.>.o.<.Q.o.| 6X6X$X1.6.U.f.f.K.XX XZ.B.a.a.p.p.8.6.;.M f Y p.i.|. X|.1X+Xi.g.g.4.1.g.7.p.P.oXoXZ.8.Z.XX;XgX-X-X XOXa.P.XX4.7.3.j.#X>X%X|.XXT./ / 7.p.~ ~ Q 6.Q ! Y U R ! M.4.! 7.d.p.d.Y 1.Y d.Z.L.fXvX1XvXVXM.=XpXrXwXE.L.$XK.*X$XdXdX6XU.K.d.M.m.f.q.m.d.p.P.! 1.1.=.7.0.7.f.9.T Q Y T Q ! M S 1.M.-.f z H M z z m C D.M.",
"A.A.A.A.C.C.C.C.C.|.|.|.XXXXC.Z.V.g.p.~ U ~ R ~ ! ! / ! U C f f N h h h m ~ 1.1./ Y Y 1.! ! 1.m f C M f 2 l l 4 & o + 2 q e 0 % @ + + # + + # X X o o .   . o o o X .   . . . o # o . . X . X X # # # & & & & = & & * * * 2 2 * 2 2 * * 1 3 4 3 * * * * 0 2 0 0 * * * 0 e N h f j e * * * * * * 0 * * * * * * * 2 0 0 2 1 3 3 q q 5 q q 1 & & & & & * * & & + + & # + @ 2 3 m 1.G.D.m.6.=.=.=.=.e.0.S.K.$XW.=XQ.R.R.Q.R.R.Q.R.R.H.H.H.H.J.J.H.v.G.J.).Q.W.U.K.U.W.Y.T.+XOXOX=XT.T.a.p.M.D.R f 1.m.d./ T.T.T.@X=XC.Z.i.h.` - : h.B.i.Y 3.&XCXLXLXLXKXKXKXKXKXKXKXKXPXLXKXKXSXCXCXR.{ [ s [ J.aXVX,XC.,XVXLXZX3X3XgXhXVXZXPXVX1X6.8 { v t.9 ..).tXrXtX7X`.b._._.....{ H.b.(.O.X.y.).,. .n v.<.| } | } X.>.| A Q.6XH.| y.*.>.| e.<.k.*.@ 7 F.$.5.x 8 x e.8 ). .,.>.O.X.O.,.t.y.'.`.t.b.8 | 6Xu.t.v.b.`.Q.k.,.{ ).H.w.e.z ;.;.=.rXq.M M 0.=.;.R.T =.6 c S.m rXS < N.2.Y T M M M.q.Q 2.! M./ 7.U.2.Z D.w l F M $.T 2.T ;.T F Z G R.l V $X=.R l @ < Y Y &.M =.=.7.! p.m T M tXrXS w l B 3 M.w Q.m.9XW.E.c =.E.Z f.wXw.$XU.L.5.:.G rX5.7X| n v.`.).6X6X[ @.O._.(.'.X.<.7Xb.rXH.7 t.J.Q.rXb.{ J.yX5XJ.yX6X6X6X`.J.e.v x <.J.S.| *.G Q.).).).).y.H.R.7X8X$X$X9XW.K.p.3.B.a.( / s.g.3.! 7.0.! p.g.V.V.Z.C.B.C.-XC.V.! V J 7.! R 1.g.p.i.~ ! 3.p.+X+X2X X|.h.C.XX7.7.7.8.OX2X>X X/ / Y m H R R -.m.N.d.d.p.M.K.7.p.7.4.d.8.3.~ Y 4.M ! =X=X9XhXgXgXVX,XR.W.6X6XW.W.R.D.F.6XdXrXwXtX9X0.M.U.m.q.6.7.Y 7.7.m.U.m.D.K.0.q.m.-.7.Q Y Y 6.! m S 1.7.1.D m C Z Y 1.M.pXK.",
"A.A.A.A.A.A.A.A.A. XXXXXXXXXZ.V.B.a./ U R / 1.1.1.~ U R N h h h h h m U ~ / 1./ / ~ ! 1.Q ! =.l f C l l d m f 2 # X + q d q 4 % * * + # + + X o + + + X       . X X . . X X X o o o .         . . . X o # o & & # + # # + # & # & * * % * * & * * * 0 2 * * * 0 2 1 * 2 2 e e e t 0 4 0 = * * * * * * * 2 0 * * = = - * % 1 4 3 q 3 0 0 % + o o o o o o o o X X o o o o # + + * f &.;.=.;.;.:.o.2.-.-.m.=XW.=XQ.Q.R.Q.R.R.R.!.J.!.!.J.!.G.G.!.Q.$XQ.J.G.F.U.U.=X=X,X:X#XW.R.U.m.K.Y.K.D.L.Z.C.-X;X1X1X2X-X>XXX! W E j i.r - & g P P |./ W %X%XU d.oX3.l.CXPXZXZXCXVXZXPXPXZX3X-XIXZX;X9.o.{ O.D.gXVX3X-X-XSXLXCXVXVXZXZXCXxXbX6Xu.u.X.t.O...O.).tX6X8X8X`._.7X_.O.....t.n.O.b v ,.n e.c <.k k :.e.y.y.| } x S.).A y.H.} e.A e.G.k.2.B G | B ;.H *.v *.8 J.y.b.v.b.J.`.'._.(.*.).O.O.H.} e.+.y.| t.v.).7X`.c | v.F.R.Z S L.D l R.S.e.&.5.e.R.0.R.H.*.A 9.W.tXZ / D.&.l 3 7.T 6.H d.6.7.8.R 1.M D M Z l S w.k.I.7XW.Q.G.k.=.T l w 2.E.=.S 7.=.R 2.m D.2.M M.g.h e ! R 2 z f.E.d.Q -.Y Y l 0.K.M.rX6X8 z =.7 =.L.e.tXw.R.k ;.x G.k.7Xv k e.J.8XdX0Xu./.+.t.b.yXJ.v.J.b.J.yXX.9 8X$XwXu.{ t.b.tXF.H.`.lX6XG.y.7XJ.w.v.e.Q.r.6 x H A H.`.rX8X8XG.e.G.tXzXNXnXR.2.4.N.V./ / / 3.1.1.7.! 8.OX+X|.a.Z.V.i.3.a.Z.3.l M G ! Q S D p./ / s.N.d.i.a.h.+X-XXXg.Z.T.8.1.8.N ~ B. Xh.U U Y S H m ! Q 7.7.R 7.0.! d.7.7.! Y d.p.a./ p.g.! N.sXbXxXgX>X@X>X9XtX6X6XW.=XU.G.U.G.G.6XtX6X6XrXL.L.L.G.=XK.W.E.L.U.1.f.U.f.7.d.M.K.d.1.Y D S ! ! S D 1.7.d.f.M.0.! 1.=.1.@XK.",
"|.C.C.A.A.A.A.C.A.|. X X+XXXV.p.8.3.~ R ! / / / / N h W h e h h N N V ! ~ ! ! / 1.~ 1.Q D Q C k l M l m m d 3 4 * + * 0 e 3 4 3 0 * + * # X X O + # # X           o # & & & # + + + + + + o + + o       o X & ; o X X X X o O X o # & # & & # & & & * & & & # * & = - * & & = & ; * * = # # & + # # & * & * * # & * * & + + + + # # # # o X X X X . . X . . . X X X X X X o X o + * e e m V l B Q D -.m.W.=X6XQ.Q.W.Q.Q.R.R.R.R.!.!.J.Q.Q.Q.R.R.J.!.!.R.6X9X:X@X!.!.!.L.Y.$X;X%X$X#X+XOX<X,X,X+XZ.OXoXY d N.N.Y ( h.E ` I L & I  X.X4X4XB.1X%XW .X-X/ U h.4X` .X3XZXLXKXZX1X+X>X<X1X3XZXgXP.2.e.c.T.vXSX3X3X3XSXLXCXZXxX0Xl.k.zX$X9.y.H.y.H.v.t.(.).(.`.`.J.`.kX8XG.e.8  .y.H.&.c 8 ,.<.*.&.k :.e.| y.*.,.*.).6X7 :.y.,.y.7 *.k.R.f.w.c 7 B M H H.,.*.,.H.b X.X.>.v.8X'._.@.b *.'.y.rXQ.v.8 O.J.y.a [ t.8X6Xy.u.6XnXd.M =.2.7 6 e.| A :.R.H.H.z k.8Xy.;.f.rXqXN.E.L.D.% m m 2 M V C / R V 7.m Y =.T T 5 Z 9.9.G.Q.6XT k G w.D.C Z 6Xf.-.0.=.1.L.! T 0.7.N N N d $ q q M l l Q Q *.A G M 0.P.OXFXqXc &.2.M T @X6Xw.w.6X0.G.<.r.tX6XA A J.6XQ.L.DX6X(.n.[ @.,.6X8XQ.6XrXkXH.>.).,.).8X{ t._.v.NX8X(.8XmXdXG.o.,.b.b. .y.R.G.I.6XG.<.o.o.J.7X8X8XyX`.J.R.rXrXrXzXT.h.h.g.D H ~ ! g.7.~ s.A.|.h. XXXs./ C.;Xa.R D D 1.! C V P.Z./ 1.p.C.,X%XZ.Z.%X+Xd.Y Y V Q 7.V 0 L U h ! 7.N.a.8.Y ! 0.=.=.Y Q -.Y 1.1.7.2.Q d.3.M.d.i.a.s.8.T.=XSXSX<XY.K.W.U.rXfX6X9X9X=XL.D.0.<.e.W.$X=XW.@X*XOXiX0X>X0X=X9X-.4 S =.6.7.0.6.D.M.7.! Y V Y R m =.7.6.1.d.m.6.Q D z C S ",
"|.|.C.A.A.A.A.C.C.C.|.|.XXC.a./ ~ ~ R ~ / / ! ~ ~ h e h e d h h h U ! ! Y R ! 1.1.~ -.D F =.M C m d w l l 5 % % 3 3 * * 3 e 0 2 3 * + - + X X o o + o .   . .     # & & & & + + # & & & * & * * o       O X o = & o .   . . X X O # # # # O O # o o # # & & + # + # * * * * * # * & & # # # o # # + # # + # # # + # + o o X X o + + + + o X X . . .   .   . X . . .   .     . X X + & * 3 q w l V M 9.S.S.I.Q.Q.W.W.Q.R.R.R.R.R.!.R.W.W.Q.R.!.!.Q.$X$X5XQ.G.S.!.L.E.L.U.=X=X+XT.Y.T.P.M.M.@Xf.=./ Z.g.T Y Z.OXN.a.^ L t P U r E ^ ) |.+XZ.,X-Xs.3XZX3X|.1XZXPXPXPXPXKXLXSXgX,X@Xf.iXVXgX1XuXmX+XV.#X XxXPXCX3XgXVXZXPXPX3XXXS.G.uXdX<.t.u.,.a X.b.b.H.J.8X6Xv.5XyX8XyXv.a 8 y.H.G 7 8 ,.z *.:.z } *.v e.<.y.k.6Xy e.:.B G.*.8 |  .=.f.G.5 F c x G.,.;.6Xk 8  .O.8 8 O. .[ b.b.v { s I.R.H.{ a c y.>.8 { v.5XA 9 ;.E.K.V f.M.1.2 l w 6 | G.9.Q.Q.&.e.H.v.&.5X6XW.0.@X@XS C Y S 1.M.d.M.7.Y M.Y Y f.F.S @ @ S F z S D.W.l A G.dXK.w 2.2.=.D M Q L.T -.m 0.! $ h R e % 4 5 Y L.E.D L.G.6.=.G.T zXGXf.z D.k.-.f.dX6X=.F.tXE.m.w.Z tX=X5.$.I.6X).F.NX).J.`.y.I.F J.`.k.7X7XrXS.,.7X).Q.kXH.t.n.O.v.yXtX`.6X).).).G p ,.y.<.F.Q.9.A G.rX6Xy.>.v.'.8XJ.H.(.J.y.F.6X6Xq.V.3.Z.~ f d ! 0.D.p.a. X|.B.;X-XV.A.A.%X>XP.d./ ~ ! R 8.&XOX8.~ / a.+X1XC.h.OX|.a.N d V l Y ~ U t h U d.3.p.g.7.R Y 1.0.-.R Y ~ / M.M.7.p.7.M.p.4.Z.T.C.V.( 8.M 7.MXGXxX0X:XT.zXdX0X=X*X*X9XK.K.S.;.2.W.qX*X*X9X@X$X9X*XeXW.U.m.7.7.0.E.E.7.S f.7.! V Y D C R R m V D V Y 6.0.=.D C m m ",
"|.|.C.C.A.A.C.C.Z.|.XX|.C.V.i./ R R R R ~ ~ ~ R R U h h e h f q h V V Y U ~ / / / / ! R R V l Y M 6 5 q w 3 1 3 w f * + 2 d q % * 0 * 0 # X X X X . .       . X & 0 & X o + + + & * * % % * * # + X     & #   X - - # .           . X o .     . .   X o o o X X X o O # & & & # # o X X o o X o O o o o o o o o o X o X X X X o o # # # # o o O X .       . X . . . .   . . X X . . . o # 3 q m R T =.Q T 0.L.K.W.W.W.W.W.W.W.W.6X$XR.R.R.Q.Q.Q.Q.R.I.F.v.H.R.R.W.=X=XW.U.U.@XY.$XY.Y.K.D.M.d.K.@XT.XXoXY.P.N.N / W ^ / L + - P ^ R 7.g.j.%X%XB.3XZXPXZXVXPXZXPXPXPXPXZXgX#XV.D.*X$XP.%XxXgX1X3XVXgX%X1X2XVXSXZX3X2XVXCXxXhXOXw.*.b.7XK.O.b.O.{ O.<.t. .<.Q.b.y.5X5X).tXH.z < | I.;.A G A 8 F 5.y X.8 y.R.*.y H.$.5.I.H.| } c v *.;.&.L.D 6 8 G A x 7 e.J.X.<.>.t.u.b.t...{ { u.b.+.H.*.O.<.t.<.b.v.| 8 A J.F.S Z f.4.C $ m =.U.S 2.f k e.&.F 2.e.G >.G.:.e.D.F.U.S 0.V 1.V 7.@X1.0.M.Y.C K.Y.q C =.d.w 5 Z Z G 2.q 0.tXk G nXL.D.f.f.=.-.0.Z 0.M =.T V ,Xf + 0 3.U m m 2 d T $.Y D.0.-.L.2.*XV.7.6 1.D.0.K.7.w.d.D.$XdXwX0.x DXeX5X$.6X).(.,.y.J.tXfXqXmXq.y.J.k.nXH.nXQ.<.7X`.rX5XtX+.(.(.u.).nX).b.(.tXrX7X6Xe.y.H.e.;.G.v.J A *.H.R.>.<.v.H.v.H.`.).H.H.Q.7XtXzXBX9X1.0 d S Y =.M.+X X|.-X%XB.XXC.B.C.T.+X;XXXXXZ.XX&X,XV.~ 7.i.B.-X XC. X.X1Xh.U 8.Y Y Y h m p.7.7.1.! 7.7.g.K.N.N.d.3.R / s.A.d.8.3.4.7.d.7.1.d.Z.g.d.D p 9 A vXSXAXcXT.9X@XwX*XY.M.*X=XwXsXwX=X9X9X9XU.tXtXe.k.f.D.F.G.R.E.E.K.f.9XrX! S ! =.! ~ ! ! S V Q Y M Y R ! M.q.! 2.8.~ ",
"C.C.C.C.C.C.C.C.A. XXXZ.N.8.3.7.~ ~ ~ ~ ~ ~ ~ ~ W U V N V m f 0 d h U ~ ! 1.! ! Y ~ ~ Q F S C S m f 3 3 d l m m 3 3 * @ 4 m 2 + % 0 2 1 * # X X . .   .   X o & * 2 + + + & * * % % * * * * @ @ X X . . ; 0 X   O - & # o . X       # # + . o X     . .       .     . . . o o O O o . X o O X X . . . . . . X   .   . X . X o X . . . X X o O O o .       . . . . . . X o o o X .   . . . + 2 L j d d Y Q =.f.K.W.W.$XW.W.E.W.$XR.U.U.R.W.Q.J.J.J.H.G.J.J.R.@X:X~.U.K.K.U.W.$X#XY.W.W.=XT.C.OX,X+XT.T.P.7./ i.h _ E L L * + $ - 2 * r ~ 7.Z.XXXX+X-X3XgXC.<X1X.X3XxXGXgXB.iX,XoXG g.>X9XZ.-XSX3X.XZXSX2X&X-XVXPXZX=X&X$XG.y.aX9X@.+.,.,X,.b b.n.O.{ v.8X(.v.(.y.v.).H.J.G.$.z Z F.R.:.x $.l , l ,.c A <.).G.@ 5.*.6 H.G.} 8 >.c e.5.;.;.;.6 w Z p c 6 ,.y.v X.y.>.n.O.'.`.t. .v ..{ y.J.{  .k.y.,.Q.6X,.8 y.G.d.:.$Xp.! 9.z , qX-.T l < < x 2.=.0.Z k 9.9.Z Q.R.R.S =.T q l S D.K.! 4 Y.7.8.M.d % l ! L.l F F :.`.U.3 D.%.7 I.6XW.-.D z 5 -.=.T M f.2.l 4.R e $ l 1.4.e m 2 4 d ! f.4.4.Z.T l.U V 6 D.K.M.U.1.D.;.D E.wXrXl $.NX*XtX*.Q.!.8X<.*.b.6XuXjXMXc.y.G.H.rXG.rXy.G.'.6XtXE.`.O._.'.b.u.rXrX(.u.*.8X6XNXlXQ.H.Q.J.G.`.F o.F :.w.Q.7XH.).Q.<.y.v.y.y.H.J.tXrXdXqXtX$Xd.Q =.S 1.P.|.h.Z.XXC.=X>X+Xh._ a.;XB.C.&X1XXXXXa./ N.8.s.OXC.Z.1X3X2X|.Y =.1.1.Y U D / p.3.3.R ! 7.! N.P.M.! Y ! g.V.M.! 7.d.p.p.g.1.Y W / p.3.1.C p 6 Y XXAXvXeXdXW.=X*X=X*X9X:XpX9X9X=X$X$XtXU.E.~.m.q.9.e.R.tX6XD.E.6XW.=X=X! 8.7.d.7.M.d.p.! m d R 1.1.1.p.P.P.1.d.M.1.",
"C.|.|.|.C.C.C.Z.C.C.V.s.8.! ! ! / / ~ R ~ / / 3.~ ~ U N ~ U e h V Y ~ ! ! ! ! R ~ Y Y Y S C C M l m w f M m m m 4 4 * % q m 2 + 1 f q q e * o + X X X X . O + = q 2 * * & * * * % * * * 4 2 * @ + o X o ; 0 # . . o o # & & & # o o * - & + & o                                 O O X .   .     . X X X X . .   .   . . .     .         . X o o O o .       . . . . . . X X o o X X X o . . . . X + * h Y Y Y M.N.N.Y.Y.W.W.W.W.U.W.$XW.R.H.J.F.G.!.J.!.L.$X=XR.U.F.U.Q.U.K.K.K.L.K.U.K.q.d.d./ Y 7.K.7.V R p.W g.W & * 0 t t 0 2 * o X 3 ~ 3.D.6.d.XX&Xs.C.sXgX3X2XXXpXmXC.aXiXuX9.o.k.9XOXT.vXCX%X3XSXxX3XgX1XvXSX;XY.6Xy.H mX9X9.o.[ R.y.>.J.H.O.b *.H.y.+.H.(.6X).).J.&.F 6 6 :.w.6 5 6 w y >.A n :.<.H.x A y.A *. .| :.x A n } 5.S w 6 l &.&.A < n ,.8 7  .}  . .(.e.c b { { O. .6X} a y.>.X.n n y.X.p L.K.5.0.*X2 9.G.l l M F 0.9.z 6 6.6XS.F.2.S &.5.M 6XW.&.2.f.K.C S R 6.D.q Y d.T.M.R f 1 1 R M T 0.F.6XMX@XF H.B k.6XU.&.9.9.z f D Q 2.L.w f 2.C / e V m P.Y C f e q d.7.d.4.Z.2 I.p.h < L.V V @XD l &.5 M.$XzX@ =.6X!.Q.5Xe.v.rXw.$XG.!.tXQ.6Xc.(.k.G.nXQ.H.J.J.).7X6X6X).b.'.7X(.b.b.nXdXQ.y.y.).e.7XnXlXtXH.o.<.v.e.9.:.G o.n H.).X.>.e.J.7XQ.J.`.tX).H.J.Q.G.9Xd.=.d./ a. XC. Xh.~ 1.C.;X,XT.a.V./ ( V.a.j.s.8.1./ / 8.i.U h U  X<Xa.U D 1.0.=.7.8./ 7.1.1.Y C ! R Y 3.g.7./ 3.&X+Xg.8.d.p.! U ! d.d./ / p.1./ 1./ J k ;.5XwXwXzXzXpX0X0XpXpX9XK.K.E.6XJ.q.6XtXwXsXeXL.9.c.U.=X=XW.W.W.K.0.D.0.d.7.1.d.d.d.Y.@XK.d.d.N.Y.K.M.P.K.K.d.7.7.",
"|. X X X|.|.C.C.C.Z.p./ ! ~ Y R / ~ R R ~ 3.8.~ U U U U ! R h U / 8./ ~ ! ! R V N h N M C l m d M V d m C M C d 4 = * 1 q m 2 @ 2 q 3 0 e * + + o o o X X # + 4 q 1 0 0 * * % % * * % # & & # + + + o # & & o   . X o # & & & & & & 0 0 - o o .                                 o # O X . o o . X . . o o o o           . X .             . . X . o O X .   . . X X         . . X X o O o .       . X # - = C / 8.M.Y.@XW.U.U.E.=XE.E.E.W.R.H.!.R.R.@X*X6XU.S.!.Q.H.J.S.M.$XE.F.F.R.E.L.f.d.0.4.-.K.M.p.3.7.p.N h e N N h e U h h h r # * h R d.w.6.oX>X,X;XsXVXVX;XK.&.S.9X>X XgX,XXXd.S.$X>X-X-XxXgX1X2XxX%X#XP.;XVX@X<.6Xy.y.9XfXy...<.).Q.G {  .O.7 , 7 } H.O.J.e.<.G.B z x 7 6 $.$.k y 6 B | p *.<.| | } v 8 v | c *.G.v *.8 x M =.l l l M 5 < 6 8 x x ,.8 G X.y.e.rXI.5.G.O. .8 y.<.8 O.t.X.>.} ,.e.<.w N 5.Z K.R w M T 5 y M 0.S $X-.5 q.q.9.;.S.F &.=.L.q.Q 0.7.M.! 7.=.! 0.0.1 Y d.d.Y Y d M =.M.E.I.G.Q.fX$Xk.y.e.).J.S.D.q.6Xz C 2.F -.F.q.f =.8.p.R m 1 4.$X6.;.R d L.m $Xp.OXq g.p.h l 9.Y d 0.Y T Z m T qXrX< k.k.m.9.7XG 9.6X9XaXI.S.tXQ.eX@Xy.} 5.rX).<.7XJ.J.J.y.(._.t.b.lX(.b.u.).dX9X7X).H.y.b.u.(.rXnXG.} G J.H.G.r.:.c x e.J.).w.r.<.H.v.t.H.8X8XyXlXtX=Xr.=.R ^ i.C.V.XX+X/ d h a.-X;XT.#Xs.8.P.a.p.a.d./ V R U V V V m U / ~ ! ~ 1.0.Y ! d.1.=.1.d.8.! Y m N / Z.K.3.p.oX|.i.p.V.N.d.Y ! 0.7.R 3.Y.:Xd.M.V.m.o.{  .e.R.wXwX*XwXuXfX$X@XW.@XD.9XtXQ.y.m.eXhXvXmXrXtX=X*X;XG.c.m.K.E.rX*XK.m.8.d.6.Y.E.=XU.Y.@XY.W.Y.K.K.M.N./ V 1.",
"|. X X X X X X XXXZ.3.! 1.~ N R W W ! / ~ ! ~ V U ~ ! / ~ ~ ~ ! / 8./ R R R V d f e h m Y l l d C S C Y C m m f 3 4 1 2 q d 3 4 q 0 2 0 0 * # + + o o X X o o 3 w < q 0 3 1 * 1 * * # + + + + + + + + + # # + o o X o o o o + # o + - * * o X X . . . . . X o .                 . O O . o & # X X . X o o o O .           . .         .     . o X o O O O o o X o X . .           . o o O O o .     . X # r / ~ d.T.T.Y.U.Y.@X$X@X@XW.W.U.!.Q.R.Q.*X*XY.G.G.J.J.v.H.J.R.$X@XK.D.W.W.F.U.L.m.0.=.Y g.4.g.d.R R h h N W W W R U W L P W - * 0 N =.d.m.V.;X%XuX;X;X#X9XK.y.y.w.:XcX%XxX2X1XM.I.#X2XxX1XgXVX-X3XvXY.9.+.K.0X<.{ ).H.y.v.6X<.O.H.6XJ.t.O.O.<. .8 8 y.<.<.y.| } w.$.F G x 6 w B x 5 5 B A S.J.e.k <.J.>.b b v 8 n c B c 5.l &.l l k 6 % 7 F x } | y.<.y.} H.y.G.qX&.y.t.).y.p y.p  .t.v n H.H.<.y.R.Y T S L.M R m M f k y L.w l L.0.d &.F.T S w.7 0.6X0.2.6.d.2.R Y 7.q M 2.6 0.d.2.=.! V M 5 D.6XS.H.e.qXL.r.:.Z G.H.F.rXF F.m.6.9.l Z W.U.Q M R p.R 2 $ 5 6XK.f.f.5 M.q $X1.;XU D.a.U C D.W.1.f.2.D.f.! 5 0.m.m D.q 2.9.Q.A >.R.:XxXk.G.E.fXhXpX5.*.q.rXy.b 7X).(.y.y.(.b.J.t.8XyX(.@./.7XzXR.Q.7X'.O...u.F.dXNX~.9.n v.J.;.M k.Z c e.7XQ.G.>.J.<. .O.b.J.5XrXrXrXrX#XM.i.U ~ 8.i.a.p.3.U a.C.;XoX#XXXV.a.a.~ / / i.! R 7.V U ! V ~ 8.7.! Y Y 1.! / 1.7.1.1.8.d.6.! Y ! g.Y.T.d.8.a.g.M.g.V.p.d.Q Y ! 1.Y d.Y.:XT.M.N.Y.Q p v O.v.q.q.D.Y.f.@XqXK.W.rX*X9XwXwX*XY.@XK.K.=XwXpXdXdXwX6XR.K.L.U.*XwXL.U.K.L.-.Q 7.D.M.q.Y.6X=XD.7.! 4.8./ 1.V.",
" X X+XXX XXXXXXXXXV./ ! 8.! m U U ~ 8.8.! U N N U / ~ ~ U R ! 1.8.! / ~ R Y m 2 0 t e m =.Y Y V R Y V V V C d d q q q q e e q f e q 0 0 * * * + + o o X + o o 0 q 1 3 3 0 2 * * 0 0 & + + + + # + + # + + # # * # + & & # # # # # + # + # o X X o o O O o O O X X . .       . . . O O . o # # . o # O o o o o o o . . .   . .                 . O o o o o o o o o o . . . . . .     . . . o O O O . . O ; E _ j.+X:X#XoXU.W.$XoXW.W.@XW.E.W.E.$X9XW.F.G.J.J.H.v.!.I.E.$XW.F.F.H.G.G.S.S.m.D.K.q.4.f.7.4.e e W W R / / / R 7.3.4.p.p.i.h g t e S 2.0.U.oX=X=X@Xm.G.D.tXR.9.f.S.E.fX;XiXgX2XW.R.+X>XVXgX3XZXIX3XvXR.[ O.!.).u...).l.<.b.l.G <.t.`.rX).v.a X.b 9 a ).J.J.*.c F w.;.$.=.$.6 6 7 y y 6 F Q.yXQ.A v t. .e.v.<.*.A *.B x J.F G l l 6 5 5 7 y x k.H.H.*.x A  .<.| H.5X*. .G.J.} H.<.| J.y.8 ).e.,.J.9.D.l < L.1.q C 3 6 z Z 0.L.Z 0.d.D.k f.L.9.R.7 2 9Xf.T D.U.0.R 1 R m Y 2.w W.D.C 6 S 6.0.B 2.R.S.e.e.R.$X9.6 A *.t.6XtX&.T ;.&.D.2.F tX6.S.m l Y m % 1 f W.P.P.@X6 p.Y 0.V / N g.3.e V m.Z.~ S S D.L.=.Y 4.=.2.d.3 F.F.Q.9.e.tX:X-XS.G.L.dX$XmX<.y.G.zXt.} y.H.t.t.b.u.t.'.t.(.7X6X..@.'.tXnX).G.lX`.....H.Q.lXc.=X6X=.D.3 @ 4.5XS.,.H.7X).7XlXnX=Xt.J.J.v.6XNXnXmXzX0X:Xp.R V -.Y i.XXV.C.XX1XXXN.V.XXV./ 3.p.R ~ p./ 3.U U R U N ! 7.7.M.s.V.V.! Y 1.1.1.1.8./ 7.1.! 8.C.Z.V.p.8.N.Y.d.8.1.1.Y C C ! R U Z.oX@XY.W.9XL.G.c.G.G.e.:.w.w.S.S.E.m.L.lXtXqX9XT.,X>X9X6XK.M.@X0XsXsXpXwXdX9X=XU.U.wXY.M.M.D.K.2.f.M.@X7.M 2.D.D.M.R ! 8.7.=XwX",
"+X%X+X+XXX+X+XXXT.p.1.1.7./ U R ~ 3.3.~ R R U U U ~ ~ ~ ~ ! / p.1.! ! Y Y N 3 % 3 h N V 4.! V C C l C V C m f d q q f f e 0 0 0 0 d f e 2 * * = & & # # # # # e q 2 1 = 3 * % * * 4 & + # & * & + + & # + # & ; & & 0 0 ; ; ; * * - + X & # o X # # # # X X o o & - - & # .   . o O O . X X X . O & # O o o o o O .       . .               . o o X X     . . X . o o .             . . X X X X O X X & E _ C.#X;X0X0X:X@XY.Y.@XW.W.U.Y.W.W.$X*XR.L.U.R.H.H.J.J.!.W.$X$XL.J.R.G.S.G.G.G.F.R.F.S.d.7.V m N 1.R R g.g.7.4.7.g.l.g.f.M.g./ W W 4.9.f.w.R.D.=XF.Q.G.w.G.S.6X9Xm.F.G.$XvX,X2XxXiXY.K.oX,XxXxXgXZX2Xp.F.y.>.H.k.BXv.J.).,.{ O.J.O.u.t.F.`.(.t.n  .8 8 8 <.7Xv.| 2 S M z l M 6 l x < 6 < 7 *.y.G.v | >.b.*.,. .} <.y.;.y I.M x l 6 T w % < k | 8 7 | <.n v *.(.*.c y.H.y.,.,.} c y. .y.). .*.6XZ 7Xw.D.-.@ w @X3 q w M ;.w.f.F.2.9XT d.;.S R.D.2.T 5 =.$XM 0.2.6.! 4 m 1.w 0.&.F.6Xq.F D 0.F.L.e.e.`.o.Q.w.G.S.z F 9.y.K.=XR.9.;.=.E.2.=.F.F L.S w ! C % q m $X@XoX$Xw S Y D D ! V R M.d 1.K.7.N m D.6.d.=.7.Y 1.f.m y f.&.G.q.e.tX@X,XW.Q.dXK.=XzXA H.=XzXt.y.,.b.b.{ t.t. .'.b.b.`.MXu.9 @.v.).lX!.=X6XyXJ.>.(.(.).M $Xq.Q Y $ 1 M F A c *.J.J.6XrXNXNX7XJ.H.G.Q.zXHXnXfXfX@Xq.S 2.d.C.-XXXM.XX1XXX( ^ a.XXoXT.;XT.g.3.W R ~ R / ^ 4./ R 4.p.N.OX+Xp.! Y / 1.7.p.g.V.7./ ! V.s.p.d.8.1./ R R 7.d.8.7.8.a.=XV.XXXXP.9X,XwXR.G.6X9X$Xc.:.9.J F G.F.e.9.=XW.tXrX*XR.6XzXvXsXpX@XwXzXzXcXhXfX:X9X9X=X9XwX$X9X9X9X$X$XY.eX9X7.2.6.2.@XE.0.Y 4 f 1.",
"OXOXOXOX+XOXOXOXK.7.8.7.8./ U U ~ / ~ U ~ / / / ~ ~ / 3.8./ ~ ~ ~ R V d C q * 1 h U h C ! Y U U m 4 d m m m d f 0 q d d d 0 3 1 0 h h d 0 2 * * * & & = & # = d q q 4 = = * @ + % * + + * 0 e t 0 ; - & o # # + + + * ; ; - * * ; 0 # X # & & & & # o o o o O # & r h g r & # & & - - o O O # O o O o o . . o . o O o .   . . . .             . X . . .       .   . X .         O : : & O X . X   X o & ^ C.;XwXeX:X9X:X@XL.W.@XY.T.@X=X$X=X=XY.L.W.Q.G.H.F.L.U.E.*XL.D.Q.Q.R.R.J.J.F.G.F.G.S.S.m.&.F 2.0.D.0.2.k.l.2.0.p.P.M.L.K.D.D.K.0.d.L.G.U.U.J.F.S.Q.F.tXF.G.S.w.eX9XD.R.K.Z.vX1XgXgXiX#XoX#X1XiXcX>X9XmXD.$X0Xe.O.m.W.y.6XJ.,.8 H.`.J.Q.6XW.R.7X).} | v v c H.R.S.T M 2.y w Z k z =.6 < y B &.A 8 } v.,.| v , v < } S.H.| | x 5 M @ w l < < y F $.c 5.6 w.y.v } >.X.8  .,.H.y.t.8 ,.*.7  .,.G e.$.:.2.K.Y.! 2 ! 4.d q l F F 9.2.l d.D.Y B l S.E.S Z 1.S D.0.T 2.Q 7.S Y M.1 -.;.Z 9.F M m 9.=.D.Z ;.`.A ).6XL.2.| 6 r.e.0.E.$X2.2.M ;.5.D.R.f.k.T l =.m % 2 ~ W.6XK.K.M V =.M =.m M Y p.U M.1.R h d M.Y $X$X4.C 2.Y d =.0.x :.9.2.M 9X$X@Xf.E.f.6X&.c X.G.9X,.nXF.).`.b.t.(.O._.8Xu.H.HXrX7X......'.rXmXF.6X`.b.H.H.k.D.7 D.Q N.g.U 5 D.v.F p o.J.e.e.v.O.(.`.b.v.J.O.<.tXwXwXmXwXq.R d.+X4Xh.Z 1.XXA.~ i.i./ i.h.XX>XXXj.~ 8.N./ j._ ! 7.R =.R p.T.B.C.XXZ.C.Z.C.V.Z.s.7.8.! ! / ~ Y 8.1./ i./ p.Z.P.P.OXV.;X;XOX;XP.=XsXvXzX=X=XT.wX9XE.@XL.;.S.Q.y.<.d.U.=X@X9XS.e.Y.cXvXzXL.d.E.$XwXvXvXzXpXpXdXzXzXwXwXdXdXpX0X@X*XpXzXwX9X@X@X$X*X=XL./ / ",
"OX;X;XOXOX;X;X;XP.7.1.8.8./ U h U 8./ ~ i./ U U / / / / 8.R U U Y U C N C 3 3 0 C h 0 m ! D N d f 1 d m V m d d 0 q f d m e q 0 f h f d q 4 * * * # & * * # * d q d q 0 * * % % + @ + * 0 h h 0 - * & + X o o o + + # # * & * & * & & & & & * ; & o X o & # o o = * * * - = * * * - - # # # & O o O O O O o o O . . O O o o O . .             . .       . .     . . . . X # : : r E ^ P g ; : & # O # g  X-XpXeX*X=X*XY.L.U.T.K.W.=X@X$X*X@XY.U.Q.R.F.H.H.J.Y.oX%XT.!.J.H.G.F.J.R.R.J.R.!.G.G.v.v.v.e.S.D.w.k.9.F.I.9.k.d.f.0.D.k.m.U.F.v.w.D.R.R.Q.H.v.v.R.S.E.6XS.H.S.D.,XoXL.W.oX+XcXuX3X3X2XqX;X,X1X;XE.;.q.jXL.jXrX+.+.).J.v.rX6Xv.{ H.7XF.6XwXtX$XtXG.n o.v n y.y.9.e.T &.y k $.$.x F M k k &.*.<.c  .y.>.A >.7 p b x ).).;.z $.6 2.@ < M 1 5 6 6 5.$.k.G.S e.y.v n y.} } ,.,.y.b.9 b J.} p X.o.r.;.G.M d.*X1.! d e e 3 T F x l w.w D.7.8.$.5 =.L.Q Q d.S 2.f.0.T 6.1.R 1.L.4 Z z G 9.S &.D R.;.f.F.5.k.y.H.tX2.2.w.G x X.0.E.E.L.L.S 6 f.5.D.5.f.2.M Y m 3 + ~ I.Q.q.! T B ;.k m.z q ! =.3.7.d h h e D./ @X$XR Y m =.m l k.7 G S.4.T E.m.iXK.E.G.Q.&.X.{ 9.wX| nXR.G.Q.'.<.(.O.u.'.@.b.NX9XDX .[ #.(.rXfXrXkX8X<.y.yX~.U.f.2 =.M.R q 4 x ).H.| 6 S.b.y.'.v.v.J.t.O.u.@.t.Q.nXvXvXmX9XR h h.4Xh.k z / ~ R 8.~ U / _ +X>XXXZ.Z.OX;XT.oXC.d.4.7.p.4.7.T.Z.C.XXC.C.Z.oXXXg.3.p.4.~ / s.i.i.d.a.C.Z.j.7.Z.#XZ.XXP.XXOX;XaXC.s.,XOX0X@X=X#XhXcXcXhXpX9XL.G.e.<.o.:.U.U.OXsX>XM.0.E.L.D.0.U.E.U.eXwXaXaXzXpXdX*X*X$X:XpXpX0XsXsXpXeX>XpX:X$X=X9XE.@X@XZ.",
"+X-X<X<X;X;X:X$Xs./ 8.8.i.~ 0 t ^ s./ _ / U h U Y U ~ ! V V V Y V C Y Y N h h h t 0 t U / U m d f f V V m m d q 1 q f f q q e e f 0 0 h 0 * * 2 % % % = & . * e q f e 0 0 2 * & # # = ; = & # o o o X o + # * & # * ; * & # # * & # - * & & * 0 - o o & h r # & + + + & & & - & o & # # # # & - # # # # # # & # o o # # - # & # o . .       . .             . .     . O ; P i.s._ C.XXXXC.V.V.C.N.8.8.K.wX9XwX*XW.U.K.q.m.K.Y.U.@X@X$X*XoX@X$XW.!.!.W.D.W.W.$XE.H.J.J.H.H.H.R.J.H.F.R.J.J.J.J.J.J.J.v.H.G.y.F.F.F.w.v.G.e.c.G.S.w.v.G.R.G.Q.Q.J.J.Q.F.F.y.H.H.G.=X,XY.F.v.y.wX%Xc.G.v.Y.>XxXgX>X1X%X,XY.H.J.{ y.J.7XK.eXQ.+.>.rXS.`.7X).O.a ).H.b.'.6X`.v.rXF.x c 8 <.5.y S 5 L.-.y 6 o.6 n <.| a o.X.y.8  .H.>. .{ y.v >.*.,.J.o.5 w $.f.< < 1 % 5 < < G 5.x A <.p e.J. .x  .<.} O.).dX=.9 >.(.*.G S.0.*XC.h %.T.-.d 2 @ -.M &.D =.F -.0.L.I.V 2.M V L.D.Q 2.D.-.5 d.=.L.Y C =.L.< =.w.G.Q.T 9.4 $XS 6 S.$.$.f.K U.w.D.R.k.B *.F F.&.U.U.tXM D.9.&.2.2.T d =.q 4 2 l D.E.2.=.S l 8.=.K.1.7.Q M ( h 0 0 t q c.&X@X! 8.3 Y M.1 Y $Xw w C q =.M.:X*XtXG.y.D.F.,.B ;.rX;.J.H.J.H.yX).7Xu.n.8Xt.H.NX7XnX6XrXH.y.H.J.`.v.8X_.+.7XnX6X6XG.% R P.R N 2.k rXR.v.A 8 y.J.8XJ.w.6XQ.G.6Xe.<.6XmXfXdXrX$X7.3.Z.K.0.4./ U U ^ U U ( a.#X#XXX+XV.i.V.V.OXiX>Xs.U s.7.N.M.a.p.! ! ! ! d.V.p.p.d.~ V ~ p.Z.Z.p.p.a.V.V.a.i.T.p.B.XX>XpX0X9X*X4.r.H.R.D.y.H.F.R.R.!.m.9XmXwXwXfXN.q.!.6X$XF.W.9XM.0.K.@XL.E.$XD.G.G.c.=XcXgXVXvXcX>X;X0X,XpXwXwXeX=XeXwXwX9X#X:X=X=X=XOX",
"-X<X>X>X;XOXoXg./ 8.8.8.8.U 0 g / _ R / ~ h N U Y / / ! U V U m R R / ~ U h N h g 0 f ~ p.m m V V N Y Y V C m d q d d 3 3 3 3 0 f d q e * + @ 0 d 5 3 * o X * 3 0 0 0 0 * * * * # * - * + X X X + # # # + # # + * 0 0 ; 0 0 0 0 0 * * & - t - * * # & ; h r & * & * & - 0 - * = & & # # & & * & & # & & & & & - & & # # & & & & & o X     . .   X X .               O & L / p.7.C.OX;X;X#XT.T.+X;X#X@X*X*XW.=X@XU.Y.L.@X*XY.Y.Y.@X@X@XW.Y.W.E.Y.R.Q.U.W.W.W.R.U.J.J.J.H.H.J.R.R.R.J.R.J.J.J.J.J.J.Q.Q.R.H.v.S.F.G.v.v.v.v.v.v.v.w.w.F.Q.!.Q.Q.F.F.!.R.R.H.v.H.v.D.9X=XU.R.S.L.aXF.S.H.G.M.0X1XiX;X0X@XG.<.J.t.v.).<.qXsXzXO.{ (.lXJ.rX6Xb.u.J.7X>.o.7X7X`.A e.v H p $.e.$.$.M z D x z c 6 v ,.G } X.} <.b ,.v.y.{ 9 X.b *.| c 8 F y 4 T f.< 5 < @ 6 6 z y y 7 c | 8 X.7X).y.8 y.X.p y.rX$X{ v v.G.:.<.e.@XfXm x M.8.h 2 % Z D &.S =.w.2.M.;.;.L.V S m 0.;.0.M 0.7.m f 4.D.L.S 0.@XM =.w.F.F.5.;.z G.w.7 z B F D.x 9.;.F.G.;.r.5.G =.6 D.6.m.;.&.&.9.F 0.Q l 7.3 m m w f.E.9.D.S w l 2.f.1.K.6.l 8.h N 2 + d U.:XN.7.Y q d.p.4 ! M.q V -.l K.qX:X:X6X,.<.W.E.,.e.m.mXe.y.).!.H.7XH.J.u.`.lXu.(.nXtX6XtXtX).e.v.v.`.Q.~.(.{ v nX5XyXv.H 6 2 ! 8.U.A k.S.9.J.A o.R.6X} :.v.).7X6X`.e.<.tXtXzX9X@X#X/ ( V.M.R P h U U R U ~ i.C.C.XXOXB.U h R / V.;XZ.~ 8.6.0.p.4./ Y Y R ! V / a.p.7./ ~ ! p.Z.Z.p.3.i.a.T.XX8.3.p.3.3.i.oX>XV.C.1XOXdXAXgX*.D 0.F.L.F.q.U.qX$X9XmX9XK.Q 0.Y.D.q.P.@XwX*X*X@XK.W.=XP.Y.U.E.0XvXvXcXcX,X,XpX>XzXzX0X9X9X9X*X=X=XfXdXdXeX9XeX",
",X>X,X,XXXN.p./ / 8.8.3.8.R N U ( ^ h U U V R R ~ ! / 3.R N U N ! / R h N h h t 0 * 0 h Y d V ! V N V Y Y V N f q q 0 2 3 3 1 0 q q q q q 1 4 m R m d = + + 2 2 0 3 = = * * * * * 0 0 0 * = * * * & + # & & & + = ; 0 * ; 0 r r 0 2 2 0 h h 0 * 0 - * & 0 ; * - = - - 0 0 0 t 0 ; - - - - - - # o # & & # # # & - - * & * * & & # # # O O O .   X o o .           o & g a.Y.R.J.6XrXwXsXpX*X=XOX>XeXeXtX=X@X=X=XY.=X*X=XY.K.U.K.K.Y.W.E.W.W.W.W.U.W.U.W.W.W.U.R.!.J.J.!.!.!.J.J.R.R.R.J.J.J.J.J.J.J.R.J.J.H.G.G.H.v.v.y.v.v.v.J.R.H.J.Q.R.!.H.F.J.H.Q.Q.Q.F.J.G.G.E.9XE.$XR.0.L.=Xf.k.y.y.0.9X,X#XY.6XH...t.+.<.Q...r.dXDXwX,.[ O.7XQ.Q._./.t.5X).{ 7 e.6X5Xk.| 6 k z | &.$.;.l 6 M B Z o.} >.&. . .X.*.b y. .} a v p 8 ,.<.$.7 G Z , $.F.5 D 3 < < k z T M 8 y.b v b H.(.).H.J.<.v  .I.tXH.$.*.y.v.>.c T 9XK.F N.! d @ q C Z ;.S.&.L.6.K.F.M @X! S 5 f.T 0.T l Q -.R 0.D 0.1.=.D.T F 9.k.9.R.S.c <.H.<.7 x Z Z z ;.F S.e.D.;.G y Z 7 m.W.m.2.z 6 T M =.M -.1.M Y V 4 q.E.2.L.l M Y 7.E.1.L.2.m ~ N ! 2 0 ! M.d.1.d.e M -.7.m V d q V R 4.D.*X@X:X$X| o.rXf.} ).&.J.5XI.tXtXe.(.b.J.O.6XkXn.(.yXrX~.kX6X(.J.H.`.).Q.tX`.t.a &.A yXJ.v.G.S @ M =.6XG.S.y.6X8Xn :.7XJ.k c v.H.J.J.).v.H.tXzXzXrXwX+XW 0 E 0 0 h ^ E 8./ R P E / V.C.a./ p.XXZ.3.a.V.3.R Y ! S Y Y R ! Q 1.1.1.7.d.7.1./ / 8.p.p.Z.Z.8.3.V.P.Z.g.d.S C R a.1X1X%XgX-X<XFXFXQ.d.d.m.@Xm.D.M.=XwX*X:X$X6XL.6.$XzXaX;XXX;XOX,X0XpX,XpXaXiX;XT.T.zXAXsX0X,X*X:X+X;X:X;X:X*XE.$X9XM.M.@X:X:XT.C.",
"1X>X#XoXg.8.8.s.p.3.1.3.8.! / ~ C t f U U R R N h R ! ! d m Y V ! ~ Y V V N h h 0 q d V Y C C C 3 d V C d d h d q q 3 3 q 0 3 h m q q f d d d m V d f q 0 * * = 3 3 1 1 1 1 3 0 q q 0 0 0 * 0 t t 0 * * - * 0 0 r ; * * * * t g e 3 t U U U g * * ; ; ; ; - * - 0 0 0 0 - t h 0 0 ; 0 - & & - & o # & & - & # # & & & * 0 0 0 0 ; 0 ; & & & O o o # - # .     . o & g 8.W.~.J.J.H.~.~.*X9X9X*X<X6X6X=X=X=X=X*X*X$X@X$XY.M.M.K.D.L.U.K.E.L.K.U.Y.Y.W.@XE.U.E.F.!.R.!.!.!.R.!.J.!.J.R.Q.J.H.H.J.J.R.J.H.J.R.Q.R.J.J.H.v.v.b.J.H.J.J.R.J.J.Q.R.J.Q.J.H.R.Q.W.E.R.G.!.L.9X9X$XL.*.*.M.m.w.v.v.y.=.qXW.R.D.v.u.b.u.<.6Xu.n.O.6XsX5Xt...b.H.!.b./.J.H.7XyXv.< >.k.;.:.H A B :.q.=.&.z 1 Z G c G | A A | ,.y. .v ,., , 8 v *.<.*.y.8 } A Z 7 l E.S M 5 l < l T w =.| J.v v 7 y.v.| ).8XS.*.v y.F.tXy.:.G w.G.y.T 9.6.D R Y m % d T -.M Q.0.K.T M.K.F 2.2.L.l f.=.-.T l z l S.9.Z l 2.M 2.Z M :.R.z ;.L.A } A e.8 x G z < 6 ;.v.:.$X2.0.z 5.S e.f.R.0.S x F F S S Q ! m Y 1.l 2.9.0.f.Y 2.M 2.@XL.f.D S h e d q N 4.! K.4.R d V 2.Y q R T D l C R 7.0.@XpXU.H :.nXD.v J.8 ,.7XH.nXkXR.yXb.`. .'.kXb.b.7XnX6XrXtXb._.y.(.H.e.7Xt.H.<.< 8 e.y.).7XQ.D.6 6 q.F.&.c 6XkXH.x <.8XtXo.).R.).J.H.).y.G.6XzXtX9XwX:XE P P U 3.s.3.3.i./ e h i.C.XXV.g.P.+X,Xa.V.p.i.p.R R V M M R 2.2.1.7.! / 1.V V R / 3.3.3.8.p.V.8./ 3.3.! 3.! 3.M.P.OXvX1X2XT.P.9XcXwXE.9X$X@Xm.L.M.f.wXdX:X*XdXwXD.D.:XgXCXvXcXcXaXiXcXcXvXaXvXaXC.( V.dXhXzXfX0XsXsX0XpX0XeX*X*X9X9X=XZ.Y.C.:X0XOX",
"iX;XP.p.3./ / s.p.3./ / / ! / U 0 * h U N h N N h U ~ R N ! ! ~ ~ V Y ! ! ~ U ~ ~ ~ ~ ! Y N d d % m R V d d h f 0 q 3 2 3 4 3 h h q q N d h d d Y l f l l q 3 4 q 0 0 q q q q q q d f t 0 0 0 e h g 0 0 t h h h h * * * * # * 0 0 * 0 L U h r * * 0 0 0 0 0 0 r L h r ; = * t t ; * * # # # & & & * # & r - # & - & # * 0 0 * 0 0 t t & # # # & # - ; - O X o : j / M.U.Q.J.H.S.G.!.U.@X*X9X9X9X9X6XW.W.R.~.=X=X9X*X*X=X=XU.K.K.W.@XF.E.R.E.E.E.oXoXoXU.E.W.R.L.Q.R.R.R.R.!.J.J.!.J.R.J.H.J.J.R.J.J.H.H.H.J.J.H.J.J.J.J.J.J.v.G.H.H.H.G.Q.J.H.J.H.G.H.Q.$XW.R.!.J.L.K.iX,X$X*.{ y.I.G.,.<.b.y.,.Q.y.Q.G.t.y.@.t.H.H.t.+.+.rXtXv.n.(.5XJ.b.@.n.yXrX8X7Xy.} 9.F.z x $.Z Z ;.F M w l w c | c n n n | <.X.,.X.H. .8 { 8 X.e.*.b p *.*.x x < q.T 7 @ M 7 < =.6 | e.H.*.| 8  .X.9 o.H.y.,.{ >.<.I.S.F.F x &.e.w.k.d.S =.! ! l M 2.;.Z S.G.w.0.m.7.7.6.F 2.D.0.T f.=.=.F y =.w.5.M =.T 5.l S $.Q.;.M G.5.:.c ,.8 6 &.Z 7 7 :.w.6 S.S.f.z *.&.9.0.D.L.F F f.S l D M 2.M M 7.D M z ;.=.=.T 5 -.D.$X0.V 7.C e @ Y Y ! =.D.Y T D 4.0.1 d ! 2.=.C R p.M M m.fXw.Z e.nXS.o.:.F v.).`.rXR.lXnXv.rX{ 7XkX6XH.8XNXrXrXnXt.).G.G.`.y.7XH.y.8XZ x <.G.| y.).tX2.&.H.G.G.B y.tX6XH X.H.tX`.y.Q.6X7Xe.<.6XQ.6XlXnXwX=XwXP.g t R 8.i./ R R / W / s.C.T.V.p.p.C.XX8.a.a.a.Z.V.3.4.! V R 1.Y Y 1./ ! / 1.3.N.P.g.3.p.Z.Z.T.V.p.p.p.~ / 3.XXoXXX3.C.0XcXpX:XwXfXdXoX@XY.K.d.@X9XP.9XdX0XeX9X9XK.8.g.%XgXhXiX>XuX>XOXT.;XwXzXhX;X1.N p.oX:X0X,X0XsXpXcXaX>X9X#X;XpXcXsX:X;X+X0X,X",
"#XC.p./ i.8./ i.3.! / / ~ ! / h 0 f R ~ U h h U U U R ! 7.d.! C d d m ~ 1.1.~ ~ ~ V C m m q f d 3 V ! C m m m 3 % % % % % 1 3 3 1 0 h f 0 3 4 % 0 f f l M l d f h d f q q d e d w f f e e h f 0 t g g t e h e h h 0 t 0 0 * 0 t * ; 0 0 0 0 0 0 0 r r r r r r g P g t 0 0 * * 0 2 2 ; * ; - * * * * & & - ; # * 0 * * 0 ; * & - ; r r 0 ; 0 ; r r g g g g L E h.T.=XE.!.!.F.U.d.w.9.G.K.Y.*XW.E.*X*X9XrXtX*X9X,X,X*X=X@X9X=XOX=X*X=XG.G.H.W.E.9X0X:XoXL.E.R.R.L.R.R.R.R.R.!.!.F.J.!.J.H.!.R.J.J.J.J.J.H.H.J.F.H.J.H.R.J.J.H.v.v.G.H.H.H.J.R.J.G.G.H.G.R.$XE.W.Q.F.I.E.;XuX9X5.{ { ,.y.>.} X.O.<.y.).F.I.H.,.b.u./.!.H.l.@.t.Q.9Xv.y.qX!.b.b.+.<.R.J.v.R.Q.k T c.S Z &.Z w F =.l q 6 7 A *.c } X.,.H.} (.t.{ { 8 { a b.v.{ b p y.y.y A x &.B w < y Z z &.5.8 H.H.G.;.>.} X.a v 6 v.<.} | H.S.| v.6X;.T M $.L.0.F 3 l V m l 2.2.0.G.6X6.f.$XD.V &.S 0.R.Z V D w M ;.&.l =.D.6.=.2.0.2 6.F F.q.=.9.&.R.$.=.w.c G.e.l y x e.7 $.R.S.| F G =.l 9.9.;.F ;.7 S =.Q Q T w M Z F G F S -.! S 1.D.$X-.V 7.e 0 * 1.! oXd V =.f.M Z M 4 =.1.D.K.0.Y 7.Y Y.Y.wX=.k R.rXF.,.:.G.y.b.`.J.v.rXI.F.nXa (.I.yXH.nXnXrXrX6XH.rX6X~.~.). .'.{ 7XnXy c R.G.} v G.rXH.S.;.w.*.y Q.NXJ.x <.w.rXG.R.H.J.tXw.e.6XR.Q.nXtXzXNXwX;Xa.R 3.p.i./ R a.Z.a./ a.V.g.! U / g.i.C.T.s./ a.p.! p.i.1.7./ 8.d.d.8.s.g.g.V.Z.g.p.g.p.8.M.Z.Z.Z.Z.p.8./ XXXXV.C.3.XX#X0X2XcXvX$X#X@X@X*XU.U.9XW.W.rXwXdX$X=XwXN.#XgXiXaX>X0X0XOX>XXXa.~ M.#XaX>XT.Z.g.P.K.M.OXiX0XcXhXaXmXpX,X>XcXvX>X>X>X0XfX",
"T.8.i.8.i./ 8._ / / 8.1.R ! ~ N 0 d U ~ E ( / ^ W R 3.p.g.d.R q 3 m R ! R ~ C f f f d d C V C M f C m q q d d 3 * * * 2 * 3 e * @ * 0 * % + * + 2 d d q q f d m h d f q f h d d d d d f e f 0 4 0 0 t t h t * 0 0 e h 0 0 t t g t r r t 0 0 0 0 r j r t 0 r 0 ; r r g 0 ; 0 0 t 2 0 0 0 t 0 - * * 0 j r & - - ; j j h j 2 ; * * * r t r r g g h g h h L ^ / ~ d.K.D.0.6.6.=.e.k.F.S.S.S.U.!.e.9.W.=XwXwXwXwXeXdXdX$XY.K.W.9X:X>X9XQ.v.v.H.!.R.wX9XwX*XE.U.R.R.R.R.R.R.R.R.R.R.R.!.!.!.H.J.R.J.H.R.J.R.!.J.R.J.H.J.H.J.H.H.b.v.H.H.H.H.H.J.J.H.G.H.H.G.H.Q.R.R.=XE.R.Q.@X,XiXq.O.a { *.y. .O...O.y.`.6XI.<.O.{ t.(.6XH.O.@.@.J.AXR.b.rX9XH.).(.n.v.t.O.x k.:.l 9.5.F F T z k T q 3 5 < 8 k c *.y.,.v.b y.J.a 8 X.t.v v.O.p  .8 >.y.v v c $.y 2 6 G Z G :.R.y <.v.L.e.y.H.{ 8 A @ y.e.q.| G.R.y.$.E.@XT l T 0.0.=.1 3 q w 4 $.F.;.} 6XwX2.6X9X2.Z M 2.2.w 1 Z l l &.S l T Y.f.2.=.=.2 w.=.D.R.9.A M G.&.B 5.B G I.=.T x F x | y.G &.F F 0.w f.2.D &.9.6 T 2.=.l =.l D S S ;.T 6 0.=.T Q 6.$XS M S 2 h 0 8.-.M.d =.2.E.w =.M M T =.d.U.! Y 0.d.K.K.W.R.;.| 6XJ.,.e.).<.H.H.t.y.8XI.Q.rX..H.G.yXy.yXzXtXrXD.`.nXrXE.Q.yX .`.O.>.R.,.8 e.G.H.| y.tXG.v.k f =.9.9.nX).y.v.w.nXHX~.<.e.,.| c ,.8X6X6XR.R.NXzXMXOX* h / a.p./ / / j.a.i./ 8.~ U R P.Z.g.V.V.a.g.g.8./ a.j.V.Z.V.g.V.Z.Z.g.1.! 3.p.p.3.! R / 3.8.! 3.g.a./ g.pX>XOXV.XX;X@XpX9XaXL.M.E.M.E.w.;.D.F.9.Q.Q.*XY.M.eX=XV.oX&XuX0X>XiX;XsX>X>XP.OX;X#X+XXXV.p.@XpX:X*XsX>XiXiXiXzXfXaXsXaXcXeX0XiXOX0X",
"p.~ i./ / ^ 8.8./ 3.p.1.~ Y V ~ V V ~ ( s.i.i.^ / i.g.M.7.7.R 0 3 N V V Y U f t t e e m V ! Y m h d 3 2 q d d 4 2 h h f e 0 0 2 2 1 * * + + = 0 e e e 4 % 3 3 3 3 3 4 = 3 f 0 q d q d f e f 0 - t d h h h 0 + * 3 g h * 0 t ; r t t e t t h g 0 t j h g h P j 0 r r r r t 0 0 r e t t t t e 0 0 r h h j 0 r 0 ; g r h h 0 t t 0 ; r r g L U P U L U L L ) s.3.M.m.f.d.8.8.T ;.w.L.G.9.q.F.w.;.0.F.W.tX6X6X9XU.tXfXqXE.F.!.=X*X@XR.H.y.>.<.e.!.6X6XtXrXQ.R.!.!.!.!.R.Q.R.R.R.R.R.!.!.J.!.J.R.H.H.J.R.J.!.J.J.R.H.J.R.R.J.H.b.v.v.G.H.H.G.H.H.v.G.H.H.H.G.F.Q.m.R.R.I.$X:X,XxXE.y...O. .y.<.n.O.+.t.y.6XH.J.H.9 s ..).yX`...u.t.6XAX5.n.rXQ.y.<._.7X7Xy.8 G <.x M 2.$.T Z T M T d < 6 K A c <.X.t.b.>.8 v y.{  .O. .} y.8 } e.,.R.6X*.v A y 2 < < :.:.v.G ).;.>.H.wXw.k y.,.}  .n y k f.e.e.;.p G.w.U.K.T T T D k.Y % Y =.w l G.R.v 6 D.M D.wXd.;.=.&.f.D C l z 0.2.M M Y D V 2.1.Y M 9.9.0.9.&.6 c S.,.A <.| M D.S l k k G r.;.H :.Z Z :.F 2.2.M r.=.x &.2.=.l T D M T $.S.w.M =.6.T M S f.S V 3 h R U M.l 7.d ! R L.M 0.T =.-.2.K.R q Y V ! M.p.E.w.B &.tXG.>.k.F.*.S.v.<.O.(.J.F.F.u.H.6X).,.7XNX5X8Xq.e.tXnXwXe.H.t.J.'.v.} G.8 c } 6Xy.e.`.H.9.r.k ;.&.&.6XA (.).*.Q.fX!.o.*.).,.y.n J.tXnXrXf.D.zXzXsX/ U U ^ ^ ~ ^ h U / / 3.p.Z.8./ 3.V.g.i.a.g.Z.XXV./ 3.V.Z.XXZ.i.i.V.V.p.3.4.1.3.3./ / / U R ~ U U 3.V./ 3.M.*XY.oXK.Y.g.OXpXaXaXiXdX*XOX;XT.Z.M.6.Q C 2.d.M.K.K.s./ U a.;X0XiXoXaX,X1XgXsXsX>X#X,XpXT.Z.T.:X,XXXV.>XsXXXoX>XcX>X,X,X0X,X,XXXOX",
"8.8.i.( ^ ( i.s./ / 3.3.U / / / / ( _ ) _ s.i.( _ s.B.V.1.1.! d 3 d h f N h 3 2 0 0 q q d m m V d 4 q h d e e 0 0 h h h h e e 0 e 3 3 0 * * 2 e 4 * 0 e 0 d e q 1 = * @ q 0 3 e d f h m h h h N f h t 0 0 ; - ; ; g r 0 g L h g f h h h h h h t t t g r h h h h e g t e g e 0 t 0 0 g t t g t 0 f h h h h j r r t t t h h h h r 0 g j P U U E E P U U U p.V.d.M.S.F.R.W.R.w.D.f.9.c.m.m.L.D.9.F.G.R.6X=X@X!.S.R.wXW.v.v.v.!.I.J.J.y.y.y.e.b.J.tXQ.`.rXQ.R.R.R.F.U.U.R.R.Q.R.R.Q.J.!.J.R.R.!.J.R.J.J.R.R.H.J.R.R.H.J.J.J.J.J.G.G.H.v.b.b.v.b.y.v.J.H.J.v.H.H.H.H.v.y.H.@X,XiX@X0.+.t.t.u.(.(.+._.@.b.y.G.H.y.,.[ p { 6X).+.y.)...7XhXv y.nX8Xw.(.J.`.J.G.G 5.=.M D q.Q G 2.V M h % 6 c } X.H.,.>.t.O.a p X. .b...{ {  .9 p v y.y.y.A :.A 6 < w < :.9.Q.} 4.F.x v D.tX5.e.*.{ X.9.8 , <.w.y.F z e.| F.R.D.M =.3 C T 1 l F &.T S $X-.k ,.c Z ;.W.6.&.l d.Y V 2 5 M T ;.S V m M R 7.S F z G e.$.;.B 6 :.>.k | 5.5.5.M M F Z G f.2.S o.G | Z T f.w.&.n Z G :.6.-.Z Z Q T l &.0.2.2.l ! =.M Y =.S m 5 C V -.=.l =.l S =.=.w 2.=.T 0.0.K.m ! K.q.D R V 2.Q G w.L.R.*.k.e.G *.*.y.| H.R.~.5X..t.6XF.X.(.eXQ.5XtXb.).fXmX`.A y.(.'.(.v.Q.A 8 x y.5Xk.5X8XH S.Z D M 5.R.F.v c.e.H.).H.z < S.H.G.9.H.J.7XrX7X6XrXdXvXxX/ h R ( E R i.3./ ^ / 8.V.g.g./ p.M._ i.s.V.XXZ.3.R / s.N.Z.V.p./ ~ ! 8.3./ 8.g.p.p.s.( N.V.p.3.3.3.N N ! d.~ j.#XoXZ.T.0X;X>XaXcX>X+Xs.Z.oX#X9X$X! ! N.d.q.K.#X0X+XV.A.OX,X+X>XsX;X,X>X0XAX>XOXuX&XOXs.s.C.;XZ.XXcXsX;XXXiXsXaX0X>X+XOX+X:X",
"8.s.8.( ( / 8.8./ 3.~ R R s.3.i.i._ ^ ^ / s.a.a.i.~ / 7.! Y V d d d q e N d @ + * e h d d d d U d * 3 q 3 3 0 3 f h e h h 0 0 e e q 3 * + & 2 0 = = * 0 e m d q 3 1 * % e 0 q f h m h h h N V U d e 0 0 e e t h h h h U U U ~ Y N U U U N h U h h h h j h h U U h h h h U U h N N C N h h h h h h h h h h h h h h h j h P P L h g L L U E U W W U U R 8.T.U.L.L.U.W.W.=XW.F.G.w.q.q.K.m.D.=XQ.W.F.K.U.Q.L.H.y.X.6X*XL.S.v.H.H.Q.J.t.H.W.E.Q.).H.v.6X8Xv.e.F.U.F.D.F.L.R.R.R.R.R.!.J.!.J.!.J.J.J.J.J.R.R.J.J.R.R.J.J.J.J.H.H.H.v.H.H.H.b.v.v.t.v.H.H.!.G.G.v.H.y.>.t.b.e.U.*XQ.v.{ t.t.t.b.(.O._.t.H.J.6X5.H.a u.{ O.y.6XO.v y.t.s aXE...qX6X(.b.J.).J.H.*.z &.S 3 q.&.M 1.m 0 % < z n r.,.y.,.,.t.X.v  .{ { t.v } 9 v } { { H.X.<.A F.8 y 2 6 , S | e.c , Q.:.< c G.).L.L.G c ,.*.< *.9.r.9.*.9.M G.=.D.d M Q m T f l &.Z Z l D.U.| p } c &.m.D 9.Q f.4.=.6 l 6 T S.6.D =.Q M S =.w.9.z =.F M y.H <.G.} A G ;.e.Q M 9.q.x 9.S.T y.| F Z 9.F.w.M :.x ;.9.0.=.F S d T l T w.0.=.D M 1.M =.0.S l Z Q Y =.w m =.T D R l M f.T =.0.T D.m M.K.7.m m M 2.S 6.D.F R. .e.e.:.| b H.<.k.e.rX$X8 t.rX`.*.J.eXL.6XwX8X6X6X5XrX&.t.(.J.<.(.k.y.x X.e.tXF.H.NXD.F.R.q.c.Q.H.:.c p G.G.J.J.:.6 9.Q.Q.S.6XF.R.7XJ.J.6XrXW.vXHX/ N ( / R R / / U ~ U W / g.Z.#X:XV./ U U U ! p.! ! / p.g.g.g.p.! / 1.3.8.s.g.s.g.C.N.a.Z.V.V.Z.Z.i.8./ ,XoXP.#X#Xa.T.OX+XuX;X>X+X;X;XXXZ.T.pXfX,X+X>X;XT.8.! V.=X,XpXpX0X>X>XvX,XU.XX|.>X@X@X0X+XOXOX;XC.iXaX,X;X>X,XOXOXsXxXsXaX2X<XOX0X",
"p.i./ ( _ _ s.8./ 8./ U / a.i./ / ( E ( s.a.a.3.R f h R U C d d d e 3 q h 3 + * 0 h U U N f d d 3 % 3 0 2 0 0 0 h f t f d e d q t e q * & * t 0 0 * # * e e e 3 0 4 0 3 d f h C N N h d h V Y V Y Y V V U V V V U R W Y Y ~ -.R R R R W U N U U h h h h h h U C U V N V W ~ ~ R R R ~ U U U U U h U U U U U W U U U U U U P P P P U U R E R ~ R W U / K.*XY.U.D.W.6XW.W.Q.F.D.F.M.q.D.W.=X6X=XR.R.D.D.H.w.v.>.a F.wX0XW.G.y.t.H.v.v.J.=X@X@X6Xv.v.6X8XJ.J.D.F.W.$XW.L.U.R.R.R.!.!.!.J.R.!.J.J.J.J.J.J.R.J.J.Q.R.R.J.J.J.H.H.H.v.H.J.H.b.v.y.t.v.J.F.E.J.H.y.b.t.O.+.O.t.e.J.y.(.,.y.u.b.t.(.t.'.t.).).`.).(. .O.+.@.l.I.b.O.{ (.t.y.wXO.5XH.u.n.t.b.).).H.x w 0.l M 0.l V V q + % x n y.<.<.t.t.<.<.a O.{ { >.{  .<  .v.>.v ).A | r.F.6 z x < , T G.v.<.7 | nXm.8 b v w.kX6X| | G.<.c 9.R.6Xe.r.| $.&.$X2.f C -.4.M 6 Z M T &.6.W.$.A ,.B =.0.l Q &.1.d.Q m F Z D w.F.f.D M =.D m ;.9.&.G e.x ;.A Z R.G.=.l y S.U.w &.L.&.0.S.-.S.| z Z U.G.k.G c.G S 6.-.S T Z f D l 5.T 2.&.&.m 2.T M 6.Q 1.S Q V ! l Y d.1.R V m V 2.Y f.d.0.6.=.U.m.6.-.d Y =.! D.&.l 6XH.y.Q.G.*.>.v.y.H.w.8XF.n H.tXQ.b y.rXE.6XwXeXR.).J.6XL.t.(.J.X.<.5.G.A ,.e.R.v.:.dX6X2.6XrXS.Q.8Xe.J.r.r.G.H.H.=.T w.Q.9.r.H.7Xe.H.J.G.G.Q.8X6XzX;XV U ! ! U j N h U W U ~ / 8.1.7.V.V.j.g./ Y ! / 8.! 3.8.3.3.3./ 8.! / 3.i.a.i.g.T.V.s.C.+X+X XC.Z.1X+XV.C.+X0XcXK.K.C.C.T.M.oX;X*X:XiXsX>XpX;X,XiX;X;XOXXXh.3.p.oXOXsXiX,X>XaXiXL.s.Z.:XP.K.0XiX0X#XOXXX-X%X1X2XOX-XC.OXaXsXsX1XsX>X;X>X",
"a.i./ _ _ _ 8./ 7.8.! h / a./ / / / ~ i.g.a.i.R U f h U V m d m d 0 3 q f % + 0 N U h f h q d f q 0 h h f f f f e t 0 h f e h d h N h - * 0 0 * 0 * = 0 t e f 3 0 f f h f d N Y U R R U V Y Y Y Q ! ! Y Y R Y V Y ! ~ U R ! R Y R R R ~ R U W R R U ~ U U U U C R U U U R ~ / ! R ! ~ ~ R R ~ ~ W ^ / ~ ~ ^ ~ ~ R E E U U U U U E ^ ^ / ~ ! / ! U U 8.Z.$XL.D.w.U.R.G.S.=XU.F.~.6XtX6XrX6XQ.6XU.S.v.!.S.S.v.e.>.S.tXfXeX).G.v.Q.R.S.Q.Q.R.Q.J.e.e.Q.8X7X7XW.6X6X6XW.!.F.L.L.R.!.R.R.R.R.J.J.J.J.J.R.J.R.J.H.R.R.J.H.J.J.H.H.J.v.G.J.H.b.n.t.t.t.b.F.E.G.v.t.u.@.[ ..[ @.>.>.u.t.u.b.(.6XJ.(.J.(.t.y.rX(.).Q.H.9 b.[ *.H.J.t.t.O.G.b.nXl.y.n.t.t.u.H.v.6XR.S.:.H S w =.w m m 4 + f 7 v  .*.b X.b.X.X.O...a a v.>. .7 >.y.,. .).X.| e.r.Z Z | 5 < A y.<.:.A M 6XQ.Q.G.} n ,.S.H.n n e.| o.G.G.G.e.r.S.=.f.0.6 4 < L.5 z 9.F 0.f.m.W.k.c | F 5.W.D.0.=.m U.l w 6 z F 9.0.0.M 1 T l w &.G 9.;.k.G 6 e.k r.6XF.6 z B f.M Z ;.;.9.&.2.0.9.S G w.e.k.&.F 9.Z T ! d 2.T 1.T l 0.T k D k Z &.T M Z T d.d w M m T 2.f.6.! m m 7.! =.0.=.D.Y K.W.L.f.F f K.V Y 2.C Z rXy.B S.W.:.H.F.S.w.e.H.S.e.).G.y. .*.).H.H.0XW.G.8X6X6XD.y.<.(.,.b *.6Xk.*.y.H.).G.2.6XU.f.I.S.9.lXH.6X6X=.9.<.R.tXR.v.Q.v.;.p G.`.H.J.rXtX$X6X8X6XzX8.* e h V C U U h h h U U 3./ / p.V.i.Z.P.C.i./ p.! ! 8.g.g.p.V.g.~ ~ i.p.a.i.a.P.P.XX+X;X1X%X|.h.,XvXi./ i.s.N.Z.XX>XiX>X#XXXOX*XOX0XcXiXcXaXsXcX>XaX>X;XiX>X,XOXoXXX;X>XaXaXvX9X( ~ qX,X%X#XZ.oXP.oXXX<XaX-X2X1X1X-XaXvXVXcX2X>XiX,X,X",
"3./ / ( i.s.8.s.s.8.R m 3.a.^ / s.i.8.a.a.i./ U U V h m d q q e e d d N e @ % h U f * 1 h h d d h h h U U h e f 0 d e 0 0 q d N h V V 0 0 0 * * t 0 * t 0 e h d h h N C d C Y ~ ! Y D Y Y Y Y Y R ! R R ! 1.! Y ! ~ ~ ~ ~ ! ! =.! R R ! ! ~ ~ ! ^ ^ ~ R U R ! ~ ~ R ~ R R ! 1.! / ! ~ R ~ / / 3./ / ~ R ^ ~ ~ ~ R R U V ~ R ~ 1./ ! ~ ! ~ R ~ R U ^ 8.8.K.D.m.K.!.!.G.Q.tX6X$X=X6X6XQ.=XQ.!.Q.v.<.;.c.!.Q.Q.Q.U.R.9XwX=XL.I.J.`.Q.R.F.:.<.:.G e.e.G.yX8X`.U.wXW.$X6XU.E.!.F.F.R.U.R.R.J.J.J.J.J.J.J.J.J.J.H.J.R.H.H.J.H.H.H.J.G.!.H.H.v.n.n.u.t.n.H.F.b.u.O.t.@.+.+.9 @.u.O.n.t.n.u.J.7X).`.).b.u.{ 8X(.y.6X6X<.{ b.v O.b.u.O.s } y.<.tXv.G.O.@.a v.<.H.J.R.k.e.=.M =.=.5 m 3 @ l c } >.p v X.y.v.o.H.O.v v (.,.O.9 O.(.t.<.7X).:.;.x | | G 8 c | F ;.R.-.6 e. .T 5X8  .y.,.H.o.x e.} X.y.$.Q.d.6 F.F.D.0.% f < F l k 9.9.S D.0.S.R.&.z &.M E.d.f.T V 7.5 w 5 l M z 9.M M M l 4 4 =.S.c G M $.8 e.k M I.6X-.M l 2.z 7 D ;.f.Q Q B =.Z =.;.=.F F x $.S f.C 1 ! l 0.F M D.2.=.&.6 F &.=.S Z Y V d Z 2.T =.q.2.Q =.d S 1.V M.@XK.f.F L.0.R.;.&.=.m.q Y -.&.M 6XJ.&.$X=X;.e.R.w.e.:.).:.G.6XJ.<.v <.6XX.y.zX6XF.nXk.w.G.k.>.).).R.G.6XyXH.H.G.7XrX6 k.6X6Xy.y.k 7XJ.J.G.G.=.H <.`.rXtXR.F.w.;.G rXrXq.Q.rXwXdXrXE.wXzXB.0 ; t U / / g t U i.C.Z.3.! / ~ R g.C.V.a.a.g.p.! 1.g.P.p.8.a.N.V.V.g.a.s.C.%X1X%XZ.h.C.1X>XB. XvXgXXXV.T.V.XXZ.+XOX>XiXuX>X;XOX>X>X,XaXhXsXVXsXgXxXvXCXVXvXvXsX,X+X;XaXaXcXhXT.4 $XcXxX1X;XOX>X;X,X|.%XgXxXxXiX;XaX>XiXgXxXcXcX1XiX",
"s.8./ / ( i.i.a.a.8.R N 3.3.W / i.i.d.N.8.! U U Y V h h f e q q 0 h V V h 0 e C f + % 3 C Y m m m e e R ! C d e e N h 0 q f h e h N V h j * + & e 0 0 h h N N C C C U C V Y ~ ~ ! D S Q ! Y Y Q Y Y Y ! =.! ! Y ! ! ! / ! ! 4.! 4.! ! 3.8.3./ / / ~ ~ ! R ~ ! ~ ~ Y ~ ! / 1.1.! / / ~ ~ ! / 3.3./ ~ R R ~ ~ R U U U Y Y 1.-.=.8.2.1.! / ! ~ ~ U P / a.s.D.K.c.K.Q.Q.6XtXNXfXqXW.F.R.G.S.G.R.W.v.<.Q 9.S.Y.=XU.Y.f.M.T.U.R.R.J.`.Q.!.9.&.e.H 6 | | e.).6XH.E.dXF.!.tX@XqXR.J.J.L.!.!.!.J.H.H.J.H.J.H.H.H.H.b.b.J.J.H.H.H.H.H.J.H.!.v.b.n.n.t.t.@.t.b.y.b.@...O.t.O.+.[ @.u.t.u.O._.@.b.7XH.>.J./.t.7 @.'.J.8XQ.6X} n.J.>.,.l.t.@.+.t.b 7XwXqX>.n.<.O.v.y.e.H.k.6XL.-.D D.w f f 2 5 B n <.} { <.y.b.{ <.<.,.{ 7X*.O.s O.(.O.O.G.y.*.<.c *.<.c k 8 <.Z B ).4.;.J.A G R.c  .,.<.y.<.p e.*.| ,.5.Q.L.6 =.5.R.W.l 4 4 6 Z G G e.z 9.0.f.f.;.k 9.G 2.L.2.m l D.M 6 w x k M T F 5 w M S M 7 :.B :.k x B :.| y ;.Q.6Xw.x x &.5 Z 9.=.Z =.k S G :.9.G F &.&.&.Z K.V d 5 4 S T S 9.T &.G y S T ;.=.T =.S Y D 6.D T 0.6.M 2.V =.Y V 6X@X0.f.e.$X0.k.;.5.f.2.V V T S Z e.Q.q.tXE.w.0.D.F.e.G.).5.E.zXtXQ.,.F.@Xp <.cXQ.v.nXQ.H.b.*.J.Q.rXdX6XH.7Xy.).X.).yXv v G.G.e.G.:.G.F.8XS.q.U.| :.:.v.6X6X$XL.mXL.f.NXw.y.lXwXmXdX6X=XmXsX-XP j U ~ i.R ~ 3.3.p.V.P.Z.p.s.i.N.XXs.3.! ! 8.! ~ ! V.s.3./ / / a.C.V.s.|. X%X-X|.V.|.+XZ.h.,XvXGXAXvXMX0XiX;X+XXX+XXXOX0X<XiXaXxX-XZ.,X1XvXsXhXxXxXSXVXxXxXxX1X>X;X+XsXaX>X+X4 w ;XGXxX-XC.<XxXaX>X>XaXsXaX;XN.,X;X%X1X2X>X1XOXOX",
"s.8._ ( / a.N.a.a./ U N 4.! U ~ i.3.8.1.D C N h V V h h h d e q e h d N U U C 0 * * C ~ / ~ U V m m m =.3.R m f h m U R U N f * 3 h h h t * $ * e t 0 N R ~ ~ ! ! ~ ! Q -.1.1.=.R T Q ! Q Y Q 1.Y Y ! ! ! ! ! -.! 1.1.1.! ! 1.! / ~ ! / 1.1.! / ~ ~ ~ / ! -.! ! 1.! ! 1.8.8.1.1.1.3.1./ / / / ! ! ! ~ ~ ! ~ U N U U Y C 8.7.4.4.7.1.1.8.1./ ~ U E g.N.7.m.D.m.K.L.S.9.;.rXdXdXrX6X6XQ.G.w.F.6XR.:.&.G.S.zXzX=X,XqXqX9X6X`.Q.H.v.J.J.R.Q.!.m.G.e.x >.v.J.J.dXzX9.o.=XfXmXR.G.!.D.!.!.!.H.H.H.J.H.J.H.J.b.b.b.n.H.J.b.v.b.v.b.b.t.t.t.t.t.u.@.@.O.O.u.+.@.....u.b.O...[ +.t.u.b.n.'...O.(.t.{ y. ...t.[ a b.(.rX6XH.O.b.G.e.y.t.....n.y.t.9XnXtXO.>.O.<.J.| e.y ;.tX$XR 8.Y w m q w 7 A <.>. .y.J...s >.v.y.v ).*.t.v O.<.<.v.o.*.<.*.c 8 *.8 8 < y.9.< A E.8 *.b c A } { >.b e.y.*.o.J.o.e.w.e.w.$.B 9.S E.! w d w 5 $.x k G T F.&.Q.=Xf.5.k.Z D.=.T 5 k Z T M ;.T F T 9.9.m l S =.2 < &.:.5.x k G G A 8 c Q.S.6 6 9.F Z w.S x &.S x F =.S.A =.l l 2.w 0.3 V M l D B &.&.6 M Z | &.5.2.=.=.4 ! -.T =.T 6.=.T w Y M D M S 6XL.D 6X;.F.2.w.5.k.k.S 2.Y M l M =.G.e.tX$XL.D.D.6Xy.H.w.9.@XrX6XqX5XQ.=Xb.y.vXv.y.E.Q.F.H.<.6X$XtXzX).y.).v.J.Q.o.8X6Xr.8 7XF.e.A =.&.G.tXE.9.9.R.Q.Q.Q.6XnXL.f.9X=.6XkXv 6XtX*XtXrXeXzXMXvXxXhXV.U Y W W R 3.R 3.P.Z.s.g.) ~ / U U ~ / d.g.g.8.p.p.a.i.s.s.V.C.C.OXsX2X-X1X-X%X X|.XX|. XOX,X>XaXcXvXcXcX;XV. X-X+XC.C.XXXX-X1XA.i.B.@XT.Z.C.>XvXvXgXxXxX-XaXiXXX,XaX0X+X~ 2 C iXHXxX%X XaXcXvXaXhX;XT.;XA.;XaX2X>X;XiXxXaXxX",
"3.s.8.8.a.B.a.s.i./ N m U R R p.a./ 1.D d h d d m m m d f h h h h h e h N N f % 2 h ~ R ! ~ U C M V Y ! ! R N d N C ~ ~ U h e 0 3 e 0 0 0 0 2 0 h e e Y 1./ ! ~ Y D ~ Q =.2.! =.! ! ! ! ! ! ! ! ! Q ! -.=.=.=.Q 1.1.2.2.6.2.1.1.3.! 1./ ! ! ~ ~ 4.4.! 1.1.-.! =.1.1.1.6.1.1.1.8.4.7.7.3.1./ / ! ! ! ! ~ R U U h W R U N / 8.1.3.8.1.8.7./ R U h R M.N.m.w.m.D.G.D.0.G M 6XwXtXrXtXrXtX~.F.m.F.W.m.F.$XL.fXdX@X$XeXpXtX6X~.J.F.G.G.6XrXtXQ.R.W.`.G.X.| >.v.wXmXv.e.tXdX9XK.L.F.!.!.R.R.J.F.J.J.H.H.v.H.b.b.n.u.b.(.b.n.b.t.n.n.@.t.u.t.t.u.@.t.@.@.@...@.....u.b.@.+.[ @.u.n.u.b._.{ t.5Xt...<...9 ..u.O...o.7X6XQ.n.J.H.<. .O.<.O. .t.n.R.tX`.5XO.<.v y.,.w.G @ $.D.V q Y 2 M q w 8 b <.y.>.>.y.+.s t.y.y.t.H.y.,.{ O.>.t.b.X.r.<.} | 8 } c 6 6 e.H.< z 5Xy x v.;., 8 9 t.o.| | ,.B 6X!.:.;.S.,.D.=.2.2.D R m m 5 l M 5.G $.G F.8 5.w.f.9.S.$.0.f.9.F w 4 ;.F G 2.G z Z e.Q C d T T < | k r.*.c Z 8 | c 7 G :.G 6 Z T S 2.T z M z 6 =.r.G.G ;.F F ;.5 M q d M G T B ;.&.6 Q ;.9.k.f.&.T 2.@ ! 1.=.2.T T w.=.2 M l M T =.$X0.T W.6 w.F Q.5.5.2.l 2.Y M &.l &.y.| 9X$XD.D.D.R.w.y.e.y.G.tXtX5X6XQ.F.).y.rXJ.J.6XrXy.y.v.rXtX5XtXtX5XI.).H.nX;.Q.tXR.v H.!.y.S.f F.$.D.6XL.o.).H.S.`.Q.).rXL.L.R.!.zXG x rXU.$XrXmXwXmXMXOXr E / M N j.3.j.p.i.p.R ~ 8.s.s.V.V.i./ 3.p.8.s.8.3.8.i.V.C.a.s.g.a.h. X%X%X,X%XXX,X;X+X+X+X+XXXOXXXXXOX+X,XgX2X-X-X-XB./ ^ / i.+X-X+XOXXXXXXX( C a.+X,XsXCXsX>X>X>XiXxX0XOX( l l A.vXcX>X;XXXE R ~ a.Z.h.,XV.a.|.;X;X=XaXcX2X1X",
"s./ s.s.a.p.i./ 8.~ h h U U ~ p./ D Y N d d d f f d q 0 h U U R U h h h N V e 0 h U ~ ! R ~ Y ! C V ! ! ! Y l m C ! ~ V C U h 0 2 0 * 2 0 0 h h f 0 h 1.7.1.7.=.Y C S Q Q =.T =.Q Q Q Q =.=.1.1.=.Q 1.6.1.! ! ! 1.1.1.1.2.1.3.3./ 8.3.8.3.1.! ! ~ ~ ! -.1.1.=.=.R ! 2.2.7.4.=.2.-.3.3./ ! / ! 4.! ! Q R N N C N U R R m R / / / ! / 1.! U N N h ! M.D.m.d.D.K.d.r.Q J r.R.R.tXtX~.6XrXdXW.W.pXzX6X=XT.L.pXdX6X$X6XK.v.!.W.).6X6XQ.rXdXfXjX6XL.e.:.o.p o.F.9XHXnXR.tX6XU.Y.E.W.R.F.!.J.J.H.H.H.J.b.b.G.b.b.n.u.n.n.n.b.b.n.n.@.@.@.@.@.@.@.@.@.@.+...+.@.@.+.u.u.+...#.@.t.n.u.@.(.{ u.(.O.O.t.<. .X.X.@...{ y.J.q.:.).8X>.H.H.<.u.O.v O.H.8XS.R.7Xy.8 *.y.r.5X2.4 3 R C q.w q S 6 A x >.O.>.t.>.u...t.{ } <.,.t.<.X.{ t. .v.t.e.v c X.| c *.6 c } y.y Z H.*. .5.R.7 v  .n ,.H.n *.} G.R.L.r.5.| 0.;.w.G.S Y 1 T 6 l F $.B 2.G S.D =.=.;.9.k.5.5.w.F l F M G Z ,.:.x =.$.$.;.=.=.2.w 6 5.M G :.:.*.A :.| 6 G &.:.A 5 S Z F M S M 6 < 6.:.G.M F Z M Z 4 f q l M $.S =.0.Z G ;.=.9.G.r.$.y.! < f.T m ! 1.S D.Z k D m D D =.E.;.5.w.7 G.x ).<.9.0.D R d 6 D.k $.R.2.*XD.D.Q.6.9.k.G.n <.w.E.rX`.).I.k.J.| D.b.E.fXfXy.v.v.tXrX5XI.5XnXq.).F.jX7Xm.6XR.X.).v.&.I.e.e.6X=X6XL.x 9.y.G.e.tXQ.6XrXR.6XF.`.v.z I.tXw.fXDXzXpXnXnX%X^ L V R g.N.3.p.^ U U _ _ s.A.g.a.p.p./ / 8.! U ~ i.V.+XXXV.Z.C.V.j.OX%X%X%X X%X1X%Xh._ |.+X|.XX|.-X%XV.s.C.B.2X1XgXC.h.B.C.+X;X%X-X,X-X>XgX>XXXV.oX,XOXcXCXaX;X#XaXvXdXeXN.Y T 4.p.P.Y R / R N N a.&XA.+Xa./ V.Z.@Xd.a.;XaXxX",
"a.i.a.B.a./ / / ~ Y V U ~ U W i./ V N q q f f 3 f h q 0 U U U U U V V V N t 3 e ~ ~ R R U R Y R D C Y V V Y m M R ! Y m m U N t 0 0 4 * 0 h h h 0 h ! d.d./ ! ~ ~ Q C D -.Q &.Q R Q Q =.1.2.1.=.Q Q 1.1.-.Q ! ! 6.8.1.1.1.4.4.4./ / / 1.! 1.! ! ! ! ! ! 1.-.! ! ! =.2.1.1.4.1.1.1.! ~ R R R R R ! Q R C f f U R R R / U R ~ ~ R U ~ ~ U U h U U 1.M.M.m.m.m.0.6.;.&.r.9.S.!.6X6X=X6X~.6XE.L.vXvX9XpX$XE.wXhXrXtX`.G.e.G.eXrX6X`.`.(.`.rX6XQ.>.p x S M G Q.`.rXzXtXrX6XW.6X=X~.L.!.F.G.F.J.J.J.R.J.H.H.H.b.n.n.n.t.n.n.b.n.@.@.@.@.@.@.+.@.+.+.@.+.+.@.@.@.+.[ @.[ +...t.@._.b.t.(.s ..(.H.b.b.b.@.t.b.u./.<.G.R.D.y.e.6Xb.v v.y.>.H.t.[ | ).J.p <.b.| x c w.G.f.2.m m f M q < 5 x :.x *.} <.X.>.J.<.<.X.b ,.v...<.y.v t.>.y.,.y.X.*.c | c v , n y.9.n *.R.9.} *.H.*.c b.b p ).y.| n Q.9.F.G.9.$.S $.9.D.2.m q M w @ $.=.A 9.k.S S.w.M F 9.$.5.2.q.6.< z ;.;.z F ;.z 0.0.F l w w T S 6 ;.;.&.x *.r.o.X.,.x c r.| :.S Z l =.Z B M f < 2.q.5.S l G S D 6 5 1 w l G Q &.w.z =.-.9.2.y.9.Z R.2.w k.S d 1.d.-.2.M M T l 9.C F.f.f.L.S k R.z Q.:.$.E.D V 5 q 5.T 2.L.2.wX=.D.6XS.*.U.`.B <.9.f.wX6X$X6Xr.E.v.e.H.5.nXtX).v.<.J.6X6Xw.L.HXW.).6X6XrXW.e.nX9.R.F.&.D.W.z J ~.tXR.:.o.<.G.:.`.rXy.5XG.R.F.L.m.2.D.nXH.G.zXMXpXfX8XDXzX_ P R / ~ a.i.~ ~ ~ U h h U ~ / Z.V.p.p.d.p./ a.a.B.V.XXXXV.a.p./ / h.C.%XA.%X,X,X) E ) B.+X|.s. X%XC.i.h 0 ) +XiX,X1X1X-X-X,XOXZ.OX%X+X+X-X;XOX>X;X%X-XvXSXAXvX1XcXvXxXXX~ l Q m S f m ! 7.~ Y C 8.p.4./ U a.s.h.E w C ! 1.",
"N.i.s.N.a./ i./ U h U / ! U R 3./ N 3 % 2 0 0 2 h C d g U U U ~ C h U U e * 0 U ~ ~ R ! U Y R ~ V U R m C Y C m ~ ! Y U V V h e 0 0 0 0 f N N N m R 8.7.7.1.~ D Y D C Q =.Q T T ! ! ! -.2.2.1.-.Q ! 1.-.=.! =.=.-.1.6.1.1.4.4.=.! ! 1.1.! ! 1.1.1.1.-.! -.=.-.6.1.1.1.1.1.! R ! 4.! / ~ / R U C C m N d e h U R R U 3./ ~ ! ~ U h h h C h h N U d.M.D.D.q.q.6.6.:.;.:.<.;.w.Q.6XrXnXtXtXJ.<.eX0X@XpXqXtXrXzXrXQ.Q.6X7X,XsXcX0X).b.v.b.6XrXtXQ.r.2.T S 6 v.`.`.~.6XrXR.tXdXwX6XF.!.F.!.J.R.!.J.J.H.J.J.H.b.n.t.t.t.u.b.b.n.u.@.@.@.@.@.@.@.+.@.@.O.@.@.+.@...[ @...@.+.u.n.'./.u.b.{ +.t.J.t.O.n.t.u.t...u.v.G.Q.F.J.O.<.yXy.o.b.X.>.(._.c G.J.,.,.,.| } X.&.F.&.D w d d V U @ < G r.n } } t.b X.H.,.t.u.} r.H...<.F.{ X.{ <.,.k.y.<.x c A p 7 y.e.c X.y.!.e.e.,.y.A } v.t.X.k.*.*.x H.G.6Xw.9.e.e.M Z f.T V Y l d 3 -.Z G 9.G.Z ;.S.2.F q.$.B q.D.f.6 8 c y.;.| F &.F $.&.M l 5 6 Z 5 M &.:.A k ;.w.>.,.G 7 r.n A G Z z Z z T M M w =.f.0.F z ;.2.M d 1 l y l z w.0.=.l Z &.2.=.e.v.2.;.C =.$XD d 6.m.=.=.k S S F &.&.e.S D.k.l Z G.A S.r.G S.M d 3 w x =.5.w.0.$XM W.tXF.$.m.rX5.&.e.5.jX=XpX8Xe.qXy.J.b.$.NX5X6Xb.A <.nXtX!.F.MXzX7XtX6Xe.rXF.rXrXS.tXF !.D.-.F 0.rXS.y.y.e.F.H.o.A c 6X6XH.Q.6X=X@Xw.R.rXQ.W.NXfXqX7XzXMXaXB.h U h ~ s.a.s.i.U L E ^ / p.N.s.p.g.M.V.g.Z.s._ a.V.A./ ^ a.3./ ^ ) h./ ) |.1X X/ h.h.h.B.) ) / h. X|.E B.h.h.B.-X%X%X X%X-XV.C.-XiX1XiXaX;XiXsX-XXX1XuXgXvXcX>XsXcX+XU 4 l M S m M C d d D l V R d m C / / i.( ! d 5 f ",
"a.8.i.a.i./ / U C U / 3.U C ~ ~ V h 0 0 h N h e m U U U W U U C h V N h 0 e U ~ ~ ! / / ~ U U U U U R C C Y C V R Y V V C h h h e t 0 h h m N m D ! 7.1.~ ~ ~ D V l D ! =.=.-.-.1.=.! =.-.-.-.1.=.! -.1.1.1.6.6.2.7.7.1.! =.4.4./ / 1.! ~ ! 1.d.1.1.8.1.1.1.6.q.0.0.7.7.p.2.=.7.7.! 1.~ ! / R U m 0 e h h h U / / R / ! R ~ / ~ V f q m e h U / K.f.0.6.6.m.q.9.;.r.&.:.o.:.<.<.H.fXMXzX@XK.eXpXwXwX9XtX~.H.J.W.`.b.(.wXeXeX~.J.y.y.J.`.6XmXzXF.! l V f 6 { b G D.I.r.BXzXwX9XE.R.!.F.F.J.!.J.H.H.H.H.H.b.n.t.u.t.n.b.b.n.n.@.@.@.@.@.@.+.+.@.@.@.n.@...@.+...+.u.u.O.@.J.8Xb.t.O.(.t.{ b.y.O.u.t.).J.H.H.t.y.y.).y.+.O.).).o./.b.y.<.7XG.H.H.,. .O.X. .*.G =.=.T 5 @ m U 3.1 5 o.y.>.| b >.>.y.(.y.O.O. .e.).{ e.rX>.<.e.t.y.,.).>.v n | 8 6 | | A J.y.G.:.:.G.6Xv a a y.Q.k.A *.r.<.9.S.;.e.Z k.G Q 2.m 7.m d d R ;.G | r.S.e.&.9.q.;.2.e.z q.D.&.c p n | &.I.| G M Z z z z l 5 F &.z z :.A 6 G e.v.<.<.8 o.} n F S k ;.Z S z 2 l ;.9.9.&.Z f.D 5 m < l w Z z =.;.S C z T ;.=.:.:.2.D 1 m D.;.=.l F Q M z =.=.w.;.S.=.Z F.9.k =.S.F 9.&.&.M w q w M T k.=.T L.I.M S.W.k.*.m.tXk.F.D.=.I.9XDX~.c.qX:.H.b.*.$XH.6XJ.<.c tXF.`.Q.R.=XI.7X!.y.Q.tX~.rXF.).R.w.6XT 9.D.eX2.z y.y.$XQ.R.Q.S 0.tXQ.R.Q.6XtXF.U.6XnX9.F.rXrX~.nXmXvXhXC.^ N i.C.#XOXC.C.B.s.B.V.V.C.T.+XT.T.P.Z.C.A.B.|.|.h.B.A.s./ / i.B._ E _ _ XX-Xh.h.h.h.+XXX-X X.X%X-X.X%XgXxX1X1X2X-X X-X,XC.~ i.+X>XT.:XXX/ |.XX/ V.;X>X;XaXcX>X;XXXV.V 2 6 l V C d % 2 m 5 3 3 0 h Y ! ! 1.S M q 4 5 ",
"a.p.a.s./ / U j h / ~ W U U ~ U h U U U U U U N U ~ / ~ U U U h N h 0 0 t h R R ^ ~ ! ! R ~ R U R U R U U V C Y U N N N V U C h f e e h h N Y V D ~ 7.1.Q R R Y C l Q -.-.Q Q =.1.1.=.=.! ! =.1.2.=.! -.2.-.-.2.-.-.-.Q Y =.1.4.3.3.8.1.! ! ! 7.1.1.1.6.8.8.7.d.q.m.d.0.d.7.8.7.=.Y ! R U ~ / / N e h g 0 t U / ^ U ! ~ U R / ~ R h f f 0 h R 8.Y.M.=.D ;.w.r.r.:.;.F n Z *.o.G ,.L.nXMXhXhXhXwXwXwXrX9XM.X.v.sXrX@.#.8XtX`.v.G.J.Q.8X`.6XjXW.r.J l m m < 8 e.tXtXS.b J.9XvXzX=XF.U.U.F.F.J.R.J.H.H.J.H.b.n.n.t.u.n.u.b.b.u.u.@.@.@.@.@.@.O.@.O.u.n.+.[ @...+.n.u.t.u.@.b.(.(.t.{ (.@.{ t.u.t./.t.(.7XJ.J.J.t.*.7XG.{ ..H.`.J... .X.X.b.R.J.e.I.X.X.b { G Z c z $.5.w e q N 4 5 | y.<. .v X.t.t.(.t.[ a <.G.`.[ y.rX .y.H.v.<.>.).<.x } | 8 8 v ,.| y.:. .v.:.w.5Xc 9 9 *.G.k.e.z :.:.&.e.| H.A <.| 2.2.V C 4 4 d S T e.;.G ;.S.0.9.5.L.9.T | $.w.F k A o.9.e.*.S.G y Z &.=.5 M 6 5 Z S z Z &.x x w.y.,.| x G o.A &.;.6 Z T k G < 5 &.&.;.T T S.l 6 Z d w l S M q.6.S M Z F 2.;.;.e.6.e 5 f.=.l f.D &.T z =.5.;.k.e.e.F F F.;.y ;.e.F e.Z $.6 l 3 l M 9.e.F S 2.Q.6.x m.S.5.m.6Xk.E.9.*.G.zXDX9.J.jXG.y.H.<.).y.J.).).G 6.;.Q.k.9.!.e.).~.H.6X6X6XW.6Xy.Q.Q.6X$XD.E.mXD.k r.S.R.6XW.W.F.9.S.rXrX!.$X6Xf.W.qXtXe.k.6X6X*XjXdXwXfX,X/ W s.a.XXC.XXXXXX|.A.V.Z.Z.%X-XXXXXXXC.C.%X|. X%Xh.h.B.B.B.h.s.|.h./ / r ^ |.|._ U /  XB.|.-XXXsX2X|.h.|.,X-X X-X-X-X+XOX;XXX/ / T./ g.#X/ ^ 3.U ~ Z.sXaX,XxXdXsX;XV.a.U e * q d l q m ! d 0 e d d l m M &.r.$.=.2.0.",
"N.s.8.~ U U h U / j.^ U U C U R ~ ! U h h U U U ~ / ~ C h h h t e 0 0 j h h U R ^ ~ R R U ^ ^ U U W U U R U U U U h V U R R N h 0 3 e h N U R ! ! 1.d.~ V l d m m M =.6.-.D S =.1.-.=.1.-.=.1.2.2.-.Q -.1.=.Q -.;.-.=.! 1.0.d.0.3.7.7.4.! R ! p.1.1.=.1.8.7.7.7.7.7.0.0.7.7.1.Y V Y R ~ ! ~ R U h N P t 0 g U R U U U R ! ~ U C / U U h P U ! 7.d.7.=.=.6.q.9.c.9.w.:.F F o.G H O.>.J.rX6XnXdXtX9X6XzXwXzX`.rXJXDX+.+.6X9XwX).6XtX6X7X6XtX=Xc.9.;.M m 1.T S Y.DXzXF 7 s w.dXrX=XU.E.E.U.F.!.!.J.J.J.J.H.b.n.n.n.u.n.n.b.b.n.u.@.u.@.@.@.@.t.u.O.@.@.+...@.@.@.n.@.u.@.n.t.@.b.O.O.u./.@.u.H.J.(.n.b.(.7X).).b.O.J.6Xu.@.b.n.J.H.,.>.v ..S.).9.G.*.{ y.O.} $.$.z 7 B M 3 e 1 Y l X.y.v. . .>.O.t.v. .a 9 <.e.y.{ t.e.a <.Q.H.X.e.>.X.p } | 8 v ,.y.} H.w.O.J.w.G.9.e. .v } <.} I.9.o.S.z :.y.*.B 5.:.x Z d.N % * 5 4 6 $.k.w.;.w.9.e.=.k.k.$.$.Z 9.A y } *.e.S.z w.e.;.=.7 e.M w Z z Z G :.c A &.6 | >.y.<.c x G G $.&.Z p x 5 F < 6 z G f.T T f.m 5 w 5 4 M S k 0.9.k M =.z ;.m.w.e.M q r.R.$.B =.F =.F ;.R.=.e.S.I.M F e.;.9.x e.;.&.=.x l l =.M w D 5.;.T 2.=.E.0.l c.5Xe.q.H.k.G.v.v.G.dXGXD.6XoXe.O.J.y.H.J.>.H.8Xw.&.=.H.y.G.`.H.J.lXe.7XQ.wXtXtX6XG.k.S.R.R.M.9X=X&.;.6XD.D.rXU.Q.F.G.6XR.!.w.6XtX$XdXD.G.H.8X6XfXDXdXrXwX,XC.s./ i.a.a.|.C.|.%XXX|.V.h.B.A. X X+X XB. XB.|. X X X|.|.|. X|.h.h.^ P P L E i./ r P |.h.) +Xa.V.C.^ XX,XC.XXXX XOX%Xa.8.i.s.^ t h f d 3.a.V./ W XX;X>XAXAXcXcXVXCX>X+XB.s.C e 3 m m V ! m q m l f 1 2 4 k M M D Q 1.",
"a.8.R U h U / a.h.3.U h h f d h U U h 0 0 h h U ~ R h e h h 0 * t h U U U U R / ^ ^ U U ~ ( ~ U ~ R C C U U ~ R W V R U V h f t 0 2 h h V Y D ! 8.! 2.1.! Y m d C d M C 6.Q Q -.1.-.! 1.1.1.1.8.2.2.-.2.2.2.=.9.9.2.=.=.-.6.0.7.! ! 4.6.7.1.8.p.8.6.2.6.7.7.6.8.1.1.2.0.7.0.8.Y V R N U ( U N h h P U h P U U / E h h U R U U U / ^ U U U R -.q.0.-.;.w.9.9.w.v.9.w.:.9.r.&.o.G ;.n x p H H.G.9XW.D.$X@XdXQ.tXGXMXy.t.6X9XaXrXtXMXrX=X6XnXtXR.D.6.T 4.q.m.7.T.bX6XF G <.G.Q.G.=X=XW.U.F.F.!.!.F.J.J.J.H.b.b.n.n.n.n.b.b.n.n.n.t.u.@.+.@.@.t.u.O.@.@.@.@.t.u.n.@.@.+.t.b.@...u.t.u.n.b._.u.b.8X).b.b.n.J.`.7Xb.>.b.rXJ.u.u.n.H.R.v.).O.{ X.y.G.y.H.p a y.e.9.e.=.x B M q 0 * m S b >.<.v >.O.>.b.v  .O.a v.).y.{ ,.X.,.t.G.y.,.J.A A c } A 7 p <.,.>.e.:.} ,.R.F.5.| y.x } <.v 5.I.*.y.&.Z H.r.Z Z G.z 2 m V * * 1 5 D z :.S.;.w.5.w.;.x Z y.;.r.w.c z } | <.:.<.9.w.=.2.5 z &.w w 5 l k 6 r.| Z 8 k | G.e.y.v v | :.M | c x 6 5 7 6 Z &.;.=.T 6.M < 5 5 q l M M 2.2.w S 6.w T =.6.S.m e G.2.;.9.5.Z F 2.S.6X&.5.k.9.G 5.0.Z F.S 0.=.w.G z k l =.M 6 ;.e.;.Z &.z f.9.=.;.$Xk.-.F.y.5.5.v.$.S.tXG.8X5Xy.<.).,.t.`.e.J.tXG.| G.>.b G.G.H. .).G.H.7XjXtX~.tXW.6Xw.J.9X*XR K.tXw.5XF.&.U.rXQ.6X).6XrXtXy.R.L.L.NX$XI.y.F.6XpXdXmXmXmXvXC./ ^ B.A.C.V.B. X%X+X-XOXXX|.B.V.V. X%X%X|. X|.B._ |.%X|._ _ _ |.B.h.L r g P ^ ) E E i.s.W R U h N N h 3./ U R R p.,X#XP.M.3.a./ / R h U 3.T.C.! U d W oXMXAXsXuXcXiXsXA.C.B./ 0 0 4 q f d 5 q 4 6 w k k w z M D Z Z ",
"_ R h P h / V.a.3./ ^ h h h h h N V V h f C U U / R N h U U U R R R ^ ^ ^ E E ^ ^ ^ W R R ~ U U ! R h U R U ~ ! ~ ~ 3.R V C h t 0 0 f e N ! R / =.l S Y R ! R ~ Y d m S 6.6.-.1.7.1.! 1.8.8.1.8.7.0.2.2.=.&.T -.2.;.;.;.;.2.2.6.1.=.6.7.0.6.7.7.d.d.q.7.7.8.8.7.7.7.2.1.7.f.d.! Y C m C h h h U U U U h W U h ^ U g r P U P U / 8.8.! ! V -.-.<.q.6.6.f.;.:.e.c.w.S.y.G.q.r.&.o.>.D f 5 &.| Y !.R.w.S.G.eXpXwXzXmXrXy.7XnXvXtX6XnXzX=XtXNXtXm.;.-.d.q.c.6X=X$XmXnX6X9XdXrXF.9.R.$XU.K.L.U.F.F.!.J.R.R.H.b.b.b.n.n.n.b.b.n.n.u.n.u.t.@.@.@.u.u.@.@.+.@.@.u.u.@...u.t.b.J.t.t.O.t.(.'.b.'.'.b.kX7XI.y.n.u.t.H.(.,.>.).J.(.y.v.J.J.H.J.).u.v t.b. .).<.n X.y.5.<.r.c z l m @ 2 0 &.} v.t.v <.X.>.O.[ u.<.>.v.e.X.X.,.O.b.<.} e.<.H.b  .b c c 7 6 k y *.A >.J.} F.J.w.,.y.<.} <.v } y.H.<.} G w.Q.F 6 <.e.M q f e 0 e 2 T z Z w.9.F G S.k.z F e.:.x e.} z | x :.} >.G.e.S w.&.D Q M k 2 6 2.y A | G Z p p y.y.y.y.7 A :.;.k G 5 6 y 6 8 F G M S &.9.T w d l q k l T F ;.Z F S F f.F D 2.2 W R.5.f.k.&.z =.w.Q.R.F e.;.9.9.&.F Z 0.&.5.$.w.Z S D M 4.B w F k.9.F $.M f.;.&.F F.L.5.w.>.=.5.y.B v.>.b 7X(.H.v.R.y.O.).y.G.5X5X;.| t.y.6XJ.`.A ).BXv.`.6X`.J.`.R.tXG.>.$XqXQ.G rXrXR.6XnX6X6X6XH.7XJ.F.kXJ.G.G.S.rXrXE.Q.y.nXzX9XdXzXMXAX;XA./ i.h.h.V.XX%X%X X|.C.|.1XXXi.h.+X1X2Xh._ .X.XB._ ) h.h.h.h.h.i.s.U L g L ) i./ h h U e 0 l d e d 0 0 e e e q e N R ! R m R / g.g.V d d q e S l w < 7 =.L.vXmXfXsXpXT.M.i.) / W h t 0 e f 0 3 2 6 6 w 5 k 6 k z F ",
"U N j P U / a.i.^ U / ^ U R U U U ^ U E U U ( ( / ~ ^ / ( / ^ R R U U ^ / ^ R ^ W ^ ^ R W W W W U C U W U W / W V R ! ~ / U h t 0 d h q Y -.R ! J M D ! 1.1.! 8.! m V R =.2.2.2.1.1.1.4.0.7.6.2.=.=.T =.T D F -.Q &.;.r.;.-.=.2.-.=.2.d.6.-.2.7.6.6.1.7.7.2.q.0.-.0.7.1.8.7.d.7.8.! / =.W U U ^ E W h h U U h P t r h U R U ~ / ( 1.8.8.8.d.=.;.6.&.r.9.&.&.r.9.r.9.e.e.9.;.:.:.Q D H &.m.Z q.!.v.r.m.W.oXnXmXdX=X~.+.b.mXAXdX0XzXwXD.9XNX8Xe.2.q.R.U.V c.U.Y.zXnXMXzXwXwXW.R.@XW.G.T.R.I.!.H.F.!.!.!.J.H.b.n.n.n.b.b.n.n.n.n.n.t.t.t.t.t.n.u.u.@.+.t.n.b.@...+.@.t.J.J.t.t./.y.v.`.J.J.8X`.6X8X(.t.<.t.b.b.(.yXJ.v.<._.'.b.(.u.H.Q.G.6X .>.H.*.J.v.,.,.y.G.G &.z 8 x V 5 e + &.O.<.| b t. .y.O.{ t.y.>.X. .X.t.O.X.H.t.v y.y.y.e.>. .k A 6 8 x p <.*.t.E.G.5.y.c n y.y.y.y.o.v b y.G.,.5.Z F.;.p G y.&.d % 0 2 h q w J w.w.G.=.F =.e.G e.5.w.y Z v.&.| :.| <.| e.| z 5.$.;.5.;.m @ @ S G | y.*.8 p p v <.y.y.8 x | r.z Z k 7 M 6 < | &.M F G =.F l k w m T w e.M &.F M l 2.k.Z F =.% 2.q.D.k.&.F e.*.:.y.v.r.y.x 9.;.S &.$.k.0.=.T 2.y S 2.l T M w M F.w.Z G &.9.;.q.D 2.L.f.q.J A ,.y.x :.*.y `.Q.J.H.K.I.G.Q.`.D.dX*XY.A *.%.G.`.6XO.b.nXQ.H.rX`.`.).6XI.5.y y.qXvXp.x 8X6Xq.9.6XtX8XJ.9XtXH.<.y.v.H.G :.W.9X=XQ.G.kXQ.W.fXmXMXzX,Xs.^ _ _ h.C. XXXC.) ^ ^ |.%X XB.h./ _ ) ` ` ` ` ) ^ j.Z.XX_ _ ) ^ P ) U h U U ^ h 0 0 3 4 2 1 2 3 1 * q d f d l l 2 2 C Y V M V 4.T S Y l 4 w M Z l l M Z L.wXsXsXuXhX;XB._ _ ( ^ ^ R ~ 1.~ C l K K l 4 1 < % % 6 ",
"U U P U ^ / / ^ R R / ^ R ^ / / i.( W W U ^ i.a.s.8.s.) / / / / / U U W ^ U U R ^ / / R U U W R U U U h h ^ R U R ~ ! / W f f N N h h d R -.! 1.Q Q Q Y ! 1.~ 1.1.D Y V 2.0.d.7.6.1.6.=.1.1.Q ! &.&.S =.T F Q ;.&.&.;.;.;.&.Q -.1.2.2.6.2.6.0.f.f.6.6.q.6.2.q.0.6.q.m.0.7.8.2.! d.7.1.=.^ U h U h E W E h h r 0 * ; h U R ~ ! / 7.N.N.d.m.q.F ;.q.9.9.q.&.Q &.6.:.9.9.e.w.9.J ;.-.=.F 9.;.&.9.c.S.D.7.Y.Z.:XdXdXtXW.<. .6XvXbXMXMXnXW.rXNXrX!.9.0.0.m.m l =.M.m.9XwXeXW.=XE.6XpXeX@XW.~.K.E.R.R.!.F.J.J.H.b.b.b.n.b.n.n.n.n.n.u.n.n.u.t.n.u.u.u.@.@.n.n.n.+...{ n.t.J.n.@.t.b.J.n.b.).).b.(.8X8X(.(.H.J.y.t.y.H.8X`.,...O.H.u.u.X.).`.H.H.y.v.p  .).<.o.| e.e.F x A Z M w % X z t. .X.v  .y.H.{ >.y.<.<.O.O. .X.O.X.X.t. .,.y.y.y.} | p *.8 , c A y.c y.L.k.y.<.>.8  .8 b b.v.>.o.} e.e.f.$.r.v.c | Z T U 0 @ 0 h m w &.F.;.L.T $.G :.x F 9.;.S x w.:.$.9.:.5.A e.A z $.B G y l 2.6 < 5 7 c r.c c p x c c y.y. .x G G | c c 7 7 c 6 Z A G z Z &.D m 5 3 w D V 9.Z S C M T S.5.Z 2.T 4 L.e.F.$.M &.G.G e.*.e.y.J.Z 9.=.&.&.S $.5.$.T $.l &.9.w T F D z G.9.k G F :.&.q.l =.D.D.f.&.| :.F.A k S.8 J.7X).H.9XI.J.R.rXI.dXwXY.e.v.e.y.rX5XX.@.).rX0.W.yX7XQ.rXNXL.5  .L.pXdX&.a v.rXR.q.=Xv.:.$XfXe.y.J.F.6X7Xz M.zX=X6XG.Q.rXR.rXzXmXzX0XV.E _ _ _ A. X Xh.^ ^ ^ U h.+X|.B.h.h.h.h.` ` ) _ s.^ ^ E P E E U L U W W W U U C f d V N q 3 q 0 0 2 3 3 q w l y 6 w T T T Y M S =.B M M z M M B G =.S T A D.eX<XwXuX>X;X Xi.^ s.i.! V ! 8.-.D M Z F S Z l K K Z ",
"U U E W R ^ ^ ( ^ / / ^ / _ ( / s.i./ / / i.V.V.s.a.s./ 8.i./ a.i.U E ^ W ^ / / / i./ R U U U U C U U N U ~ U R R R W U h h V ~ ~ N h V ! -.! ~ D Y V l l D ~ ! Y S Y S =.2.7.1.-.-.7.2.2.1.! ! =.2.T -.-.;.;.=.&.:.:.:.:.-.Q =.=.0.m.S.q.w.f.m.D.0.9.f.0.0.q.q.0.0.q.8.8.7.1.! 8.1.R S U C h h h U R U ; * ; ; ; 0 U V.a.! 1.8.f.m.f.q.w.6.&.q.m.0.2.6.&.&.D =.:.9.:.r.w.c.o.r.;.=.;.:.F &.6 Z :.9.2.$X=XtXMXHXDXfXrXe.=XbXzXnX9XrX6XrXtX6X6XF.Q l T S M m 2.Q !.W.$XW.W.9.G.hXVXiX=XR.m.Y.U.!.I.F.!.J.J.H.H.H.b.b.n.n.n.u.n.u.n.b.u.u.n.t.u.t.@.@.t.n.n.O.@.[ t.(.(.O...+.u.(.(.b.u./.n.(.b.b.).`.J.8X7X).y.b. .J.H.t.O.t.H.y.[ a J.`.y.H.H.y.} v.v.<.,.c G $.< 7 ;.S k q + w t.v } b O.y.<.v y.y.X.u.O...O.O. .{ v >.,.|  .y.A v *.x A 7 8 c 6 e.*.X.I.;.J.<.<.p b b v X.<.X.,.A *.$.w.r.&.G.9.:.M 4 e U 0 % e q < Z y.9.Q.=.$.$.;.e.z w.;.F k y.;.A y.z 9.:.&.e.:.A &.F 5 < m l 4 l k 8 G 7 x A n p 6 v X.H.*.A :.9.;.c y 7 k A Z z $.x y $.&.D w 1 @ m T -.m Q -.T 2.S.2.T T y M f.e.q.z ;.;.G.| e.o.:.G.G.$.e.9.9.T &.S D.$.G T w &.9.z w.9.;.c w.;.G &.$.G =.w.l -.D.L.0.F G.r.y.| A ).v (.7X5XH.zXH.y.).<.k.S.kXw.y.J.{ y.tX5X>.(.v.kX0XG.y.J.H.6XNXnXB 7 e.R.rX).G S.tX).6XkXnXW.$XnXnXL.D.9.:.`.G.2.dXMX6X$Xe.J.6XrXrXrXMXMXcXB.P ) V.h._ +Xi.^ B.A.h.( ) h.A. Xh.` ' ` ^ ^ ) _ E L 0 r h E E U L U L h h U h d S Y m q q d e e e m d w Z =.Z x M G B S $.T T $.B l B M z x | | =.;.$.| 9.mXdXsXhX:XT.oXXXa./ s.i.R Y 7.7.! S S M M F 0.;.F F ",
"W U ( _ / ^ ( ) ^ / ) / _ s./ _ i.s.s._ / i.a.a.C.B.( / B.i.R ~ / U R / / / ^ ^ / i./ / ^ / / U C U U U ~ ~ ^ R U W R N h C Y / ~ h h Y R Q F H Q T D m w N ~ ~ m m V Y T -.6.2.2.2.0.0.6.2.6.2.2.2.=.;.2.=.=.=.:.;.9.;.;.:.Q &.9.m.F.D.q.f.f.w.F.w.2.9.;.9.6.q.m.d.q.8.2.1.! 1.7.=.Y S U U W U U N U h g 0 r g h L / XXV./ 7.d.m.f.9.2.9.q.0.9.d.-.&.6.;.=.M T ;.e.F -.9.6.J -.F G e.T :.:.7 6 A =.K.0X*XL.9XGXDXaXMXtXNXzXwXrXv.v.v.).>.w.G.L.Q z =.V m V q.m.v.J.H.`.Q.G 9.0XVXcX>X6XG.!.J.!.R.R.!.!.J.H.H.H.H.b.b.n.n.n.b.n.u.n.u.n.n.t.n.t.t.@.n.b.O.@.u.[ O.(.(.n.{ +.u._.n./.@.u./.u.u.(.I.7XJ.6X6X6X).v.u.{ H._.b.{ H.(.b.{ v H.y.,.v.e.*.*.,.A <.G F 9.w 7 F Z k d + 4 O.{ b X.>.O.,.<.y.v.} t.<.O.t.{ {  . .X.X.y.y.y. .} <.v  .8 n } z *.>. .R.e.v.} n ,. .v.} ,.X.,.G.y.y.c G r.r.9.w.c =.M q d 2 @ m m 5 Z w.:.L.$.;.5.F F.&.S.9.z M k.w.Z :.A :.e.:.S.| A Z Z z w < T % m Z x G A < 6 | } *.c x y.v.x n *.| c c 8 c A Z Z ;.F 6 x F -.m @ @ l S 0.S ;.&.l T m.;.=.l 5 &.e.e.e.T 0.&.G.*.e.*.:.F.Q.G &.w.9.M &.&.k.G S =.k &.9.w f.9.&.F e.G &.| F G y.9.6 2.L.D.6.m S.;.:.x <.H.| H.tX8XQ.MX).*.8Xv _.v.rXk.$.J.[ { ).dXc H.Q.fXvX8Xy.l.k.=.rXtXQ.B ;.S.y.I.w.z Q.6XF.7XHX=XF.6XdXvX9X$X6XQ.E.G.L.fXnX6XQ.:.7XyXlXtXnXdX0X,XE P U E E h.h.h.;X-X+X%X|.B./ ) _ ` P E ` E L U h r t r L E ^ L t E h 0 d U m e e l l d d d d d q e d 5 S =.z k M B z B $.u M $.T T D B y 8 A A &.F Q &.Z d.sXxX1X>XM.7.oX X_ B.B.8.~ 7.4.1.&.T S S Z 9.=.m w ",
"i.h.h.i./ ^ / ( ^ ^ / / ) s.i.a.s.s.a.a.i.s.a.s.j.3.U R p.R N U / E U ^ i./ W W ^ / / / / 3./ W U U W R ~ ~ ~ R / ~ U h h N U ~ h 4 e V V Z D G f f C Q V V R U m M Y 1.6.q.0.=.=.2.2.6.2.2.7.6.0.2.T T ;.;.&.;.J &.;.;.9.:.F :.q.;.;.9.e.q.9.e.S.f.9.9.;.q.0.0.m.=.q.D.0.2.8.1.-.R ! 1.R / ~ U h h h U U U U U ^ ^ ! p.7.8.7.d.0.f.0.0.m.0.9.9.9.;.;.c.6.Q M Y F 9.F -.;.Q Z J D -.r.;.q.Z z l G r.G.S.J.y.v.nXGXDXcXvXDXfXl.jXdX6XtX6X<.<.>.9.H F ;.Q 8.7.K.q.iXAXVXfXrXv.<.m.wXvXbXhX@XK.W.W.R.R.R.J.J.H.H.H.H.b.b.b.n.n.n.n.b.b.b.b.n.@.@.@.t.t.n.b.+.t.n.+.X.5X6Xt.O...{ u./.u.u.@.n._.b.t.(.(.).J.(.b.(.u.t.<.a O._.t.a (.'.t.>.H.,.<.y.y.>.} e.=.F x A w.A % k Y w d @ % | >. .t.X.O.>.y.t.v. .>.b.<.O.t. .<. .b } ,.| <.y.>.,.k } 8 v c $.v ,.} v >.Q.5.v a  .y.{ y.<. .X.v.y.;.A A z e.9.Z G Q M q @ @ * d k ;.Z S.k.=.5.L.9.m.q.S.y.z x :.5.F 6 w.A G | S.y.c &.A z l 6 k 5 @ l c x *.e.8 c } A | } x y.*.p *.c A 8 x x G A x r.;.k Z ;.T k @ % q Y 7.6.T S l -.2.f.9.y w w.;.:.9.2.0.&.S.A *.w.&.Q.F.$.| ;.R.l z &.;.T Z 9.w =.&.k w.9.&.5.;.x G x ;.e.5.F B 9.L.0.1.4 2.y.e.z y.>. .,.nXwXtXtXb.y.tX;.u.t._./.[ b.} a u.rX| t.).H.tX8XQ.m.Q.*.(.rXtXy.G w.G.6XJ.).w.6XJ.| d.DX).S.fXfXmX9X*XnXwXrX*Xq.W.R.w.*.J.R.5XtXrXnXmXdXOX/ ) ^ / ^ h.h.s.B.%XsX,XXXZ.h.h.P r E ) ^ U j 0 r r P g 0 P W t g P e e m C M T ! V x k 6 6 x z k 6 w M M w 6 x S B z B 6 y Z =.q.m.d.m f F z k c A } v 7 X.Q.Q.W.6.&.m.M.M.V.p.7.1.4.d.8.Q D M Z l 4 6 l Q ",
"i._ _ _ ) _ _ U E ^ / i.i.j.a.a./ ( a.V.a.8.s._ ^ ^ U U ^ / / / V./ U W / / ^ ^ ^ / / / / U U U U U U R ~ W U / / ! U h C h W U 2 * t C m M F G x 6 f V Y Y ! 1.R R ! 6.f.0.2.-.2.2.;.2.-.=.Q T Q =.=.=.2.;.&.;.:.r.9.9.w.e.=.;.2.;.&.&.9.D.0.9.e.w.q.0.2.m.D.q.0.Q 6.K.D.7.8.! R R 1.0./ 3.~ U P h h ^ R U U R ~ ~ R / 1.1.4.7.7.q.2.0.f.6.6.0.9.e.6.9.&.Q Q S H =.=.&.D Q F Q -.m.m.0.w.D D Z G w.r.n R.6XQ.*XHXSXAXvXrX`.t.).mXtXDXnX(.J.R.W.&.&.c.G.M.d.N.8.9XbXFXgXxX@XK.+XsXVXgX9X~.R.6XW.U.R.R.J.J.H.H.v.b.v.b.v.n.n.n.b.v.b.n.n.u.t.t.t.t.u.b.b.O.u.u.@.O.R.6Xv.n.+...+.@...@.b.t.b.'.H./.).7X`.J.<.H.t.{ v.t.{ @.b...{ b.O.v.J.J.<.y.<.o.*.S.;.S.Z k e.w.7 @ Y y 5 5 2 A O.b O.} y.O.y.y.y.{ X.b.<.} X.O.O.} ,.<.*.v b y.b ,.v 8 v 8 c $.{ <.y.s 8 5X5X} 7 9 ,.a v <.<.X.X.<.5.| &.y y ;.r.p z V d q @ * 3 y *.A k.F.=.&.F.F.9.S.5.;.Z Z 5.G.$.G e.Z c Z G S.5.&.A A G Z 5 5 @ w $.6 6 <.*.c | c | ,.x | e.v ,.} G c F 7 G A | z :.S &.=.l f % e 2 2.=.;.M F k &.9.F.;.l z S.:.e.0.S ;.;.w.z &.e.G 6XG.=.5.:.Q.&.$.-.l S G 9.M =.S $.G.5.9.9.$.c Z A &.&.;.$.5.2.S.=.2.2 5.5.$.B *.*.*.y.7XQ.rXqX).).tXyXl.b.(.H.{ y.t.[ +.6Xr.y.H.v.F.6XQ.tXQ.| ,.yXJ.y.y.R.e.H.e.6Xw.Q.nXnX6X6XlX6X=X9XzXNXE.F.rXrXtXE.=XR.S.G.G.6XQ.tXnXdXMXmX;XB.|.h._ ) _ ^ _  X|.%Xh.E ) ` ) E ^ ) _ ^ ) ^ P L g L 0 0 U W h h R Y m e l M =.0.-.Z z m l S F w w q w M M 5 5 z M y z z x x S F 9.f.D z M k x Z M n A p | w.1.M.m.-.m.q.8.7.8.d.d.1.D d f 6 6 l l f Q 0.m.",
") / i.B.i./ U j U / ) a.s.s.a.V./ / p.N.p.~ / / i./ E / ) ^ ~ s.|.s.U U W ^ ^ W R R U h h f h N P N U W R U U ~ ! R U h U U h 0 1 0 h C m S &.G z k w l Y ~ / d.-.-.1.q.f.1.;.2.2.2.;.2.2.6.-.! =.Q Q &.;.;.=.2.e.9.;.6.w.9.$.F 6.;.&.T =.9.&.=.0.w.0.2.=.0.D.6.T C ! d.q.1.1.! 4.! / 1.U U N h t 0 r U U U U U Y / ! 8.! ! 1.7.8.q.6.;.Q ;.q.q.;.6.6.Q V C R ! Z F Q &.H J Q -.q.Q.6.6.9.D Z z A v.<.n e.H.e.=.eXmXAXDXzX`.+.} w.R.SXmX6X6Xw.m.6.F y.7XK.8.m.1.m.@XvXAXAX:XfXGXJXFXcX`.b.G.R.U.R.E.R.!.H.H.b.v.b.b.b.v.v.b.b.b.b.b.t.n.t.n.u.u.t.u.n.u.t.u.n.t.n.H.).O.t.n.{ { [ u.+.u._.b.'.(.(.b.b.`.8Xv.H.(.u.H.(.O.u.t.y.O.t.t.v v H.e.v.<.e.| y.A 5.5.Z F 9.S < l T < % $ 7 X.X.O.b X.o.y.<.t.b >.y.>.O.O.{ >.X. .O.b v 7  .c e.c 7 k 8 } }  .>.e.O.p 9.).b.v 8 O. .v X.y.y.y.c | c *.&.x k 9.o.k V m C 1 @ q B | :.G F.e.;.&.k.w.w.0.w.Z Z T w.&.&.*.G G } x &.y.e.:.z H Q k w < 5 $.z 7 8 c x 8 p X.<.<.G e.v n A A x $.x x &.} | A F Z -.k l < l 1 0.F M Z F z ;.&.f.S x Z e.:.k.$.T ;.J ;.F e.e.&.).:.:.w.=.G.5.G M 5 z 9.0.Z T G ;.F.;.S w.F G k M *.&.;.*.5.9.;.9.=.q &.Z $.&.;.e.y.y.6XJ.8XnX6X6X<.J.'.(.8X7X,.y.b.O.O.6Xw._.,.`.Q.J.G G.6XH. .H.).v.e.).r.| k v.y.| e.F.Q.`.H.rXnX=X0.rXnXQ.F.6X6XS.L.6XtX$Xw.Q.6X`.nXrXrXdXpXa.U ( h.B._ E ^ h.h.h./ E g P E ) ^ E / ^ / / P L L h t W 3.W R Y -.&.S w w w y M z Z S T S D l 5 q w 6 Z Z x x x x 8 x x x | $.Z ;.5.k k z x c G v K A } B f.@XK.Q D 6.7.! 1.1.q.=.l f f C =.q.0.-.=.q.6.Q ",
"i.h.V.h._ ^ L L / i.j.a.i.i.7.g.1.R R d.3.V R ~ s.i.^ / / h C a.V./ R ^ E ^ / ^ U U h e 0 t U U N P W ^ R U h U R U U h f h h 0 h e h V V F &.Z l M m l Y 1.1.7.q.q.7.d.6.1.2.0.2.9.2.w.S.m.q.2.6.6.6.2.;.2.0.9.e.&.S =.0.-.Z D 6.;.2.-.=.;.Q =.0.S.w.6.-.;.6.T M d m Y Y m m q e f h Y 0 2 0 * 0 e h h h U R U ! 1.1.! D Q =.0.q.q.2.;.F :.9.9.=.Z F V D C C ! =.S M =.M M m -.c.F.Z -.Q 9.9.Z | <.<.+.q.0.9.N.0XfXvXDXmXmXkX).p n vXMX9XtX2.C =.M :.G.0.7.q.6.E.=XQ.8X'.@.@.n./.+.{ s a o.9.R.E.E.R.!.H.J.H.v.v.H.b.v.b.b.b.b.H.b.t.n.t.n.n.u.u.u.t.t.t.t.n.t.b.y.H.+...@.....[ +.u.[ ../.b.H./.n.b.v.7X`.(.b._.y.O.t.t.t.u.O.y.H. .v *.H.v.X.k.e.5.9.&.=.$.$.$.Q 5 6 e.6 4 X 4 <.O.{ { n  .,.H.y.8 *.t.,.<.t.{ >.t.a ,.| } 8 c }  .A 8 8 7 A } | } &.u.,.X.v y.<. .t. .v  .v.v.J.*.&.9.c c A z Z &.z 3 1 3 3 1 l | <.w.z e.y.e.| ;.=X2.q.D.F F &.;.G F ,.c n A x c A | *.x 8 M 6 < 4 < x G 8 x G A 7 c *.G S.| <.o.} *.r.A $.*.Z 9.k r.z T F &.6 K 5 l f 2.T M S M F F S 9.l S 5.e.:.F y S A f 5.,.H.y.k.R.<.e.:.Z &.w.M S Z x G.9.&.Z ;.e.S.G M G.c =.x y Z 5.q.k.$.G.M R.S D &.$.y.9.e.e.,.v.<.8XJ.kXfX8XO.u.(.J.yXtXH.t.b.t.J.Q.R.(.+.y.tXy.A c o.`.b.X.J.H.>.R.$XR.<.r.`.S.y.v.y.J.Q.w.E.tX).v.H.Q.Q.R.6XnXE.tXzXzX6Xw.tXW.rXnXzXzXwX) P ^ ) h.) U h U / W E 3.U U U / ~ R U R R / N 0 e 0 h / 3.! 2.T &.e.F M Z S $.$.B x B T T F 7 4 m y k M z c B c x x | ,.}  .c z *.%.x z G G x A *.| F | G G f.m.=.V m M V C H H K z Q 6.m.c.m.m.q.9.9.D z ",
"_ B.h._ _ ) ( s.s.B.B.a.s.8.~ 8.~ M S d.8.R R ~ / _ ) ) s.h U i._ ~ R / / / i.W h h U h e h W U N U U W U U U h N h h h g h h h h h P N U ! T Z d Y C d M D ! 6.6.r.;.=.&.=.;.-.Q =.T =.6.w.f.9.1.6.0.q.0.9.5.2.;.&.T =.;.2.=.&.-.=.=.-.=.=.T ! r.6.6.6.6.6.Q l 6 w m Y Y d d 3 % * 0 q * * * - ; j h h h U / ! ~ ! ~ ! Q D V 6.6.6.Q :.=.e.r.e.-.Z V m V C h Y ~ S C Q F F H J D r.G -.F q.e.;.r.o.>.,.v.e.c.D.aXzXmXSXvXvXSXDXJ n ~.fXzXrXU.7.7.M $.o.o.&.c a n b a [ [ s a { b v v v >.:.q.E.W.R.R.R.R.H.v.H.b.b.b.b.b.H.b.b.n.n.n.u.n.b.b.t.n.@.t.n.t.v.H.y.b.{ b.{ [ +.@.u.@.[ u.@...@.@.u.t.u.(.`.(.O.,.y.u.H.>.O.t.+.b...O.<.*.X.:.S.H.c A e.| y.G A 9.y.;.T 7 7 $.8 y X % <.X.,.{ { <.*.>.} 9 <.<.>.y.O.+.o.t. .<.,.| 8 } v X.} 8 p c ,.G *.*.n e.<. .p { n o.H.>.b  .y.e.>.<.o.<.9.z Z H x x Z m @ 2 2 4 5 | G.e.c Z k.*.k ;.R.0.U.0.F S ;.q.;.F $.| B o.c | x 6 x | Z Z K % < @ < x y 6 8 >.A v | } <.} *.*.G X.n A *.A 8 <.x &.Z Z 2.=.f k G z Z 6.-.D z M =.M $.G Z &.r.| *.S Z S l w 9.F $.&.Q.y.:.y.y.o.$.G.S 2.$.w F.&.F S 9.0.5.G G w.k &.M z x =.e.9.Z G.G k.=.Z &.G | Z y.e.,.H.v yXt.b.`.lX@.@.n.b.yXtX).b.y.t.v.qX6Xb.<.b NXH.X.{ c } '.t.<.J.} G.Q.R.D.k.F.`.y.F.$XrXtX5. .G.J.).6XQ.W.Q.S.`.rXU.wXrX9Xf.I.!.Q.fXzXmXDXwXi.) s.R h d l q U V l Y U R ! R N 5 k T T M l M V z l &.$.G &.$.;.<.G 8 k  .| B A A G =.8.T < 2 y 6 6 8 c n A v x x x } c | | G o.o.k G | } A c A x A | z 8 l z D M l m m M M M M o.;.F 9.S.G.w.2.D F Z k ",
"h.) / _ ) ^ h.|.h.a.i.! 8.Y d V Y V Y ! Y V V ! 3.s./ E 3.R p.a./ / / / ^ E ^ U h h h h e h h h N h h N N N U h f h h C h N h U U U h 0 e C D S Q R l l S l 5 M H J F M F &.2.-.=.;.6.;.6.0.q.q.d.1.-.q.f.9.2.9.w.6.2.2.Q 2.;.Q 0.-.S =.=.Q -.-.0.6.6.0.q.q.Q f f l M Y ~ Y R d * * 4 * * * * * r h C U ~ 8.s.3.1.8.-.1.! D Y 6.0.6.6.-.-.9.;.r.r.-.Q m C N h Y ~ =.Q Q -.D F r.D J -.-.Q =.} ;.r.G } <.G.!.o.&.9XDXvXSXAXvXFXGXwXv.J.E.dX*X#XT.g.6 7 7 7 < 8 s 8 9 a 8 k p p p c y y c o.H w.!.U.U.R.!.H.G.H.H.H.b.b.H.H.H.b.b.v.n.n.n.H.b.u.t.t.<.v.b.y.H.J.b.b.{ /.....+.@.O.@.u.@./.n.@.n.@.n.+.u.(.rX).v.<.u.J.(.u.n._._.@.O.J.<.| G | G.*.c F z y.=.x ;.5.r.0.z < B k y * + o.>.O.b *.y.{ X.8 v y.y.<.v.{  .b  .<.,.,.*.x } v  .} c x  .,.x n y.c H.| >.{ s s p ,.t.>.X.*.e.} v.e.&.:.5.z G z k w R 3 1 % e 5 | w.w.9.G *.<.8 G F.-.f.T S z ;.q.G z G ,.x e.G c | z 8 n A r.F w < @ @ 7 k p 6 c v v A >.| A } *.| X.c } $.:.6 <.Z | &.M =.G l 4 =.x z 9.F m m T =.z =.Z =.:.e.e.<.$.l l D F &.z | ,.).| e.e.y.r.5.G.&.5.2.k w.F ;.5.;.$.;.G.G F z =.k Z x ;.S.&.| y.w.&.&.l e.e.&.G R.<.X.J.o.).H.H.J.7Xu.n.b.u.).zXtX7X(.u.y.G.dX6X<.a ).7X>.{  .x t.J.,.<.:.y.9.G.f.R.F.6XQ.G.R.9XwXdX6Xy.v.v.W.rX9XrX5X6.rXfXoXeXL.E.$XtX6X0XrXdXfXzX|.W Y Y U V l c m Y Y Y d m m 5 C G G | &.M $.B S =.F | &.c c *.| A c c c v n A A *.&.! d.T 5 6 l p x A } y k v y 8 x | ,.*.| e.:.x x A A G | c v k c G x Z z M M M D C V 6.2.C l k l C Z z Z z m 6 l f 6 ",
"s.h._ _ / ( V.C.a.p.4.S S M w l M V Y d q m V 3.=.Y d q Y ! 8.d./ / / 3./ U C h t 0 r h h h h h C N C N h h h h U C h V h N h U V C h 2 * e R R =.M q V T 6 5 C z C C S &.&.;.;.0.9.w.2.0.-.=.2.q.6.6.w.9.;.9.f.w.9.6.q.6.6.2.F ;.2.T =.-.T Q 6.f.d.q.6.q.m.6.! D D V ! ! ! 1.R ; & = & - ; = - t U U U / 3.s.a.8.1.! 1.7.1.-.-.2.6.7.-.=.&.;.;.6.;.-.D m q f ~ Q -.=.;.J l J 0.e.r.;.C D T | &.:.X.o.t.F.J.O.c.6XhXdXzXNXrXmXJXHXvXfX:XrX~.$XZ.R 6 p z w 5 c { G v n p n k k n G 8 5 6 6 < =.M.E.W.E.R.R.R.H.H.J.H.H.H.H.v.v.b.H.y.n.v.R.H.t.n.t.t.b.v.v.J.H.O.u.@.t.b.u.+.n./.b.b.t.n.u.@.u.u.b.n...+.nXrXH.n.u.t.@./.t._.'.(.u.y.v.,.| G e.*.Z :.G y.S.z y $.;.4.9.2 Z K k 4 . A <.} b >.O.{  .a  .>.H.v.<.o. .} { >.,. .b c c v v v 8 n }  .c n ,.v 7X*.} { s a v  .O.,.,.,.v.} y.<.:.e.5.k S w k < m 1.% $ 1 5 :.r.v.:.y.e.*.p G w.=.0.F =.8 A y.| z G 9.x &.e.A <.o.c 7 7 A c l < < @ 7 6 n c x 8 x } r.o.x | e.e.G n G c &.k :.A ;.x M Z G f 6 =.z M ;.Z S S =.Z F G F &.;.e.F.9.5.l D Z &.$.x $.<.G.8 S.} v.9.S.$.G :.;.w =.Z 0.S.&.9.$.w.l x z ;.y &.x | r.| | w.H.F Z Z w.S.=.| ).e.} H.{ ,.(.).6XtX6X(.n.@._.nXvX5X'.(.u.v tXAX5X+.y.tXy.v  .,.v <.H.v.X.y.9.Q.R.5XR.E.rX).G.rXqX9XW.9.H.G.qXU.wX9XnXE.@XMXoX$XtX@X9XtXrXzXwXNXmXdXs.r d ! U U m S D S Y =.Y l S G :.| | F *.&.| x F ,.X.| } v c } A c A A n } | } c w.5.4.7.F 6 k z v 8 v *.n 8 x c n X.>.<.*.| ,.A x F G &.*.*.n A A n c z Z G T F C =.T f k M f 6 7 < 4 6 6 6 4 4 6 7 6 6 ",
") h.h._ i.V.V.) / ~ U C m m q q l V M 5 e m R 1.1.m N C C Y / 8./ / ~ 8.B./ U U r j L h N U U U ~ U U N h U R / / R U U U U h U h h h t * 3 R ! S d w T T M D D C z C =.=.-.0.2.q.9.;.T 2.2.=.T &.=.0.f.0.9.9.6.0.0.6.0.q.f.f.;.5.9.;.2.-.=.! 1.2.f.D.d.M.D.7.d.0.7.1.8.! ~ / / g & & & - & * g E _ s./ / / 8.7.8.d.1.1.6.1.6.6.2.7.6.6.=.z =.9.0.=.=.Q m f d ! Q -.! T M z 6.;.S.y.&.l l F &.F ;.9.:.v.G.~.c.9.R.J.O.{ { s ..dXDXMXMXzXtXR.5.G n n } G 6 6 z } } { { +.O.6 7 p p 6 < < < 5 ! m.@XE.W.W.F.!.H.J.J.J.J.H.F.G.v.v.H.v.v.J.J.G.t.n.b.v.(.n.b.J.@.+.u.n.+.O.(.@.@._.b.(./.(.u.O.O.+.t.).(.s +.7XJ...@.n.@.+./...b.(.b.y.y.J.<.G.,.y.e.A A &.e.$.x G ;.l ;.z k p 6 1 . 7 X.} } t.O. .} O.X. .H.H.O.O.<.O.>.,.<. .v c n A v 8 v  .} k  .y.{ v H.).>.b { 8 9 {  .b b X.} p e.*.e.:.:.z 8 k G l 2 1.e $ 2 5 | r.H.c :.S.G.z G w.9.$.G $.y z ;.| Z c 9.Z Z S.&.5.*.*.x 7 c c x 7 < 5 7 7 x } k p 8 n | <.} | X.<.} c v c G Z 9.Z ;.k F F z 6 M w.S G ;.Q T S 0.S S.$.F &.5.r.R.y.&.z =.k $.5.x | $.e.c J.<.<.e.H.$.G G =.5 S w 2.6.F S.&.9.Z M ;.;.6 Z B | 5.| B &.e.=.Z G e.I.:.| R.).*.y. .b (.(.H.tXnXrXH.@.O.(.HXfXI.H.'.O.H.tXrXy.| F.H.y.X.y.v. .>.r.>.e.f.F.f.f.Q.I.S.y.,.H.tXzX9Xm ,.H.L.6Xw.K.fXmX! zXpX@X6X=XwXf.tXmX6XmXDXMX1XP e R / a.~ ~ =.S z F G 6 w Z A G &.| ;.=.x 6 M | ,.X.c  . .b } | *.*.| } n n x ;.;.2.-.| 8 c A b v v  .} } *.>.y.e. .} | :.*.| A Z | :.X.:.A x A c x A G D z x w 6 6 f l =.Q l l k f z l f M f k 5 f l ",
") ) _ ) i.a.) / / W N Y =.=.V Y Y R V C ! Y 1.! / R ! ! m h ! 3./ 8./ / N.V.a.s.a.i.^ U h L E E R U C U R / / / ^ U U W W U N U N h h h t 0 V Y d d m Y Q Y =.Q C f C =.Q Q w.0.0.6.-.=.2.9.2.=.&.T &.2.2.6.2.;.;.Q Q 2.0.0.f.w.e.5.=.Q Y 1.1.4.! 2.M.m.U.K.0.7.m.D.M.M.1.! ! 1.h - * * - # r E ^ s.V./ / / d.7.8.7.! ! Q Q =.6.7.7.-.2.;.5 Z 2.&.M Y ! Q D V 6.! =.S M l Q r.:.w.e.D l l Z z o.=.r.e.v.v.!.T S w.<.{ { ..@.[ &.rX6X8Xv.9.o.n n b *.| n 8 7 p n +. .O.t.o.p p H c M 5 6 < 5 d ~ @X$X$XE.U.Q.J.!.!.!.J.H.J.G.b.v.H.v.H.J.v.v.v.b.H.v.J.v.b.n.@.@././.n.@._.b.+.@.b.u.u.b.b.u.n.u.n.J.(._.+.u.b.O.@.+.+.u._.b.{ b.b.t.y.<.H.J.y.;.y.$.F $.=.e.M $.G M Z c 8 K 8 3 o @ { { *.y.X.$.*.y.{ X.y.v.,.O.O.{ O.>.>.} A b } v n n 8 A v 8  .v. .} *.J.>.X.y.v 8 { { O. .X.<.c c ,.:.w.;.F Z 6 6 l q % ! 1 q f z <.v.r.:.k.6X&.| :.w.&.} | A x | F A 8 :.G G ;.:.=.>.} A 8 z A z 7 5 6 7 5 6 c c p c } n <.,.*.G | | } x x Z =.e.M &.z z F 5 z =.e.M G ;.C F D Q M f.S x ;.G.v.I.e.B Q ;.6 $.;.G o.| r.| y.G.<.v.w.Z 9.Z $.6 5 l f.;.;.f.T 9.M z ;.:.A G G Z 9.r.A $.9.=.G z G G M B <.).&.<.y.9 u./.t.Q.kXtX7X7XO.7 b.GXrXv.7Xv.y.).rXk. .y.H.J.<.v.J.<.X.<.o.e.5.9.9.=.R.6XQ.y.J.Q.F.mXJX9X} y.R.W.| 1.*XwX@X:XdX9X=XE.dXf.L.dX=X9XmXvXDXXXR N U h V Y B c c A &.$.A B z A *.&.&.| c c c A } } A | *. .b A  .*.,.| }  .v } *.&.2.&.n | | G 8 8 G | A c | y.<.A o.G o.o.*.| G | <.:.o.| c p x k 6 6 6 6 K k M T =.T ;.F z z F S m m M l 6 5 l m f ",
") _ i./ / U U / / U N R 7.1.~ / ! ! R / / R ! ~ / 3./ R C C Y / s.i./ / s.s./ Y p.Z.s.i./ _ h.a.i.~ P W / / / E U U U U U U h N N N N h e 2 h U U U C f Y Y M m m w M D R Q 9.w.9.-.=.;.=.-.=.0.;.=.=.2.6.2.=.Q Q T T ! 2.7.q.6.=.=.Q Q R 1.1.7.4.=.2.-.6.D.Y.M.d.m.D.M.7.1.1.7.U - & # o X g L U i.a./ 8.p.d.d.8.1.m Y =.Q Y =.7.2.=.2.-.4 d / R m Y -.-.1.! m.! Q Q Q S 2.Q 6.w.:.5 1 5 M M &.n | r.<.S.f.=.G.O.7 a G n :.v s y...O. .<.:.Z x 6 l l 6 6 6 f f n n } } p 6 6 M G x 1 6 < 4 0 U T.Y.@XW.W.U.R.R.R.!.!.J.J.G.v.b.H.H.R.H.v.n.b.b.H.G.H.t.n.n.u.@.(.`.J.t.b./.n.@.b.b.b.@.n.J.@.@.n._.7X(.O.t.,.{ O.b.+.@.@.7XJ.u.'.y.v.v.c F.).;.&.z x Z ;.F.$.G | x F 6 B k 8 5 + $ n <.w.y. .e.e.<.s O.y.<.e.,. . .X.X.<.b } } n  .c A k 8 b v A y. .o.} y.b { ,.,.a { v  .>.{ *.H.A } ;.w.q.G M z 6 6 V + 0 e 3 M k :.S.9.c 5.5X;.r.:.:.| B A ,.c | ,.G 7 G G A &.9.w.:.8 | c 7 z A 6 k 8 8 6 6 6 M z x e.X.,.| ,.} X.X.| c c Z &.e.T S l F Z < z 2.$.S F q.G 2.S Z S &.&.6 &.F.F.e.<.S =.F z A &.| :.o.| | <.,.<.o.k.l 5.Z =.S < w 0.=.9.9.T w.k Z ;.r.G | :.G &.9.| | &.=.F x &.G x B } e.G } '.>.O.t.+.y.).`.6XyX7X9 , <.lX`.8X6X*.u.6X6XX.O.v.y.v.t.y.y.G e.y.r.F A R.w.G.y.).e.8 t.y.5.dXMX;.G L.nXf.S E.6XdXwX:XW.$Xy I.$X1.wXW.Y.@XsXMXzX9Xd.M D M F Z c c A | :.*. .A } X.,. . . .|  .} } $.| *.*.,.*. .*.}  .X.*.*.b o.>.G &.S.y.:.A } A H *.>. .n x | >.n *.:.:.r.<.,.*.*.<.y.<.X.o.c c G o.:.;.:.&.=.9.5.w.9.=.z x C T S C C M w 6 f Z S M ",
"/ s.p./ / R U ~ ~ U U ! 4.4./ ~ / / / 8.~ Y R ! / 3.3.3./ / / 3.a./ E ^ / / ~ ~ i.V.h.V.s.B.Z.Z.C.h./ / / E E U U U R U U U C V U N h h 0 0 N N N 3.Y 5 V R V M Y Y V m Y -.Q =.q.2.Q =.T 2.9.0.2.6.2.2.0.6.Q D -.D S S ! 1.2.2.&.&.! 6.-.1.6.! R Y M w l Q U.K.f.q.m.q.7.8.1.-.U ; O o o o j g h Y ~ D 7.N.8.1.1.-.D ! 6.-.Y -.d.2.-.2.=.q q ! 0.=.-.-.=.6.=.-.C D 7.=.-.6.6.;.J $.7 4 l S J D z M p <.E.L.o.>.o.} <.6 7 G G  .H.<.<.:.w.m.M 4 4 q q 4 4 q 3 * 7 y y w q w l M A 6 < 5 4 3 * 0 f d.Y.L.W.U.U.E.R.U.!.!.J.H.b.H.H.J.J.v.b.v.J.H.J.H.H.b.t.n.b.n.).6X7Xb.t.b.n.u.n.u.b.H.H.).v.@.@...H.6Xv.O.b.u.O.u.@.+.u.<.).t.v.H.y.J.<.k :.w.w.=.k z c k.=.:.*.y Z 6 T M p 6 % X z y.e.y.,.*.<.|  .>.<.<.y.O.v X.{ >.<.b X.o.}  .n n x 8 } k c >. . . .>.} } v  .s {  .v } ,.>.,.y.| :.F.q.;.Z D G l q 0 X @ 3 6 k | R.S.$.$.Q.F G G <.*.y B ,.} c <.*.< } *.c <.;.e.y.8 A A 6 k &.k k y y 6 7 5 6 M 6 y.*.<.*.>.v X.| >.*.} S 5.0.M l M Q l 2 2.9.G ;.r.;.;.w.z $.S $.&.T G 5.S.$.e.Z M z *.r.G <.:.o.n ,.<.>.X.n k.M G H G Z < l w.9.S.S T e.y S G ;.A Z *.G :.,.,.} A 5.S A ;.w.| } } e.<.8 H.(.y.t.O.u./.'.6XrXnXO.9 9 t.yX6XnXG.t.J.6Xy.s t.>.} `.H.R.v.:.S.:.;.k <.6Xv.<.<.).} v  .v r.nX6X9.m.K.vXM.M.8.K.fXpXY.9Xw $.zXM.mX9X*XY.zXcXK.$.=.G X. .c n | A A A | b } >.*.*. .} } O.} {  .| *.$.G c A v b | X.X.*.>.,.X.X. .A A >.>.e. . .,.} X.*.X.*.} x } n | e.e.>.| A *.<.e.<.y.<.} *.e.y.y.9.S.c.&.r.y.=.9.5.;.Z M =.&.G S m d f k M G G Z ",
"/ ~ / / ~ ~ / 1./ Y V ~ ! ! / / 3./ / i.U U V U ! 4.R R / / i.a.i./ R / / s.s.i.g.V.B.B.s.B.B.a.h.) i./ W U U E R R R W R R W U U U h f h h h 2 t ! Y l ! =.2.=.! Y m q ! 7.Q -.0.9.;.9.=.=.2.=.-.-.=.-.6.1.Q =.1.D R S Y -.0.2.;.-.=.-.Q Q D z m m w 5 f f ! 7.K.q.=.l m Y D M N h & - r # L L e V ~ ~ 1.7.R m V Q Y Y 1.-.Q 6.D.0.=.-.Q d q V 1.1.-.1.-.Q z S C m S S 6.=.-.Z f | 5 6 f 6 K l Q x 7 v.6Xw.p b X.<.@.n n y.v.c.Q.v.G k B ;.6 5 l Y d q 2 6 6 1 ; q k 6 y M l w 5 1 * t 0 & + % m Z.K.K.W.@XU.E.Y.R.!.!.F.J.H.H.H.J.G.v.b.v.R.F.Q.J.b.b.O.n.n.b./.b.b./.@.n.u.t._.u...n./.b.(.v.v.'.).b.`.t.@.O.O.O.@.@._.).H.O.>.,.J.G.Q.:.6 F S f.G k y 5.&.G %.6 B y l C p l 3 . w e.H.H.} } t. .t. .<.H.,.} v <.v <.X.{  .b *.} } b 8 8 A } c | v } ,.*. .{ X.{ a a X.{ b b *.*.<.y.:.:.;.w.Y M =.=.1 q @ % l k c G y.e.5.G I.&.&.x ,.S.G A | *.8 } <.7 A *.G } ;.&.G.z z &.8 z c x x 6 x y 7 y 6 6 k y.|  .:.<.} *.c n <.o.M w.Q w 6 -.M k 6 2.q.5.;.9.Z 9.2.=.&.F F $.;.T 5.y.;.| y k | y.y.| <.c  .X.e.,.,.A G $.S Z H &.T 4 C 2.=.5.y ;.F x &.$.e.&.z :.Z e.e.} G &.y.$.G ;.:.e.*.F A y.B  .t.).(.{ b.b.).8X).yXb.s [ 7 u.Q.lX6Xe.b.(.b.a O.).p J.I.).v.;.y.r.S.v.e.R.R.R.G.r.G 9 ..u.v ;.U.9.R.$X>XsXa.oXR iX;X*XdX4.q 6XY.wXzX$XfXmXHXMX1.< n { | c 8 } | c | $.} n b G A } n n | X.o.*.>.*.} } } *. .X.<.y.y.t.t.>.X.X. .c } >.} o.b  .,. .b  .<.,.X.c c r.>.<.<.<.>.}  .>.v.y.e.*.>.*.v.G.F.v.v.w.:.r.w.M Z Z D M F 2.;.&.F m D D M G :.G z ",
"/ ~ ~ / / 3.V./ ~ Y ~ 8./ ~ ~ / ( i.V.3.~ ~ R / U h j P s.^ i.h._ _ ) ( / a.P.j._ s.A.C.V.V.V.h._ _ s.s./ U R R U R ^ E R ^ ~ R U U C C h U h 0 0 h d Y 1.! 1.~ m f 0 * =.d.T 8.q.-.-.d.q.7.1.Q Q Q Q -.1.1.-.8.8.! ! ! 2.6.=.Q z F Q Q J Q T M f 5 f 6 l M Q -.M.m.D 5 f Y N d r h g P E r U U h Y 6.2.=.=.M N D Q V m ! 6.Q 7.m.! Q =.Q C 0 m h N Y ! V m d Y S d m Q f k l l x F 6 6 6 < 6 &.J x 6 w.H.o.b t.O.{ <.t.v.J.).I.`.<.p 7 7 6 < 6 z S m l f l M q 4 f z y q e 4 = o . + X X X t d V 1.m.U.E.E.$XE.U.U.U.R.!.!.!.F.H.J.b.v.H.R.Q.W.v.v.b.b.O.n.b._.+.+.@.t.O.@./.u.n.n.n.@.@.u._.(.O.t.'.'.b.t.b.t.<.@...t.u.'.b.t.o.} H.y.H.H.B T k B $.x 6 T :.c ;.Z A z M B c 8 4 X f e.y.y.A n { { o.} v.y.,. .b y.b <.<.{ O.v *.A b v b v A  .v >.b X.b >.t.} X.>.t.v { y.{ b o.X.*.G e.9.5.:.q.l l ! d $ * % w l B | w.!.:.c e.9.:.Z &.e.*.| b | v A ,.c G y.| c e.A H.w.y c x v x | Z z k 6 5 7 6 7 y :.A ,.>.r.A ,.G k ,.y.k F M y y F < l G 9.S.F &.&.9.k.z T &.$.&.S ;.;.<.e.e.k 5 7 e.).e.A e.| A >.*.y.o.p <.} 8 z z G l 6 T &.B ;.T =.k z $.| r.A | G.G :.G.z A *.e.,.z :.Z :.y.*.n <.v.X.a y.(.t.{ @.@.'.6X7X5X{ @.[ 7 O.b.HXv.u.O.(.o.{ b.v v ,.Q.J.o.:.*.r.:.F.G.6XJ.lX7X$X*.v.(.6XM C R.Q eXsXGXoXaX! :XsXW.dXY.m 7.M.wXSXE.kXvXsXMXMXd < 8 k c *.>.| A G } } A A 8 v p } X.b } } } *.} c } A X.,.} A b *.>.A b X.| } n  .>.,.>. .v c } y.y.*.} } x n y.y.v.y.e.;.G G >.<.<.*.n n o.<.<.>.:.r.G.;.:.| z Z z z T D z F D &.&.6.&.=.Z &.F Z ",
"8.~ ! ! ! 8.a./ R / / ~ ~ ~ / i._ s.a.3.3./ / / U h U _ B./ _ s.) i.a.8.s.Z.Z.i._ a.A.C.V.Z.Z.h.i.s.B.B.s.( ( ^ / / / ^ ^ / ^ R ~ R U h h h h g h 4 * h R Y C f q d 1 + ! M.1.-.q.2.! 6.0.7.6.6.6.7.-.1.2.1.=.=.7.7.7.1.1.Q Q Y C D =.-.Q T Y V d q m V V S V D d.q.Q d q N h h g h h U U t U V ~ 8.q.0.r.-.T ~ 1.1.~ Y 1.-.=.6.6.C d D 1.8.m d h C U R C q q Y ! l S Q 5 f 6 k D H M S F M G ;.o.z c <.<.:.O.<.O. .<.v.v.J.J.H.7X9.k 6 6 k f f 6 l Y Y V D d 2 1 6 f 4 % % + + X X o . + 0 d d V 2.K.K.Y.=X@XY.U.U.!.R.!.!.!.!.J.J.v.v.H.Q.Q.R.v.v.b.b.y.b.J.(...../.b.O.+.b./.(.b.u.u.O...O.(.n.@.u.b.'.(.(._.n.u.n.u.n.(.H.b.y.>.<.J.H.y.<.;.Q k z S M F :.z -.F z 6 6 z A 7 4 $ * G G.*.k p o.>.O.v.H.X.<.X.} v.n <.t.} ,.b } }  .v k  .n n b X.X.*.v  .,.X.>.} y.*.O.y.O.b } y.*.*.} :.:.x M G 4 6 Y % $ + 6 k x *.*.w.S.A ;.9.9.Z ,.9.>.c v v b c | } 8 y.| x | A ;.e.c 8 8 v c o.Z &.k 5 5 7 6 7 x | n *.r.o.x c | c *.y.Z M z w y z 1 z ;.0.q.F &.;.k.;.Z &.F &.$.G :.;.r.,.o.7 y 5 S.R.*.n ,.n v ,.} t.>.8 ,.Z 7 6 z z m < Z M B S Z =.M z F | :.z &.e.r.w.&.G r.G ;.,.8 9.$.c | e.n b H.J.v b  .(.t...O.b.8XyXrX} +.t.a 7 7 `.8Xb.8 y.t.{  .a 7 *.G.).G.e.,.e.| e.o.G.G.!.tXwX0.e.R.NXW.m 2.4.*XV.pX:XXXg.T.vXzXdXP.K.7.M.I.FX*XtXFXCXxXHX,X6 x x y z | c x x y c c 8 x A n v n b c A n | A x c c b b v v n X.*.*.,.X.*. .}  .v  .*.>.| v } ,.>.A A b x  .,.>.,.<.,.:.c v A n } } v c n <.y.G A <.v.X.G n n G F F 2.=.z l M T &.G Z Q H G n n ",
"i.! / / ^ / p.8.~ ~ U U / 8.s.a.s.i.s.a.V.a.a.V.V.Z.XXC.V.a.B.B.a./ 8./ p.P.N.N.Z.T.C.C.C.P.Z.a._ s.V.A.B.i.s.i./ / / / / / R E ^ ^ R U W U E U h * @ f ! V 4 1 N U U j U 1.! Y d.M.7.6.7.7.6.2.2.6.2.2.=.R Y Y 1.7.d.d.d.-.! ! 1.! =.1.=.! R m d e e e d d m V 1.R N 3 % 4 0 g r h U ~ ! C ! 4.1.7.9.c.9.6.=.~ ~ 1.7.! ! ! 8.-.Y f f d D 8.V m 0 0 e e m V m m C f C d f S l C S M l k S &.=.Z | F o.w.O.} O.O.b.t.<.| n <.y.>.9.z < < w H M M z Z -.=.D m 3 4 4 2 = .   + t L e U R V h f q d S =.f.W.W.=XY.Y.E.Y.U.Y.U.U.!.!.J.G.v.J.Q.W.R.J.v.H.b.H.H.H.H.t.[ [ +._._.b.t.t.y.H.'.u.u.b.u.@.n.u.{ @.b.b.O.u./.u.b.t.t.b.(.6XH.y.X.*.t.y.<.*.9.M 6 S S Z | 8 F ;.8 < 6 A :.6 6 $ X z ,.B v b y.y.>.b.O.} t. .O.b. .<.t.,.>.} v } b c b *.b n *. .y.*.a } X.X.e.,.>.X. .} O.H. .*.| *.>.G :.G z Z k 6 M e @ @ 5 5 x A o.*.<.e.e.y.S.z y.e. .v n 6  .| X.X.6 *.| c v ,.5.5.| 8 c | | c A G 6 x y Z 6 < y *.r.*.:.A c x o.c e.e.6 k x 5 Z l k S T =.;.=.y.e.S.$.r.e.F 5.c &.S.w.| | v p 2 $ 9.).,.c n v v ,.} <.v.o.e.A x x M x Z 7 S 6 -.Z F -.T z M | F A &.| y.F.c G v.G e.<.Z | :.A 8 *.y.p a b.v.{  .>.(.b.{ @.b.8XNX7XO.H.@.9 , 9 <.(.t.s  .{ { 8 7 v e.H.>.<.| r.A } e.| %.9.G.=XdXG.&.rXdXf @ U P.vXZ.oXoX:X+XmX=XMX9Xg./ L.4.>X9XW.JXAXxXvXAX2.5 k 6 7 6 w x x x A c 8 c A A } n v v p v  .c 6 6 8 8 v >.<.>.>.e.,.} n b { b v v b 8 v A } c G A v } } n X. . .b n v c n o.X.X.o.X.>.} v n } A x p A n | | G :.y.;.S z Z M Z Z Z z F :.F | c z ",
"s./ ~ R ^ ^ ^ R U U R 3.p.8.i.i.i./ s.a.s.a.V.B.V.V.C.V.i.a.a.i./ ^ 8.7.N.M.6.7.M.oXC.C.XXC.C.N.g.V.V.V.V.a.a._ 3./ 8.i.i./ / / / / ( ^ ^ ^ ^ ^ h t * 0 U N * 3 ~ ~ Y Y C h m R 2.0.1.1.6.6.1.2.=.1.1.d.0.1.1.! / 8.p.M.M.d.1.1.d.7.1.1.=.=.! m 0 e e e 0 f d C R m d 3 % * * 0 0 h U R -.Q =.0.9.;.9.v.w.q.2.Y Y 1.8.R C R ~ C C V C m d C ~ ! g 0 f f N R Y d 5 3 d 4 f M l M D Z k k Z D H z | ;.G 9.O.} { s O.X.A 8 8 H H p 7 < 2 5 z x 6 m M M M m m q 0 0 * + .     * V Y N N N N q q q d w l d.N.Y.$XY.@XE.E.U.U.!.U.J.J.!.v.H.Q.W.E.J.H.v.G.J.J.H.b.J.@.+.O...n.(.(.(.n.(.b.J.y.u.u./.u./.'.'._.'.b.O.+.+.t.(.(.O.b.b.6X(.H.v.<. .<.y.*.Z =.5 M &.Z | 7 6 | x < 6 z | p z 1 X C &.B { O.t.,.,.<.X. .<.O.>.y.X.O.>.<.,.v a v 8 v 8 >.c A e.| t.t.v {  .,.,.e.<.>.G  .} ,.y.} } v X.o.o.| =.z F 7 w Y 4 @ 5 6 c k e.G.A ,.e.e.F.x e.e. .A } 8 b X.b } v | | | n e.9.5.c p n *.| 8 o.&.k 6 5 z < < 2 G e.:.} | v n :.c y.&.k F l w Z 6 6 T 5.&.F z F.e.9.} e.F &.&.k =.R.G.| A | z y $ G `.G.X.X.8 k  .A y.b.,.y.| M x z G G x x 6 F M Z F $.S z Z $.;.G G y.H.,.A e.A e.e.e.r.A G } c y.o.p { t.a b.O.t.(.[ ..u.8XfXyXt.b._.O., 7 @.y.(.+.b p X.b 9 8 9.v.H.X.A e.>.c A e.;.!.r.!.W.G.r.F.HXoXe / 3.GX3.Z.p.0XM.:XeX9XdX#Xg.oXM.>XfX9.AXSXvXaXvX6X4.6 6 8 5 5 k z x z z 6 c $.| } } A A 8 p | } p x x p x v x x v v b v v b { { v v } v n >.y.*.v n | n n v n } } v n x v } o.>.X.} >.e.<.} } b c } A x p n >.:.;.&.H 6 k w z G =.&.z =.:.G | H x ",
"^ / / i.Z.s./ ~ ~ s.V.N./ R ^ / s.p.a.a.i.s.8.( p.i.8.s.i.s.i./ ^ i.a.p.d.D.f.w.D.Y.XXC.C.Z.Z.V.Z.V.N.a.a.a.a.i./ i.i.8./ / 3.) / i.i._ / i.s.i.8.i./ h h e * 1 f U ~ ~ m h m R 1.4.R =.6.0.0.q.8.8.7.d.d.7.8.1.3.p.g.M.M.M.d.7.8.V.g.1.R ! 1.U h h h h 0 d V m N d q * * e t t e U U Y 0.9.9.f.5.T :.r.6.9.=.C Y Y R V N U U N U U N h h q C R f 0 N N d m l 3 2 m m f f q d V F -.M l D D H x G :.o.:.>.v a a ..s p 8 8 p 8 x K 6 w M x p k k w k f 6 6 2 3 3 # # # & o & m U C 3 * e e d y w @ 6 =.q.@XY.@XY.W.Y.Y.Y.U.U.J.J.!.H.!.R.U.W.J.b.v.R.J.H.J.n.u.+.@.t.O.t.t.t.7XH.t.'.yX'._.n.+.[ O.+./.(././...O.+.O.J.'.H.b.b.).(.(.v.y.y.<.<.e.Z &.z z =.G F F 6 A | 6 5 y x 6 8 < X M x B  .{ t.t.,.t.>.v ,.,.X.<.>.X.X.>.,.b p 8 7 6 k ,.A *.y.A { y.{ X.X.t.*.>.*.e.>.o.o.} <. .v <.| A A | T Z M z 4 m m % f x n x } G.,.c e.*.G.c $.y.A >.*.v v X.b *.k x c p v *.;.5.7 p v *.e.6 | o.x z l k 5 < 5 G e.&.v A v G r.| 5.:.w M m 5 M l F 6.9.&.z =.G.y.e.<.r.*.8 G F.y.G.G.,.} G z 6 7 A G.e.X.v v v ,.A y.<. .e.*.| k < :.k Z 6 k Z M x 9.;.B z M 9.9.r.} <.e.>.| r.v e.<.e.y.c c | n } *.{ a  .O.b.y.t.t.+.[ +.8XzXNX(.@.(.`.n , [ y.n.t.t.{ { b a 9 G b y.,.G *.<.X.c e.S.tX6X*.v.H.:.0.zXiX3./ U cX#Xp.d p.P.P.*Xd.Y.MX&Xg.@XC.9X0.pXhXDXwXfX7.=.B 8 z y 6 6 6 8 y u 6 y B A c p n *.| A | } v c v n } A v p p b  .} } b  . .b b } } X.*.*.>.c c A k v n c c n n G n v *.| } n n } } o.,.<.,.>.H.v.} n c x 8 x 8 6 6 G Z F ;.=.;.J ;.G n G | A ",
"/ a.a.C.+Xs./ / / s.p.p.3.! s.V.Z.Z.g.Z.P.a.~ / p.3.8.s./ / i.^ ( a.8.1.1.7.0.9.m.M.XXC.C.XXT.P.C.Z.V.a.a.s.a.i.8.p.a.p.i.p.p.a.a.a._ ^ W / h.h.a.h.s.^ U h f h h C Y U N V m C =.8.8.d.m.M.M.M.7.d.d.8.8.7.d.N.V.V.T.P.d.7.3.8.~ p.d.=.1.7.Z.3.~ R U V N U ! Y V h t 0 t h h h N 3.1.=.w.w.6.0.2.Q Q Q =.;.Y N N U N N V ~ C ~ / R U h h 0 h U h 0 N N N m 5 2 w R h q 4 @ f D D 2.M l D D J K 5 D ;.r.>.a [ O.t.a K < < x x Z k k Z G 8 f l 6 e 0 0 1 4 * 2 * + + 2 0 4 4 q j 0 * 0 h h d 5 5 l S d.T.Y.Y.OX+X@XoXY.Y.U.U.U.U.!.R.R.R.U.!.!.H.H.R.!.H.b.t.t.>.n.n.t.@.t.O.b.(.n.t.b.yX/.b.'.[ +.[ [ @.u.@.@.@.+.a ,.(.H.J.(.y.y.v.t.O.v.H.e.:.$.c 6 k &.B F A } c B k 5 B A n 8 1 $ 0 < M X.{ ,.<.>.b.>.8 y.y. .v.>.X.} ,. .} a v a 6 A c k *.,.v b X.{ >.} X.,. .{ >.,.<.X.X. .X.b >.*.| c *.&.Z z 6 @ 4 m % z &.c p A v.G.A | r.,.} z *.n | >.A 8 | } X.v 6 k p } *.G ;.8 p 8 *.>.p G r.x z $.Z 6 7 6 n :.| n *.c *.r.G G =.5 z C 5 l m ;.F 2.G A 9.r.| e.<.e. .c e.S.9.G.S.,.| M y p 7 A e.e.} 8 b p G.} y.,.A *.,.c z < Z 7 x x Z M k 8 e.f.y 6 M 5.:.y.G G.>.y.,.>.>.} <.} ,.8 c G v n v } } a u.b.u.O.(.X.[ [ n.'.8X8XJ.b.yXb.a 9 { (.v.,.X.O.o.b v x v >.X.e.r.*.*.<.e.m.K.mXR.6 `.m.8.=X>Xg.R g.( cXs.R K.Y.mXY.K.4.0XcX8.@XT.sXXXaXiXcX:X9X$Xw Z G z c z k 5 5 5 y 5 6 8 8 8 k p x } A } A c n v n p k v 8 8 v b | A b b v p c } }  .| | X.| *.>.X.A v x v n G A H p n A x p c n X.o.o.o.o.} } o.} A c } n x x c Z :.&.&.=.G o.D Z x G Z G G ",
"a.a.V.|.|.s._ i./ / ~ 8.3./ N.C.Z.V.3.p.K.a.U / i.s.a.V.a.s.a.s.p.a.8.1.! R S =.0.d.XXXXXXXXP.XXC.Z.V.B.B.a.V.a.1.8.p.g.g.p.p.a.a.p.i.8.( / / i.3./ R R / / U W U U R V V R m h 1.p.d.K.K.M.d.d.N.M.M.6.7.M.M.M.g.p.V.M.1.Y ! 8./ 7.d.1.8.M.M./ / / R W U ! / ! R U e t t t t e N 8.6.6.w.q.;.9.=.Q Q S ! &.S m V U U U h U h V ~ 8.~ h f e h N h 0 h V U m 4 4 m Y q 0 3 + d m m -.C f M M M 3 % 4 &.e.t.o.a <.O.6 1 @ 4 Z } >.z K z c x f 3 * * @ * % % @ * 2 * * q m V U V U q 0 e q 3 1 h 8.Y.9XpX+XT.Y.Y.@XE.W.E.Y.R.U.!.U.U.E.W.Q.!.G.H.!.J.Q.Q.!.b.t.u.H.b.b.t.n.(.b.J.b.O.O.a { /.O.O.@.[ ..[ 9 ..@.+.@.n.t.O.t.J.b.(.b.y.b.t.v.>.y.;.*.| c y 6 Z G =.x | } A G 6 c n n 8 1 1 @ @ z <.X.>.,.<.v.X.v y.<.b v.v O.o.y. .b v a p 8 v k p } *.n O. . .{ p  .>.{ } <. .>.<.o.>.O.>.} ,.y.*.k 9.D x 5 1 $ % % k :.A 8 A e.H.>.>.*.x $.F | v | | b v b  .X.A 6 c 8 v } | =.8 k v } e.v v r.c 8 $.G 7 7 x X.:.G c <.6 r.y.G k z k T S m V f &.&.9.M e.5.G :.e.} e.c A *.e.e.R.Q.y.} Z k x 8 *.<.e.*.k n c y.>.>.<.} *.$.y x 8 x 6 k z T Z z 8 e.k.l 7 B :.o.r.*.H.o.>.v.| X.| X.A A v A A p A e.b v p v (.b.9 t./.[ @.u.'.`.rXb.t.8X(.b 8 { O.8X<.v O.b v v p v *.X.w.:.>.<.<.G.;.f.W.wX7 1.M.~ ,XOXXXh XX( XXZ.h 0Xd dXW.$X0.@X>XY.@X,XAXFXpXcX0XzXK.MX2.< S B z 8 y y 6 5 y 6 5 6 7 y v 8 8 p }  .b b A v c 8 6 8 k b b n } c v c p p c A b } } } A  .} A v v b v v n } n c n } } A c p b >.X.{ { { v v v v n A >.} n | | H G D G &.D J G z D &.J o.o.",
"i.E ) i._ / / i.3./ / ~ R / g.s.3./ ! 1.g.7.d Y g.V.V.a.g.a.a.p.8.3./ 7.N.d.! M.U.P.P.C.XXP.XX+XoXoXXXZ.a.p.g.g.1.3.7.g.g.d.d.d.j.j.V.V.V.8./ 8.) ^ U h U / ) j.a.i.d.8.Y R 4./ 8.p.1.7.N.Z.M.N.N.d.d.1.d.D.d.q.3.R ! 1.Y m ! 1.1.8.N.8.8.8.8.U W ^ ^ W R W R U N U h r 0 0 t 0 m 6.0.r.q.2.D -.;.-.Q D -.;.&.V ~ ~ R U U U E R R ! N 0 g C h e h h h W U f q 3 R 7.3 1 4 @ q q m 7.l f m f 3 % @ % ;.c.v.o.p v 8 7 5 6 k n b c w 5 K k l 3 - + o + % @ % @ % 1 2 1 e N h d d f m q m Y p.T.zXSXGXSXhX,XXXY.Y.Y.Y.Y.Y.Y.U.Y.U.U.R.W.E.!.J.J.!.R.Q.R.R.J.b.n.y.J.H.6X).b.y...+.{ 7 a ..9 9 t...+...+...+...u.t.O.{ t.b...t.(.b.t.t.<.v.b.y.| *.>.:.| x x z G :.x } ,.*.z < x | n 6 3 * @ @ z } } <.y.y.y.b  .t.O. .,.b t.X.y.} n {  .8 7 8 n *.n :.<.X.X.<.X.p { t. .>.,.{  .X.a X.,.>.*.} e.r.8 Z F z T d q $ + k :.| c | ,.v.<.<.<.k c ;.$.k G } >.X.b } ,.| 6 | c 8 } 9.=.7 6 n o.y.o.G o.G v $.A k 6 z :.e.:.*.*.8 r.e.$.z x T T w S 5 S &.=.e.;.S.G 5.y.*.} >.} G *.y.y.e.S.,.n z 6 A A e.b H.v.v | | X.<.| y.v *.$.*.8 8 c } x x ;.M Z k <.G.z 6 c o.,.} <.R.*.X.y.*.| n |  .,.A v | } G X.,.*. .a .._.O.{ /.u...@./.'.tX8Xt.t.(.} ..O.a H.v.v p p 7 8 7 7  .>.J.v.,.*.<.G.k.&.L.dXV 7.#Xg.$X,XiX) i.,XR hX8.dX1.K.=.$X7.qXK.1.@X;X1XJXpXAXpXpXD.l 6XB 7 x y 7 6 y x y z B y 5 7 8 c v 8 7 c >. .} b 8 v c x 8 v  .} n A n n c v v y v 8 y v v v b  .b v } b p v x A X. .*. .} X.} v v b n b o.{ { } c 8 p x x 8 c z G G F D F J &.w.w.&.=.-.;.9.;.",
"/ / i.a./ E / 3.U / i.^ ~ ! 7.! U ~ Q Q Y ! N / V.V.Z.N.p.p.p.7.( ~ Q 6.7.j.Z.P.Z.A.T.XX+XXXoX*XXX+XOXC.V.a.Z.Z./ 3.p.8.p.8.p.p.8.8.g.a.N.g.V.Z.C.B.a.i._ a.V.&XP.Z.Y.M.g.7.3./ ~ Y Y R p.U.K.Y.Z.d.7.=.2.f.f.w.-.m C V C U / ! / 1.N.d.d.g.~ t d Y / U R / R W h t j t 0 r g t h / p.1./ Q Q =.6.-.=.Q Q -.=.Y V U ^ E L U / / R h h 0 h N h t j h e N R h d 1 R p.2 0 0 1 4 2 f d.f f m q q = % 4 S.H.:.p v x 5 4 6 G o.o.6 Z x q 0 5 3 * # @ + + * * 2 0 0 0 2 % % q 3 2 m d 0 R Y.dXfXcXAXDXxXxXaX+XoXY.Y.oXY.T.W.Y.E.U.E.W.U.W.E.U.U.!.!.E.R.R.J.H.v.v.H.R.!.`.(./.O.{ 9 [ 9 9 [ ....{ +.t.@...@.@.u.u.b.O...O.b.n.O.b.(.b.t.t.t.O.H.<.A | ;.&.z Z M z ;.G z G | z < 6 c } 7 < @ @ 1 6 A | ,.<.y.y.c ,.t.b o.>.o.<.*.*.| p v  .v 7 G | X.a *.H.O. .X.o.{ } O.X.>.J. .{ X.8 v  .>. .n <.&.k D -.6 x 5 d @ $ x r.o.*. .} 5.G.e.w.o.A ,. .8 } c >.*.} b X.*.8 z c 8 c r.c p c c r.<.G n } n c F 6 x 7 G r.G.5.F F x ;.;.T k F Q S 5 V @ =.D =.:.;.e.:.F.*.} | b *.,.| y.&.&.y.} } v 8 c n ,.v v.y.c A | *.X.| ,.v n A e.c k *.G A G e.k l y 5.w.c 6 M $.5.k r.Q.<.} <.X.X.*.*.} | ,.c 8 p n X.,.t.O.v s u.'.b.t./.@.u.n.b.).`.'.b.y.<.a t. .{ ,.v 7 p n x 8 7 p } G.F.y.*.e.e.F.c 9.mXU 1.hXY @X+XDX,XV.wXd.&Xg.T.9XP.-.rX0.$XK.7.pXfX;XAXsXvXiX:XmXl q $.w q l 5 6 6 6 y y B y w 8 k v 8 y x 8  .}  .v 8 c } v k v X. .}  . .A x p n A n x 8 p v v } } b b  .v c X.n  . . .} v b X.*.} n {  .b } b n n n 8 6 p p b } o.:.| G v n G n n :.e.;.G G o.Z ",
"/ / V.Z.i./ 3.i./ i.s./ 3./ 1.R Y =.S f 6 R 8.8.i.p.a.s.i.3.1.3.-.T F Q Y i.T.C.K.T.+XXXXXC.C.+XC.T.OX+X+XV.Z.C.m.d.p.1.8.! =.g.g.g.M.Z.OX+X+XXX>X-X-X-X-X;X;XuX:XT.T.Y.@XK.8.~ ~ Y Y R 4.g.d.M.M.d.1.D M =.;.2.-.V C m U ~ / / ~ ! d.N.M.M./ e U / 8./ 3./ R U h 0 0 r g L L g W / 1.Y Y -.1.1.0.;.Q Q Q T D Y Y R R E E ^ / / ^ h h h h h e h ( h 0 h N 0 2 @ 8.p.* f 2 0 % @ 1 8.d q d 3 0 4 = 3 S.e.G 8 6 z 6 5 6 z Z f % e 2 + + 2 1 & + @ & * * 0 1 2 2 3 t 0 * 3 3 3 d U p.dXMXMXvXpX$X5X6X6XwX9X:XT.T.T.Y.Y.Y.Y.Y.Y.U.Y.U.W.U.U.U.!.U.E.W.U.R.J.y.b.J.!.G.H.u...[ ..[ [ [ s [ a a t.s a +.@.n.[ u.@.u./.{ { t.(.+...t.b.b.(.>.{ b.).y. .c G &.S S y &.:.A A c M 6 w c ,.G 3 @ @ @ @ n  .<.,.v.,.} y.>.a >.y.} O.,. .| p v v p 7 o.} ,.X.,.<.O.n X.>.o.{ v <. .v.y.,.O.a b X.,.*.A G r.6 f 2.G 7 2 % 4 1 k G o.,.,. .;.G.<.H.*.| } G 8 X.x  .A >.c n *.p n } 8 k &.*.6 A b *.y.A c >.c } G 7 8 k :.:.=.5.&.&.G Z &.F M F S C 6 l 5 Q F 2.F ;.9.S.G.A ,.*.b <.*.<.H.c | ,.b X.n x x X.A c y.>.G G e.y.*.X.*.*.A p X.*.c :.:.| A 5.x k x G :.A y z G e.8 A G.H.| >.*.X.,. .X.,.>.*.X.x x <.b { { X.a +.b.b.O.n.n.u./.b.7Xv.J.7X>.b.{ a >.8 v v 8 8 n b v 8 7 } e.R.v.o.$.e.J.<.G @Xd.5 pX/ oXg.V.cXC.Y.@Xh.#XZ.dX#Xd.=X4.P.9XY.dX0X,XcXsXaXcXoX9Xg.2 l z y 6 6 6 6 6 x B x 6 6 x c k 8 8 8 p c k v n c b } *.A A | } n c A n n c k n c y 9 8 8 8 8 8 p } } | | X.*.} A } } b v v A } } X.X. .b v n a b c 8 6 8 n } } o.o.| n o.:.A n c G *.c A } v ",
"3.3.a.V.h.a.s.s.i.s.s.s.3./ / U ! / R q 3 8.N.8.a.a.i./ ~ ! ! U C =.T S V / a.d.Y.#XXXC.XXC.XX+XoXT.+X+X+XV.V.C.0.7.4.=.6.1.=.g.C.P.M.M.XX%X+XC.>XiXuX>X0X9X9X0X:XK.p.K.Y.$XP.P.N.7.! ! ! 1.! 1.d.d.1.R m S S T 8.d.8.Y N N V R U ~ d.g.g.M.g./ p.7.8./ / R C U U h h h U / ) ) / E ! Y Y 6.q.6.w.6.Q Q -.! V D ! 8./ / / ^ / U ^ h h C N h e U E t * 0 0 * # # V.V.% 0 @ e * 2 1 U h 2 0 e 0 t & 4 ;.A M k 6 z f k w 3 q 2 + * +   + 0 0 * # * * @ & * 2 q 3 3 ; t 0 h d h U +XsXfX9X*XsXzX9X$X`.6X*X*X:XK.T.@XY.Y.Y.Y.Y.E.Y.Y.W.W.U.U.U.R.R.E.W.U.R.J.v.J.J.F.J.b.@.s s ..@.{ +.[ { @.{ t.u...9 [ @...+.b.t.t.(. . .u.O...+.O.t.(.(.X.} H.J.e.x z c x S 6 c &.c A | c 6 k c X.n 5 % * $ @ A X.<.,.v.} } t. .n >.v.X.<.v.*.*.v v c v 7 c }  .<.*. .X.v X. .{ >.o.v.>.y.*. . .8 b ,.} >.,.r.A 6 4 5 G k q 2 % 2 6 p G y.e.y.A >.} y.>.o.*.} A ,.c X.} >.n n >.x 8 A x 8 o.*.6 G *.| w.$.k } G G G 6 c G :.z G w.e.F G k $.Z M F l m < l S S D 6.&.&.S.S.S.| <.v ,.<. .y.| c } ,.<.y.v k n *.v } <.*.>.*.y.<.,.>.x } <.x c *.A | ;.$.c e.Z M M S :.| 8 x k 9.n n <.v.*.*.<.X.y.>.} >.>.,.} n c A X.X.a { t.{ t./.b.u./.u.b.n.(.'.{ t.y.>.O.b } b v { v 8 p } b v 7 c S.R.R.} :.e.F.w.:.1.E.Q =X~ Q T.1.=X9Xd.K.p.=.$XpXzX9XY.Y d.9X:XzXAX>XiXAXsXCXvX#XwXZ 5 y u 5 6 5 6 y y z l 8 6 y y 8 c c 8 8 8 6 k v k v n n v c c n n n A A n A c n 8 c c c x v x p v n A G n A o.n } X.b b k 8 n  .b v v b b b { b { b v 8 p n } c c } n 8 c G c G A v p p x c v ",
"V.Z.s.) a.h.h.V.a.i.i.j./ 3.p./ s.a.a./ / P.V.s.V.V.s.i./ R V m V 7.8.! / 8.g.d.K.+XV.s.a.Z.,X,X;XC.XXoXOXoXC.C.=.V m d D 1.d.K.C.P.N.4.P.OXXXoX:XuXpX*X@X$XY.P.@XY.d.7.K.Y.T.+X$XK.3.R R Y C C Y 1.1.Q S m m C 4.K.d.1.R U W W U 3.Z.M.p.p.p.3.4.~ ~ / E h U ^ E W U C U / / ) i.^ -.-.-.w.w.0.e.&.Q ! 1.Y w d / p./ ^ / i./ ^ / U P P U R h U 0 = * = * * * * P.i.$ * @ h t h f U N q 2 e 0 * X q F x w 5 6 k K z M q q * # & # . - 0 q 1 2 e 0 * - * 0 0 0 q r h h U d h p.,X9X9X9X@X:XwXwX6X6XD.m.d.oXoXoXoXL.Y.Y.Y.Y.Y.Y.Y.W.W.U.U.U.E.W.W.U.R.R.!.F.R.!.R.J.u...[ [ @.b.@.u.O.a u.@.@.@.].O.9 [ [ [ u.b.O.O.b.O.u.n.O.O.O.O.y.(.H.>.*.H.J.y.c 6 y M 6 z :.;.G | x p k A A 8 6 1 * X % c o.<.<.,.A ,.,. .} O.y.X.e.y.*. .n A c A < x &.k *.*.*.o.{ *.>.{ { p <.*.v.y.>.t.{ p >.} } o.<.<.7 6 5 c l q 3 @ 2 < 6 n y.<.G.*.X.} A X.*.<.| c | c A A } | n A n 7 8 v n | G 7 }  .G :.9.n k | M z k G &.| x G r.&.;.G F &.l F k w q w V m D 0.-.G ;.e.w.y.X.*.p X.,.,.<.v X.n y.<.,. .c |  .c >.>.| A ,.<.*.y.*.8 } | n | c G 9.e.e.| e.&.Z F $.<.| 8 Z 6 :.X.X.,.<.} *.v.b b <.v.>.*.>.} 8 A c b }  .a  .O.+.u.b.(.(./.(./.O.u.a s t. .{ O.} } {  . .v v b v a 8 p Q.F.G.<.:.y.L.L.m.! T Y iXZ.4 Y.1.d.9X*XK.U.d L.9XsXwX@XU Y P.M.oXmX:XsXMXxXvXFX;X4.$., 5 y y z x y y c F Z v x x k y x } } k 6 7 8 8 8 k v x x n v x x A A } *.| n *.c 8 8 k 6 8 8 k x p x x x n x p p x 8 k 8 8 p v v v b v v n b v b } } } } } A n c n n b v 8 v } n n } } G G G ",
"B.V.s.i.B._ / a.h.a.a.V./ / p.a.XXC.a.V.XXOXZ.Z.C.C.V.a./ ~ U R C / a.8.B.Z.V.s.M.@XV.8.s.XXsXsXpX,X;X#X#XOXXXZ.7./ / 3.7.N.A.P.C.Y.7.Y f.T.p.p.M.*X0X;X#XZ.p.j.P.$XT.g.oXY.Z.Z.M.V.p.3./ ~ R R U ! 4.R ! Y Y V U ! ! 8.1./ / / ~ 3.p.3.~ 3.8./ ~ U U ^ E E / / / R h U R / / ) i.^ ! 2.9.w.r.;.2.Q ! ! ! Y d M ! 3./ / / i.j.^ R U h t h U f h = & ; * 0 0 0 t oXp.2 N U 3./ ~ U N N d 0 0 t 0 % U m k l K k f k k l 2 % % * = * * r 0 q 0 h U h h P 0 r r r e e h h h q V N.=XqXrXtX9XzXfXdX6XqXtXW.L.6X$X*X+XK.Y.Y.Y.Y.Y.Y.W.W.E.E.Y.U.E.W.W.F.R.Q.F.W.R.F.Q.J.@.+.@.@.u.b.v.b.b.@.{ +.a 9 n.'.+.[ { 9 a t.u.+.O.t.u.t.+.O.t.u.t.H.G.H.<.t.G.7Xy.z w T y 8 &.e.Z H p z 6 :.} 8 w < % $ $ z } <.e.| } <.,.>.X.>.y.X.<.>.X.A b  .x c @ Z G p *.X.| O.} >.,.X...b <.} y.y.,.,.O.v  . . .>.o.y.x k l k z 4 2 $ 1 5 z c r.y.y.y.b X.v v ,.y.} x n c v c A  .| p v 8 8 n } G c 7 |  .| $.9.F 8 &.z 6 y &.;.G x :.9.;.S.G Z x 5 M < w w M f R d.6.S =.I.H.e.y.<.X.v <.,.,.,.v >.*.>.A } >.n } n ,.,.>.} p y.} ,.H.<.c X.| c Z 8 x G.,.<.e.5.=.M $.S :.:.c c 5 A *.} | y.| } ,.} v } G.y.y.y.y.c  .| p 8 b s p a { u.b./.b.(._.'.u.{ [ [ X.v v  .O. . .*. .b v v { { a 7 G.J.J.H.r.R.$XP.K.p.5 < iXiXw 7.@XJ =XqX6.*Xq < wXwX@X9Xg.7.g.7.P.fXoXwXaXFXsXvXAXY.2 7 7 6 c y y y y x c F } | c x x k k v v x k v x x p v } c v x c n } A A *.*.G A v 8 < 7 7 6 z x k x 6 8 k A 8 8 p x k c 8 6 7 8 8 8 6 8 p 8 p v b v c n G b n v c c v x n p v X.} b A n n c c ",
"/ / s.|.+XB./ ) B.V.h.V.s.~ / V.B.a.V.Z.V.V.a.Z.V.a.p.i.~ / ~ U U p.Z.a.C.C.i.( d.:X+X8.a.;X>X+X>XdXaXsXiX;X+XP.K.T.XX+XT.Z.C.XXT.K.! T 8.d.3.3./ :XcXaXsX*XoX&X$X:X*X#X#X$XT.Z.d.C.C.a.3./ / 3.3./ 1.! ! ! ~ U V U ! a.s./ 3.i.3.3.3.~ ~ 3./ Y Y ! / / ^ ^ E E E U h U ~ 3./ i.) / / 7.q.9.=.2.1.1.1.! ! ! ~ ~ / / j./ / / ^ U U h h h U U h h ; 0 h h U U U ~ P.K.! p.a.a.8.! Y d V d f 0 * 4 2 V e w q 4 w d d q 3 % @ * * * 2 0 t 0 1 2 N h j L U 0 & r g g h e h 8.K.=X9XT.T.=XE.=XpXfXdX6X9XdX$XL.qX*XY.T.Y.T.Y.Y.Y.Y.@X@XE.Y.E.E.Y.E.W.W.!.R.W.U.W.R.F.R.b...@.u.n.n.b.v.(.(.(.t.t.t.9 9 @.@.@.@.{ a O.u.{ [ u.O.u.b.O...O. .b.J.v.H.y.| y.H.G l Z x x c M x z 6 z 6 :.} c w % % + X k n *.e.A ,.X.>.,.>.*.<. .<.o.<.*. .b p 8 @ A y n o.} X.t.b <.,.>.{ } t.v ,.*.t.,.v.{ b O.o.>.X.>.| < z 8 x 1 1 @ @ 6 S | } y.e.e.>.o.c k } y.*.| } n n n X.c ,.v p 7 8 A p :.n 6 r.>.:.9.S.o.6 :.&.y 6 =.e.A Z :.r.5.9.Z k l z z 7 l Q C R 0.Q Q &.F.F.e.e.G.*.A } ,.X.,.,.A e.>.*.*.} } n  . .,.*.y.n 8 y.c y.G.,.} X.| A p z 6 w.<.F 9.5.:.$.$.Z | r.F x x G :.o.G e.,.n X.G n v A <.v.e.,.<.y.y.o. .X.9 v a { O./._.b._.b././.+.{ { O.{ v X.X.v b >.*. .} b v } { 9 o.H.I.G.r.F.rXK.$XW.F < Z.>Xm.q wX=.m.zXq.W.3.$ fXeXM.fXK.$XoXg.P.DXoX>X:XAXvXxXvXwXL.7 6 7 6 8 c c 8 p 8 A n A G x k x v v n } A n n c x n | c x x p x c 8 8 8 8 8 8 8 8 7 5 5 6 k k 6 k z 8 7 k k z x p k x k k x 6 7 8 6 6 7 7 8 x n G n v c x p 7 6 n x 6 x x c  .v n c k k k z ",
"V U / a.C. XB.) a.s.s.a.V.a./ Z.s.s.g.i./ a.s.a.3.i./ i./ i./ ^ V.,X;X+XXXP.Z./ 8.T.T.p.s.XXXXXX0XcXcXcXcXsX>XOXY.#XoXoXZ.M.C.XXg.4.R ! 7.p.OX0XK.$XpXvXzX:X9X0X;X,X,X:X,X,XOX#XoX;XXXi.^ U W ~ / ^ ! ~ R ~ ~ ^ ! ~ 3.p.8.U Y ~ 3.8./ / ! 3.! m M 8.8./ / ) s.i./ E h W / p.3./ s.i.i.8.7.2.7.d.8.4.1.2.7./ / ~ 1.3./ / / / 3.W d h U U ^ U h h g g g 0 g U 3.p.g.V./ 8.p.s.~ / ~ U R h h f f h * 0 4 % % + + * * * + * * t 0 3 e e t e = 2 f g r h R U g h g r W 3.K.qXqX@XD.=XT.Z.K.*X*XeXwXwXY.Z.g.Z.wXvX,X:X9X@XK.K.Y.Y.Y.@X@XY.E.E.E.@XW.W.Y.U.W.R.W.U.J.H.n...@.t.n.n.b.t.H._._.O.../.u.{ { ..+.u.t...{ t.O.O.@.u.a u.b.{ O.O.O.b.H.y.y.,. .y.;.z l M 6 c w x x k z 7 o.| G y @ 1 @ $ 5 k ,.<.c *.A *.,.<.t.,.A ,.b >.,.{ b v 8 7 A 6 *.| n *.y. .H.e.>.{ *.y.v >.} t.y.>.{ b *.,.} y.| e.z 6 8 6 q 1 @ % 5 Z <.} w.y.} e.X.x A x e.,.| } b c A >.x >.A b 8 } n 6 H n 8 *.| ;.9.:.&.n :.A k k y.e.A G &.r.w.F 6 x F M k 5 M l D M.2.6 l q.G.$.<.H.e.| ,.*.y. .,.X. .y.|  .r.,.>.} A ,.*.,.H.n v y.A e.y.*.| n } G x ;.6 ;.e.c G ;.&.*.Z S F &.D M l G z z o.*.>.A X.*. .*.c 8  .<.b n } |  .{ X.,.b v O.O././.b.(.'.b.n.O.{ ..<.O.{ O.,.v v X.,. . .{ a { { a o.J.Q.$Xv.c.9XK.6XwXc.*.Z.|.=Xm p.=.R zX2.! ;X0 T.tXq Y.9X9X$X4.Y wX#X9XaXCXAXAX0XR f.q.x 6 7 y y v x b k x G v c c x v c n } A x x c c c A o.:.| A G G n c 8 8 v v 8 p 8 k z x x x z k 6 c c F z 8 z z x z k k x A x 6 x x x k k z x x p 6 6 p p 6 7 < 5 5 7 6 k 8 6 7 k k 5 6 6 w ",
"M V R / s.C.XXa.s.h.h.a.V.N.8.Z.C.M.0.2.7.d.7.g.g.Z.V.N./ Z.XXZ.%X>X<X;XoX#X#XM.d.K.V.8.s.OX0XsXsXfXvXcXvXAXcX>X$X:XoXY.M.M.M.g.3.4.;.-.V.#XaXpX;X;X1XiXaX;X;X>X0X,X;X,X,X>X&X#XXX&XC.i./ W W W P g h t h U U U ! 3.~ ~ / U Y ~ 1./ ! / / 1.Y l M =.3./ / 3.8./ R R U / 3.3.! ! s.i._ ( i.8.8.s.~ R ! Y ! R R R 8.! / / ^ ~ p.V U 3./ U U U f 0 * = * 0 U s.g.p.3.a.i./ 3.i.E W R ! p.N t h h N t 2 1 $ # + + + + * * 0 0 h e 0 h t t 0 * % * e h U 8.p.~ U h U $X9X$X6XE.D.f.nXmXqXfXdX9XdXdXmXqXqX0XaXvXcXpXhXfX9XU.Y.Y.Y.T.Y.@XY.Y.E.@X@X@XU.@XW.W.E.U.R.J.n.@.@.t.t.u.t.b.O.t.u./.t.9 t.b.b.u.+...O.b.t.{ O.<.O.t.@.@...@.+...O.t.t.H.b.| e.<.5.;.k z M 6 Z M | x F Z 7 | | c M % 2 @ $ 5 f <.*.c | X.| ,.e.t.o.n *.} X.X. .} v 8 8 8 < >.>.*.,.>. .y.<.O.b | <.s  . .t.e.t.X. .<.y.v <.X.n $.M k 6 f 2 @ % 6 S ,.} w.y.n >.<.c A G <.<.} b } c A *.A >.A v x } v } x v p } >.<.e.:.;.A | | M c 5.G | G G w.w.T z G G z y x F 5 =.R 1 5 -.D.<.,.R.H.>. .y.X.v.X.<.,.| e.G A e.*.X. . .y.,.e.y.c  .,.} } e.*.n v e.| 7 | k F &.G G 9.9.&.Z G Z z Q f k &.Z 6 o.G n y.} y.A b *.} 8  .b } A n <. .v v { { v [ n.n.u._.'.'.u.n.{ ..,.O.{ <.t.v } X.,. . .} b b { v b v.E.$XG.c.Q.Y.6XzXQ I.C.C.M.U N C M K.f.p.1XL V.6X1.8.7.N.$XU.7.pX0XZ.AXaXHXvXwXK.D.U.Q x 6 c y v 8 b b c A x 8 p v v v v b v 8 x k p k k x c c c A G A o.c x c b A v 6 x x k k 8 k x k z k :.z 6 p 6 p 6 6 8 8 k x y 6 6 w 6 6 8 6 8 p p x p x y 2 , 1 6 2 6 w 6 7 4 8 z y l y y ",
"C N V ^ V.A.|.C.B.B.h.a.2.*.$.5.g.s.Y ! T ~ / Z.a.V.Z.a.B.-XxX,XY.@XY.oXK.W.=XL.q.1.8.Z.iXcXCXvXcXcXcXpXfXmXDXvX9X*X=XY.K.K.d.1.! -.Q p.g.;XVX1XU.I.5XiXzXeXeXaX>XOX:X:X0XiX;X|.C.-X%X|.3.U N h j g 0 h W N N U U U _ 8./ ^ E ^ ! R ~ / / / 3./ ~ ~ s._ ~ ~ ~ U U E E a.i.^ ^ ^ ( / 1.7.p.h.a.3.U U ~ f t h ( / 8.~ 8.0.! 3.a.Z.C.B.i.U U U P L C U / s.g.p.6.3.Q 9.S.=.-.! R W m ! Q m d N U N q q d m m m q e f R 0 q % R / U f 3 q e e f h R C C M m S m d.9X2XiXaXvXaX;X1XAXcXZ.#XuXgXVXVXSXvXCXcXbXvXsXwXfXsX0X@XK.L.Y.Y.@XY.W.Y.Y.Y.Y.@XY.R.U.Q.R.G.b.b.v.n.n.b.t.u.+.u.{ +...+.@...9 ..@.u.O...a +.t.t.y.t.[ { ..@.O.O.t.+.v X.t.,.} ,. .X.<.$.M B w w F F H z y z 7 k &.n c < < @ X 3 5 <.G z } O.b *.v.X.,.X.>.O.O.,. .X.8 v b < 7 *.y.*.X.o. .y.,.,. .>.X.p O.{ y.O.,.O.9  .J.| A e.| < Z k k l 5 @ 1 6 Z &.o.:.y.G $.o.o.| X.,.,. .n | c >.,.*.} *.8 v  .p } 8 p p  .n n G.&.;.Z &.A k H A G M G F w.:.H &.z M l l -.k M / 0 2 &.w.9.z 9.H.*.e.y.H.*.<.*.e.e.| X.| X.<.*.n >.>.y.y.>.<.8 p >.} } y.*.x 8 <.A 6 G Z z Z &.Z y.:.e.A 5.Z G &.Z z ;.0.y G :.z n e.*.<.c A o.} ,.} } ,.v a  .X.O.v.>.v { { +.9 { n./.b.u.[ ..t.t.{ ,.y.v v X.>.} X.O.{ O.a a b y.F.v.R.G.0.6X9.@X! T 9XfXC q.S Y d 2.4.1.*Xq.@Xp.*XoXY.5X$X+XY.V.vXd :XpXFXZXCX*XS.e.f.u k x 8 x n { b a k k z c c Z Z Z H x p p H z 6 l z x k x 6 B e.r.n p x p 8 y z S l 6 6 6 w 6 k k < < 5 e q 5 5 6 5 6 f w 6 5 6 6 6 6 6 6 6 6 z y f 6 6 7 < < 6 y 6 < < < < 5 w w 6 6 6 6 ",
"U h N ~ C.Z.V.a.a.a.h.V.4.M G &.! 1.m Y 8.a.a.g.i.a.g.s.C.>XsX1X;XOXY.#X+XT.@XK.M.V.P.%XiXsXaXcXvXvXvXaXsXvXAXCXvXaX:X$XY.T.C.XXM.7.4.2.F K.DXdX!.<.v.oXpX0XpXhXpX>X9X9XzXaX#Xj. XVXgX+Xa.U h h N h 0 h U h h C U ~ 8.8.~ R ~ 8./ / / / i.p.p./ R 8.i.( ~ ~ R ~ ^ / ( i.( / / / / s.N.p.i.B.V.V.i.^ / f e U _ a.) / i.3.d.g.A.V.8.U U h ^ / ^ ^ ( ) B.B.s.) s.i./ 8.q.p.3.8.Y R U 4.! h h N V h h N N m N N h h h 3.d e 0 N V h h h h h d h C Y h h e f h N A.*X,XcXvXvXwX9X0XpXfXP.Z.fXvXvXvXAXbXcXsXvXcXsX9X9XsXsXOXoXK.K.U.U.Y.W.Y.Y.Y.Y.@XY.W.W.R.!.G.G.b.v.n.n.b.t.u.@.n.t.+.+.@.O.O.[ s { ..@./.b...t.O.t.n.O...[ { O.O.t.O.{ a >.<.X.X.>. .>.=.M S M y Z G z z 6 k 6 < F z x p 7 @ * q @ e.z c }  .b | y.o.y.X.X.>.>.<. .X.8 v b < 8 ,.,.*.o.O.{ y.| y.b <.>.b  .v t.<.} >.b p y.y.} *.r.z < 8 z y < 1 $ k z A Z *.r.n ;.<.>.*.>.,.*.b x X.G X.| ,.c | 8 n n b A 8 c c  .n c G.G =.l =.M p k A c G =.;.:.G &.&.G k w T &.k =.V 3 T k.9.G o.y.*.o.v.y.y.| y.y.y.*.n >.,.} } e.A <.X.e.<.e.,.7 8 *.c ,.X. .} G <.*.6 | G x Z | :.5.&.;.$.| | &.&.A k F ;.x 6 :.c 8 o.| y.} >.*.p ,.,.} ,. .A a ..{ s {  .t.+.+.+.[ /./.n.u.{ ..t.<.{ X.y. .} o.O.>. . . .{ { a v y.G.9.J.F.G.9X2.K.8.5 K.GXU Y 4.U 2 Y 1.D K.D.Y.@X9X$XfXE.9X=XM.R mXV 2.MXSXFXCXM.:.F 2.A 8 x x p k c c c x x x x c z x k c c x x n F F G Z G G c c A o.A x p 6 k 6 y l z 6 4 5 4 4 5 5 f 6 6 f f d f 6 K k f 6 6 6 6 6 6 6 k l k w 6 6 6 k k 6 5 l S z k k w 5 < < 5 w 5 5 6 6 6 ",
"R h N ! 8.7.d.4.~ ! / 8.! m F D M C q / C.+XC.Z.a.a.V.N.A.;XaXaXsX:X=X;X,X#X,X>XsXgXvXhX1XuXpXsXpXfXvXAXAXFXCXxXSXSXvXdX9X*X:X0X$XM.7.$.p n I.`.c.O.J.E.oXP.$XdXpXsXpXuXcXcX$Xj.XXaXaX,X+Xi.W P U N e h f h h P U / p.8.~ / / / U ~ / i.s.i.i./ R / / / ~ R ~ _ _ i.i.s.s.a.a.i.s.A.Z.p.i.a.V.Z.V.a.s.R U U 8.s.3.3.3.3.p.p./ h 0 e U 3.3.j.a.a.B.B.B.B.B.|. X.XB.s.( / 7.K.M.p./ g.d.~ U U U C U U U N m m m e e 3.U h h d d Y U U N m m N R U q e h B.2X1XvXAX>X>X>X>XmXfXpXuXaX:X>XzXcX>XfXhXW.:X0XvXiX:X9XcXCXgX1XOXZ.K.L.L.Y.E.Y.Y.Y.Y.@XW.W.W.!.F.G.H.H.b.b.b.H.t.b.t.u.b.+.{ O.t.+.[ { @.O.{ +.b.u.t.t.u.t...O.O.....O.b.n.>.{ >.>.O.X.>.,.A G Z M l y Z M x M < 6 k < x A k x 6 1 q 1 @ r.x c  .| } } e.o.y. . .O.O.,.} X.9 v v < 8  .b b *.>.,.>.} v.X.>.>.>.{ a X.b. .X.>.v O.>.X.X.X.:.< 6 6 6 < 5 1 7 c A x ,.<.o.A >.*.X.y. .y.>.n x ,.*.} y.X.| 6 v b } v 8 n } A G c 9.z G G &.G x x F M G &.:.8 Z =.$.Z l D &.z T Y % e 0.k.,.9.J.e.n X.y.y.<.*.y.y.e.>.,.y.*.p v y.v o.| y.<.e.{ 8 b <.| ,.,.,.o.} x c n A c c x x F *.$.| :.c z &.:.| x M $.| 8 k A n G  .} y.<.e.A } | 8 v t.o.O.u.(.).>.a [ +.O.@.@.+._.n.u.O.{ t.>.,. .t. .b X.X.O.X.O.O. .{ a v y.G.9.G.9.m.Y.$Xq.$X=.m fXa.e g.N.= d 8.h @XK.=.@X9XY.wX$XfXT.~ M.0X4.E.MXvXVXFX+X0.r.F D k z x x z c Z Z H H x x x p p x x p p p z | | G F Z c x &.r.n c c 8 6 6 6 6 k 6 5 7 5 5 5 5 4 w k 6 7 < 2 2 < < 6 5 5 6 w w 6 6 6 5 k 6 4 5 4 6 w l w w l Z M 5 < 1 < < 2 4 5 w 5 5 4 5 ",
"~ U Y ! ! ! 7.7.V V C h U R V M 6 6 e a.|.-XOXC.V.s.V.T.T.:XaXuXaXfXzXfXfXqX:XsXgXVXSXvX>XaXvXhXsXaXsXcXvXVXvXxXFXSXAXAXvXwX9X=X=XW.q.Y x p 5.$X!.y.6X9XL.;.m.*XoXoX9X$XhXvXE.f.|.;XiXsXsX9XY.p.i./ U / U W R U U / 3.3.E ~ U C 8.8.s.g.a.i.i.p.a.3./ j.p.i.V.Z.V.B.a.B.a.8.i./ s.C.g.p.a.V.a.a.B.s.a./ W ( ( ! 7.! d C R ~ U h U i.B.A.B.C.XX|. X|.XXXX X%X-X XXXC.V.6.Q 7.T.K.a.f.K.d.7.~ U U U U R U V C m 3 q Y V U U h m Y U R U Y Y N U U Y g.XXxXSXxXhXvXaX>X>X>XaXvXsXaXwX*X@X9X0X=XqXk.=.6XpXvX*X*XdXvXVXVXcX;XY.K.K.W.U.Y.Y.Y.Y.@X@XW.E.U.!.S.F.!.J.H.H.H.J.y.b.t.v.).@...O.O.t.{ [ t.u.t...O.{ { O...u...[ { { ..{ t.(.H.t.,.b.v.,.*.,.<.r.=.M l w y T x G y x x c 7 A &.A z 6 6 @ @ $.c c A *. .} e.O.<.o.O.O. .} } O.v b 8 7  . .9 v ,. .<. .} y.X.o.>.O.{ v b y.<.{ t.O.X.,.X.,.X.G x 6 < 5 3 1 q < z A x e.| X.p | X.X.y.} ,.v.} n ,.>.n y.*.*.x 8 }  .k 8 c } A c x r.c Z G G Z 6 M =.G &.;.G 6 ;.;.D Z S ;.Q -.! d 2 R 9.y.<.v.J.X.} O.v.v.*.<.y.<.v.v.y. .<.b b y.p v X.y.} ,.X.p  .,.>. .b ,.v v b v *.k k k x c | c ;.A | G c :.9.| Z c c &.n v A v 9 } 8 } n ,.*.*.>.} 8 b o.O.v { <.t.O.O.O./._.b.+./.u.u.t.{  . .t. .,.X.{ X.X.O.O.O.{ ....a a <.S.:.y.e.U.U.$XD.d.7.2.Y.eXd / SXj * 8.h Z.P.! 7.$XK.qXqX9XOXR dXmX7.@XmXAXaXFXaXU J M m l 6 k x f z m l z z x x k 6 k z k 6 k x z x 5 5 6 M Q D z M Z l x 8 y 6 6 8 k f 6 f l C m f w m d d d q 4 4 2 3 4 l M l f 5 3 w q 3 5 3 1 6 w f 5 5 5 5 5 5 5 w 1 1 2 q 5 3 q q l z f 5 ",
"8.! R Y =.=.7.p.R R V e m ~ d 5 < 2 U  X|.+XoXT.a.a.XX;XZ.T.#X%XuXvXvXhXsXoXoXgXaXvXcXsX1XaXvXcXzXcXaXxXcXiXaXvXSXVXVXVXVXvXcXcXeXE.M.i.8.q.#XxXcXuX#X;XY.q.m.$X9X#X$XY.0X9Xq.6.Z.1XaXhXhXvXwX=X@Xg.7.g.3.~ ~ U ~ U U ~ U ~ ~ / s.8.3.8.s.i.8.i.a.i.3.p.j.g.V.V.s.a.a./ ( ( s.p.g.V./ E / i.( / ) _ s./ U / / W / U R B.V.V.|.a. X-X X X%X%X-X%XOX+X;X;X,X1XsXsXpX:XY.7.~ V -.f.m.w.D.m.M.f.d.1.3./ / ~ N U / ~ ! ! N h N N N N V Y N V V V h ~ %XVXAXAXxXsX2XvXAXsXgXaX>XvX0XsXpX9XwXdX9X@X6X9.<.wXfXsX;XY.D.pXcXMXAXwX:XK.K.Y.U.Y.Y.Y.W.W.@XW.Y.U.!.F.R.R.!.J.J.J.R.v.b.t.v.J.n...+.t./.@.....O.b.b.n...{ a [ { u.t.O.O.{ a +.t.t.t.<. .t.y.<. .} F 2.M l M y ;.S l Z z k z 7 8 :.A k k 5 @ 3 S S x c | } } >.<.,.X.<.<. .{ >.X.{ v 8 7 v p 9 } t.v ,. .} >. .v y.X.X.{  .<.t.b  .>. .y.>.X.,.p A n < < 5 % < @ G :.Z e.>.*.}  .| A <.e.G y.n | >.,.c >.} n A p A >.c k n G *.x p &.B Z G G f 6 G ;.Q F ;.G z 9.F Z &.&.=.D D m 4 5 f.Q.e.>.y.y.| <.v.b.O.>.y.<.e.e.y.y.b ,.b X.,.v 6 } e.c *.<.a  .<.y.*.v ,.v 7 }  .e.| } 8 8 8 | G &.| G :.x c ,.| B A c } } n A v 8 7 p x 8  .X.y.<.*.} p a 9 7 7 9 (.(.y.n.@.n._.n.@.t.t.O.O. .v X.{ <.O.{  .X.O.O.O.[ { +.[ 8 O.H.;.y.F.W.K.K.@XL.d.L.M.@XN h AX-X* N U p.oX7.M.9XM.mXwXdX;XP.0XmXp.f.zXvXcXDXJXXX% @ e M l 6 l l w w w w k f k l w k l 6 6 6 x z k 6 6 6 k T &.D M S y y w 6 y w y w f w w f m l m d w 4 3 d f 0 q q 3 5 w q w w q 4 3 3 3 0 3 3 5 5 5 6 w l w 3 5 w f d l d l l d d e 5 f w 6 ",
"~ ~ C Y 7.7.! R 3./ / U Y Y 4 % 4 U B.%X XOX+X+XOXoXsXcX#X#XOX;XwXpX$XoX#X8.N.;X>XcXaXaXcXxXvXvXvXaXcXvXCXxXcXAXSXvXvXVXAXVXVXSXAXVXVXVXCXvXxXsXeXAXAXvXcXzXpXcXwXeX$X*XfXeX=X=X9XfXsX:X0X0XsXvXmXpX0XwX=X@XoXZ.Z.s./ ~ ~ s.B.V.8.~ ! 8.a.a.p.g.j.p.3./ j.i.i.i./ i.g.~ ~ i.a.d.p.p.j.^ E ) U P / s.V.3.V R E / |.%X1XgX2XgXgX2XsXgX2X1X2X>XiX;X:XaXvXvXhX*X=XwXpXpXpXU.8.! V =.6.y.F.c.w.f.f.f.m.m.d.d.d.K.K.M.a./ R U R ~ R Y V m m V U _ / a.1XgXvXvXvXiXsXgXdX>XsXvXfX:X*XMXvX$XG.G.e.D.6X=.9.@XpXzXzX6X9.eX=X*XmXmXzXT.M.L.L.Y.Y.Y.W.W.W.E.Y.E.!.!.R.R.!.!.J.Q.Q.H.H.n.b.v.b.t.@.+.n.u.@.[ s ..t.t.(._...+...t.O.O.b.9 a a { >.b.y.{ { b.y.y.*.6 m d Y Z M M $.6 l l z k Z 6 x x x Z f @ m w l M A X.} n ,.t.,.X.,.>. .X.t. .{ a 8 p 9 7 9 b *.v y.{ b ,.y.a O.O.{ p X.X.t.{ { O.{ b >.} y.b 8 G 6 @ 7 5 @ , y G G y.,.b ,. .X.A *.e.n | *.,.,.} 8 *.*.p c v b <.A k A | <.x 8 x z G F M 5 T &.-.&.;.G 6 G 9.z Z D M F D z 1 3 2.Q.9.c >.<. .*.>.y.>. .t.<.<.y.v.J.O.b <.} } c v 8 *.| c } ,.v  .y.y.*.b X.p p c 8 >.n X.v p x c $.z A G H A k } } x *.c 8  .| v *.b p } 8 v v b X.<.o.*.8 8 p a 8 , , { { +.u.O._.'.u...t.O.t.>.X.{ { O. .{ {  .O.O.t...{ { [ 9 >.J.e.,.w.R.0XA.0.K.M.K.@XK.g.V OXAXR 0 U #XM.h p.fX! 9XK.wXR :Xp.jX*X2.wXvXP.zXiXAXL.0 * m d 5 f l l d l w d w q w q w l M z m k k z c c z y 8 6 y 5 6 w y 6 w 6 k f 6 5 f 6 f d w d q w 3 4 4 4 q w q 5 3 5 5 5 5 4 < 2 1 4 4 3 3 5 5 1 3 2 4 0 2 2 0 3 3 d d q e q 3 q q 5 1 2 ",
"i.~ d V 8.1.R 3.3.s./ W R M 3 4 P A. X|.%X>X<XpXsX,XpXaX>X>XaXpXwX*XL.Y.=Xq.6.7.OXpXaXvXvXvXvXbXvXaXvXvXxXvXCXVXAXVXvXcXhXsXeX<XhXSXSXSXSXCXxX:X@XcXCXcXfXvXaXsXdXwXU.$XcXsXdXzXqX9X=XD.L.0.$XvXSXvXcXcXpXsX0XOX#XV./ / / i.i.s.8./ i.g.V.V.p.Z.T.M./ / i./ / s./ / p./ ( a.7.3.1.8.a.^ U i.^ U ~ p.g./ U _ i.A.;X;X>XXXC.sXcX1XpXcXaXsXpXwXG.o.-.9XAXvXMX~.X.v.Q.9XmXW.f.M.7.6.&.,.G.G.G.v.v.H.H.J.!.W.=X0.C T s.i./ ! V ! 4.R D V / a.V.,X-X-X;XC.M.K.@XK.0X>XK.M.OXdXzX9X:XmXdXr.8 a 7 Z $X7.*XsXDXHXzXmXwXdX;XsXHXHXzX@XY.Y.L.Y.Y.Y.Y.W.W.E.E.E.U.U.R.R.U.U.R.E.@XR.H.b.J.H./.n.u...@.u.O.O.s s u.t.t._.u.O.t.t.t.O.(.+.9 ..O.>.y.b.O.{ >.v.y.y.M q 0 m q S z &.M B M S k G z 6 c &.F M 1 m 1 % C &.X.| n t.t.,.X.X.X.X.O.<.{ { a p v < 7 9 v ,. .,.{ { ,.t.v } >.<.}  .X.O.,. .X.,.a >.X.>. .8 x 7 5 5 5 @ 7 6 n c e.e.A  .| } *.>.<.o.n | <.*.n k *.} p x  .A <.} 8 A } *.c c c G 9.Q M M =.0.;.-.F Z S G Z y T F T -.M 5 e d E.f.A r.>.<.,.,.<.t. . .y.y.y.y.y.v.X.X.t.{ | G x 8 | k b }  .b  .t.<.X.b } v } c 8 <.p n } x A 8 8 k G *.c } A | | y  .} p k b 7 v } v { 7 8 8 8 8  .>.,.{ 8 8 8 { s 7 , 7 a +.@./.'._.O.>.{ t.>.O. .O.{ >.O.{ { O.O.O.+.{ { [ 9 y.G.w.,.<.k.jX=XD 2.p.K.N.#Xp./ Z.a.|.P U oXi.t e mXR g.K.jXU wX3.pXwX=.*XHXK.wX#XoXMXN q m Y w f m m l l q d w 3 3 3 3 q d f d q 2 5 5 6 q w 5 6 6 6 5 5 5 3 5 5 w f 6 w w 4 3 4 3 4 1 4 3 3 3 3 5 q 5 5 3 3 5 f f 5 4 3 w 5 3 3 4 3 5 1 0 2 2 2 0 0 1 * 1 4 q q 3 5 q q 0 0 3 1 ",
"XX3.U V Y Y 7.K.d.7./ R R S 3.B.|. XA.+X,X,X,X9XdX,X#X,X>X>XcX0X1XsXaXcXCXbXsXdXzXcXvXSXxXvXCXvXVXVXVXxX-XgXSXvXmXbXvXvXhXaXvXcXhXfXvXFXSXSXMXcXjXvXaXpXdXvXcXpXpXpX@X=XcXcXfXfXzXpXwXG.o.p o.@XqXuXgXVXVXVXzXwXwXT.g.d.p./ / / / / V.V.V.g./ p.M.g.U ~ a.a.a.V.V.p.p.p.s.s.8.1.6.1./ a.p.7.4.4.7.g._ ` 4X3X2XsXsX>XaX+XOXcXSXAXMXcXcXCXAXmXm.p 7 a G.$XfXjXt.{ t.b.8XU.U.Y.Z.U.7.A *.v.H.v.y.H.F.k.y.q.6.D M Y 5.5.;.z 7 ! K.Z.OX>XxXCXSXJXGXSXVX0XK.d.J d T.0X#X+XvXMX>XpXeX>X,XdXfXrX$X@XeXOX9XiXAXMXV.#X9XzXAXAXGXGXmX0X@XY.L.Y.Y.Y.Y.W.W.U.Y.U.U.R.R.R.R.R.Q.U.W.R.J.b.b.b.t.u.b.+.....[ @.[ 9 ....{ +._.b.O.O.(.O...b.{ a X.>.<.H.O.b X.t.<.<.$.2 e q 4 M Z S l G B k 6 Z D y 8 ;.Z Z 6 f * X 5 ;.} n X.<.t.t.X. .X.O.X.O.,.O.a a { 8 8 p 9 ,.,.*.p v ,.t.>.X.<.<.O.X.X. .t.O.O.t.a b X.<.,.b 8 6 y 6 w < y 8 A G G.e.*.} | n } ,.X.>.G X.e.,.p 8 n x 8 n r.| >.*.8 | A X.c G c o.6.z z $.=.&.S &.Q ;.=.G Z q.f.F =.-.D M R =.f.Z G r.*.e.>.,.y.X.<.y.y.,.} X.y.v.>.O.} v ,.| c X.n p } A b  . .v.t. .}  .A n x A *.X.v G | c c 6 6 | A 6 c *.*.| x n } x p } b v v | v p 9 v v 9 v } t.<.{  .{ O.{ a a 9 9 s a b././.t.u.v >.t.{ O...[ ..<.X...{ +.O.+.{ { a p y.S.S.J.>.r.fX>X1.2.! K.8.|./ a.XX8.Z.h h #Xs.j * fX3.R T.$X7.fXC.T.mXU.*XHXpX8.@X1.eX@X% q V d w 6 w y q q d d q q q 4 4 w 6 q 0 * # # # + * 1 q e q 3 4 5 q 3 3 5 5 f w 5 w 5 4 3 2 1 2 2 2 0 0 0 0 3 0 3 % 1 q d q 3 4 q 0 3 * % % 1 1 1 4 1 1 4 2 2 4 3 4 2 @ % 2 % 1 1 1 1 * ",
"s.Y U 3.1.4.M.M.6.! U h h / %X|.B. X-XaXcX1XV.M.>XeXsX>X>X,XaXaX>XcXFXVXiXVXZXbXeX=XcXcXvXVXAXAXCXFXCXcXiXvXAXVXY.Y.<XvXvX>XvXVX+X=.R.cX2X0XAXAXaXpX#XXX<XvXAXvXsXpX9X9XhXcXcXzXwXcXMXfXI.e.y.v.e.q.wXmXcXvXvXtXtX~.W.T.T.g.p./ U ^ a.8./ / Y 8.q.1.m C a.Z.a.A.s.s.B.a.8.3.! 8.c.8.V. Xm.! R p.W.+X+XaXCXVXvXvXxXsX>XOX;XfXSXHXMXzXvXvXhXAXvXE.v.c.=X9XzXzX`.+.[ { Q.=X6XrXtXzXrXJ.y.e.v.y.k.0.r.-.Q S Q -.d.4.<.2.=.3.s.sXxXvXgXxXCXVXVXAXAXAXvXoXT.0Xg./ ;XsXY.>XVXFX:XW.K.:XeXMXvXfXvXvXhXhXiXwXhXAXpXfX9X0XcXmXAXCXmXMXzXnXW.L.C.T.T.Y.E.L.K.Y.W.E.R.U.R.R.U.U.U.G.H.v.t.u.[ @.@.[ [ ..[ +.{ ....9 O.O.t.O.(.t.t.t.s O.u. .{ O.y.t.t...O.,.n.<.$.1 e 1 % u $.Z Z F T z x c ;.H 7 Z T M k Z % $ @ =.x } X.o.>.,.O.>.X.O.{ t.<.X.{ { { a a v 9 X.*.>.8 p O.t.{ X.>.<. .{ O.>.,.O.} <.X.v  .<.<.A c 7 < 6 6 , c 8 | >.H.<.>. .>.{ { y.9.*.} } X.,.v 6 x p k  .r.c X.*.c X.G :.v *.G :.:.k Z D =.T z F T =.Z D -.0.D Q =.M M w 6 M x z :.*.y.t.o.o.y.<.>. . .} } <.v.v.<.X. .v o.v o.$.6 x c c v A { <.<.X.b } } } 8 x | *.} v X.n 8 A 6 k c k x A X.v x x x c v v } } v b }  .8 8 a v { v p O.O.O. .t.{ t.O.[ { ..9 { /.(.@.y. . .t.+.O.X.{ { ..X.O.{ ....O.O.s 9 { b.G.D.L.X.J 6X9X7.! m p.&XU 8.i.V._ ) L 0 +XN.h 0 :X/ W U.M.M.P.g.3.:XP.wXMXdXs.V.#X8.jXR 2 f 3 0 2 2 0 e 6 4 q d q 3 3 2 4 2 4 5 q 0 0 t + * t 0 4 4 * 1 2 3 0 0 2 2 3 4 1 4 0 1 2 3 1 * = * @ * * * # # + + + 4 t * * * = * * * # # + + % % = * 1 1 3 3 * * % @ @ * * * = # & = ",
"S Y 3.d.1.3.p.1.V m e e / OX-Xs.C.1XiXvXvXaX*X*XdXaXxXsXcX1XaXaXsXaXvXXXN.fXVXVXXXT.>XXX>XaXzXdXMXLXGXVX2XvXGXGX6X=XOXcXVXxXvXcX;Xg.Y.hX,XZ.dXSXVXsXU.T.wXmXDXvXvXMXmXdX9XY.wXMXpXvXAXhXjXwX=Xe.X.G c.R.!.=XMXrXtX~.Q.).L.D.d.7./ s.s.i.! 1.V S C D C ~ N.A.N.N.8.i.3.8.1.! ! 1.2.! a.+XC.B.XXeXbX;XdXHXHXHXAXhXsX1X0XcXVXaXcXAXMX>XeXvXsXAXmXmXSXSXJXHXGXFXmX<.[ @.7X7XQ.).6XzXMXNXrXJ.e.&.| o.Q C m ~ =.6.d.7.i.C.-XxXvXCXvXCXcXaXaXvXiX,X>XsXaX+X>XaXsXmXAXhXW.cXiXAXvXwX9X$X@XdX>X9X0X:XcXAXvXwXeXAXDXHXvXfXvXzXzXmXDXDXGXHXpX<XT.K.Y.Y.Y.Y.U.Y.W.E.U.U.R.R.U.R.R.G.v.t.+.@...+...[ ..+...+.....+.9 [ t.t.9 O.b.u.b.O...u. .X.>.b.b.x 8 >.,.y.v.X.5 2 3 2 7 :.F Z S B x 8 6 | &.k 1 S w k M 5 @ @ M k *.>.| ,.,. .O.,.O.} ,.<.X. ...a { a a 9 b X.X.v v { ,.{ t.<.X.>.a O.,.X.X.{ ,.t.b  .X.G.A c 6 7 8 7 7 v x X.*.r.,.*. .v.b { v.F.y.*.} X.>.x 7 v c v | e.c } >.} G G :.n *.G ;.M k F M 9.Z k =.F f 6 6.w.;.&.F k 6 l l M k z r.*.>.*.,.} y.<.O.X.X. .,.<.O.v.v.<.v { v >.8 | M 5 z 7 c } 8 b ,.<.,.b X.v >.v x A X.| v H n 8 c Z 6 6 k p n o.} v X.} x o.p v *.X. . .b { 9 8 { b X.8 8  .b { { { ..{ ..O.O.t...t.u.t.t.u.{ X.+.O.O.[ .. .{ X.....{ O.t.[ 9 ..y.y.L.I.X.o.E.9XM.M.4./ :XU s.a.s.U i.U ; / Z.U t 0 W g.$XK.P.3.P.p.#XM.$XmX@X~ 0 ;X1.P./ h 0 @ @ * * * 2 0 2 1 2 0 0 * % & & 1 3 3 1 4 q 2 * 2 * * % & * @ % * * % * * 2 * * * & * % * * # # # * & # # + o + + * 0 & + # + + + o o # # # * * 2 * 0 0 % @ % * * @ & # + & & * # # ",
"Z 4.M.N.R V Y V e e C 8.-X2XC.V.oXsXXX>XmXaXK.m.OXaXVXCXgX>X2X>X,XXXXXa.8.@X0XxXpXXXOXV.oX9XtXW.eXGXSXvX-X0XMXAX$X0XaXvXVXsXvXvXvXAXCXAXzX9XdXAXxXvXpXwXfXfXMXMXmXAXzX0X$XoXY.pXcXzXvXrXtXwX*XZ.:XY.e.w.e.y.hXAXzXQ.J.J.I.U.U.@XXXOXC.C.M.K.M.4.Q 8.N.N.p.V.a.j.3.8.3.! ! Y R ! F M Y Z.2X XvXHXvXXXqXHXvXbXsX XC.C.dXvXGXAXAXAXcX>XaXAXpXbX=X!.AXaXMXAXLXJXGX`.t.y.J.).b.y.H.6XwXfXdX6XR.f.2.-.T F Q 1.2.f.:XiX2XCXxXcX>X*X>XiX,XsXeXdXP.XXsXcX0X=XzXaX;X=X9X;XD.wXP.g.oXM.$XU.2.$XbXfXM.*XmXzX9X#X9XMXfXhXcXdXhXzX=X`.AXGXJXSXVXaX=XY.Y.Y.Y.U.Y.E.W.E.U.U.R.R.W.W.R.H.v.@.@.@.@.@.+...@.@.@.@.@.+.@...s ..b.u.O.t.n.(.t.{ u.O.v  .t.). ., p y.<.J.e.z q 2 4 6 G &.&.z B Z y x Z =.F 4 k 6 w G z q $ l z r.A | >.o.} O.y.<. .O.t.{ ..O.{ +.s 9 7 a X. .{ { { t.{ <.t.} <.s  .>.t.y.{ { X.v p | v.} v c < k 7 < k A >.>.| ,. .,.o.a  .,.y.y.y.} >.| p 8 A k n k :.x *. .X.c } | *.n Z G S =.T w M M T 6.z l 2.q.0.M M w 6 z l 5 T S e.9.*.| <.,.,.<.{ o.X.X.v X.>.o.<.X.<.b { a <.7 A B 6 6 7 } o.8 v  .*.,. .*.>. .v c x G ,.k x c k x A c 7 8 p G c | n c ,.n X.A 7 v X.} ,.O.X. .8 <.}  .t.v a s 8 v  .t.9 ..{ { { ..@.O.u.u.t.>.{ O.O.t.{ +.O. .{ ..{ ..O.@.{ 9 O.<.F.I.I.e.F q.U.1.g.g.R V.V.XXV.i.OX_ _ _ ^ s.U E h / #Xp.d.#Xp.dXW.pX9XY.MXmXZ.2 h ~ 1 s.r * * + * * * * 0 ; * = * = * * & # & * 2 * * 3 3 * * 2 * * * & + & * * * * * * 0 * # # # + & & # + + # + # & # # # o # - # . X o o o o o # # & + & & # # & X + # # & & & # # & & + + + ",
"V p.Z.N./ C f m e h ) %XiX:Xg.j.V.-XXX,XfX,X/ m M.:XaXgX>X%X>X0X!.n k G n F <.!.pX,Xm.~ OXhXaX:X*XvXvXdX>X>XsX;X4.#XcXAX>Xh.%XAXcXAXSXAXdX6XrX9X@XrXvXaX$XY.cXCXVXVXsXOXpXvXiXcXvXAXmXeXwXcXW.m.vXAX9Xv.<.X.L.MXAXwX6X6X9X*X@X;X2XgX1X%X*X=X*XOXXX>X>X#XoX+XV.P.a.p.7.1.1.1.p.8.g.B. XxXDXq.6XJXSXvXcXAXxXcX;XP.|.|.vXbXLXGXMXHXHXAXAXSXvXvX9X9.fXeXwXwXMXHXGXvXW.F.J.`.J.H.H.`.`.`.8X8X`.!.H.e.y.k.I.Q.Y.T.vXVXxXVXaX0X*X9X9X;XP.OX0X$XoXiX1XzXwX9XdX,XoXN.;X+XD m.1.d.0X0XE.f.2.@XJXzXY.AXGX=XH.$XwXMXvXiXaXpXrXmX5Xb.eXdXHXAXmXdX9X=XE.Y.Y.U.Y.W.W.Y.U.U.U.R.W.W.R.J.b.n.t.@.n.u.t.O.t.n.t.u.u.u.n.b.{ O...(.(.u.u.b.t.+.+.b.X.a +.t.v.v $ >.t.y.b.>.y 7 w w M F w.M k F z 5 w S k k z M 6 z k 2 $ 0 S :.n *.>.o.} ,.y.O. .<.>...O.O.{ O.{ a 9 a { { X. .v X.t.*.O.X.>.a ..} y.y.O.}  . .8 X.y.} v | < 6 6 < n *.| G } y. .>.v a X.*.:.>.y.b *.} p b b v b 8 *.c *.c *.*.n o.,.x z M Q S 1 < Z 9.T Z k =.w.=.=.M T G D z w M 0.S =.9.v.y.<.,.y.>.} b >.X. .t.} o.,.X.X. .>.b ,.7 A x 7 7 6 x A v } *.} y.|  .<.n p v *.c *.7 6 c 8 x 6 k 6 8 k } >.x n k k 8 8 | b 8 b v X.,. .<.p  .v 9 { t.{ { { { s t...{ O.t.u.@.....+.(.O.u.v O.O.t.O.{ O.t.........+.+...[ @.>.H.L.I.y.o.2.#XZ.! g.i.N s.+XR P sXi./ / j C.i.E h ~ >XU N Z.U nX@XwXvXdXdXDXp.U ; U U & * # & # & & # & & + + + # # # # * & & & = & & ; 2 * * 0 * @ % + # # * * & # o o # * # X o o + & + + # # o # - & # # X o # o . o X . . X X X X o # + o # o o o # # # # # + o o o o # + o ",
"C / ! ! 3.~ m d N V.+X%XXXA.7.Z.XX1XsXaXcXsXV.P.=X! OXCXiX-XgXaX9.< 6 =.8.p.p < D.:Xo.H oXvXaXpXzXhXdXwX:XOX;X%X#XiXvXcX>X+X,XhX:XzXVXCXMX*XW.rX=XrXCXSX*X@XvXgXiXAXMXwXcXCXvXvXcXDXAXrXdXsXN.6.<XaXAXfXtXJ.E.vXvXwXrXzXaX>XY.XXE.cXAXAXMX*X$XfXVXCXxXiX>X>X;X;X+XXXP.T.T.C.+XC.1XVXvXAXhXg.$XVXvXvXGXFXgXDXdXC.|.h.dXMXSXAXpXmXHXMXAXAXMXmXdX9XMXhXzXzXzXmXMXAXMXdXtXtXtX6XQ.7X`.`.6XtX6XW.$XD.M.Y.6XE.N.+XaX%X%XcX,XZ.aXfX&XgXiXiX9XK.pXAX:XeX,XP.wXhXAXhXvXOX2.9XT Y M.@Xd.M.N.wXSXqX*XAXpXQ.<.L.dXMXvXcXvXeX6XfXtX/.dXqXwX9XR.R.E.$XY.U.Y.E.W.W.W.Y.U.U.U.Y.E.@XE.R.H.v.v.v.n.b.n.t.n.b.t.n.n.+.@./.u.@...O.)._.n.n.b.t.O.J.b.b { X.(.v.6 , { b.n.b.,.7 q l y M 9.=.l S G k 6 5 6 z k F y k k q @ 0 d 9.c *.*.<. .,.v.<. . .X.+.O.O.O.O.+.[ a s {  .X.<.{ v H.<. .y.X.a +.{ t.,.y.X.X.,.} *.y.X.v } 8 < 7 7  . .|  .A X.,.X.X.b X.<.r.*.,. .<.v 7 8 v n 8 v } n } c *.*.k A :.G Z M l l < d Q 6.l m =.0.2.l z G Z ;.G 5 5 S F F w.y.y.<.,.X.y.<.b p X.v >.y.,.,.<.O.X.X.O.b ,.7 *.z 6 8 8 8 A x X.} A ,.<.} *.b b 6 } X.<.n 8 A c 6 7 6 6 c 8 p ,.| n A x } x p A c v p { <.v } { { X.8 7 {  .a a { { t.u.[ a t._.'.....O.u.O.t.[ +.O.O.O.O.{ O.t.+.........a ..@.O.G.@XP.9.<.T @X,X~ Z.g.h / iXU 0 V.T.i.E h i.XX/ 0 a.OXU s.OX/ wXL.9XmXeX$XNXZ.; ; . ) - # o & o . . . X o . X o o X X X o o o o X X X o o o o + # & * # # o o o + # # . . . o X o o * * . . o o . o * & & & & # O . . o o .           . o X X o o X X . X . . . . . . X . .   o ",
"Y ! V M Y V h U B.%X<XOXXXg.a.,XsXsX2XxXCXvX,XdX>XV.sXZXsX1XxXvXoX=.8.A.1XvXK.Z K.:Xv.e.@XmXmXzXvXaXdX9X,XsXcXZXwX1XCXgX>X>X;XaXd.G.wXcXAXzXwXdX0XdXSXCX*X1XAXcX9XdXwX*XcXAXcXcXpXCXFX=X7XfX,X,X>XXXzXGXvX6XE.mXdXwXzXfXaX0X=XP.9.d.1XSXGXfXW.:XbXMXMXpX>X>X;X,XOX;X>X;XC.B. X-XvXCXxX;XxXwX~.D.Q.=XAXAX2XbXA.( B.a.J e.nXzXrXwXzXwXpX0XvXMXiXpXFXAXAXAXVXhX9XfXMXAXvXfXmXmXzXmXdXtXrXfXwXqXwXwX%X-XOXa.oXmXhXaX,XaX0XN.#X:XXX1XoX9XvXW.W.dXwXwX,XC.eXxXaX1XaXsX7.K.Y 3 / i.8.zXpX>X0X9XcXAXvX6XQ.E.wX:XcXAXcXW.$X#X6Xu.L.fXtX).t.y.S.E.W.$XW.E.Y.W.W.Y.Y.Y.Y.Y.E.=X@XE.!.G.H.G.b.J.J.b.b.b.t.b.t.s { b.b.u.t.a <.b.b.b.(.b.y.b.y.<.X.>.J.H. .7 , | n.J.H.A w l z c G c &.6 k k w 7 5 Q M k S Z l 3 % 1 5 2.c | >.,. .*.H.y.b X.X.O.O.<.<.X...[ a 9 a {  .O.b { t.<.o.y.t.{ +. .t. .t.X.X.X.} *.y.*.} | 8 , 7 7 ,.*.*.X.o.b y.b ,.{ { e.w.*.} ,.y.v 8 k 8 b c } } c A A o.r.&.A ;.F k z z 6 4 R 0.T M T 9.=.=.k F =.G &.x z z &.$.$.9.&.:.y.>.*.,.,.v a { { t.v.,.O.y. .b  . .v *.< *.A 6 6 p 7 A k ,.} X.*.e.*.*.,.b 8 v >. .X.c x A 8 5 7 7 8 v v 8 } } *.*. .G 8 8 8 b b { O.,.X. . .{ v { a  . .v 8 +.{ { ..s v u.8XO.{ ..+.+...+.O.t.O...+...{ +.O.O...+.+.s ..@.<.G.#XU.&.y.D oXXX/ P.M.U P pXp.h / T.U h U / +XV.0 8.oXY C.i.3.zXE.K.DXvXeXnXbXP P   & ^ o X . . . X X X O . . . . . .     . . . . X X X . . X o X # - # # O X X o o o     . # X # o 0 - o o o o X # * * & - 0 0 & X X o .           . o o X o X o o X . . X .   .             |.",
"! 1.S m m h / +X-X+XoXoXV.s.+XhX>X2X2XgXxXxXCXvXOXOXvXZXbX1XVXSXSXaXiX+XgXFXMXdXhXhX=XY.P.dXMXvXfX0X0X$XpXvX,XgX$X;XxXgXvXMX0XmX6XG.6X9XpXdXmXvXpXtXsX;X$XVXSXvX9X*X9X$XhXvXMXbX9XvXSXK.<.F.uXFXJXVXsXDXfXW.U.fX9XwXwXK.,X>X,XZ.8 V 2XFXAXDXzX;XA.=XvXcXsXsXeXeX,X;X#XoXXX,XsXVXSXvXOX=.bXMXc.v O.r.*X>X<XsXa.B.Z.|.G p J.`.J.J.J.6XwX9XzXvXaXhXCXcXvXAXvXpX9X0XdXDXAXhXAXGXAXAXAXmXzXaXiX:X9X,X2XsX-Xa.9XpXT.mX:Xg.*XM.7.*XzXdXD.*XvXeX9XwXY.oX>XiX9X+X#XuXiXVX+XP.@XK.T.XXpXAXAXmXsXpXfXsXmXrX6X!.wXAXvXSXAXdXnXAXrXu...b._.7X8X8XQ.R.U.W.W.@XY.Y.W.W.Y.Y.Y.W.@X@X@XW.W.U.R.!.H.J.J.b.u.n.@.u.+.a s O...t.t.{ 9 @.n.n.t.H.u.y.t.y.>. .y.H.,.| , , O.b.y.<.B z | ,.*.A *.n x k l k 5 Z F k Z 5 Y 1 % q q T Z Z <.X.} A y.e.b <.O.O.O.>.,.>.,...{ { a b { O.+.a  . .O.t.y.{ O.X. .{ O.>.O.X.v  .,.,.X.} 8 7 < 7 y.X.| >.>.b v. .<. .{ v.G.>.} <.X.} p b 8 b  .b } 8 | ,.A :.| Z ;.k l F k @ l 6.T k S f.w.&.z D :.;.S.&.G &.o.;.z $.=.G r.e.,.<.>.X.v } v v ,.b.} *.,.v v O.X.v } < *.A 7 8 x 7 } c | | n >.| ,.| *.k c A X.| c n < y 6 6 k 6 8 v n x n c 8 A p v  .,.} v b  . .v t.<.<.{ { O.<.v X.>.v { { a a s , 9 b./.@.O.{ ..[ { +.O.t.O.O.O...[ { O.+...+.[ [ O.,.I.$XW.9.<.D oXP.j.j.R s.U oX7.U U T.V 0 3.g.Z.oXE ! =XV P.U U Y.*XR pXDXwX5X>Xg P ) r r X - # # - - ; ; - & & - - - O . X .     . .           X o . . & & * 0 0 0 - # & - 0 h - + + * o o # o # & * * * - - 2 0 * + o X X . O # & & & & & & & & & - - & & & # O O O o O . # OXcX",
"i.i./ U m / Z.N.i.a.V.s.i.C.gXcXiX1X-X-X>XsXxX,X~ p.,X2X=X1XxXcXCXgXpX+XsXSXCXcXvXhXaXaXoX@XeXeXvXhX:X#XhXvX:XcX9XiXaXhXAXAXvXAXwXrXMX`.6XdXmXMXfX7X+XU.Q.SXFXSXpXzXzXsXuX>XcXsX,XuXmXqXw.n q.<XAXGXvXDXmXQ.L.=X*XwX=Xd.iXgXxXaXI.oXSXJXvXpXvXxX<X,XaXsXaX>X0XeX>X,XXXP.,XvXVXCXAXcXD.e.>XSXDXwXfXaX&XOX%X3XgX<XxXxX9X~.wXdXrXQ.9.U.eX*XwXwXeXeXvXcXmXmXVXsX9XpXsXvXsXaXzXvXpX>XsXpXdXwX,XZ.U.,XaX>X$X7.K.7.d 9XuXoXdXY.d.C.=XL.l =.:XvXcXaXA.XXfXmXzX6X9XwX;X1XiXfX9XM.*X:X+XvXFXDXsXmXdXwXzXbXpX6XoXDXvXAXCXVXvXGXrXu.@...O.,.D.6X6XF.w.d.M.W.Y.Y.W.W.W.W.W.W.@X$X$X@XU.U.R.J.F.!.v.t.t.u.t.t.+...[ s 9 9 { +., a b.'.b.u.b.<.t.b.b.X.O.>.H.b.A @ k y.t.X.B %.x *.e.>.} } } 8 l 4 5 k k 6 T < m 3 % C w l k A r.|  . .e.*.b ,.,.X.O.,.,.,.O...{ { 9 a { O.@.a O.{ X.t.y. .O.X.O.X.O.>.>.<.b  .*.<.>.A k 6 < 7 v.,.*.<.>.v X. .,.>.{ e.<.X.<.y.*.,.p v 8 8 } X.n v | *.&.*.r.G &.k &.l 7 5 M F T T 2.K.Q m m S =.r.| x | *.r.Z M T G | e.<.*.>.y.,.b b 9 9 X.y.>.,.,.{ v X.>.v } 6 n c 7 6 x 6 *. .} ,.c <.G } ,. .8 n } ,.>.A k 6 6 7 < 6 6 8 8 v  . .n | v | n v | } { v a  .v a a  .<.>. . . .X.,. .O...a +.{ 7 9 +._.n.O.>.[ +.a O.O.t...+.O.....a ..O...{ ..[ ..<.Q.*XU.;.>.C oXXXa.Z.W P.j./ ! R * 9XK.h R &Xs.@X/ Y M.=.@XR U ~ M.M.zXHX9XjXzXP   r / 0 r r r r r r 0 * - - * * * & & & * # # # # o X . . .   o o .   o 2 e h 0 0 0 * 0 r t h j & & # o   o & * * * * # * * * ; & # & # & o o o # # # # # # & - - ; - - - & # # # - - # @ U.nXy.",
"^ _ a.! ~ B.a.R 7.+XT.s.;XvXvXxX-XZ.>X,X%X1XaX,XZ.=X>X2XZ.+X-XaXCXxXdX@X<XCXVX9XwXY.@XdXwXwXdX#XwXvX#X$X;X0XoX2Xm.d.uX>XwXcXhXAX$XT.vXy.o.f.mXDXqXb.9.;.;.xXLXLXMXbXAXSXwXpXSXsXeXdX6XjXR.a n s -.vXLXPXSXrX$XJ.U.!.G.w.0XSXLXGXvXvXCXsXT.:XVXvXzXcXcXvXbX0XcXmXpXiX,X%X>XaX2XsXAX$XB u.rXtXrXU.+XGXAXvXxXZXSXxXVXCXCXFXSXCXVXVXzX*XwX9X*XY.W.9XvXfXdXdXpXwXdXvXmXrXW.=X=XwX9X9X>XeX,XC.Z.Y.@X=XeX+X*XU.7.-.M 0.~ 8.vX,X8.Q q.n < G #XaXsX>XiXDXBX6 7 8 F wXcXxXbXAX0XK.vXzXN.fXzXfX0XsXsXwXHXpX*XdX9XvXpX<XAXSXCXCXfX'.b.u./._.t.<.k.J.G.d.7.K.K.Y.W.Y.Y.Y.@XoXY.W.Y.W.W.U.R.!.!.G.b.t.t.t.u.t.@...+.s s 9 9 { 9 , +.u.b.b.y.<.O.{ H.u.t. .u.t.<.6 , O.v.y.c *.G c ,.A v <.y.A M x 6 7 < 2 M M % < 1 C l 5 3 | G o.o.b y. .*.,.O.} X.,.,.y.t.O...O.a a a O.O.a +.{ b ,.y.O.O. .X.O.>.{  . .b  .X.,.>.n k 7 7 6 <.e.y.,.X.}  .*.} <.n v.e.,.<.t. .v p p c 8 } *.v p } e.<.| | *.k x :.6 7 y T f.6.-.F.9.T Z G &.;.;.n o.e.,.| G G 4 G e.<.<.>.<.>.X.b 8 p v >.<.}  . . .v X.G p c 7 p x 7 8 c v >.A v ,.c ,.o.x >.X.6 | c <.*.| k k 8 7 7 < 8 8 p n v b b X.b c } a p v } X.b {  . .b 8 v { O.p v X.t. .O.{ { ..{ 9 9 { u.b.O.t.s a ....@.t.O...O.{ ..{ s [ @...[ [ @.H.I.$XY.w.:.l M.9XC.OX/ Z.~ ! N m 2 1.oXp.+ ( P.Y.a.d.E.0.M.T.3.T M.p.fXHX$XrXzX>X* - h 0 h h h U U h e e 0 t 0 0 * 0 U R e t t h t 0 0 - & & - - - & o - 0 h 0 3 e 0 0 e 0 0 t g ; 0 - - X o & & & - * * # * * ; 0 0 0 0 ; = & & # & - & & # & ; r ; ; - = * - - ; 0 ; r % m.v.O.",
"R / / ~ V.|.B. X1X1X-X2XxXgX1X;XC.8.T.0X>X1XsXeXgXgX3XxXsX;X;XsXvXbXaX=X#X>X,X#XQ.S.c.!.m.=XY.8.N.,X+XaXsXpXD.9XY.d.aXsXfXdXpXMXdX2.wXrXe.e.qXDXzXG.n { G eXAXAXrXtXfXMXAXAXJXvXfXfX=XqX$X9.0.o.p e.wXsXVXxX2X#XJ.9.T d.-XPXFXbXvXGXCXOXOXcXAXVXxXVXAXAXCXvXAXFXVXVXxX1XsXeXN.7.zXK.Y =XCX9X>.a Z mXAXFXxXaXvXVXgXvXMXAXvXiX>XvXFXSXAXCXAXaX,XwXvXcX0XhX0XpX0XvXMXwX$X#XW.W.K.;XiX;X:XK.Y.#X0X+X;XsXAXzX>X! C d h / OX>X9Xm.E.!.T D.0X>X1XcXcXdXp.X V M.+XiXvXSXpXhXmXsXDXvXM.jXdXfXfXwXdXwXHXvX=XQ.R.rX0X0XzXhXaXzXzXfX`.9XqXqXtXL.Q.$XE.wX*X+X@XY.@X@XY.@X@XY.Y.Y.Y.Y.E.U.R.R.F.H.H.t.@.@.@.@.u.+.@.[ [ s 9 a { 7 9 { H.b.t.O.t.{ X.v.t.t.t.u.>.>., 7 k.y.,.,.,.A :.} b *.e.F k A z < < 2 5 l 3 @ 6 M w @ 4 &.n | G } y.X.X.<.<. .X.} <.t.t.O.O...a [ a { t.{ O.b b >.t.<.O. . .O.<.a X. .v  .| ,.<.A p 7 7 6 o.y.>.X.,.X. .,.X.y.} y.,.,.,.<.o.{ p c | n  . .c c $.k.<.:.n z 6 &.Z < k Z 2.2.-.0.w.;.S Z Z ;.e.| | o.G G F Q 7 7 w.e.<.<.,.} >.| v 8 8 p O.<.X. .>. .a O.v p H 6 8 8 8 8 A A >.} p | A <.| c <.c 7 *.c *.S.v c c 7 8 6 7 6 x n v a v n *.| A v p p v 8 b  .{ { a b { b 9  . .p >.O.X...{ +...O.+.{ { { b.O.+.{ 9 { ..@.u.u...........[ [ ....[ [ u.b.f.$XY.k.w.D D.9Xp.,X/ Z.~ R / m d C $Xp.C 3 P.L./ C.8./ f.zX$Xp.zXN #XMXdXwXzX,XP 0 h r g h h U s.W 0 e g h e h t P 3.p.h h h e e r 0 e 0 * 0 t 0 0 2 h N h 0 t h t t e t t 0 0 & ; g r ; & * 0 0 ; * * * ; r g r r r 0 ; 0 j 0 - & * & - - & - ; - 0 0 ; 0 r ; r 0 ; r $ H <.O.",
"N ~ 8.C.-X1X;X<XaXiX,X,XXXZ.XXP.;XA.s.;XiXOXa.XX1XsXsXxXAXsXOX>XvXvX2XT.T.=XqXuX:X$XW.=Xq.d.3.3.P.iXxXCXVX,XQ m.$XY.zXdXDXmXpXzXzXf.<.kX).<.G.$XQ.0.z b Z =XaXzX6X`.`.Q.wX0XmXmXvXcXzXfXrXtXfXrXU.N.=X0XzXzXhX0XY.m.T.iXCXSXVXsXCXJXeXa.sXcXCXAXxXvXDXSXSXAXvXvXaXwX*X@XK.d.8.8.+XOXoXpXgX@X;.=.U.GXvXMXFXcXsXCXAXCXAXcXzXeX>XcXcXGXJXFXAXmXmXdXaXMXsXvXdXwX=XvXmX*X,XfX9XD.*XwX1X;XhXcXcXiX9X;XmXAXDXbXAXK.p.p.a.a.U Z.+Xp.OXsXP.;X1XvXAXAXvX1X,XeXDXHXdXhXGXAXZ.;XaX1XAXsXd.*XqXqX$XK.wX:XzXDXcXdX*X9X;XXX:XgXzXzXmXmX`.I.Q.).5XF.k.0.9.@X$X9X*XP.Y.@XY.@XY.Y.Y.W.W.U.U.U.R.R.G.H.b.t.@.@.@.+.O.@.@.[ ....a a { s a 7 { (.O.O.X.y.X.O.>.X.<.J.t.y.} $ b e.X.e.>.v ;.y.| *.} *.A | c y 5 6 6 M q 2 4 M l @ * &.| } c  .y.>. .<.t. .{ b O.<.y.<.O. .{ { { [ O. .O...{ X.>.y.t.O.b  .<.b >.{ v X.} *.t. .p 5 < p *.H.X.*.t.X. .t.X.,.,.<.<.y. .,.O.} n  .X.} b  .c c *.y.>.<.A c &.&.6 $.F G.;.;.6.f.&.9.x x G r.o.A r.o.o.Z F 5 2 =.G.v.G.,. .X.>.} v 8 8 v t.t.o.X.>.} v X.p 8 x 8 6 8 x k } G X.n x *.n e.A } y.8 8 G v x G.p 6 v k 8 7 x p x v b v v v  . . .{  .p k b v v X.X.v a v a 9 7 { { O.{ { {  .t.O.{ ..{ ..s +.t.t...a ..{ +.O.u.,.O...@...9 [ [ ..[ ..@.t.v.9XU.m.v.9.f.7.U oXi.V./ h g.7.d R #X/ m h g.m./ 8.! Y ! Y.L.M.vXU f.mXfXdXzXV.= j h h h h h h / W t * r t 0 h g h h e 0 g e 0 0 0 t t t 2 0 ; * * 0 h h t 2 h t 2 * * r # + 0 0 = 0 h r 0 0 t r r 0 0 r r g h g r r r ; 0 r r 0 ; ; - r r 0 L h 0 r 0 r g P 0 h g ; - U v.O.o.",
"B.gXVXSXCXVXcXsX=Xq.-.! A.:X#X+X<XcX;X,X9XT.( 8.! d.T.W.iX>XT.+XaXMXbXwXP.d.wXxXsX>X9XtXU.S.6.m.Y.eX9X$XcXMXU.q.2.&.Q.q.=XzXsXzXzXrXO.6 $.5.H.t.p x p p k K.eXdXrX`.H.<.J.Q.9XwXsXiXvXaXaXvXSXCXVXAXGXDXcXdXuX$XN.C.ZXvXzX5XOX1XcXvX$XZ.hXaXSXDXvXvXMXAXSXvXaXiXXX0.4.! Q Z.T. X+X;XcXaX=XdXdX#X2XSXVX0XCX>XK.cXDXhXmXcXcXvXAXDXpXmXMXzXdXpXzXwXcXvXwXtXH.F.,XfX$XU.Y.;X@XY.uXpXaXiXuXCXvX=Xm.d.0X:Xg.1.>XAXAXcX>XZ.a.,XV.|.1XxXgX-X%X%XiXdXxX2XxXVXVXxXs.T.T.@X>X>XvX1XxXcXeXpX0X:X9X9XmXmXhXvXAXVXVXvXsXC.,XxXCXCXAXJX7Xw.t.J.5X7X6XL.D.L.Y.*X*XP.Y.Y.Y.Y.K.T.@X@X@XY.U.U.U.U.v.H.v.n.u.t.t.t.O.u.u.+.+.+.{ ..{ ..{ { 9 t.O. . .t.y.t.v.,.b  .,.<.H.&.7 X.*.9.H.>.y *.<.e.,.,.| o.8 G Z 6 z M q k f m w @ @ ;.A v v | e.*. .,.>.X.{ }  .O.v.t.X.X.O.{  .{ { O...O.....O.t.y.<.v X.t.X.X.{ { O.>.,.*.>.G @ , 8 <.H.| X.<.X.X.<.| X.y.y.>.<.b ,.O.v b } } } } >.A } :.<.,.>.G G | 6 G F =.z Z G 0.=.T &.x M A Z A *.:.o.A G w 5 2.G.e.o.X.A *. .} v 8 k 8 { v.O. .{  . .b { n x 6 k 7 8 k G A A >.A v *.G e.A x G k x *.n p <.O.7 p v n 7 } *.n  .A b *.b p 9 b v p p x v 8 8 v { ,.X.v v { v 8 { v { t.{ s { >.a ..O.O.O...O.t.t.t.+.....@.u.t.O...O.+.[ [ [ [ [ +.@.O.v.9XK.f.U.q.6.Y 7.d.! 8.d.~ U pXd ! V.~ V 1.$X6.3.s.P./ t M.M.7.pXL.m 9X0XwX*X>XP 0 g r h h h t h U N 0 r 0 ; t t e t 0 g h g t t t t 0 t 0 - 0 0 2 0 * * + * h * * # + # + * h g j h h h r 0 t 0 0 r r g r 0 r h h g h r t 0 ; ; - ; 0 r 0 ; r j r E E ^ L U U j h h r 4.H.X.,.",
",XxXCXFXSXAXcXpXd.1.m.7.$XvXoXs.T.vXcXaXpXT.i.a.p.m.T.eXsX>X@X#X;XiXcXvX,X! L.eXsXaXwXL.q.| c G G !.v.R.cXGXdXG.9.y.J.:.Y.cXmXDXCXAXu.i y %.yX).5.G x 5 6 <.tXdXrX6X).(.7X`.=XcXCXhXvXcXaX1XxXgXgXVXGXAXsX>X0X=Xq.P.VX2XW.q.K.aXwXF.q.@XtX:XAXHXvXvXMXAXAXsX2XiXXXN.XX1XgXAXAXAXhXcXAXAXwXMXcX,XaXCXAX9X<X@XT.2XaXaXvXfXAXvXvXMX=XW.tX*X*X:XsXsXaXpX6XQ.G.=XeXhXK.G.wX#X;XpX;X0XwX*Xg.cXiXN.c.-.XX:Xa.8.h.aXgXgX1XXXaXAXxXgXgXgXCXvXcXvXwXpX>X>X2XxXVXVX;X;Xg.g.T.,XcXaXvXDXDXpX,X:XdXzXmXhX9XvXAXVXGXGXAX1XgXzXVXFXDXSXkX=XJ.G.k.$XdX@XM.Y.P.oXoXZ.Z.Y.Y.oXoXOX@XY.W.Y.Y.U.K.U.F.J.v.v.v.y.<.<.t.@.t.@.+.+.O.+.O.+.a O.p { t. . .>.t.{ t.b.y.b  .} H.v.8 6 X.e.y.,.x x c ,.y.,.} *.v 8 *.c z $.l 6 m d 1 1 $ &.} c A *.>.| *.<.X.O. .} O.} t.t.{ { t. .+.{ { O.+.+...O.O.t.y.y. .X.>.>. .{ } { <.,.b X.o.@ 6 b e.v.>.X.,.>.y.,.{ *.<.v.*.,. .<.{ b b b  .b } *.} *.,.e.*.G | c 8 n r.&.l k Z q.w.&.&.F F :.:.$.*.;.| :.z F 4 q T e.>.} o.X.*.O.n 8 x v 9 } y.} O.{ X. .b v } x 6 c 6 8 8 G n } | c A } } e.| c p A x X. .x v  .7 n c v 8 b b p b | b A b { v p v p k c p v v v { v >. .v b >.v { v { ..{ { { t.O.O.O.+.O.@...O.u.u.t.t.+.O.t.t.+.O.O.@.[ s [ { ..#.+.t.y.9XE.S.R.D.2.R D.@Xf.R Y / f *X! C ! N p.M.$Xm.a.R M.p.U 9Xm.m 0XL.Y L.qXzX*X<X-X0 t h h g 0 * 0 e h t t 0 0 t t j j t 0 h h h P U h g h 0 0 t 0 0 j t e * 2 U 0 2 ; & 0 t j h t h P P P h t r r 0 - 0 0 0 t r P h g j P h r r 0 0 t g h j r r t t L U U 2 t L r h h L Y c.<.c.",
"W.dXVXFXvXzX0X>XV.P.K.~ / +X X X>XaXgXgXVXgXsXgXiXOXOXaXgX;X;XsXaXaXvXVXmX9XQ.J.5XtXE.f.&.z 7 c =.0.k.wXxXvXmXqX&.y.,.y.*XcXvXmXCXHX7Xu u T ).7XP.6.T k 9 9 O.R.dXfXdX6XQ.!.K.aXJXAXzXtXqX=XeXcXvXVXCXCXVXcXfXD.r.K.hXoXg.$X9XpX=XF c F.<.r.iXvXpXvXcX0XwX>XsXcX$XD.N.uXGXFXvXAXhXvXsXzXSXMX0X9XaXvXVXgXuXmXDXzX>XzXwX:XmXmXMXDXyXR.6XtXQ.qXwX:XaXpX:X:X*XdXeX>XN.0.S.7.MXGXsX*XW.G.K.DXcXd.d.8.s.>XcXcXaXvXsX2X1X1XcXpX:XK.=X:XrXwX*XsXd.K.#XuX,XvXHXcX,X0X>X;XC.sXCXFXaXaXDXwX$XoX*X*XwXfXaXgXSXAXvXvXsX,XiX:X0XCXAXHXDXwXrXzX>X#XxXcX,X>XXX+XOXXXZ.K.Y.T.XXoXY.Y.Y.W.W.Y.U.U.R.R.D.H.v.v.v.t.O.+.t.u.@...O.{ O...[ X.{ 9  .v. .X.y.O.} t.y.,.b v &.o.F 7 B n o.<.$.x 8 } v.H.,.| e.8 | c l $.D x k M l 3 % Z A A A >.|  .|  . .O.X.{ O.b <.t.{ v t.X.X.{ a ..O.[ { O. .t.<.<. .X.>.>.O.v } } ,.,.b O.b < 8 a y.e.X.| y.o.>.>. .<.y.v.,.<. . .v } b o.| } >.} } *.e.G.o.} } 8 6 A r.Z z 5.D.w.;.A c A G :.;.r.,.} *.&.z l 2 q F :.o.>.>.X.n X.7 7 v 8 v  .b.O.} b <.{ { v 8 8 8 k 8 c p G | :.c x =.:.Z G c G 8 o.| A o.p v  .n } A p p b v b v n 8 b b { v } *.b k G *.b b b { b } X.{ v X.t.{ +.{ a O.{ O.t.+...@.t.+.t.{ ..t.t.t.t.+.+.O.O.t...+.@.[ [ [ ......+.t.y.E.$XD.D.W.Q D 2.F.6Xf.f V ! Y.*Xm h U p.OXM.U.XXU p.3.R @Xd.a.fXp.U d.9XwXsX%X-XL 0 t t e t * * * * h 0 t h h t j L h h j g h U E U h h g h j j h h h N h 0 e 0 * * 0 j h j t h h h e h h g L L h r r r r h L P g g r g h g L g r h h h h h t h h h e r h h h L P h U p.c.<.w.",
"T.pXAXvXXXoX,X0X0X#X8.V ( )  XxXvX>X;X<XgXVXAXvXxXOXA.=X2X,X>X,XsX>X2XC.D.tX~.9.y.R.W.U.6.Q w 9.@XP.P.vXCXMXzXwX>.} < <.fXvXfXfXFXGXhXy.u u $.F.5X;XY.=.v 9 :.6XaXcXcXdXpX6XY.rXGXAXfX*X9X0XsXVXxXwXwXAXKXLXSXN.J S 0.7.M.vXfXM.d.S.Q.`.p 0.vXvXfXcX;XM.XXaXSXDXfX=X:.F.MX=XT.AXSXAX*XR.hXAXxXsXhXmXAXxXdXzXJXpX@X9X9XpXAXDXDXzXdX=X9XtX*XdXpXpXdXpX9XiX2XeX0XOX>XK.m d AXJXpXZ.6.J K.MXAX+X:XcXvXcXsX2XsXMXAXeXXXaXiXZ.8.d f Y p.4.m.*XeXvXwXR.2.=XvXaXbXCXCXxXsXCXLXJXsXp.U.Y.qX:XeX:X#X0XaXaXDXMXvXGXAXsXcXpX6X0XwXMXFXMXzXfX1XuX>XuXhXaX#X;XiX>X#XT.T.T.T.oXY.Y.Y.Y.W.E.Y.Y.U.Y.U.R.S.v.H.b.t.O.@.u.t...+.{ { +.{ +.t.s v t.{ >. .t.b y.,.y.| :.G $.;.Z 8 o.>.,.e.*.c 8 >.y.e.A ,.G $.l z M M F z z F < 6 6 c G n | A  .*.} } >.X.b X.{ >.v. .a t.>.O.{ a { t.a { +. .t.,.<. .O.>.X.>.{ X.X.<.X.a X.p 8 < 8 R.<.} X.H.} X.X.| y.y.<.<.<.X. . .{ b  .} X.<.A e.e.y.<.| X.A c o.<.G w ;.S.S.*.G k x Z &.:.o.r.=.&.&.M S M < 5 :.G | X.>.| >.A 7 v b p *.} b.>.o.} X.b X.b 8 n x x 8 } v o.G &.z c z &.A k 6 x c A <.n y.,.8 p b ,.} b } b v v |  .A } b ,.b a }  .c 8 c 8 8 p a a v { b 8 v  .X. .O.{ { a t.O.[ { O.b.u.u.u.+.,.u.t.u.O.@.O. .t...+.+...[ [ +.+.+.+.t.y.R.*XU.L.E.S z &.=.=XD.Y R V ! *XN.~ / ~ T.V 7.C.C.#XP.p.Z./ s.hXp.3.f.wX$XwXaX%Xg * j h h h h P h h h h h h P h h h r h h h j j h h t e h h e d h t e h W h 0 t h t h h 0 0 h h 2 2 * 0 r r h L P U W U P L L E U P h r P P U L g h h r g h r h U U g L U h h h W ^ ) q.e.e.f.",
"pX;XxXaXXXpXvXcXsXT.( s.+X|.cXDXAXcX>X-XxXCXxX1XsXVX;X=X2X<XpXuXuXsXpXR.O.y.=X9X$XD.c.c.7.7.8.@X=XXXuXvXhXvXdX0Xy.x < z P.@X*X9XnXAXFXmXl.F.I.l.H.cXMX9XOX<X>XzXwXwXzXzXvXdX9XwXsXcXvXzXwX0XpXCX9Xt.O.E.HXLXAX-.=.q.S.W.OXVXpX;.=.0.q.-.< -.gXCXaXsX>X+XOXgXSXAXvX0X<.`.mXo.n R.AXFXhXY.;XHXaX9XH.`.R.D.J.v.GXAX9X9XfXpXcXAXcX0X*XeXwXwXeXwX9XsXwX9XdXfX:X=XoX+X1X,XM.#XvXdXAX;XT.D.pXvXvX;X>XgXSXVXgXvXvXvXcX@XK.vXdX0XhXK.K.0XvXfX9XY.=XVX=Xr.;.pXvXVXFXSXSXSXvXVXCXCXjXg.K.*XjX$XU.R.I.I.$X*XhXZXgXGXLXZXFXFXgXfX0X0XDXMXzX*X@X9X$XD.T.9XdX=XAXvXaX*XK.L.L.Y.Y.@XY.Y.Y.E.W.U.U.U.U.!.G.y.b.H.t.O.t.u.O.O.O.....O.+.{ O.{ a X.X.,.X.X.8 } <.<.*.$.:.z B $.8 n X.A ,.<.<.6 c X.y.5.A F ;.k < =.M G Z w F M Z 8 z | G | A  .*.b A <.,.n >.{ } b.O.p >.<.>.{ a ..t.9 { {  . .>.u. .X.X.X.O.{ {  .t.X.a  .8 8 7 p Q.e.*.*.y.b >.X.*.G.y.>.<.<.} b { v  .v *.*.| :.y.e.e.A *.} c A :.Z y Z w.w.&.n A G c A &.;.*.<.y.:.z Z &.5 @ D } o.X.| ,.} | p 8 v c c >.} y.<.}  .b b *.n p x x 8 x p X.,.G =.Z Z k G A k x 8 x | :.c y.X.p k b ,.b  .,.n v 7  .} v A  .X.X.b  . . .v 8 p 8 v v v a { } 9 v 9 a O.{ O.a 9 [ ..[ [ u.O.O.+.u.t.O.O.+.u.t.@.t.{ @...+.+...[ ..+.+.+.t.y.e.!.*X@XR.S.:.$.F 1.M.U.7.C C Y P.V W / R M.2.M >XXXXXC.Z.i.a.e $Xj.^ W :X*XdXaX1XE & r h h h h h h P N P L h U L h j r L U U g r g h h h h r h h h e r h P h e h L L h h 0 t / / h e t L h 0 0 r r h L h P L h E U U P P E ^ P h L r P g g U P h h U e U U h U E ) h.i.<.<.;.;.",
"*XM.>XgXsXCXGXmXXXi.i.+X,X%XSXgX,X<X-X,XaXvXVX;X2XGXSXVX:X!.=XhX@X6XtX8Xb.l.qXtXW.6.&.;.6.6.1.$XD.c.>XhX0XfXkX6Xo.7 <.q.Y.9XwXqX9XpXcXvX,XSXDXqX .| y.k.oXVXvXaXeXeXtX6XmXmXfX$Xd.=XmXAXdX9XqXrXv.a 9 8 w.9XL.=.Z.wX2XgXiXhX9X$XD.c.-.l 6 ~ 1XgXV.<XvXHXVXCXAXfX>XK.G :.F.K n B dXHXMXK.7.nXX.s 9 [ s a [ 7 '.MX<XpXaX;X0XvXuXaXzXtXtXwXpXhX>X>XK.XXwXfX0X:XK.;X>XaX,XiXVX,XiXOXvXcX0X;XiXsXfXOXC.%XxXbXaXiXsXfXzXsXxXvXvXdXdXzXzXeXzX#X@XxXvXuX2X2XV.M.+XhXhXcX9X<XgXCXAXOX:XI.E.E.6X9X>XiXcXAXxXAXFXGXDXaXVXFX2XVXNXW.6XrXNXDXpXW.=XU.U.*XnXrXvXVXcX<XXXoXY.Y.T.T.T.Y.Y.E.Y.Y.R.W.!.R.S.y.J.y.t.O.t.t.{ ..t.X.n { X.>. ...a X.>. .,.*.b p &.:.&.z 5.B 7 &.x v } x v >.y.| 8 A } *.$.c &.c < 5 l z G Z z F $.6 6 c X.A G  . .{ b o.<.b X. .{ t.O.s o.t.O.O...[ O.9 { { { { O.y.{ { +. .O.{ .. .y. .v b a v 6 { w.e.>.e.<.o.*.O.<.y.e.*.<.y. .b o. .} X.e.*.,.y.o.r.&.&.e.v c $.n 6 Z 2.w.5.:.o.o.n z Z G &.y.y.r.G G C 2 + d Y F | } *.*.} v v p v o.X.>.O.>.t.b X.v { O.{ v b n c X.A ,.$.&.$.G F 6 Z k y z y x X.} c *.c x p { X. . .y.} *.c p b n b A ,.b  .} v v p v } b v { X.a { t.{ { 9 9 O.{ O.a { ......[ @.t.@.@.O.O.t.O...O.t.+.n.+.+.+.+.+.+...+.@.+.@.u.y.y.U.9XY.L.m.-.D.l 2.=.d.K.Y V R oX/ U h.~ a.p.h XXV.#Xj.8.N a.# / i.~ N d.L.0X;X2XA.0 L h h h P L P U N h h U U U h r g h j h U h h h j g j g P h h h h h h h h U L h L j h h ^ / ^ j h h j r h h h g U j g j h E E h W E g U U U P h h h U U U U U U h j j P ^ _ s.|.B.J r.9.<.",
"d.K.0XgX1X1XcXwXs.A.;X|.-XsXCXaXoXV.%X1X+X%X>XT.+XcXMXmXwXm.m.hX9XD.U.6XH.H.wXrXtXW.0.6.6.6.D 2.=.o.K.NXkX7X7XJ.{ 8 R.=X0XaXmXfXzXfXpXfXzXFXAXzX0. .u B L.DXAXhXzXwX9X6XcXmXrX6XU.~.6XAXeXQ.L.9.A v p K x q.@X;X3XCXCXCXiXAX$X6XtXG.&.6 k 7.,XhX;X,XiXcXhXSXAXvXL.;.| G &.D o.n c.G.v.@.[ (., $ $ , 9 b o.8 R.iX@XpXcXeXpXsXcXpXdX9X9X*X$XpXhXhXpXdXpXeXwX>XOXiXOXsXiXcXSXvX;X;XgX%XC.j.oX0X0XaXvXAXFXvXsX>XgX>XhX0XvXvXiX9X=XoX9X9X9XK.pXvXcXsXcX2XC.M.g.#X0XpX>XOXgXVXSXVXxX2X+X-XvXmXvXbXzXvX9X~.^.v.s s v.cXeX9X^.7 a +.9.NXMXzXfXmXeX6X9XQ.rXwXq.G.oXXXT.Y.T.T.Y.Y.Y.Y.Y.Y.R.U.c.F.v.v.H.<.t.>.t.>.9 { t.X.{ {  .y.O.>.{ | e. .b <.:.c 6 *.=.&.G 5.y G A 8 A } c X.X.G.n 8 o.*.*.B A Z 5 < 6 k l M k x Z z 6 v ,.A c <.} b } n O.v {  . .O.+.a { t.O.X. .{ t.s [ { { { +.<.>.X.O.{ O.{  . .y.X.a a a p 9 { &.e.| y.y.} *.O.e.,.<.o.<.<.b } O.v X.y.e.*.e.e.X.e.F <.,.p *.| 6 z T w.S.G n <.c k c &.9.v.:.,.o.G T d % 1 m 0.9.c | X.| v v v v } <.X.}  .>.<. . .v a  .b c } } } *.| &.;.;.z S =.7 y 6 x 6 8 x *.A } G *.X.6 v p v b >.v } ,.c 8 A  .k b  .p v a 8 v 8 8 p p a 8 7 9 { { { p v O.O.+.{ [ @.+.....{ u.u.u...O.O.O.{ t.O.t.O.@.@.+.+.......+.@.@.@.u.y.e.F.9XK.R.m.D W.z m.=.1.M.3.s.V C.V.U a.^ B./ U ,X/ #XM.U / ;X0 ~ / / 4.K.*X:XaXXX+Xh t t h h L P U N N h g h h h t h h h j U E U P L L U h h h e N d h h h h h h h h h h h j h L ^ P h r h h h P h g h L P U r h / h r E L h h r h L L E E E E P P g g P ^ |..XB..X4X<X<.e.<.<.",
"a.N.N.#XsX,X-X<X( i.|.h.2XVXSXAX,X|.>XaXC.XXgX+XC.zXbXeXdXm.m.0XwXQ.Q.rX).H.K.;.D.L.0.7.d.0.x z o.} o.<.{ b `.Q.{ p q.9XcXAXAXzXmXAXdXwXzXCXvXAXvXaXhXaXbXMXbXvXmXzXdXfXhXzXzXrX8X<.<.DX<X<.=.Q Q ! 1.Z.$X6X:XOXsXvXvXMXY.6Xf.S.6X9.f 3 m s.C.-XcXgX%XZ.Z.gXgXzXF.T Z 6 l K.m.Z p a O.O.+.,.p Q D 1.F.cXMXwXVXzX,XfXfXsXcXiXaXaXfXpXhXcXsXwX9XE.cXzXpXC.@XXXXXOXU ~ +XcXK.f.@XzXgXOX0X+XZ.wXpXcXGXJXGXAXvXpXAXvXSXMXvXzXMXvXMXMXMXmXdXdXDXnX6XR.zXsX>XdXaX,XiX-X*X0XiX,X$XvXVXCXAXAX6X+.[ ..[ [ @... .)._._.7XH.nXnX} , s +., F.DXAXdXmXnXqX5Xc.:.H.O.9.C.T.U.Y.Y.Y.Y.Y.Y.Y.Y.T.F.D.c.G.w.v.y.O.t.+.y.t.a a <. .X.a b >.t.<.X.Z >.,.v $.J D < , M k y x M < x x 8 c 8  .8 y.H.p c <.| B A M k 3 < < 6 6 6 8 c 6 p  .} } } e.n v  .{ O.{ v X.O.>.O.{ b <.X. .O.+.O.a [ +.[ a [ t.v.,.O.{ O.O.X. .y.X.a a v p 8  .A ,.*.G.y.b ,.<.<.| <.<.>.o.X.X.} } y.>.*.,.y.*.<.<.} <.n A | p 7 G q.G.;.c G G 6 p :.e.<.:.*.| H Z S m @ w q.9.G G >.*.>.} X.n } y.,.X.c  .,.X.X.O.b v { b *. .c | | G A 9.G 7 M x < 6 Z G 8 c A *.v X.A X.>.p v 8 v v  .v 8 p v } 6 7 v 7 8 *.b v v v v v v 8 a v v 8 7 a 8 8 a v t.+...{ [ ..[ ..+.@.t./.O.,.t.u...t.O...+.@.O.+.@.+.....@.@.@.@.u.y.y.W.@X$XW.K.Q U.S K.Y 1.a.i.V.h N.~ U s.^ L E 0 +X( >XT.~ 1.#Xg E 3.g.d.d.Y.0XaX2X) h h 0 P h h h W U U N U U U N h h h h h U P h h h h U P L P / j.h h h h U U L U h L U U U h h L P U L U P L P L ^ E E ^ ^ r r E L h W W L h g U U P U P L P P P E _ +X1X3X1X-X3XxXU.o.e.9.e.",
"C.T.r.1.oX1X2X<XC.A.s.+XgXgXvXcX;X+X;XiXXXC.vXgXuXVXVXvXzXW.G.9XwXrXwXdX6XG.D.6.m.U.D.m.! D x n } b 9 s b n rXmXu.v p.cXiXgXSXCXcXcXvXMXvXvXVXAXzXcXAXmXvXMXdXdXzXzXpXzXhX0XzXqXv.9 O.hXW.v.w.w.w.m.=X6XR.G.e.0.F.J.H.rX!.F.f.q.&.6 6 3 Y A.T.T.vX1X%XZ.a.-X;X9XD.4.Y M ! d.k < 7 7 w.m.f.$X>XgX:X#XpXgX3XcXSXaXuXAXfX;XvXAXAXAXSXvXaXsXeX=X:.v XX9XzX+XuXuX2XuXS.m.!.*X&.H J !.U.d.T.@XV.bX0XdXFXLXGXvXdXfXmXMXFXAXsXwXMXAXvX9XzXDXMXMXwX~.<.a (.K.;XpXcXOXAXCXv.m.OXwX:X&XiXSXSXjX<.a b o.{ s [ [ { O.n.O.b.b.cXFXrXa { n.[ O.fXvX9XR.9XF.Q.`.v.'.J.M.C.Z.U.T.Y.Y.T.Y.Y.T.Y.L.D.D.G.F.e.w.e.*.O...u.t.s 8 >.{ X.{ { O.O.>.>.c n o. .} H l M 1 l 6 k 6 y 6 6 | c c k v , 7 <.| b ,.*.v x k f w m 5 4 6 Z 7 p 6 x | b  .*.y.} v { {  .{ v X.X.O.O...{ X.O.{ O.O.O.[ [ ..a ..{ O.y.,.O.{ >.O.+.X.b.X.s a v 8 v v A <.y.y.<. .<.v.>.X.e.y.o.O.>. .A <.y.G ,.e.*.X.X.| ,.X.n X.x 7 6 5.k.9.F z G x 6 A r.9.r.:.o.o.&.G l 4 $ Q w.o.| G n  . .o.o.n >.X.} o.v ,.} v >.,. .{ b b >.b A X.G | G :.G < y Z 7 x | B x G :.r.c A } n v x } n b v o.} n 8 v } b 8 p v 8 b b v 8 8 v b  .X. .{ v O.v a a p 9 a t.+.{ { [ +.+...O.t.t.b.t.O.@.n.t.O.t.@...[ @.....+.+.+.@.@.@.u.u.y.S.U.D.=XE.U.Q K.Q K.8.~ P.R a.N / W U ( s.j h.L / / sX8.=XD.0X_ ^ p.g.d.U.U.:X0X1XOXh h U U j g h P U N U U U W R W h f U N U U U U P P L L P h / j.d h W h h h h U U U E L U U E U U P P P P U h g L P P L L L L P E ^ P W ^ E U U E / U U E ^ _ h.1X1X1X,X1X-X+X-X%X2.O.>.9.w.",
"gXVXaX;XXX>XcX+X+X X%XCXCXxXgX1XZ. XsX%X X XA.2XgX+X=XzXAXvXfXnXrXrXdXzXrXQ.E.Y.K.Y.0.! f f k n 6 6 c G.rXQ.dXAX`.p. XAX*XN.9XDXR.K.cXSXAXvXAXHXVXAXmXrXdXmXcXvXcXwXcXvXvXdXwX$X;.S $XpXeXCXVXrXxXxX,X;.k A c z ;.9.;.G.Z k 5 < 6 K m / OX-X-XgXVXC.C.i.U ( 7.;XeXC.N.7.z , % C p.N.@XY.V.vXcXMXiX#XxXxXgXxX>X!.fXjXP.r.Y.sXvXAXaXvXcXOXvXVXVX3XxXaXvXVXVXCXSXFXJXFXSXSXcXaXOXaXcX0XmX9XXXGXLXLXAXMXFXxXdXVXCXFXfXwXW.R.9XwXzX6XnXrXrXmX6XwXU.x 6X! D.).rXL.AXKXMXoXZ.<XNXu.[ s 9 +.+.{ O...X.G O.+...{ t.a a ~.kX*.mXLXpXAXbXiXQ.6X`.c.9.t.} 9XAXSXxX@XK.M.Z.P.T.Y.P.T.Y.Y.Y.L.D.D.F.D.w.v.e.*.G *.o.,.p 6 <.7 n { { o.o. . .c M f *.} w 5 | w 5 < 2 7 6 x 6 8 <.*.n X.A < < | ,.c ,.c n c 7 @ *.Z < < 8 G 6 6 8 x p c >.<.X.} {  .v  .p >.{  .X.O.{  .t.{ X.t.>.....{ s ....O.t.t.<.{ O.O.X.t.t...[ ..s 9 a a { y.H.>. .| y.e.X.X.y.,.X.<.,.o.<.G.>.*.e.<.A o.>.| >.X.X.X.8 < n y.r.r.Z &.S f x c o.<.X.e.;.:.o.x < 1 m m.&.&.,.*.A ,.*.X.| >.*.v | } v ,. .n X.y.b { a <.A }  .,.X.c c G Z 7 k &.6 x &.c } y.o.<.A n A n A 7 n X.o.v v >.o.n p } } b v x v n v k  .8 9 9 v } { { a {  .{ p ..v s { +.a ..a O./.+.O.t.u.@.t.O...t.u.t...+.@.[ +.[ +.@.@.@.@.@.t.u.t.y.R.U.U.W.W.L.2.T ! 7.M.h ;X/ ^ s.U ^ B.^ B.) ^ U E C.mXW.0Xg.E.wXg R Y.h.M.dXpXcXXX/ N h E U h h L U U U U W W U U U U U R R U U U U U E ` E E P U P r P / h U P U U U L U P U U P U P L U U U E E U P ^ E E ^ E E U ^ U h U / R E U W U U ) |.%X X X2X+X+XeX>XxXxXY.&.G 0.;.&.e.",
"xXAXDXiXC.Z.%X_ a.-XxXCXVXvXVXaXZ.V.AXgXXX+Xh.1XxX1XP.@XcXcX9XwXrX6XpXmXrXJ.I.U.D.N.M m d m H G M D.6XtXqXG.H.6XJ.L.&XwXD.q.Y.vXrX@X9XfXdX9XHXAXCXvXmXzXcXvXcXvXsX0XmXSXdXwXpXfXqX9XdX9XdXAXzX6XvXVX9Xr.V M x 8 e.G.M z 5 C M l M f 1.oX>X1XxXcX;XN.XXC.i.T.<X>XsX=XN.8.m h 3.0XvXpXpXfX-XxXiXcXhX9XCXAXsXsX%X,XxXgXXX=XsXaXcXOX;XeXT.N.>XzXvX2X,X;XiXVXVXhXVXFXFXCXaXsXiXMXAXAXCXvXmXdX>XJXSXvXvXvXHXAXvXpXsXHXmXwXzX6X6XF.nXNXAX9XtXAXrXDXNX9.nX! f.f.k.k.=XMXHXfXR.Q.~.v 7 p a X.O.{ b { ..+.+.@.u.n.(.s a <.6XO.S.GXHXNXmXmXwXG.H.(.>.n.@.v.tXmXAXdX=XU.N.K.T.T.T.T.Y.Y.Y.K.K.K.F.D.S.v.y.r.|  .} X.8 < A < x v >.o.o.b O.} D 5 1 w.C < z d @ 5 6 7 7 M A 8 n e.} c <.*.@ 8 e.k | *.>.} 5 @ x &.z @ @ y k T x x b 8  .y.t.X. . .v { v O.{ +.X.+.X. .<.O.{ t.t.....a a ....t.t.t.>.{ O.O.X.t.t...a ..a a a 9 { k.y.o.X.{ ,.e.>.>.y.X.,.>.>.} ,.e.*.y.y.*.A *.X.*.,.,. .v 7 y $.y.r.$.&.=.Z 6 8 9.w.9.9.e.:.o.v 8 4 < C &.$.r.t.n >.y. .} | e.e.c *.} v <.o.n X.>.} b v e.v } b X.| x A A z k l | z x | A *.y.G *.G A *.n X.x v ,.>.p n c } } c n c } } v b A c 8 ,.,.v 9 7 8 a {  .a  .{ a { [ ..[ +.a +.{ ..n.t.+.t.n.O.O.t.O...O.t.+.[ @.[ ..[ ..#.#.@.u.u.u.t.n.H.W.L.U.$XD.L.7.V =.7.g.h g.N.( B.h U 1X) a.^ / ( L XXwXW.p.l.D.rXL E 6Xj.d.@XzXvX>XU f e h U L P U E W U U U U U U W W U E W R U U U E U U E U P U W U E i.P U U U P U h L h h L L U P U U U P P U P U ^ U U U g g g U P W W / E ) ^ E ^ ` .X-X.X|.%XiX#X%XOX-XCXVX4.=.S q.&.Z o.",
"CXHXAX>X,X-X2X-X-X2XxX1X3XVXVXxX X^ 2XvX-X,X;XgXgXVXvXcXAXvX0X9XwX6XwXzXtXG.f.-.Y C N ~ ! ! Y / a.aXzXvXhXQ.`.Q.@XqX5Xd.D r.f.cXFXvX6XI.:.G zXAXSXAXAXmXvXvXDXvXvX0XuXsXE.9XvXvXcXvXdXqXhXxX>XL.XX2XfXQ.=.T ;.o.=.:.x l m f.d.=.~ a.>X<X-XgX3X,X;XXXOXOX>XxXvXcXhXcX>XXXA.<X1XgXsX,X>XAXCXgXgXCXxX2XxX,X;XAXAXCXSXxXeXMXvXdX:XoXdX*XY.=XzXvXAXbXOX X;XaXsXaXAXJXLXSXaXVX1XSXJXGXvXiX,XdXvXSXzX9XdXwXrXrXnXQ.{ ).6X!.rXJ.`.t.J.rXvX6X6XvXwXwXNX`.nX8.K.K.0.S.r.w.H.<.v.b.{ p 8 *.{ | X. ...O.{ +.+.O.O.b.(.+.[ a s +.+.&XzXHXdXzXMX@X:.H.H.H.b.{ >.).6X0XwXtX6X@XT.L.T.T.T.T.K.K.K.U.F.m.c.v.e.,.*.} n G 5 < x @ 6 6 n n | Z X.G ;.S X h 6 < d q $ 5 B z p c } $.}  .y.A | H.G 6 y.*.n e.y.,.z @ 7 T w.y < 7 < k B k v a v <.y.,. .O.b { { X.b +. .b X.X.+.X.{ O.t.O.+.a a ....O.t.y.O.{ O.<.>.<.t. .{ { p a 8 9 { y.S.o.{  .y.<.X.y.y.*.>.{ o.,.>.*.,.e.y.A } ,.A } y.,.{ a v | e.S.r.G &.M y z &.9.&.<.X.:.<.| n 6 7 6 G x r.y.o.A ,.*.X.*.e.:.A } *. .{ ,.n X.n X.v n b *.x *.G e.*.c x 7 k 8 6 F Z | G n | y.>.A <.} *.} X.G x } y.c A }  .| *.*.X.} } x v X. .v b X.X.{ v 8 9 8 { p v v a  .{ { [ [ { { { @.t.@.+...u...a ..u.O...t.@...+.[ ..[ [ ..#.@.u.u.u.t.t.b.$XU.q.$Xf.Y.0.! =.7.P.a.U V.i._ / ^ %XB.i.) E _ ~ d.9XeX1.#X=XsX; s.rX! f.@XpX,XXX/ ~ R L W U U E E W W U U R R U U U U E U E U P U E E E E ^ P P P L U E P W U L h h h L g P L U E E U E U U L L U U ^ ) E E E U P E / ) _ ) ^ h.h.B. X.X|. X%X%X X X%X-X%X%XgXP.=.<.T r.G o.c.",
"%X>X;XC.2XVXZX3XV.h.-X-X-XxXvXCXsX%XgXxX1X,X>XC.h.xXgXcXvXgXdXdXzXrXwXW.G.w.5.~ D Y / a.p.p.3. X1XVXMXSXDX`.X.=.P.qXQ.c.r.X.&.P.AXzXR.9.n 6 9.zXHXGXGXAXhXsXMXzXmXzX0X>XD.;XAXAXvXvXzXqXiXxXcXqXP. Xq.n d M.d.m l w f 6 M 1.~ 8.,XcX,X X+X-X-XV.p._ +X|.+X;XsX-X%XsXgXgX2XVXgX2X2XVXCXAXSX<X-XvXiXvXcXiX1XvXcXAXfXe.n Y.9X9XM.W.dX9XhXsXaXSXSXsXfX1XiXmX;XT.,XJXhX>XzXSXvXAXGXGXAXaXwXeXdXvXvXeXdXtXJ.Q.=X8X+.+.+.n !.`.).t.t.tXDX7X8XMXsX=XzXtXQ.2.f.Y.Y.6Xe.X.8 p x { [ { a +.{ a [ } X.X.O.+.} { ..+.a O.{ a < { H.D.@XAXMX~.mXhXdXMXMXmXwXn.9 H.6X9X9X9XeXW.Y.K.Y.T.T.T.K.K.U.E.G.m.c.v.e.;.:.o.D l $ % d < 3 p 8 G $.k x n A -.+ o 4 4 w 6 < , :.:.o.G } } *.6 $.*.X.X.e.v *.y.G | y.,.r.C $ l w.;.6 k k p x n 8 v p c H.y.O.X.} b {  ...{ X.{  .O.X. .X.O.<.O.O.{ s ....+.O.t.X.{ { <.>.O.t.+.....a a a a { *.e.} v <.<.>.>.y.e.<. .{ } <.o.>.e.,.e.G *.X.} <.<.n v v  .<.I.e.} z } A &.;.G F :.e.:.e.,.A 8 y k z Z $.y.<. .} <.b  .>.,.n c *.,. .b } G | b | v v n *.*.>.} e.k k Z 6 c z l F ;.,.n | ,.e.y.G ,.*.:.X.} | A | ,.A x p G <.| X.,.o.} } } c b } b v } b  .} 8 a  .{ p v a a O.O...s ..+...u.+.+.@...+.s 9 9 ..t.s ....[ ....@...[ [ ..+.@.u.u.u.t.v.@XK.q.W.d.@Xq.q.! g.a.XXU U s./ _ E B.) ) B./ s.! 7.U.~.! &XW.bX: a.NX/ 4.9X9XvX;XU C j h U P L L U U U U W W W E R E E ^ ^ / E E / ^ E U U E U P L L L E E U P E U U U P P U U U E E ^ ^ / ^ E E ^ ^ ^ / / / i._ B.h._ B._ h.B.|.a.B.V.Z.V.XXC. X|.A.2XsXvXCXcX0.6.9.! m.9.:.q.",
"_ ( h.C.-X2XCXCX<XA.<X2XVXVXVXSXCXvXVX2X-X,X0X_ E ,X2X2XhXaXfXrXrX6X5XL.S.m.d.w.1.1.8.Z.V.P.V.1X1XzXzXvXDXQ.v $.6.$XH.e.F.w.9.D.mXvX=Xm.:.n 7 | ~.vXHXDXAXzXzXsXeXeXuXpXK.@XAXzXwXbXMX9X;XbXvX6XT.N.c p / AXmXL.q.M z k M R g.XX+XXXA.C.h.h.h.~ C C B.i.|.,X%X+X>XxXxXgXgXJXSXAXxXbXCXVXvXuX,XsX>XbXSXVXsXvXOX#X~.c.E.hX9X$XU.@XN.T.AXCXvXGXSXiXcXiXsXpX+X/ 3.GXOXT.OXOX+X>XvXcXcXT.eXfXkXmXFXAXmXmXrX`.v.8Xv.X.n +.b.'.`.H.`.yXNXn.`.DXDXtXkXNXQ.y.<.o.o.>.>.} p K &.*.n p k { n 6 7 8 o.} n p n } ,.<.>.t.O.J.~ C Q.qXBXD.*.A *XMXAXAXzXAXNXnXc.!.6X:XpXrX5XE.F.U.L.Y.K.P.P.K.K.M.D.f.m.S.<.;.J J n 0 X 0 N q q w w l C l e * % k 1 X 2 < 4 5 6 < G r.e.*.e.*.:.v | y.,.*.<.A n <.X.c X.,.<.5.% < 5.w.y y B A c o.v a p p e.k.X.>.o.} {  .X.{ X.b { O.O.O.O.>.<.O.O...s ..+.+.O.<...{ ..t.<.O.t.O.O.{ [ a ..a n b >.{ { ,.>. .<.e.,.<. .} X.<.} ,.>.,.>.o.,.A >.y.X.v b b ,.y.G.o.x | ,.F z @ z r.<.e.y.,.} c 8 k z G | ,.,.y.} } ,.} X.X.,.c b } >.o. .*.*.X.:.G o.c A | r.>.<.*.8 8 G x k c G | S.:.x $.,.;.r.} ,.<.A ,.} } A A ;.z x z k *.<.*.G A *.| G | c v } >.} v b  .v v { X.{ { X.a ..t.{ a +.O.@.u.@.+.@...+.9 9 9 a +.s [ ..[ [ ..+.+...+.#.+.u.n.@.@.t.b.U.K.L.E.8.Y.d.d.Y M.p.OXU r ) ) B.U h._ Z.OXB._ Z.p.d.oXC / w.zX- a.HXoXV rXdXmX>XN h h g P U U U U E / U U U U U E ^ E E E E U E ) E U E ^ ^ L L L r g h h j h ^ / E E E P U ^ E E E ^ ^ / _ _ ) i._ ) ( _ _ ) ) i.i.h.` _ B.B._ ( C.s.B. X-XXX1X1XsXgX-Xd.*X6X6.K ~ ! ! 6.=.6.",
"+Xs.B.V.XX+X-X-XV.j j ( +X+XaXSXZXVXSXCXgXaXdX>X>XAXCXsXhXxXMXvXtX5XQ.v.q.T.#XK.m.7.d.K.Z.;X2X<XOX=X<X,XdXv.n Z G :.n z 2.W.rXS.R.wX=XM.6.e.G 8 n -XMXvXaXeX=X*X=X=XsXgXW.=XzX0X@XsXGX>XXXbXcXD.1.C < < =.:XrXtX5XS.2.=.K.zX0X|.C.i.U U U ^ i.OXE.~ Z.;XOXvX,XSXGXAXvXsXaXJXVXSXcX>X,X+X>XMXAXxXvXvXhX;X%XGXaXaXwX=XGXLX,XE.wXAXAXaXxXiX;XwXfXsX-X+XM.P.mXmXjX&Xh.%X+XxX2X>XcXcXAX9XS.;.>.J.mXDXHXJXAXrXtXBX6X=XO.{ X.X.{ O.<.J.6X<.e.6XNX8XtXtXv.v } a c Z T B S T 4.F F e     1 w 5 6 c } c z x X.O.+.t.{ s J.JXGXE.W.HXD.| R.6XtXzXDXmXdXzXvXDXwXzXzX,XwXY.M.D.L.Y.L.K.T.M.Z.K.M.M.q.9.w.;.T Q Q H * X 0 4 < 4 2 @ w l l l % % 3 % X @ w x v | p x n } X. .>.o.5.v G 0.| <.:.} ,.*.*.n ,.<.e.F @ k G.9.7 c $.|  .} b b n  .y.,.<.>.o.{ { X.{ X.{ { { >.O.O.X.t.O.O.O.a [ +.+.O.y.+.{ ..t.O.<.t.O.O.....{ ..[ {  .<.X.a  . .X.<.<.>.*.,.X.>.X.o.,.X.,.o.| ,.| y.<.{ X.{  .y.y.<.o.G >.*.x 8 z :.9.r.:.| :.,.B Z p 6 x &.5.e.*.X.G.,.o.>. .,.} n } ,.} ,.*.*.*.<.n *.n } n G e.*.k z c n c G | :.:.F.&.| e.*.e.e.A e.y.} <.:.A x x &.k 5 c :.Z | ,.n n >.} A  .| } b  .O.} b } >.{ } O.O.a X.{ [ +.{ a O...O.u.u.+.....@.[ [ [ s s [ [ [ [ ..+.+.@.@.@.+...@.u.t.@.@.).Y.@XD.K.8.*Xd.p.N / g.C.^ U ^ |._ _ _ / %X,Xs.A.j.W m.oXE h m *X- h wX9XQ 6X6XvXpXK.R U h h U E E R E ^ / / / ^ ^ ^ ^ P h g h L U E U P E E ^ ^ P L L L U L g h E ^ U h h h L / ^ ^ ^ / ^ / ) s.^ ^ ^ ) h.s.h.h.|.|.|. Xh._ h.` ) `  X-X1X2X2XgX2X1XgX2XgXD.! Q U.4 q 8.6.m.m.m.",
"-XC.h._ V.Z._ U f q f 8.C.B.1XZXZXxXiXxXcXcXcXvXgXCXvX<X;XgXCXCXwX:X6Xb.:.&XqX@XU.8.K.T.Z.uXvXcXcX>XsXMXvXw.o.Z 7 6 6 K b >.).<.{ S.Q.q.Y -.1.Q w.VXDXfXpXfX9X9XqXeXhXgX*X*XhXeX1.1.sXvXaXSXgXf.4.V 6 5 z a { A <.9.0.oX>XvXpXT.P.N.V.V.8./ C.sX,Xa.sXAX-X2XgXCXAXCXvXaXvXAXxXgXeXeXcXgXbXGXHXVXmX,XoXZ.C.FXgX,X#XM.qXuXXXD.=XfXVXxX,XaX:X9XdXfXVXhXI.L.pXdXfX>X2XxX,X>X9XwXpXAXcXvXMX~.o.s [ +.+.`.8XmXGXDXtXH.>.{ { ..+.......u.t.O.y.`.n.y.J.R.o.r.o.:.=.Y w q =.1.Z | -.X X 1 Z b 8 k A A | o.} +.+.} b a A 7XrXe.n hXAXMXvXrXtXL.tXDXAXeX=XDXAXmXfXdXnX9X#X$X@X+XK.C.K.Z.T.K.m.f.9.;.=.D V ! S l $ + 0 1 @ * % 1 6 l d d 1 @ 2 1 + @ 6 { X.y.o.c *.c 8 } ,.x <.l $ 2.*. .;.| 5.o.e.A ,.5.5.9.x < $.S.6 7 n | *.|  .} { { X.<.e.y.O.{ { X.{ +.{ b { <.O.O.{ <.O.O.O.[ a ....O.y.+.{ +.t.O.O.O.O.O.{ { { [ [ v X.t.} { { X.O.<.<.y.,.<.{ o.n >.>.*.*.*.X.*.e.y.} v { X.<.G.e.w.*.*.X.A n x A :.e.*.r.,.>.*.A c 8 z A *.| e.| ,.,.G >.>.} *.A 8 X.X.*.<.,.,.>.>.| } G | G o.r.n 8 Z B G *.| &.:.&.e.G &.;.,.y.w.Z &.r.| *.<.o.A 7 z Z 6 6 z Z 8 >.A p | v v v X. .b b *. .{  .X.X.} ..O.v +.{ { ..{ 9 ..O.+.{ @.@.[ { [ [ 9 [ [ [ [ [ [ [ [ @.#.@.@.@.@.@.@.u.@.t.,.).oX#Xd.K.7.*XM.d.R / +X/ ^ E r A.E E B.^ h.%Xa.XXM.U M.N./ N N ,X- h L.tX2.q.f.pXzXg./ i.R U U W E E / / R ~ ^ / ^ E E P L P U U U U P U ^ P P E E L g r g g r g h U U W i.U ^ / E ) ) ^ ) _ ^ _ ) ^ ) h.h.s.h.B.|.|.A.|.XX X%X+X%X X-X2XgX2X2X-X%X|.>X2XVXG.D r.W.S d 0.1.7.q.m.",
" X-XB.( C.-X XB.h.i.Z.cXcXC. X1X2X1XT.C.;X1XiXOX-XgXAX;Xc.*XeXfXDXDXmX6X8.N.G.U.:X+XsXgX1X2XiXhXvXgXsXAXAXT.p.j.Y 6 7 p x f k x v A :.1.$XW.-.M &.gXvXhX:XpXmXnXrXm.Y.=XpXfXcX=X5.*.:.o.y.5X$XP.&.G f f y V d.8.f.K.$XpXZ.B.a.3.p.*XGXHXaXOXOXcX>XXXvXpXs.-X2X X XxXSXxXFXCXsX=XeX2XcXhXxX>X*X0X%Xh.N.A.>XGXvXeX=XC.T.>XiXZ.1.@XfXSXiXzXwXK.K.eXrXqX5.V OX=XD.P.l.5X,. .y.W.K.;Xm.N.bXHXGX=X9.G.R.6XX...@.n.@.@.t.{ +.+.+.+.+.[ @.@.{ ..t.O.t.t.(.8X8X<.G Z M 6 l T R M o.y.p p < ..t. .&.o.} n G S l p 6 l 6 6 6 < k 7 0.MXDXmXzXrX).G.rXAXHXnXqXtXnXrX`.8XrX6X@XT.Y.T.Y.K.Z.C.7.f.6.6.F D Y N C f d o + @ * * * X = q e * 5 2 @ % 6 5 5 y X.v y.y.A X.>.X.c n A c $.$ @ o.>.*.| :.| &.G | ;.5.f.;.6 5 ;.r.7 7 B *. . . .} } X.>.<.y.<.X...+. . . .{ { >.<.>.b X.<.O.O.{ [ { ..O.y.+...+.t.<.<.<.O.O.....+.[ ..a O.O.{ { { O. .<.y.y.t.,.b n { <.<.*.| ;.*.e.y.*.} X.>.<.,.e.e.e.:.<.| | A c o.r.e.r.,.*.*.| c 8 x n *.r.<.e.>.>.X.X.>.| } | v 7 <.b *.X.>.>.<.*.<.| | :.| :.c c x G Z G w.G 5.e.r.e.G 9.:.e.w.;.G &.&.;.F 9.x A 6 x G k 6 7 c 6 k >.p v c } v v v b v X.}  . .X.a {  .t.{ O.{ { +.{ 9 t...[ { +.t.+...{ [ s [ [ [ ..[ [ [ [ ..[ @.@.@.n.u.@.u.@.t.u.Q.oX;XY.Y.K.@Xd.! a./ Z.U P U & h.^ 0 h.B.) OXZ.Z.T.E U.N.W ~ 3.aXh g.@X6XL.F.$XwXvXf.N U W / E / ) / / ^ 8.3./ / E E / ^ ) _ ^ E E ^ U ^ ^ E P P E E E U L U E ^ P L U ^ B._ _ _ ^ ) ) ) ) _ ) _ B.h.h.` h.h.h.h.|. X+X1X,X>X>X2X2X%X%X XC.XXXX_ V./ V.XX%Xn H 0.!.2.N &.q.6.6.0.",
"B. X|.2XsXC. XxXvX|.B.,X,X-X-X-XxXvXsX*X;X>XvX;X1XvXAXxXuXvX,XaXAXMXxXHXFXPXxXaXaXaXbXxX1XsX>X2XaXcXsXaXAXwXd.Z.1X7.6 7 7 4 < < p n x V zXnXc.H J +XpXzXdX0X9XD.Y.F =.6.#XaXaX;X$X6XW.;.Z &.w.c.2.D m U 3.#XvXaXvXzX:XP.a.a.p.f.N.0XvXMXvX0X>X;XXXsX>XU s.gX3X.X4X3XPXVXCXCXgX-XiX-X0XfXxX,Xf.6XxXSXVX<XxXGXLXxXiX1X1XvXVX;XW.m.U U s.MXMXfX@XwXG.p.h.P h.C.7.0.0.l...t.6XuXvXzX6XY.rXdXdXrXR.~.HXFXGXMXBXH.9 7 < v s { O.{ +.+.O.+.+.....+.t...+.b.(.v.} k *.<.$.G %.T 0.k., 6 8 v { <.e.<.<.X.n F Y Z l l k } z 5 | k G G.NXAXMXfXdXe.H.<.H.J.Q.`.7XrX6XJ.J.H.=X=XY.K.L.M.M.A.6.2.-.Q Z D f h e + 3 # . + & # + . o 2 * + * 2 @ % 7 M Z $.*.n X.8 8 p 8 c } x  .{ A A $ @ Q *.| } *.r.r.c &.A =.9.=.6 6 0.=.< 8 n }  .X.X.v b o.>.e.y.>.O.X.>. .O. .{ O.<.O.+. .>.>.>.+.{ ..+.O.t.+.O.+.O.t.t.t.O.t.O.+.O.....{ @.+. .{ { { { >.y.<.,.X. .b <.,.*.| $.<.y.*.*. .*.t.<.X.>.r.w.<.>.<.X.X.n G G r.e.>.X.>.*.b p 8 G >.,.e.,.<.<.*.,.<.A c |  .x 8 X.b <.>.} <.e.$.e.:.c c A | c p z &.r.<.e.&.k.;.S.:.=.y.:.w.e.F D &.:.e.G r.7 z c 7 6 6 z 7 k 6 7 } 8 8 c ,.X.b b a p { v } O.{ a { v t.{ O.O.+.O.+.{ O.O.{ [ ..@.+...+.[ [ [ ..[ [ +.[ [ [ ..#.@.@.@.n.b.u.u.u.u.(.v.$X$XE.7.@XM.7.! g./ _ L g E & g ^ r ^ h.) +XZ.Z.V.0 N.OXW ~ U 1XR Z.R E.L.R.dXzXsXg./ / R / W ^ i./ R h U R E ) i.) s./ ) ^ E ^ s.h.) _ ^ ) ^ g r L U E E ) ^ / / / ) i._ _ _ _ h.h.B.|.|.|.+X X%X-X1X1X2X2X2XgXaX1X-X-X-X,X%X-X1X-X1X-X%X2XgX-X2X-X-X-XC.b :.J r.;.V r.0.q.6.6.",
"s.C.C.xXaXh.h.sXCX,X+X-X XXX;X+X>XxXiX>X,XOXvXfXvXvXvXgXpXCXgXbXxXwX:.<.wXJXGXvXvXsX@X@X=X:XP.A.+X>X<X>XvXdXc.6.gXiX0.T M 6 5 < 6 x p T qXtX9.Z n q.K.9XmX9X9XG.K.W.pXuXaXSXAX#XK.L.oXiX@XM.r.r.-.! M.V.a.+X2XaXAXiX;X>XuXaX0XY.D.Y.@X>X>XsX,X;X<XsXB.) %XgX3X3XZX=X=X=XR.~.cXLXAXC.E.E.aXwXw.f.$XcXvX2XgXZXZXVXvXCXsX%XhX$XR.6.L ) L -X,XoXXXsX*XV.|.h.E ^ p.I._.H.t.J.nXmXaX#X6X~.tXF.O.+.[ 7 a o.NXJXHXDXE.;.D J 6 6 M < w G X.{ ..[ [ { t.u.t.t.<.).H.;.G.J.d.Z ;.=.m.R.M d V $.*.*.Z H | 5.n n J &.Z H A c z p n y 9 7 9.tXvXaXvXF.6XH.[ +.s X.7XyX`.b.t.o.F.*X@XU.Y.m.f.d.=.-.-.-.Z M h h t + * o X 2 + o o . . * * + + 1 1 6 7 Z b >. .a } } v v 8 x c 8 p a 7 | f . @ Z c x A *.*.x <.} M $.9.M 6 D e.M 7 6 8 b  . .{ { o.<.e.e.>.O.X.O.+.X.O.{ X.<.>.+. .O.t.>.O.{ +.+.O.t.+.O.+.X.<.O.t.X.t.O.O.@.....{ O.+.{  .X...{ <.y.<.y.O.{  .t.} ,.n <.y.,.b X.,.>.,.<.>.,.e.G.t.X.X.o.>.A x A <.<.X.>.<.X.} v A r.*.$.*.X.y.,.| *.y.c p } X.v v X.,.y.>.*.S.>.e.S.A 7 x *.n v x | &.w.v.r.e.S.=.w.G e.y.&.w.9.;.F Z 9.e.=.5.G x c 7 6 k c 7 8 6 k x 6 7 8 b b v X. .b {  .v X. .9 v { ..{ { +.@.t.O.[ O.O.+.....{ ..+...@.[ [ [ [ [ [ +...[ ..#.@.@.@.u.b.n.@.u.t.(.y.=X=X6Xq.*XK.3.g./ / h.^ g E P * ^ L ^ r ^ C.R M._ # Y XXg m.r Z.~ Z.4.d.L.S.rXzXvXK./ i.^ / / 8.i.3./ R ~ ^ U ^ _ ) i.h.h.i.) ) ) ^ ^ E E / ^ P g L U E U / ^ ^ ^ ^ h.B.|.B..X%X1X1X2XxXxXxXgXgXgX2X1XgXxXxX<X>XxXiX>X1XgXxXxXgXsXgXgX2X1XgXCXCXcXcXAXHXd.b r.:.>.;.M Q 6.q.0.q.",
"a.V./ a.C.C.V.V. X-X,X<XB.a.%X;X1XVX-X-XsX,XsX:XgXvXxXgXv.>.Q.nXiX>XL.o.c.vXVXsXvXdX$.x ,.M.L.K.:XfXwX*XdXdX6XoXgXxX2X;X$X5.y q 2 w A G :.r.o.n G r.<.I.6XI.6XwX;X%XSXZX1XSXJXcX6Xk.o.J.H.S.=.;.0.2.p.E / 1XCXAXFXCXaXvXvXAXvX$X$X9X=X9X1X>X+XgXgX%X.X.XxXVX>XxX=Xx A o.G J 7.eXQ.o.o.H z F H G A v } w.d.0XaXeX=X9XzX@XwXe.y.p.^ -X XA.>XoX+X-XI.I.6X8X).I.5XI.H.k.5XtXH.y.{ O.H.v.v.;.>.t.`.).,...n =XtXvXAXaXsXsX,XV.d.Y l M &.n O. . ...O.n.n.a a t.6X7XG.y.G.G.Q.2.w.q.0.7.=.q.9.o.Z M m D -.Z M T S F &.k c p c  .p 9 7 G wXrXtX`.6XyXyXb.p { (.'.).J.(.(.t.Q.L.L.U.q.0.6.J M T D M C S d 0 % % o # 3 + o + X . * * & # + f M c | +. .{ o.} O.} b  .n p v b } x 9 Q 4 X 7 y 8 c A G z &.&.S S $.F Z 6 &.9.Z x 8 p v v  . . .<.y.y.,.>.O. .X.X.O.O.O.<.>.X...O.t.O.O.{ +.+.<.<.O.t.@.<.t.X.t.+.t.t.O.@.O.+.{ +...{ O.,.+.O.t.y.<.y.O.X.>.{ O. . .G.,.{ o.o.*.O.,.>.,.<.v.e.<.{ } >.<.} p } <.*.>.>.>.} } b | } n y.<.,.y.>.X.,.e.p n *.n v A <.y.e.>.y.e.A 9.J 6 7 G | x c G :.r.w.y.<.y.9.;.=.F 9.0.;.9.9.2.;.l $.&.F F Z A A 8 x c A x 6 6 8 x p 7 k v p v a X.>.v { { { >.8 8 ..a a a ..+.O.O.a ..t.@.O.....{ ..{ ..[ [ [ [ [ [ ..#.#.#.@.@.@.@.u.b.b.u.u.u.(.w.,XY.R.G.L.Y.! i.E _ ) ) r P ) # E r ) * g >XU K.; # g 0X^ N.0 Z.Y @XT.Y L.w.tXdXpXY.a.a.p.s.a.g.s.p.p.p.3./ / / ) _ i.h.h.h.i.) _ ( ^ P P U E ) ) E ^ / ^ W / / ) ) h.%X-X2XxXVXxX1X1XgX2X1XgXgXgXgXaXvXsX2X2XsX2XsXVXCXVXCXCXVXvXxXvXVXsXiXsXcXcXeXrXNX=.p n o.o.K f =.q.6.6.q.",
"R V 0 U V.OX#XXXZ.+X%XXX_ _ %XgX;X2XxXCXVXxXCXiX1XvXcXhXb.c 7 e.l..XSXxX2XSXPXvXzXfX).y.e.c.Y.+X<XcXvXvXcXfXeX,X6X9XsX9XrXR.c.U q d | Z x k z n | ,.{ A X.k.K.*XY.T.:XU.p.K.NXDXfXw.s b | 5.9.9.c.G R h.Y.=XOX>XAXAXcXCXxXVXzX6XqX9X=XwXiX1X>X1X1X3X3X4X3X-Xj.=.F B 2.c.f.f.:.;.9.X.:.V  .$.M e.2.k 8 7 x 9.6.c.n l l =.nXH.6XwX;Xa.gX1XVXgX3X3XjXjXhXfXrXyXyX).5XtXmXq.Z *.,.v.H.t.*. .v Z Z o.n 9.A..X@X@XzXrXtX`.7X8X`.q.q L R l <.>.O.+.+.<.G 7 6 } :.J.J.H.k.Q.Z.- o 0 q ;.0.m.c.c.=.Y ! H ;.J Z T G $.$.c >.} A A H k 7 < (.NXrX7X7X'.'.t.<.,.n././.'.b./.b.Q.F.I.m.6.9.6.o.Z =.Z D M M M 3 4 % o + + + X + + X * + * + * n B | } X.{ 8 c { X.} X.O.p 7 8 | $.} n Z z 7 7 4 < < k S m l y S ;.F x Z Z l ;.*.&.A 8 a n v b  .X.<.y.y.>.,.X.O.O.>.>.X.<.O.O.+.t.t.>.O.....+.t.>.O.O.@.<.<.O.t.+.t.t.O.t.O.+.O...+...O.O...O.t.,.<.t.>.>.O.{ O.b ,.y.X. .o.} ,.y.<.O.,.y.e.e.>.>.<.v.O.v b >.,.| A A O.}  .} n A ,.G.r.e.,.>.o.e.*.8 X.X.8 c *.} | *.<.<.:.&.w.H 6 } } x k | :.e.r.9.<.<.w.5.9.;.M =.9.I.e.y.&.=.k y Z y x 5 6 F x | } x c k c 8 8 p 8 }  .b b a p b { 8 a a  . .8 s a 9 { ..+...O.[ { +.t.+.u...[ +.+...+.[ [ [ ......#.#.@.@.@.@.@.u.n./.n.u.u.(.F.pXU.R.!.d.U.d h ^ ) E _ - g ` & |.- L r r %XC.N.; - ; XXZ.M.E C.U P.9XH E.M L.9XzX;X/ ^ U W ~ / / / p.j.7./ / i.^ ^ ) ^ ) / ) E E P L L P U U ) ) ^ / ) _ ) h._ h.C.;XiXgXVXgX-X%XB.,XgX%XB.gXgX,X<XT.N.K.q.q.K.=X9X=X=X1XcX1X1XxX-X1XxXvXaXxXvX,X;Xm q.B v p o.o.7 k ! q.6.0.q.",
"( Y V a.B..X1X,XA.+X2XzX,X,XaXOX-.B.ZXFXPXxXCXVX2X2XsX:X$X9.p e.T.2XcXT.8.:XAXSXZXcXhXvX:XM.,XgX=X1XvXvXAXcXpXpX!.@XuXsX=Xe.H.N.F z x Z 6 1 z $.*.G p x $.oXoXg.XXC.f z g.m.6XfXeXJ.o.v.R.=XU.0.! d.;X;X|.;X;X;X>XeXcXzXaXdXmXzX9X$X@XcX2X1XVX-XT.+X+XC.T.Y.;.M Z z r.e.e.S.w.e.>.<.v.o.G =.S &.=.F k M &.T M w % m 1 q fXjX:X8.T.XXiX1X;X/ #X0X6XtXyXrXy.y.y.5Xf.5.6Xk.Y M &.Q.(.rXe.m e ; & +   @ Y.;X8X-.! F D H D D :.Y & e D J <.>.t.n.O.v 7 < 8 } O.b.`.J.o.<.2 .   % B &.D 9.6.9.B w S D z H H l l l f k H k 6 y c 8 8 7 p 8XJ.'.'.lX].v e.`.J.t./.'.n.(.b.v.e.S.9.r.:.F ~ Q ;.&.&.T V Y 4 5 % + $ + # # o + o ; + * + 6 o.c *.t.>.v 8 { b ..O.X.O.{  .v 7 v *.o.G 8 Z n 6 x 6 5 6 z T l M G &.o.H M M l x *.*.n n {  . .{  .>.e.v.>.<.,.o.>.>.>.O.t.<.t.+.<.<.t.O.+.+.O.@.O.O.t.t.O.O.O.t.O.O.O.O.t.t.O.+.....+.t...+.t.O.>.y.<.<.o.X.,.>.*.y.>.{ v v X.y.<.>.O.w.e.t.<.O.<.<.<.X.|  .} o.o.<.>.>.<.X.v n *.e.e.<.y.X.} o.v.p v ,.b v b o.| ,.| e.9.<.<.&.d 6  . .p | w.v.v.$.e.w.y.y.e.m.9.Z ;.R.;.$.S.Z $.z x c 6 y x 8 x x | *.n } } n A 7 8 8 v c } n v } a { a a { a +.a 9 { 9 +.{ { O...{ 9 { ..+.[ n.[ s +.+...+.[ [ [ @.#.@.#.#.@.@.u./._.b.b.b.@.u.H.oXqX!.H.e.0.K.U R h ( j -X# ; _ r -XP ; r ; _ >X~ U L & a.1.d.! |.U I.zX=.W.C k.9XAX#XU / U W ~ g.Z.i.g.V.8.s.a.i.^ U U U P ) ) E U P P E ^ ^ U / / ^ i.i.s.B._ _ Z.%XhX1X|.XXi.` B.h.C.1XvX1XxXxX,XxXVXhXzXwX:XM.#XvXhXOXT.xXaX$X>X1X+X1X2X2XxXxXvXDX! =.n n n G G o.S -.q.-.0.q.",
"B.A.B.-X1X-X1XsX;X%X2X>X-XeX=XH D xXZXCXZXgXVXVXCXVXMXdXrXrXv.=.d.cX0XQ &.L.,XCXAXAXzXMX9XW.jXjXK.#XcXgXAXcXdXzXwXsXxXvXwX7.m.d.=.F l 5 % @ z -.:.F c =.N.cXOXg.>XaXN.m.gXwXzXfX6XtX`.6XwXdX9XOXXXiX,X+X-XcXAXAXMX>XzXfXeX9XdXmXqXU.7.OX2X1X>X6.9.2.D =.=.Q K H | k :.<.>.y.>.y.O.<.v.| c $.F G F Q l Z D C Y m U p.i.i.aXHXGX%X;XOX~ V f < x c 6 7 s 9 7 < U 0XV T w.5.T w ;.8Xv.zX,X0 # & I r N =.w.e.v.O.o.v 5.$.^ ~ T 0 * N &.r.<.t.H.v.o.p 6 7 x p H o.:.o.e.y.2 # U H G c 8 | *.| w < M m w K l M q $ @ 5 m k 5 6 y k 7 p 7 <.X.v.(.].yXe.H.`.O.p 9 u...9 +.a n w.G.9.F ;.D D.F.w.9.&.M C 6 5 % 2 1 * & # + + X = # % 2 z >.| ,.O.{ b  . .{  .O.O.t.O.>.y.} } b v } x p c k y z z 6 6 x l l l M ;.;.A c k x k A } b b b  . .O.<.e.v.>.,.,.o.>.>.<.>.t.t.<.O.<.<.t.O.O.O.O.@.O.O.t.t.O.<.O.t.O.O.>.<.t.t.t.O.+.+.+.t.{ O.t.<.<.t.y.<.>.>.,. .X.y. . .v v X.t.<.<.>.w.y.y.<.e.X.>.y.>.X.} v X.o.o.X.,.X.} v o.e.G.>.<.v.n } y.r.n r.} A X.v } r.v.:.w.| :.:.D w k  .A v k.e.v.y.5.S.S.y.e.e.R.9.$.=.w.6 Z I.6 x G z c 8 8 c x Z G c c x } } c  .*.X.p A b v { v b v X.v v  .a { { a ..s { a { O.{ ..a a a ..s +.@.[ [ ........[ [ +.@.#.@.@.@.n.n./.(.(.u.u.u.u.b.Q.6X!.F.5.L.p.h E h A.0 -X; - ) L A.C.h E g E ;Xg.L U h / p.~ d.A.t oXDX7.9XQ 5.9XMX>X8.a./ 3.s.P.V.a.Z.s.p.Z.V.Z.h._ / U h / E P E ^ _ ) ) ^ ^ / / i.i.h.|. X%X-X1X1X+XZ.B.Z.3.|.-Xi.C.%XxXaX;X%X2X2XVXSXAXvXvX>XOX;XiX1X9XsX;Xm.OXgX,XsX,Xa.;XiXAXdXS Q F c n c n 9.Z =.q.6.q.0.",
"h.|.s. X1XxXVXcX1Xh.XX,X1XCXgXZ.XXZXZXZXZXcXCXVXvXvXMXtXwXnXJ.< H aXgX/ 1.=XA.g.,XmXrXtXo.o.L.=.7 p.VXxXcXcXsXpX0XcXvXAXDX9XE.D.q.6.R m 5 % l -.e.9.:.K.0XVX|.i.oXoX=.-.#XtX6XnXQ.H.W.9XpXhXaXCXSXLXSXAXAXAXAXSXSXvXfXmXmXzXrXrXjX#Xi.A.xX#Xr.v D Y 8.j.T S B B M x 9.<.>.y.X.v.O.<.y.} 6 Z T F &.F 2.q.1.! ! C 4.oXOXa./ N.DXJXGXVX|.W 2 v v < * @ < 2 ) ^ P ( m m.;.f T 0.F <.G.nXJXK.Q D =XrX7Xn.#.#.@.@.t.{  .=.0 g t - t Y T F e.} c l H G Z S Y q q e 1 % h M m j S v { c 8 A | n x M q @ 5 k l m d @ @ 3 5 q l x 6 x 6 p $ 7 y.t.b.O.(.<.M z @ 7 9 a { a J.v.y.v.9.:.F J k =XQ.v.r.o.Z x Z 6 6 5 f % 5 % % * o & h f m &.<. .>.O.O.X.X.{ a { { v X.O.t.y.{ v t.O.*.,. .n *.} c A k k z y 8 x c F *.,.*.o.*.8 < n { ..{ { X.,.,.e.y.e.,.<.X.>.<.y.>.<.t.<.<.<.,.t.<.O.O.O.O.O.O.O.O.t.<.O.t.<.<.<.<.t.t.<.O.O.O.>.u.X.<.v.O.>.,.t.t.<.<.<.>.X.t. ...b  .,.>.t.<.>.w.y.v.<.t.} y.y.<.>.v v X.o.X.,.<. .n ,.y.G.v.X.<.*.G >.A x <.*.o.<.} } e.9.r.:.G.&.5.S l w z *.} e.F.r.v.y.9.Q.H.v.e.w.S.=.$.| G < F k.7 k $.x &.x G } x X.,.*.n c n n *. . . . .p | 8 v  .v 9  . .v {  .v { a p { a 9 a O.[ { ..[ [ ..[ [ ..@.....+.+.#.#...#.@.@.@.@.@././.(.(.(.u.u.u.u.b.).R.G.R.;.W.0.N g.Y Z.h C.P & ^ U h ;X^ / / U V.M.L / s.N V.! Y.B.# g.AXd.rXD.S wXxX>Xa./ a.a.Z.V.a.N.Z.a.P.oXXXV.s.a.h.h.) h.h./ ) ) h.i._ h.h.h.h.V.+X-X1X1X>X-X-X|.` ) E h P %XxX X,XxXgXhXiX%XaXiX>XeXzXsXsXcX1X>X;X,XwXaXoXe.M.XX;XcXAX&XM.#X@XY z F o.A | :.&.9.Z Q q.0.q.9.",
"B.|.i.s.A.1XiXaXfX7.! g.%XxXgXVXiXgXZXZXCXvXVXCXCXgXwX6XzXBXR.6 -.hXfXL.D T.=XL.9XsXwX6X*.e.tXJ.J Z.vXAXvXCXaXaX0XaXzXsXcXmX6XD.q.6.-.R d 1 M =.5.;.Q d.Y.+Xg.N.@X0.7 8 :.<.H R.tXG.H.W.+X,X2XVXGXGXvXAXFXDXvXcXMXMXfXrXnXwX0XwXrX*X8./ XX1.k } &.R 8.K.T z T M V Q G.e.<.e.>.v.<.t.H.*.8 G $.$.B M T =.R m V C m ! P.Z.N.Q T E.fX6XT  .O.[ x * 0 g r r E ^ Y M Q =XM l 7.D.S 4 < k.HXHXlX7XnXNX7Xb.@.x.u.u.(.y.w Y g g 0 2 z S ! M x f w 7 6 ! Y y q 2 % ; 0 r L w d 0 y 8 z B c c n p 7 5 w q y M q % 2 * 0 d e q l l K k k 6 @ T rX)./.b 9.X.G q.k G n y.:.n :.S.H ;.G.v.D 5 < 9.e.9.<.o.o.p S 5 w w k < l < 4 % @ 3 D x z o.O.,.<.+.O.>.O.+...a ..{ ..{ O.<.t.a { ,.X.,.,. .,.:.c } | *.r.$.A | A | } <.e.<.<.A 8 8 p b  .} X.,.,.e.<.y.<.<.O.>.<.y.,.<.<.<.<.<.>.t.t.<.O.O.O.t.t.O.<.t.t.t.t.<.t.t.<.t.t.t.<.t.>.<.u.X.,.y.>.>.>.t.t.t.<.<.t.t.t. .{ +.O.O.t.y.>.>.y.y.y.t.<.o.y.t.y.o.p n X.>.t.<.X.{ } t.e.G.y.>.*.A } b c G >.o.<.>.} ,.w.| &.w.S.2.T M w w z o.| v.S.G.F.e.:.R.y.9.9.G.G.&.G =.Z 8 y k.x k | G e.| A G } | X.*.G c x  . .X.A b  .8 b k v *.b a v v a v a v O.X.{ { { a 9 { [ [ [ [ s +.[ [ ..@...[ ..@.#.[ @.#.@.@.@.@.@./._.(.(.(.u.n.u.u.b.5XI.J.Q.=.L.0.U Z./ / U a.E & L ^ h ;Xg./ / h 8.K.t i.p.e V.g.Y.C.3 7.dXd.eXK.5.@XMXOX~ / Z.p.p.j.V.Z.Z.g.XXP.XXZ.h.s.s.s._ s.Z.B.Z.h.h.h.Z.|.%X%X+X-X-X-X3X-Xh..X` ` E ^ g r E 3XgX3XgXsX1X2X1X1X;X>X;X0X0X9X,XiXiXpXhX,X1XgX9X$Xd./ d.g.:XpXoX$X1.C -.:.=.| :.9.F ;.S V 6.6.6.6.",
"a.a.U / ~ a.;XXXsXK.J 6 7.<X-X3XVXIXZXZXZXSXZXVXCXCXwX6XdXrX).:.c.L.k.H.a n G.$XCXSXAXzXtX$X9XP.R a.1XVXxXcXsXhX9XwXpX#X$XnXfXR.m.9.6.Y m l 1.;. .G &.m.K.f.D.D.5.B 6 7 8 b 8 5.R.!.!.K.OX2X-X1XAXFXvXcXAXGXcX0XDXvX#XoXeX>XsXcX0XoX4.S C f x &.:.e.-.! S l D Y Y Q S.v.v.v.v.y.v.<.v.v.=.$.$.| z F G D S M S T D M S -.6.T 7 , < , 7 [ ..s 5 & 0 U U r * e Z | F F.F 0.m d d.l . @ W.HXNX6XW.zXfXf.O.[ k 7 e E & - ; r ^ -.B f e q 4 d w x z d & o % 4 0 * = & ; t r 0 B v A c c x c 8 6 y w B M f w q 2 & & 2 e l M 5 5 6 k 6 7 2.rX'.'.%.qXF.J.J.2 k $ < $ @ < z D w.).rX6XK.e.y.e.v.e.:.:.G &.A A } c 8 Z 6 4 3 w Z | n &.e.O.t.O.{ { t.+.{ @...{ a a { { { <.>.b } X.O.<.*.o.<.*.*.>.,.e.e.,.e.r.*.8 p c | y.y.} b v v { X.X.O.>.<.,.v.<.<.,.,.,.<.<.<.<.<.y.<.,.t.t.>.O.t.<.t.O.O.<.t.<.t.t.t.y.t.<.<.t.t.<.<.<.t.y.O.>.t.>.O.>.,.t.t.<.y.O.O.O.+...O.O.O.t.y.X.O.y.v.v.y.>.,.v.y.<.{ a } <.t.X.}  .X.<.v.<.y.<.X.o.>.o.n G :.e.,.X.| *.e.:.=.o.e.&.2.l V q z G <.<.H.y.v.9.r.e.F.e.w.&.e.e.Z z &.6 Z 8 c k x G &.,.r.e.x x A v c c c 8 }  .b k b X.*. .k x x b a a v { { v a a [ { a +.{ [ [ a { s [ s [ ..[ [ +.+.[ [ ..#.[ #.@.@.@.@.@.@./.(.(.(.b.u.@.n.u.b.).H.H.!.-.f.0.! M.V U / Z.h 0 g U h p.Z.K.N C 7.8.* W V 0 oXP.P.iXN =.W.~ 9XW.L.L.MXOX/ / Z.P.j.Z.P.P.oXg.i./ a.V.V.V.B.|.V.h.B.B.|.|.XX%X%X%X1X2X-X<X2X2X XE I ' ' ' I I L ) |.VX3X%X1X-XaXgX1XsX,XuXuXsXsXhXaXOX;X=X9X@X%XgXiX*X9XAXpXC.+X:X@Xd.C D ;.;.=.6.J F G ;.C M w.9.6.w.",
"B. X_ ~ U 1.m.Q D.N.Y U %X<X-X%X-X2X-X3X3XCXAXCXZXSXVXVXCXCXfXf.c.6X!.!.S.v < 4 9XMXAXvXzXdXrXT.a.V.OXsX<X<X:X0XuX=XbXVXwXpXVXdXG.;.2.=.S Y -.T $.$.$.&.:.e.*.8 6 B Z 6 $.J r.S.$X9X=X8.d.Y.>XCXFXFXAXvXvXAXAX>XdX7.U OXVXSXxX|.h.|.4.F F ;.r.;.-.T B l M M S R V y :.G.v.J.v.e.G.:.;.r.6.F A z x 9.=.D m m V =.;.G Z J M * 1 w p a [ a x e - g L r 0 2 % w 6 8 k =.m Q =.=.*XW.P.J O.b.'.`.8XnXHXwXI.<.L : o > & ; h ~ 7.f.y U ; # + d Z T D f 2 3 z n n z l 0 4 F M d B x x c u x v  .x B y M C M y u e * + * 4 q l < < 6 k y < B qX`.lXe.G.y 9.U.L.#X1.! d q q f 6 4 =.nXNXzX`.J.v.v.v.v.>.>.} { } X.b a n x 8 l x :.:.n X.t.O.<.{ ..a O.{ { ......+...{ v { <.<.X.v } b } o.} <.<.,.X.} ,.y.z 5 @ @ 7 7 8 a } t.y.} b b } X.>.>.<.<.,.y.e.<.,.<.,.<.y.<.<.y.y.<.<.t.t.>.<.t.t.t.<.<.t.v.t.y.t.t.t.t.t.t.v.y.t.<.<.<.t.<.t.v.t.<.<.<.t.t.<.y.<.t.<.X.O.t.O.X.y.t.X.O.y.v.v.t.>.t.y.v.O.a b O.<.X.{ X.,.<.<.<.X.<.<.>.<.X.b n c e.y.,.} X.G.<.w.r.=.e.F D w 5 0 x :.e.v.e.y.w.r.:.G.w.G.&.:.e.r.x 6 A 6 k x x 8 x | c A } ,.} c c 8 7 v | A  .b  . .} | >. .b p c c v v a a 8 8 a { 8  .a a { s a ..{ 9 [ ..s [ ..[ +.+.[ [ ..+.+.#.@.@.@.@.u.u././.(.(.b.n.@.b.u.b.H.b.y.y.0.6.D 2.U.~ h a.OXh t t ^ h h Y.D.N 8.8.! * R N N 9XR ! :Xg.0.eXp.K.6XG.W.mXaXV.a.M.M.3.Z.T.Z.P.K.s.U / C.V./ E V.+X|.a.h.|. X+X%XXXi.>X,X-Xs.L ^ E I ' ' g g L g B.|. X|.%X%XgXgX-XgXgX2X0X*X=XwX0X,XcXCXsX0X*X=X,XpXvXiXvXVX>X:XpX:Xp.R ! Q F &.&.6.;.F G 2.F M w.9.;.9.",
"XX X_ / ( / 8.Y g.s./  XxXxXxX3X+XaX<X3X3XZXFXCXaXdXtXrXnXmXvX>XE.F.U.6.f.;.5 W cXvXvXcXvXvXzXpXjXT.W.zXcXaXsX1XVXeXvXDXfXpXxXzXW.2.;.2.=.R D D G F F G G A x 6 6 B Z l tX6XU.M.pXfXOX1.Z S M.iX;XcXJXFXAXAXDXeXMX*X=XHXAXaX;XV.B.T.=.H &.9.&.$.F ;.B l Z *.S T w w M r.G.H.w.w.*.k z k Z M S M D f.-.Y D m C 1.$.V V &.V 3 2 0 l $. .c 6 3 0 P r 0 4 m d w % c $.3 $ 2 8.6X0.G ,.9.e.{ <.`.6XdXHXHX6XQ.M.C M l M E h.C.A.1.< V 0 . . M e.T V S T Z }  . .*.&.m & h e h S T l l x c }  .b $.x M M z k l e r g h l C m q 2 4 4 w 7 q DXGXNXF.$.2 @ f.9X6XNXNXtXrXNXrXR.k < I.L.W.Q.R.v.w.v.v.o.O.>.X.O.>.{ } } n v A n >.>.O.>.+.O.t. .{ a X.@.X.X.{ { { { { { {  .O.<.,. .O.| X.b c n X.X.x k y % % % @ 1 6 8 { { X.t.>.{ b  .} ,.,.<.<.<.<.y.<.<.<.e.y.y.<.<.v.y.<.<.t.t.<.t.t.t.t.t.<.<.v.t.t.y.y.t.t.t.t.v.y.t.t.t.t.t.<.<.y.t.t.t.t.t.v.y.t.<.t.>.O.O.O.X.,.y.>.X.t.y.v.y.t.O.y.H.y.o.{ { t.X.}  .,.y.y.<.<.o.<.,.X.<.o.n p e.y.e.} | <.G.<.S.G ;.S.l k m 5 e H *.v.G.G.G.w.&.<.F.F.y.z :.*.:.8 x Z x x c x A n | o.c G G 8 v } | } 6 n 8 } n n } 8 p *. .c 8 p v v v v a v a 8 a v { +.a a 9 9 [ [ s [ { [ [ { [ ..@...[ [ #.@.#.@.@.u.n.n.b.(.(.(.b.b.b.u.n.n.b.b.b.y.e.S.f.! d.K.1.N V.A.U * t ^ U t ! m.U / ~ L.h R 0 U zXe U 9Xp.2.6X~ l.k.F.6XpXsXZ.s.p.M.Z.XX;XP.oXoXh.^ / C.V./ R h.Z. X XOX1X%X+X1X,XsXSX1X Xg - _ _ r ; I ` _ P E ,X+XgX-X-X1XxXxXA. XgXaX9X=X=X@X@X9X0XVXvX0X&X$XsXpXvXmXwX=X@XoX=Xp.Y 2.7.-.;.Q J 9.6.Q G ;.;.M 9.9.6.w.",
"/ ( XX>X,XXXZ.%XaXOXA.3XZXLXPXSXxXcXsXVXCXaX:X6Xy.o.} v.o.f.AXvXAXG.:.G 0.c.8.%XHXcX0X>XaXvXeX1XhXm.G -.T.dXvXaXaXiXpXpX$XeXsXMXdXL.q.2.=.=.D G y M D G A n H l 6 w 6 k v.0.T.aXAX;X7.r.:.;.D D M K.vXaXmXMXMXzXnXW.m.1.Y Y 7.M.:.T x z =.;.H T $.=.l S 9.F Z Z V M M &.w.w.:.G 8 y z y B $.q.-.0.6.1.Y -.D ~ L.A.8.8.S.;.&.c y v x 8 6 w e 0 t h e 2 q 0 * + C 6X9X:XpX9XtXA 8 8 6 >.v a H.H.7XnXHXmXm. .O.u.>.<.g.V.L.Y.$XE.W.E.m.K.tXtXK.z |  .,.t.@.O.O.t. .q m Z m d Y $.V B Z A A c x z A B c y w d * - 0 l m q 3 q e 6 < 7 6 8Xo.n X.<.6.% m H Z L.qXfXkXtXtXrX6XG | !.Q.`.R.S.G.G.v.<.<.<.>.<.t. .,.O.b } <.O.t.t.>.O.O.t.>.+.X...[ O...O.O. .o.b X. .v v b a *.*.*.*.,.A 8 c c H p 4 < $ + + % 1 6 v v { { >.>.O.} X.,.<.<.t.e.e.y.y.e.y.y.y.y.y.<.<.v.y.<.<.t.t.t.y.t.t.t.t.t.<.v.t.y.y.v.y.t.t.t.v.v.y.y.y.t.t.<.<.v.<.t.<.t.<.v.v.<.t.y.<.<.O.O.O.t.t.,.,.y.e.v.y.O.<.y.v.<.X. .O.,.X. .X.t.t.X.X.t.X.e.<.<.o.X.o.>.y.<.o.} X.y.<.o.9.:.=.9.5 f m 4 e <.<.v.e.G.G.;.e.R.y.e.Z 7 Z r.r.6 z G G &.X.6 :.<.G *.c c >.k c } } c 7 8 v p k 8 8 b k 7 k v v v 8 b { v { a v v 8 { { ..{ { [ s s s [ s [ [ { [ [ ..+.@...[ +.#.@.@.@.@.n./.(.).(.b.u.u.n.@.@.n.b.H.H.y.9.!.2.0.F.L.7.Y +X8./ 0 t U g t N q.3.p.U V.U / V / mXR K.mXP.0.=XU $XS.W.dX9X>X>XoX;X;X;XXX%X|.iX:Xh. X;X,X*XoX+X|.#XhXvXcXVXcX|.i.%X2X1X|.1XvX2X-Xs.L B.` .X.X) |.sX|.%X3X3X-X2XxXCXVXgXaXzXwXdX*XD.@XoX:X:X9XwXM.1X9XK.;.:.r.Q.I.$X=.l =.0.6.D.6.:.;.r.&.=.q.-.z =.9.9.S.",
"! B.;XsXAXvX>XgXxXB.h.1XZXSXVXxX2XZXZXgX*XQ.<.t.v.J.m.:X>.f sXAXMX*Xw.J 9.-.j..XvXbXeX:X9XfX!.Y.:X0.n z R OXaXwX2X0X*XtX*XwXaXcXfX=XG.e.&.-.Q $.w k G F Z A Z z 5 @ < Y q.N.pXcX,X8.6.0.&.Y 1.q.;.K.Y.K.dXeX9Xm.! H C S =.=.w.k.} H S S e.5.S $.;.$.Z S $.w S T S Z $.9.H.r.S M k B A z M =.7.=.c.q.r.C T 1.K.@XC.T.Y.:.p s a [ s 8 p c T N 0 0 q 4 * 0 * o & 1.1.m.zXmX6XD.6 7 s 7 k.<.b H.,.H.Q.7XNXeX..{ t.H.6XH.y.I.8XyX`.7XlX8XJ.`.8X6XG  .{ O.t.O.O.@.u.O.n o.r.J K S =.R S f Z l B Z Z B k 6 k w Y e h m m M e q w w w q 4 7 n $ $ u 6 t @ + X $ d R 0.P.G.r.x R.nX9.F.J.J.G.G.S.v.v.y.y.<.<.v.e.<.,.*.} O.>.>.t.t.X.>.>.+.O.+.+.{ { { { { ..{ O.X.v X. .b b a { *.X.*.,.o.n z 7 6 @ 1 @ + @ % 5 8 p v } } { o.*.,.*.X.,.<.<.e.y.e.e.e.y.e.<.e.y.y.e.y.v.e.e.y.y.<.e.y.y.y.y.e.y.t.y.y.y.e.y.y.<.y.y.v.y.v.<.y.y.t.t.t.y.<.<.t.n.t.v.v.<.<.y.<.t.O.>.t.t.,.O.t.t.y.H.v.,.<.y.y.>...O.t.O.O.v <.t.O.X.o.X.X.t.<.O.o.o.G | n >.>.>.e.e.w.:.<.:.&.S 6 M 5 < z S.w.w.;.v.G.| y.J.e.;.x 5 Z >.F 7 z &.*.*.:.x <.:.z } A *.| k A | A A 7 7 8 9 7 7 , 8 A v p b 8 p 8 v X.p v v a v 8 a { { a { { a s s a s [ ..[ [ [ ..@.@.#.#.#.@.@.@.u.n.b._.b.(._.b.u.u././.@.n.b.b.b.y.v.F.=.6.D.M.7.R @X3./ 0 * ^ g e 0 W m.8.r L U / ~ s.wX~ Y.rX@X2.L.U W.c.U.wXfX%X#XhX2X+X;X|.h. X2XgXh.-X,X#XOXoXg.a.N. Xs.~ a.>XgX#X,X-X2X1XAXSXxXC.( E XX4X X.X|.1X,X%XgXxXZXZXgXgX2XgXgXaXaXpXqX$X7.m.d.P.9X@XfXK.Y.$XN < :.o.k.T Q 7.=.1.! D f.w.9.9.w.=.Q D.G z &.r.r.c.",
"d.N.j.|.xXcXcXVXvX|.%X%X3XCXgXXXd.-XvXiXY.$XW.G.U.dXeX=XJ.G U.DXAXAXrXR.S.-.g.OXVXAXaXU.!.pXc.b J n :.Q / Z.=X=X>XvX6Xr.G.zXaXaXvXzXtX6Xf.6.! 4.D Z G x H n x K 3 1 $.*XW.L.T.M.q.-.&.-.1.d.V.C.C.M.q.f.L.f.;.H S 1.m.m.2.=.;.=. .&.S S e.| S } ;.G F S x x M T T T B ;.S.:.k l z F T =.! 6.! S K.D.U.6.-.K.U.L.M.C.W.:.7 9 9 s  .w p { A q 3 0 e 0 * * r U C.DXzX9XfXfXD.D.K.w.0.q S l 5 G o.(.n.b.yXHX'.y.J.rXnX`.b.y.v.(.t.<.`.'.J.`.`.L.G *... .O.{ O.O.O.b A X.Z G F z S M D x F T T G G T S M =.Y &.D 2.R D C m e w d m l 6 q X   # 9X0.2 H 5 * % % U % 5 T w.c.9.6XrXH.Q.F.F.!.!.G.G.G.e.y.v.v.e.<.,.O.O.>.X.y.t.X.O.O.t.+.O...O.{ ....{ +...O. .y.{ b >.X.o.} n v v v c x 6 7 5 7 < @ + + @ 1 5 6 k x x b X.>.X.X.*.,.,.<.<.e.e.y.y.y.y.e.<.y.y.y.y.y.v.c.w.y.y.y.y.y.y.y.y.t.y.t.y.y.y.y.v.v.y.y.v.v.v.v.e.y.y.t.y.t.y.t.t.t.t.<.v.v.t.<.t.t.t.O.<.t.t.<.<.<.<.v.v.e.<.v.y.G.X.O.t...O...O.t.{ X.} O.>.e.<.<.>.X.v p v >.e.X.| e.y.9.:.e.*.G < k w < < 6.G.w.9.9.e.e.:.H.G.*.G < 6 G v p z Z e.,.} <.| e.| c A 7  . .A A | p v v 8 v 9 8 p 8 7 8 8 7 8 6 7 7 7 v v 9 8 { { { p { t.O.{ { { a s [ s [ { [ ..[ [ @.@.#.@.@.@.u.u.n.b.H.(.(.b.(.b.@.@.u.u.@.u.b.H.H.b.y.v.6.-.m.q.7.7.K.! 1.W h ^ t m 0 U 8.i.U U e R p.g.=Xg.7.9X9X7.Y.R $Xf.Q.tXzX;XOXcXAXiX%X.XB.%XgX1X;XgXuX0X:X>XoXXX4./ e $ $ - h.h.C.-XxX;XcXaXXXh.d.a.3XgX1X-XxX%X-X;X;XXXC.-X1XgX1X1XgXaX0XuX0X0X$X@XqXqXtX@XqX$XM.L.L.&.5.;.9.7 C d.7.1.! 1.0.;.6.q.w.T -.&.M Z J r.9.e.",
"7.Z ~ 3X2XT. XOXiXXX+XV.B.;X;Xd.1.C.cXsXgXAXmXrXwXdXzX0XrXF.6XrX0XvXfX=XR.7.d.OXVXSXhX9X9XfX`.O.p 7 p 7 M d.L.=XW.dXnXe.q.zXvXaXhXmXrXtXF.m.-./ Y Y V w S M f M 1.0.@XrXY.M.Z.K.9.G T 8.V.;X;X%X#XY.e.:.;.| G o.m.K.f.0.Q ;.=.F b T q q :.} $.} o.x z z 6 x l T T &.S $.5.&.S Z z S 2.7.! 8.Q R M.D.K.K.7.7.-.-.6.1.f.| a { a v ;., 7  .} y d h - X - i.aXDXDXzXNXtXJ.).y.I.$Xf.k.F D V w z b <.+.O.X.6X8Xv.F.tXe.n +.O.<.8Xb.O.J.(.b.`.8XL.A  .X. .,.{ {  .}  .{ 5.$.S q.$.=.G $.S $.S T &.9.9.=.=.2.$.l M ;.$.=.T Y R d m m q 5 l l 4.U.NXNX<.1 % + @ + h ~ m.G.w.L.=.c `.J.G.G.S.G.F.F.G.G.G.y.G.G.v.t.t.>.t.O.O.b.t.{ { O.t.@.O...@.O... .{ O.+.t.a { ,.{ { } } } v p x 8 7 < < 7 6 < 1 o . $ % 3 5 6 k x x a { X. . .>.<.<.<.y.e.e.y.y.y.y.y.e.v.y.y.y.y.y.v.y.y.y.y.y.v.y.y.y.y.y.y.v.y.y.y.v.v.y.v.v.G.H.v.t.y.y.y.y.y.y.y.e.y.t.<.v.y.<.t.y.t.t.,.t.t.t.t.y.<.<.v.v.<.<.t.v.y.O.O.O.O.O.O.<.O.O. .O.>.t.y.<.<.,.} a v | v.>.} | r.y.<.r.G c k < k @ 5 k R.v.9.w.r.w.e.o.v.e.r.G , k A x A G c S.:.| r.9.y.z | <.7  .8 } x v p 8 8 b } a a 8 p p 8 v 8 8 8 8 8 b v v a a 8 9 { ,.{ O.O.@.{ ..{ [ [ [ [ [ [ ....[ ..@.@.@.@.@././.(.(.(.(.(.n.b.u.u.u.@.u.@.@.b.b.H.H.v.e.0.q.9.9.q.m.m.8.! a.N.i.j h t E ~ B.h ) 0 h i.oX8.V.M.wX*XY M.Y.9XS.Q.6XrXuX#XiXDXgX%XgX%Xh._ L ) |.XX,X0XhXhXjX>XhXxX&Xp.P.;XA.-X Xi.XXmX:XOX%XC.%X3X X.X3XCX-X^ d 3 < f d.T.oX9XXX X0X9XoX9XuXuX#X9XqX5X9XoX2.-.7.6.>.z 1 @ @ 3.K.d.8.7.0.r.-.0.q.=.l &.&.o.G G r.w.v.",
"8.x ~ SXvXY.OXXXC.|. XXXZ.Z.+X=XM.1.pXxXxXFXCXzXmXmXMXxXeXY.W.*X9XrXtXR.e.1.3.B.2XvXzXfXAXzXtXH.<.v x % H K.$XwX$X9XzXpX,XvXzXfXfXzXtX6XR.S.Q S p.p.3.4.1.1.p.#XwXwX6X6XT.oXZ.d.d.0.q.K.OX;XOXN.9.c.X.b b n z F w.F.w.;.&.=.=.=.c l 3 e *.b | G A y x B 6 x F S F F F T &.G F =.F T 0.p.1.1.1.Y d.D.W.U.1.Y C D S.M.f.n a p 9 z o.2 6 y.A w h h X 0 j.h.Z.tXNX0.6XJ.y._. .x F.L.&.n G &.z 6 8 a a p 7 x J.*.| H.<.v.v.p n `.J.J.`.`.).`.`.F.n {  .*.<.X. .X. .,.,.e.;.Y 2.&.;.G $.F 2.$.;.&.5.;.=.*.F F l B Z x M S V V D C q q R K.&.7 z qXNXnXd $ t R e R U.R.J.F.I.z c J.v.w.e.w.S.S.D.G.G.F.G.G.v.v.t.t.t.t.O.t.y.>.X.O.t.+.+.{ ..@.O.O.{ ..O.{ >.b p k  .v 8 8 v v 6 7 < @ @ 7 6 6 7 @ . o @ 1 4 5 6 x v c v v b  .>.,.<.<.y.y.y.e.y.y.y.y.y.y.v.y.y.y.v.y.v.y.y.y.y.v.v.y.v.v.y.v.v.v.y.y.v.v.v.y.v.v.v.v.v.v.y.v.y.y.y.y.y.y.v.t.<.G.y.y.v.t.v.t.<.t.y.t.y.y.<.t.S.v.v.y.<.v.t.<.O...O.O.<.O.O.+.O.O.>.<.>.<.y.<.{ o.o.>.v.X.o.*.e.<.,.,.G n 5 @ 4 < z $.F.9.e.9.&.e.G :.y.e.>.x 7 G Z A r.&.A e.| 9.=.r.y.6 A <.7 v 8 } n p 9 8 8 b O.O.v v A c 8 v 6 8 p 8 9 a v a v b p 8 8 a [ O.O.t...a [ +.[ [ [ [ [ [ ......@.@.@.@.@././.(.(.(.H.n.n.n.u.u.u.@.@.@.@.n.b.J.H.G.:.f.;.6.q.w.D.q.8.R a.V./ h h j U U Z.L ^ * h N.+X0 / *XwXK.1.K.Y.$XS.G.R.6X,XsX0XhX,XXX2XZ.j.Z.h.%X-X%X&XOXpXjXfXCXVXCX2X;XAXSX>XxXsX%XiXAXwX|.3X3X%XB.( 3XVX-X~ q l 6 x x 6 -.D.6XU.Z.;XwXU.K.M.M.#XP.1.y.K./ $.g.0X=.v.T 1 @ q p.Z.M.8.4.d.1.0.9.0.6.;.9.:.&.o.G =.e.S.",
"h.! XXLX1X=.B.|.XXXXh.T.XXOX-XpXY.D m.OXsXJXCXbXvX0XdXzXuX;X0XfX=XE.Y.9.K l p.C.pXdXvXzXMXvXzX8X`.m.6.Y P.0X@X<XuXaXuXsXaXMXvXsXfXzXdXtX6XR.f.9.f.D.M.N.M.=XwXdXdXwX9XW.P.oXN.f.K.D.D.D.K.M.w.X.b O.v x p n p z ;.G.e.&.&.&.| :.*.M d $.| v } } c c y B x A F S &.$.S 2.G z l F T M 4.4.=.! 7.6.d.m.D.G z &.| o.w.q.S y { p p z x 5 6 L.0.R U t 0 M 4./ d.v.J.F D.G.y.S.S.D.d.D.g.&.G B F x 6 6 G | :.5.H 8 | `.J.b.`.x A 8X`.8XrX8X6XJ.J.Q.| v v X.*.>.t.>. .X.{ n $.w 4 l k y x S 9.&.$.2.;.F $.&.Z Z M k z x m d d m D M N l F rXzXd.K.9XD.4.6.f 0.yX7X$.< < x y.k.e.y.G.G.R.Q.G.e.w.S.S.v.v.y.H.v.v.v.y.t.t.>.t.<.O.O.O.t.O.O.O.O...{ O.a a { { 8 v 7 < 7 8 8 8 < < 7 < 6 6 6 k l p 7 + . . @ @ 2 w k c G n c c } *.,.>.y.y.y.y.y.y.y.y.y.y.y.y.v.y.y.y.v.y.y.y.y.y.v.v.G.v.v.v.v.v.v.v.v.v.v.v.v.y.G.v.v.v.v.v.v.v.v.y.y.y.y.y.v.y.y.G.v.y.v.y.v.t.t.y.y.y.y.y.y.v.v.v.v.y.t.v.y.t.O.O.@.O.t.O.O...O.O.t.O.t.<.y.>.X. .{ ,.e.v.e.:.o.<.e.o.n | 6 < 6 6 ;.w.w.<.w.&.S.;.c y.:.<.n p c G z o.:.:.&.Z F F.;.;.e.8 8 ,.7 7 8 b v v 8 v v a a >.} v b b b X.} v v v p a v 8 p a v v v p a { O.+.O...{ [ ....[ { [ [ [ +.+.+.@.@.u.u./.b.(.(.(.H.n.n.u.@.@.@.@.@.@.u.b.b.J.J.F.&.I.G 2.w.9.6.Q / V U V./ R ~ h j h B.P W U 0 +XZ.h / 9XeXM.d.M.@XL.q.G.W.tX9X9X0X;X#X,X>XfX9XDXJXMX&XqXfXuX0X9XdXgXB.|.4X3X3X3X%X1X-X.X2X XL I 4X3X%XB.N.-XN.q 6 z Z x v G p < , S W.pXOX:XY.S.w.G P.0X5.y.5.g.5XwX&X4.e.f.N T 1.7.M.M.N.1.M.1.6.9.r.e.e.w.&.&.:.:.&.;.q.",
"_ p.Z.VXC.2.C.) sXgX1X>X;X;XC.,XsXm.m.~ a.AXbXMXvX6Xt.t.SXMXvXvXrXqXwX!.p V ;XeXvXmXvXeXzXaXvXzXnXnXpXpXhXpXpXeX$XU.Y.@XY.mXvX0XzXzXdXBXtXQ.F.F.G.R.=X9XrX6X6X6X$X*X=XK.g.p.d.P.Y.Y.K.6.;.w.e.{ n | w 5 m F Z Z =.9.:.:.;.:.o.>.y.6.! $.v v c b  .A B F x z &.| F | &.5.8 6 x G A 6 1./ ~ 7.d.-.m.0.&.k k $.9.e.w.9.&.$.<.| Z l l l 5 C l q h f h T f.OX$X .y.&.Y Q S S p.*X$Xd.d.2.M M D G ;.7.D.Q.W.E.9.G o.yXlXJ.`.>.v (.).kXNXkX6X7X<.I.X.8 9 v v v  .{ 8 v { c | w @ 6 M B M z T =.Z *.5.$.*.| Z S Z k w l m l Y Y d l W V 6.eXmXDXwXK.D.2.nX).y.X.X.v.w.=XR.F.} ).`.).6XR.7X).G.G.G.S.G.>.e.G.G.y.y.t.t.t.t.<.t.<.t.t.@.@.O.O.O...[ O.{ { { { 9 a a v 7 7 6 8 6 7 6 6 6 Z Z z k < 5 +   . @ % 5 k k A } } n v v o.<.<.y.e.w.y.y.y.e.y.y.y.e.e.y.y.y.y.v.y.G.v.v.v.v.G.G.v.G.G.v.v.v.G.v.G.v.G.G.v.G.v.v.G.v.v.v.v.v.v.y.v.y.y.v.v.v.H.v.y.v.y.v.y.y.y.y.y.y.y.y.v.v.v.y.y.y.v.t.@.O.t.O.O.t.O.+.+.O.t.O.t.v.<.e.X. . .O.w.J.e.<.9.>.G.e.} A z 5 < 7 Z :.r.o.v.:.:.G.Z y.S.e.<.x G } | A G :.:.9.| G y.&.Z =.| 8 >.7 8 b A a p a 8 v { p 9 } b 8 8 v b n X.b v 7 p p 9 9 8 a 8 9 p a a ..O.....+.a [ ..@...[ [ [ ..+.@.@.u.n.b.(.J.(.(.(.(.n.@.@.@.@.@.@.@.@.u./.b.H.).y.:.R.G ;.S.f.1./ 7.! E a.~ E U j g U ^ P U ( r 1X~ h R @X=Xd.$X1.d.U.D.w.6XE.Z.wXfXoXp.U.Y.9XD.hXsXb.} y.7XQ.wXMXDXSX1XgXZX3X1X3XgX1X3X3X%XP : : ^ |.;Xi.j q w y Z n p v v n p 8 6 @ 7 jXvX:XL.F.9.&.l.qXc ,.6XP.5.c.N =.X.:.Y 7.7./ K.M.A.p.g.M.-.e.w.S.w.:.k Z &.;.=.6.6.",
"s.p.V.2X+X*X;Xi.uX2XgXN.P.vXsXgXVXxX,Xa.V.vXMXvXMXNXy.s hXMXDXrXE.f.@XrX$XoXeX=XP.dXSXdXpXwX0XiXfXmXfXzXiXiXDXfXJ.U.wX6XU.zXvX>XzXmXvXnXdXrX9X6X6X$XW.tXfX6XW.6XtX*XT.Z.d.M.M.7.q.K.M.0.r.o.A 6 w q @ % w C Q &.;.J H o.o.F n c 2.9.9.*.{ v x { | A x z y y | | A Z | c 8 v z G n x 6.Y e m ! 1.7.m.S.;.=.w.q.-.r.9.:.G T T S =.T N q % 1 5 N =.~ F.L.>XnXy.<.f.7.2.;.T 4.7.tXU.5.=.T f.0.0.L.U.W.$X*X9X6XR.G w.6X7X7XrXH.`.).7XNXJ.p y.).5Xn 8 a 8 a v { { v v b x $.T m M l z F S &.o.8 l =.9.q.;.$.&.F Z z G G x V =.=.4 e e 5 Q d.c.E.R.tXrXrXy.).e.:.p -.JXGXnX).`.(.`.7X`.6X8X6XF.S.Q.).y.<.e.v.G.v.t.t.<.<.t.t.t.u.u.t.{ +.+.{ +.{ t.p { ..v 8 a 8 8 7 7 7 7 8 c x y z B x x y @ k *   o * * 4 6 k A | X.} b b  .<.<.y.e.w.y.e.e.y.y.e.e.e.e.y.e.e.y.y.y.G.v.v.v.S.G.G.S.G.G.v.G.v.G.G.G.G.H.G.G.G.G.G.H.G.G.v.G.H.v.v.v.v.v.v.v.v.G.G.v.v.y.v.v.y.y.y.y.v.y.v.v.S.v.y.v.v.v.v.@.O.t.+.O.t.O.@.@.O.t.<.<.<.y.<.<.<.,.<.S.y.:.<.9.<.<.| A n 6 < 6 Z ;.r.e.| n :.F.*.| S.&.$.c x ,.} | G Z :.r.w.z 6 &.;.k A *.8 *.8 A  . .} p { b p v } v 8 } *.c c A 8 v v b v 7 8 p a 9 8 { 8 9 9 a s O.O...{ ..[ 9 ....{ [ ..+.+.@.@././.(.).).(./.b.(.b.@.@.@.@.@.@.@.@.@./.b.H.`.9.e.F.;.Q 2.Y.p.V ~ d.Z.V.^ i.R g - E t R s.h.g B.^ L R Y.@XM.*XQ ! K.$XQ.tX6X@X,X&XoXpXdXY.E.6XrXK.7 9 a } v &.I.k.oXoX;XgX_ a.+XuXxX3X%XgX3X` P C l 2.=.C &.T S M 6 7 v v b p 8 x k z fX>Xd.W.$X2.f.M =.y c 0XXXx 7.M.f.w.r.1.3.~ R Z.N.Z.N./ M.d.9.6.=.z x H r.9.&.-.6.-.",
"7.g.Z.C.<XoXXXXXZ.h.1X@XM.,X1X2XVXZXZXpX#XgXFXFXCXSXdX<.E.rXeX$X0XE.=XhXhX,XA.r.1.:XAXbXtXlXtX*XqXqXtX9XeXsXcXfX:X9XsXeX9XfXvXwXzXvXvXmXmXzX9XzX6XE.G.Q.wX9XW.W.6XD.d.a.D.D.0.6.k.L.w.;.o.G n H k 4 < K 4 < M J r.=.Z Z H z c Z 0.0.:.>. .v } X.X.} c B 8 c | | &.X.A v v v y B x c $.2 5 B T =.0.f.d.1.7.8.1.7.&.<.| $.! C f =.Z Y 7.3.l.D.M.L.eXrXY.<XdX6Xf.Z.Y.=XG.&.;.S 6.-.$.7.M.Y.XX$X6XW.dXqX9XwX6X=XJ 6.2.;.G rX6XJ.y.J.n.a 7 $.y.f.o. . .8 8  .{ O.>.{ { A %.R ! ! Q G B y B c o.Z M 9.P.d.T Q T M G o.$.| f.D.=XM.1.7.m H ).A G `.J.S.`.b b.6XwXo.T DXDXmXNXyXb.X.<.v.J.R.Q.G.e.9.e.R.G.y.G.H.y.<.t.O.<.t.t.t.u.t.t...O.O.....a O.s 8 ..v { a v v { { n n n x v A G n v 8 y y w $ X o @ % 3 l k v A A X.o.}  .<.<.y.e.y.y.e.e.y.y.e.e.e.<.y.e.e.e.y.y.v.y.v.v.v.G.G.S.G.G.G.v.v.G.G.G.J.H.G.v.G.G.G.H.G.H.G.G.H.v.v.v.v.G.v.v.v.G.G.G.v.v.v.v.y.y.y.y.H.y.v.v.G.v.y.v.H.y.t.O.t.t.O.@.t.O.O.O.@.@.t.t.v.v.<.<.<.<.w.w.e.y.e.<.y.G n A 8 6 x F ;.:.r.w.G | v.e.Z | r.| c x o.X.A ,.F F y.$.;.7 k z =.c A *.8 A b } | | } } v v } b b b v 8 A | n b v n v 8 6 8 7 8 v 8 8 8 a 9 7 s 9 a O.O.{ O.{ a { ....[ ..+.@.@.@.u./.(.Q.Q._.b.u.b.b.u.@.@.@.@.@.u.u.@.u.b.J.!.q.S.c.9.D Y oXP.~ / M.V.a.R V.~ P & ^ h U s._ = ) ) ^ / 8.M.@X7.Y P.$X;.5X6XtXC.P.&Xh.hXvXM.Q.J.(.n.9 8 } X.&.:.b.X.0.=.l d.V d V _ 1X3X.X1X_ g ! v 6 x S V T D C 3.2.&.c x n G F T B k dXjXD.U.d.3.j.7.Z c w / uXB r |.#Xl.L.p.3.! 3.Z.Z.Z.A.p.d.D.f.=.2.;.;.:.w.S.&.6.9.&.",
"J r.8.h.xX,XN.Q Z ~ >XsX%X;X<XoXs.xXSXFXeXM.9XAXMXSXAXaXpXfX$X$XvXvX9X=X9XpXuX0X<XcXVXzXsXhXuXcXMXvXfXmXcXvXzXfXwXfXMXvXbXvXcXvXcXcXVXkXdXfX$XfXzX9X*X9XdXqXD.G.0.S -.d.m.q.7.D.L.D.D.S.e.=.8.1.C q m 5 1 $ N 0.6.D S S M l M 1.r.,.v { v p A  .c 8 x v 8 z }  .a v { v B A c $.a G M X   O / 4.m.d.d.f.0.J D e.&.C d f 5 C C g.#XuXAXcX>XvXvXcXFX=X} J.H.H.).v.J.W.0.R ! :.2.5.J F.R.0.D.q.D.K.=XK.E.Q.S.<.p Z r.H v ).H.t.e.B Z T =.b } >.H.H.o.9 9 b  . .,.>.} G z F G 5.k.%.K z M z e.<.A G 5.;.} c *.Z Z $.n x &.x w.kXI.L.Y l nXrX% < y %.`.v.e.NXyXX.e.yX8XrXNXnX6XG.k.I.G.H.7X5XQ.<.v b.b.e.v.H.t.t.<.t.<.t.t.t.t.X.+.O.....O.{ a { v v { { v v 8 p 8 8 p x n v 6 7 6 z k < 7 3 + . * @ % % q z z G | } o.>.:.<.e.y.e.e.v.e.9.e.e.<.<.y.;.r.<.,.e.e.w.w.0.r.w.y.S.D.D.K.R.L.D.v.y.e.k.v.v.v.G.G.H.F.F.F.v.v.G.H.v.G.G.G.G.v.G.G.G.S.G.G.v.v.v.v.v.v.v.v.v.y.v.G.v.G.H.G.G.y.t.t.t.t.t.t.<.t.O.t.t.<.y.y.v.<.<.,.e.,.y.y.e.<.<.<.y.v v x 6 p o.*.:.:.F.;.n *.y.A o.:.o.v x o.&.} o.9.G w.6.T M w l z } A { >.{ v v  .} >. . . .{ v  .>.} } n a } } a a } 8 b n 8 6 8 8 v a 7 9 p 7 9 v 9 b X.{ ....s { ..+.[ ..@.@.u.u./.(.J.).(.(.n.@.u.n.@.@.+.@.@.@.@.@.u.@./.(.R.F.G.e.0.U R XXA.U U OXT.a.U B.^ E # L _ g _ ^ + P E ( ( i.1.dXY.U K.R.&.6XdXsX,X#XfXN.|.gXVXaXD.G.G.>.v.w.G v +.O.O.+.+.9 v c 6 l q T ,X-X_ 2 y ,.} c v 8 8 $.$.x A n 7 8 n |  .$.A x C $X$XM y.7.3 + &.y.I.w R vX:X+ r SXVX&XP.Z.E / r.d.XXA.p.4.P.N.d.Z.Z.d.7.6.m.-.r.m.m.",
"l -.1.a.gXZXgX X>XXXgXsX%XC.sXhX;X>XgXFXSXhX,XOX>XAXvXvXvXzXE.K.vXvXqX=X=XzXvXvX>XpXcXzXwXdX9X@XzXwX=XmXzXaXzXE.6.6.@XaXvXCXvXvXvXmXAXrXdXwX6XzXrXrXrXtX6X6Xf.m.=.l 1.1.M.M.d.f.$XY.0.9.S.q.7.7.1.U m 3 % @ R m.6.Y Q V l m m T :.o.}  .b 8 c n c k 8 c x z *. .{  .{ | | n G c  .| 3 +   X 7.f.0.U.d.f.f.6.Q 5.9.Q D d q ! f.$X*XmXGXpXwX6XR.G.9Xk. .G.e.c 5.F ;.p.@XP.q.F.$Xk.H 9.G.D.R.D.D.6XzX*XG.R.G.F.e.w.G.>.*.yX`.J.<.7 Z 5.| >.y.>.5.k.<.{ { {  . . .O.} | k l Z Z S M T =.M Z A n k x 6 y } v c c l B M k M M ;.kXT F k % 9XNXk < 8 :.v.Q.e.tXR.k z Q.*XwXzXnXkXtX8X`.J.J.).).Q.Q.X.| >.o.v.J.t.t.>.t.t.t.t.t.>.O.O.+.O.{ t. .a {  .n ..O.b 9 p p 6 p v x p c n p x 5 6 6 4 @ X + 2 & @ $ 2 k k A | *.X.<.r.9.e.w.e.e.e.e.9.<.e.<.<.<.:.<.,.e.<.r.9.9.9.r.w.w.f.S.k.M.F.K.D.w.y.r.f.w.S.v.y.G.F.G.G.F.G.H.G.F.y.G.G.G.G.v.G.G.G.G.H.G.v.v.v.v.v.G.v.v.v.v.v.v.y.G.H.G.v.v.y.t.t.t.u.t.t.t.t.t.t.t.y.y.e.>.y.e.,.<.e.<.v.<.<.>.e.p c c 8 o.<.r.r.e.y.o.:.<.y.o.e.*.n x G n :.r.| G &.f.9.F Z k B A v A } } { b } ,.x } <.>. .X.{ b b ,.v b X. .} b v } v 8 b b v k v p b p 9 8 p 9 7 9 v X.+.{ { { a { ..+.+.@.@.n././.(.(.(.(.(.n.O.@.u.@.@.+.+...@.@.@./.@.u.J.Q.!.y.e.0.m N A.T.j ^ V.T.E h s.P L O L _ g ) %X- ^ / / / V.N wX9XN 1.=Xv.!.rXfXuXoXdX,X,XvXSXGXHXDXzXw.e.9.G b <.v.e.e.;.Z n G G x q 7 h +XA.= C 5.S G o.A p B 6 < < 7 7 u Z &.| G &.#XhXcXXX^ S.D.l 3 M B 6XP.h =.P.h & -XSX,XT.V.L ~ m.N.V.a.j.7.7.8.7.N.d.d.7.6.7.-.m.M.N.",
"H 1.! / A.VXSXgXFX1XgXuX1XA.C.1XgX-X+XsX0XiXAX2XpXMXvXcXzXdX9XrXmX,XfXSXvXcXsX>X0X9XwXqX6XtXtX,X*XU.K.9XeXzXwXW.6.1.K.W.*XvXmXzXzXzXmXtXrXtX6X6X6X6X6XR.R.W.q.f.=.V 1.1.M.d.M.d.R.M.0.5.e.0.6.d.g.8.R D q * ~ N.2.-.Q D M Z D 2.:.x v } n k A A  .G B } c S e. .|  .b e.,.c n c  .x q h * U K.f.8.U.M.d.q.D.6.&.d @ 4 C 1.d.L.T 4 S P.d w.H.u.@.@.+.t.J.m.T ,.G.w.d.#XdXM.M.0X9X;.;.=.S.W.6XtXQ.$XrX).v.R.6Xv.;.o.n >.).8X8Xk.B m 0.5.,.y. .,.,.A  .O. .O.<. .{ $.S 1 4 e 3 1 f l M S l 8 8 v } z c G k 8 x w l M V R ! =.6X0.Q T 4 K.HXG.{ a F.nXNXe.Q.q.H p F nXnX7XyXnX6XtXW.7X`.J.6XtX7XH.*.G n v.v.<.t.O.t.y.t.t.O.O.<.O.@.O.{ O.a X.} n p 8 a  .v p A n v p 8 x c x p 6 @ @ w % o X & * $ % 1 1 6 x A *.*.r.<.<.e.e.w.w.e.<.e.r.r.e.<.<.<.:.e.,.e.e.r.9.9.2.9.S.0.q.f.w.K.E.E.L.f.e.&.9.9.w.v.e.y.G.S.G.F.G.F.G.G.y.G.G.G.G.v.G.G.G.G.F.G.G.G.G.G.v.G.G.y.v.v.v.v.v.G.G.G.v.v.y.t.t.y.u.t.<.t.t.t.t.y.y.y.e.<.y.y.y.<.<.v.y.<.<.<.>.6 p p 7 | r.>.v.<.:.e.e.r.e.o.e.o.8 A *.H G.e.*.;.9.9.T D Z k Z A v  .v { o.8 b ,.} v *.t.X.X.,.X.} A v b { b b v 8 n  .b 8 8 x 7 v v v v a a v { a 8 9 a O...a { [ ..{ @.@.@.u.n./.(.(.).J.(._./.@...@.@.+.@.@...@.@.@.u.u.b.J.Q.Q.w.e.0.Y U XX,XU U Z.,X/ P ^ L I o I h.L r %X- L ^ / ( ) f $X@X3.! !.w.S.wXmX9Xd.=X,XvXcX,XmXnXGXDXU.q.=.M | <.y.<.o.<.>.b b } c G k @ 4 V w l c 8 8 p 7 < 7 < 5 l D -.0.f.d.-.d.P.,XpXaX#XiX5Xk.:.0.P.;XV.:X4.Y 0.p.X & E _ a.h.r ! =XC.A.d.M.7.p.d.M.M.d.N.M.M.d.D d.N.d.",
"7.! -.-.( OX<XA.vX,X>XxXFX2XOX2XCXxX>X~.c.9.DXCXAXAXvXiXzXaXsXvX9XN.T.cXAXzXfXaXpXjXW.F.H.G.$XMXvX9X*X=X=XdXzXzXvXpXqXR.e.~.rX9X9XrXmX7XQ.`.!.G.F.H.J.e.9.D.m.2.! ! ! 1.1.! 8.d.E.K.L.e.:.2.6.q.g.d.7.8.C 3 V N.0.2.Q G k 6 D &.o.x x x c F $.B A *.;.| F 2.2.Z F A v <.A 8 b v 8 6 d h q.N.U.Y.7.m.K.M.M.K.U 5 $ % ~ M.f.R M.$.R M 7.Y <.u.u.u.@.[ @.e.S.5.k.5X6X$XL.$Xf.6.;XfX0.!.W.c.q.9.G A Z w.H.<.y.9.n n G o.| v.J.:.G.W.2.V *.,.<.,. .,.$.| | B | :.| Z =.q @ 3 q m < f l q w < M k c } 9.:.A p 8 Z M d l 0 e e M =.0.f.&.2 w.NX6Xb.`.F.Q.rXT x n p v 8 (.b.).rXrXtXtXR.6XNXyX8XtXrXlX`.<.o.G.v.y.y.<.O.<.<.<.+.O.O.{ t.o.O.>.8 } o.p 8 p 6 6 6 7 7 8 Z v x Z l 1 6 < $ 7 w 1 # X # + + * 2 4 l M G *.>.<.e.e.w.w.w.e.e.e.w.r.:.e.<.9.<.:.9.:.;.r.9.e.e.;.9.0.-.6.7.w.oX@XD.6.0.2.=.;.2.9.0.2.9.w.e.w.w.S.F.F.G.w.w.y.G.G.v.v.S.G.G.G.F.G.G.G.G.S.S.G.v.v.v.G.G.G.G.G.G.G.v.v.v.v.v.v.y.v.y.t.y.t.y.t.y.<.t.v.v.v.e.y.v.e.<.<.<.o.p x < k X.r.<.v.9.e.y.r.;.r.:.o.k 6 :.G :.S.*.<.9.e.-.M z z Z n } b o.{  .X.v v X.} b } }  . .O.>. . .b b  .}  .A v 8 b } n k n a 8 8 a 8 9 8 8 a a { a v { ..a v ....{ +.@.@.u.b.H.(.(.J.b._.t.u.b.....@.@.@.@.+...@.@.@.u./.H.Q.W.c.w.6.7.R V.XX^ h a.-X^ ^ P P ^ o I h.) ; -XP r / h.L g R *X$X&X8.6Xw.Q.W.wXwX$XM.g.AXAXpXNXDXFXMXdXwX*XK.9.o.O.O.+.o.} c n x 6 K G G ;.T T T G p k x x x m M =.f.m.M.M.M.T.9X:XM.f.0.;.6XfXQ.7.f.4.g.vX#XM.$X4.f.oX; O > r P E ; d K.K.7.;.K.d.a.7.g.M.s.d.d.M.M.m 7.p.d.",
"d.Q e.r.J 6.>X,XxXaX;X2XvX+X%X2XZXAXvX6Xv.m.CXVXSXSXFXVXAXVXVXvX9Xv.J N.cXcXzXbXsXvX6Xv.X.S.9.9X9XqXfXdX0X>XsXzXmXdX$XQ.v.R.=X~.=XrXrX`.J.6X).6X).J.v.S.D.L.m.Z Y 1.1.1.! ~ ! 7.L.U.K.S.;.D Y ! 1.3.d.m.! w w q.2.S C K 6 f z l z k z x &.2.;.| | =.F z F 1.Y F $.G b v. .A o.x Z &.1./ 6.7.oXY.8.d.Y.K.d.R $ $ h / +XP.V M E.L.P.9X0XfX6Xy.u.@.t.t.y.:.J.G.G.G.e.<.G.D.=.D p.9X0.Z 6.:.&.2.A v x G <.X.| A } } n } c H <.S.K.m.4.e w | y.(.t.<.{ 8 w w q h r 0 m h f 3 2 q 4 M l q w 5 D x v } r.r.n 8 8 Z S D M m m 3 l 2.I.D.7 X x yX6XI.kXq.6 S l 7 x x p k 8 @ 6 J e.Q.yX).I.rXlX8XrXrXNXnXH.<.v.v.v.y.t.t.<.e.>.} <.O.>.O.v }  .b X.| 8 c A z y B c x z z c x w 2 1 4 % % f 6 < 1 & + # @ % % 2 d M G &.e.9.e.9.w.e.e.9.9.e.e.;.:.9.r.9.r.:.:.:.=.=.;.0.9.&.6.0.7.7.4.d.#XoXd.=.0.2.9.2.1.=.2.6.0.f.f.w.w.S.G.D.w.0.q.w.G.v.G.G.G.G.G.G.F.G.S.G.G.G.S.G.G.v.v.G.H.G.G.G.G.G.G.v.v.v.v.v.y.v.y.y.y.v.y.y.y.<.v.v.v.e.v.v.v.e.<.<.<.G p p 6 *.y.r.<.e.e.G.9.;.;.:.:.F 6 x &.z 9.w.:.e.e.q.S k z A G A } } >. .X.X. .a }  .} v } a a { } O.*. .v v }  .>.>.p v A v A v b b a v v 8 < 7 b v a a v { { a v { ....+.@.u.n.b.(.(.).H.u.b.n...n.@.+.@.@.@.+.+...@.n.@.u./.H.I.W.q.6.q.V.^ a.C.^ 0 U %XE ) L I E : L _ _ g |.h.r ( E ; r R @X6Xg.M.6X!.7XQ.=X9X+Xd.j.AXGXsXkXNXmXrXzXmXmXMX0XM.9.&.G z z M =.g.;X;XOXY.0.D F =.D F J J T &.5.6.d.M.M.M.M.Z.T.>XaXvXfX0.< D.uXl.E j P / K.fXpXg.=.K.9Xi.g : : & & ; R o.>.Z T d.M.s.8.V.C.V.V.g.K.p.R N.N.N.",
"6.J :.=.-.Q 1.T.1XxXVXZXCX+XXX1XSXAXAXhX:X;XvX-XP.=XVXVXvXsX,XcXzXtXQ.K.,XpXaXxXaXzXzXtXo.n o.E.!.c.Q.9XpX0X,XwX*X*Xf.G.v.Q.qXwXrXrXtX).y.w.A v.!.Q.U.m.8.1.6.F =.7.8.=.S Y ! ! Y C C 6.9.Q ~ 1.8.p.7.D k q w D Y 6 5 5 M D M f f k B G 6.2.&.S F Q T A Q 1.8.m.7.S H G.,.>.>.8 Q U.W.N.9.V d.M.M.f.D.d./ d @ m M.3.C.oXK.M.zXfXoXzX0X0XtXH.'./.b.(.H.G.).e.;.9.e.<.| Z | F Z $Xw.z l z =.F.r.A c G o.*.&.Z  .b 7 7 7 7 x 9.0.d.7.=.6 < n k.).'.b.l 3 = = 0 h 0 0 * 1 e h q m S m 1 4 5 f l c } v | G A c x l m C S =.=.-.T k 5.9.@ c y.v.=.G.S w 6 % % $ % 4 5 % @ 1 Q 6 , y.H.Z ;.Q.6XrXnXNXlX`.v.v.v.y.e.t.t.<.v.<.<.t.<.X.k x G p c p c 8 7 l z c c c x k 6 @ @ $ @ + + $ 3 z 8 7 3 & . & * 3 h 1 4 l Z &.;.0.w.q.S.w.e.e.9.9.<.:.;.<.*.;.:.:.;.9.;.&.&.6.7.J 7.7.1.a.3.p.%X>XP.m.f.4.=.S S D 0.6.=.0.w.;.;.G.f.0.6.9.w.y.v.y.G.G.G.G.F.G.G.F.S.S.F.G.G.G.G.G.G.G.G.G.F.G.G.F.G.v.v.G.G.v.v.y.y.v.y.v.v.v.v.<.v.v.v.v.G.y.v.v.y.y.v.X.p 7 o.,.*.r.y.<.>.9.o.:.;.Z n z c :.:.Z r.<.*.o.c.r.6 5 M F G } }  .,.{ >.<. .a { v  .v {  .v  .v  .X.,.X.{ v b  .>.O.p }  .x v b b v v v v v p 8 a { b v { { a a { ..@.@.@./.n.(.).J.).J.n.@.u.u.@.+.@.@.@.+.+.......@.u.u.b.H.Q.$X9.6.d.V.V.a. XU ; B. XE %XI I I : I B.^ ; E h.& / / 0 L h 7.9Xp.f.Q G.7X).U.Z.+XhXd.S.DXvXnXNXlX).dXzXeXzXcX0X;XZ.A.+XaXhXAXGXvX#X~ C m ;.9.f.2.w.m.0.0.G.R.F.K.oX*XwXwXwX;X0XiXsX+X~ j ^ h.g.E : I / T L.P.g.R R g.|.` I . O O & V 7  .<.&.G 0.d.Z.P.V.Z.C.Z.P.R ~ V.Z.Z.",
"Q F =.2.Q G Z J 8.;X1XZXVXd.8.>XSXvXFXDXoXP.$Xc.D 6.bXZXzXzXeXeXpXpXeXY.@XqX:XhXvXzXdX9XL.o.D =XtXG.q.U.eXsXwX6X6XdX0X6XG.R.wX*XtX7XtX`.r.M @ D ;.r.w.q.! ! 0.2.1.p.d.1.! 1.7.C 3 e V 2.0.d.p.g.7.p.Y m f l M M l w l S T ! =.! T F F $.=.M l w z T Q Z 6 d 8.d.! D S v.<.o. .x ! D.m.0.D.F 6.0.m.0.S.m.~ l 6 R Y N 3.oXqX=XwXoXY.M.*X6XQ.).b./.t.(.J.F.J. .Z G.G.R.z x | ;.;.S.9.F F y l G.;.Z z x 8 c G G O.a 7 6 v c p n A G 5.*.w 6 6 x >.t.T * - = * * 3 3 g * 1 2 * * 2 h m f 0 q 3 4 l c 8 | o.| c k y k D 4.g.7.! z w x ).yXnXr.G &.4 + 1 % 1 m @ X * 4 4 d =.DXdX1 < k M 9.R.Q.E.tX7X).6Xv.w.v.e.<.<.<.t.t.O.O.O.<.x 7 G F 6 G 5 k m 1 % @ @ w d q 3 1 o % + + X + @ y v 8 7 w * o 2 1 e e 1 % 5 Z &.5.9.0.0.k.q.9.r.:.r.r.*.:.:.J ;.=.-.;.9.6.T T 1.1.! 4.R C 3.p.M.1XVXsXT.1.! 2.2.T V q.1.T q.0.&.=.S.w.w.2.;.q.w.v.y.w.S.G.G.S.G.G.F.S.S.G.G.G.G.G.G.G.G.S.S.G.G.G.F.G.G.G.H.H.G.G.v.G.v.v.G.v.v.t.y.v.v.v.y.G.e.v.y.e.9.e.} p 9 n r.:.r.y.*.X.G *.r.e.z x 8 G <.| | ;.*.:.:.S.H 4 7 F z G ,.o.v <.X. .b.X.{ {  .{ { v t.{  . .} { } X.X.b b } b X. .b b G v  . . .n v v b b v 8 8 v  ...O.O.a { ..+.u.u././.).7XJ.(.b.n.@.+.@.@...[ @.u.@.+...+...@.u.u.@.b.5X6X0.2.d.C.XXU C.h = B.|.) 1X; ' I I P ) L - _ h.& P ^ g L U Y.rXf.=.&.G.rX6XR.M.;XgXP.9 8XAXfXnXrX=XwXzXeXwXpXsXaXuXuXAXSXAXwXq.8 7 7 v G D.D.K.Z.M.m.D.7.S.L.D.M.:XvXvXcXvX9X@X1.C p.3.U ) E U I : ; h R $XU / #Xg.j.h.P ' r O O g -.6 z x 6 z 9.M.g.Z.V.C.C.V.g.U 8.a.g.g.",
"F =.7.c.r.D ! 1.7.sX3XSXcX8./ 2XCX,XgXHXvXpXU.:.Z Q 2XVXaXfXcXzXzXdXqXR.R.`.=XcXmXfXfX9XzXtXK.oXwX9XU.Y.@XeXdX5XG.dXvXzXtX9X9X=X7X`.Q.b.r.D f J $.| :.;.M -.8.8.=.7.7.Y ! 7.7.Y R a.Z.E.U.M.3.R d e w l Z T R D F 0.0.0.-.! 1.c.5.2.Y m l w l f D M w 6 < % h Y w.9.&.S.e.o.y.M M k.6.G ;.<.<.9.m.<.o.% $ 1 p M m M.M.@X$Xd.! Y $Xd.F.Q.H.8X_.b.u.y.| Z k.,.p G 2.D.S 7 7 z $.A o.S S z 6 G G k z -.*.r.G *.X.} v 7 8 v 7 8 n c A z 6 6 w y 8 v x * r ; 0 t h U h h N 0 r - ; * e e 3 3 % + q z a A :.A z y 6 k R 1.g./ =.=.9.S ,.HXGXf.G 5Xn $ @ q d ! @ @ m d q 2 5 d.nXd.M 7 3 =.).8X8XNXrXrXyXJ.v.v.e.e.t.>.t.u.X. .O.b 7 2 S 5 % 3 w @ @ + % @ + % # * # # + + $ * * + < v B 5 1 x 4 & * & 0 * 2 % < m Z ;.0.w.w.D.w.e.9.;.r.r.&.:.&.F ;.=.F =.;.2.V Y 1.Y ! ! ! R / p.W.gXcX>XM.7.d.M.0.Q T 7.=.-.q.;.T =.w.9.w.6.2.w.w.S.G.9.e.S.y.w.S.G.H.G.G.G.S.S.G.G.G.G.G.G.G.G.y.S.S.G.G.v.G.G.v.G.G.G.v.G.G.v.v.y.G.G.v.v.G.v.v.v.y.y.9.>.o.p v b ,.<.9.r.*.G G :.w.$.z c n <.r.c &.&.o.&.J c.K 3 6 G o.o.<.} b O.O.{  .O.{ { O.{ X.9 O.O.{ X. .8 v  .>.X.v b v 8 b O.} } v 8 v } | v v v a v b 7 7 v { { +.O.{ { ..@.u././.).7X).H.y.O.@.@.+.+.+.....+.@.u.+.+.+...u.u.@.b.I.Q.f.=.1.T.A.E h./ ; %XXX X|.& I P ' ^ P ^ P gXE : P 0 ^ I ^ *XtX$X0.D.G.7XrXR.=XZ.+X%XR.qXDXMXMXwXwXfXmXvXdX>X1XaX#X@XtXR.y.;.D n G A 5.0.q.f.m.m.M.D.M.p.w.5.9.U.oX#X#X+XfX#XN 1 ! uX&XE I 4X) L I r - # ~ a.3.g.e i.s.g : ^ ` I / 9.;.M 7 9 6 0.M.Z.V.V.a.8.i.p.p.C.a.i.7.",
"-.0.w.D.;.o.6.V.C.iX;XbXzX@X:XiXVX,XXX0XaXAXnXD.H H aXCXcX<XaXfXzX*Xl.,.y.F.W.qXwXwXrXpXfXpX:XqX0XeXdX@X0.D.rXrXJ.W.wXuX6X6XrX6X6XJ.).H.r.-.R 7.w.:.Z Z =.D.d.g.1.7.d.1.1.M.K.Y.@X=X@XT.p.p.i.U 1 4 U Y Y ! ! ! 1.d.p.7.6.6.q.d.;.6.! T F 5.0.8.7.V d m % = 4 M v.-.M :.;.&.Z @ < Q r.n T r.v.e.o.v 8 $ + m 1.p.N.V.Y 1.T.%X,X6Xb.....O.O.y.O.O.o.H.*.z =.;.c n H &.o.p 7 7 x G z x m z A F $.$.v.G.*.b v p v ,.X.8 b G y 8 y 8 p p z w 5 l z | &.4 g r h W U e h 0 f t 0 * 0 * * 2 0 * 0 * e w 6 p x c c l w w m S =.M l k l y 7 H.kXwX5XyXy.0 o % 3 m $ < m 3 * 6 1 V dXF.2.1.+ @ 9 @.n.rXNXfX6X!.!.v.e.v.y.<.<.o.{ o.<.7 @ * * % * e + X + + + * & X X o @ & @ + + @ @ % 5 A k 2 7 c x 3 * & % 3 d q q d S T 0.f.k.k.0.5.;.;.&.-.Q =.Q S Q ! Q Y =.-.Y =.~ N V ~ Y 3.~ g.oXsX1XiX#XZ.7.T 2.=.! 2.S 2.d.=.Q Q ;.;.9.:.:.9.;.;.0.9.0.G.w.G.D.w.F.f.S.D.m.G.G.H.v.c.f.S.S.D.S.G.G.G.v.G.G.G.G.G.v.G.G.G.G.v.v.v.v.v.v.G.G.G.G.v.v.v.e.<.X.n b X.<.>.:.w.o.:.r.:.<.z z F A :.G =.r.&.&.;.;.-.5 3 k x }  .X.X.{ O.n O.a +.b ..X.} { 8 9  .{ { { b p v >.>.X.b  .{ p b X. .b } p x 6 6 7 7 7 8 8 x 8 9 p v 8 [ ..O.+.{ +.u./.'.7X'.n.b.O...@.+.@.+.+.......@.+.+.u...@.u.@.v.I.L.L.~ ! #XV.i.^ h.L -XA.-XE g L ^ I P ; ^ P 2XU # ) ^ ( h ~ R tXU.R W.w.Q.zX6X5XXXsXxXzXdXMXDXfXwXmX9X=XsXaXaXiX0XjXH.<.G 9.v.<.<.:.q.D.D.D.M.d.f.S.m.d.M.P.f.f.@Xl.1.N.M.#XW @ < m d.3.E > ' l.|.I & ; h h / / / r * - W g ; L L 7.r.Q F k 8 k D.Z.N.A.A.V.XXZ.Z.;X+XA.p.d.",
"Q 6.0.f.Q J 6.g.A.Z.P.pX=Xd.*XXXxX0X+X;X;XAXHXwXM.~ C.xXmX>X0X$X=XE.D.>.o.9.@X@X#X9XzXfXsXpXwX6XtX9X>XwXm.q.E.eX*X*XwXwXwXrXqX9XtXH.H.G.9.D d 0.0.F z C D.U.M.f.p.M.8.q.N.D.K.d.d.N.;Xa.h R / / U R 3.1.2.6.d.g.N.d.0.d.d.d.d.7.-.6.6.6.e.G.m.f.m.6.Y V e V 0 q ;.Z 4 1 6 3 < @ 4 h m.G d z :.<.b 7 < 0 U  XhXVXvXD.M 6.sXVXwXt.[ s [ +.O.H.X.t.;.e.<.p v &.=.Z k n :.| c c c *.X.B B c *.M x v 9.Q.e.| v v { O.O.{  .} c x 8 y x c H l 6 6 A t.9.* 0 r N C e e N w w m 0 * 3 t e 0 & h N h q q 6 x k A G Z Z l d d l w k 6 5 6 p y.nXNXMXmXtX0.d 4 C d 2 5 w % % 6 6 w W.6X0.7.@ $ @ 7 s +.nXnX6XF.!.G.e.v.y.<.<.} } X.G X X & + X # + + & * + $ + * + X + 1 + * * % 1 % @ 6 v 8 < 6 x x 5 3 2 % * d d m M R T 6.m.f.f.0.6.;.;.&.-.! ! R V ~ ! C ! 1.R V / Y C h ~ 3.3./ M.oX,X0X0Xg.8.f.g.d.! 1.D M 1.7.Y Q T -.0.2.T =.;.| F ;.w.9.e.| r.9.k.S.w.w.y.S.F.S.G.S.w.;.w.9.G.m.m.v.w.w.v.y.G.F.v.G.G.G.G.v.v.v.v.v.G.v.G.G.v.G.v.G.y.<.<.>.{ { >.<.>.>.w.:.9.:.| >.k x Z c *.o.9.:.;.J 9.D D 5 1 k A X.<.X.O.>.+.b +.v { { +.O.>.X.{ 8 { X. .v >.a v v { >. . .} n v p v x v 7 8 7 7 6 p p x x v n 8 9 9 a 9 9 9 { ....@.@.u._.'.b.b.@...+.@.+.+.....+...@.@.+.@.+.....u.b.E.F.W.Y / XXa.V.W _ P  X X1XE I h._ : P ; E P sX) & U N.( h a.& zXM.-.M.S.I.rX=XM.d.F.W.NXmXAXDX@X@XfX*X6X9X$X*X6XQ.H.y.,.,.y.J.r.k C f.K.K.K.L.D.U.f.M.M.P.XXq.=.1.7.2.Y 1.>X/ 1 6 0.@XoXh.; I i.%X3XB.1XZ./ / h h / B.; & P r * / 0.r.D T l 6 V oXXX-X Xa.XXXXs.h.XX XXXM.d.",
"Y 7.6.2.F &.q.M.|.XXd.:XV.R 8.1.9XdX:XaXxXVXSXCXMX=XK.>XDXcXpXtX6XqXrXJ.e.&.$XzX=XW.dXwXeXdXW.J e.D.V.sXeXW.W.*XpXwXwXeX9XwXeXzXdX6XJ.S.m.6.V 2.-.=.-.d.@XP.d.d.d.f.1.7.M.m.7.! 8.a.V.E h _ V.B./ i.p.d.D.K.T.K.T.P.K.K.M.P.p.=.6.0.w.m.m.F.S.!.D.q.! Y Y ~ Y Y e.C l l < 1 3 N Y C S @ $ % K G c 7 1 N.bXCXSXZXvX$X6.*X=XG.O.[ [ [ +.t.y.).*.O.r.>.O.s b | $.D | x x A } v *.<.*.| | }  .c F  . .J.v.X.b { { { { v v v y x 6 y z c z F T G *. .5.m d 0 q d d e M B B M l d q d d * X t % q m z c A x c G G A k 6 5 6 6 6 k 5 k x y.lXHX=XmXNXtX4.f W.E.0.r.w 1 5 y 6 2 D D.! K.l h * < [ [ t.NXrX6X$XR.y.v.e.<.o.G A F % o # # # + + + + X X # + + + + * 1 2 * 1 1 < 1 @ < k b 8 @ w 8 k 6 M 4 @ % q q q w V ! 6.D.f.q.6.2.Q Q J Q Q V V V Y ~ h U R R U R N h h U / ~ g.P.oX;X:XP.! ! 7.1.8.4.2.D R ! R M Q S Y f.2.-.9.9.:.;.9.c.w.r.Z r.9.w.y.S.w.w.S.G.S.S.m.c.9.f.2.w.G.q.q.w.9.e.w.S.G.v.S.G.G.G.v.v.v.v.y.S.G.H.G.v.G.v.G.y.y.e.>.X.X.>.<.>.e.,.<.y.| r.X.y k x A *.e.&.J &.z &.5 S 4 6 c X. .O.{ { O.O.{ ..a { { { O.O.X.t.v v >.O.{ { >.O.} v { { O.{ X.,.A p v c v 8 6 p x 8 8 8 6 7 8 9 a v a { { a s [ ..#.#.@././.n.@.u.....+.+.@.+...@.[ @.u.....+.+.9 t.H.I.S.W.~ p.Z.a.i._ ^ ^ %X|.%XI E .X) O I g P ( B.g # E C.8.~ V.+ sXZ.1.q.0.I.tXzXK.| 7 8 yXGXDXMX9X*XeX6XtXtXF.e.t.b.t.,.7X).e.v.;.-.q.&X9X@Xd.M.f.M.Y.#XT.>X;XD.6.1.-.Y m ~ fXM.l z 6 % 0 / U r E E .X Xh.0 2 h h * h ^ U 0 h U 3.K.e.o.F M h ~ C.%X+X-X XA.+XB.B.+X+XXXXXT.M.",
"-.0.7.2.D &.6./ s.+XXX;XsXM.M.A.sXaXiX>X,XeXgXCXAXwXW.m.fXAXMX9XtXrXzX6Xv.F f.mXrX*X*X$XzXzX*Xf.F.v.d.0XwX9X6X6XwXzXzXrXwXfXwXeX9XdXtXR.D.D.q.D.R 1.7.Y.+XXXXX&XV.p.Z.L.Y.K.Z.M.Y.N.R U ) / / a.i.s.Z.K.U.L.K.7.Z.8.d.P.oXXXg.d.K.q.=.q.D.D.D.D.D.D.d.=.-.! J D c 6 z T V D Q q.Q S c y d d 4 7 k Z &.8.f.7.K.sXAXsXg.R.<...[ 9 7 9 a  .y.5.} s 9 a +.p *.5.<.*.o.A v n } v X.*.{ v  .} c k 5 S o.w.:.f 6 f z k v v x k c c k Z l Z z x 6 k | c &.-.=.B z M M w y l y y l q 1 m e 0 & e @ q S z n A c x c z k k 6 6 k 6 6 x 6 w y n v q.d wXHXtXK.J J rXtXS.Q % @ w 5 2 5 l q R *.V 3 < 7 s 8 R.rXrX5XI.w.v.e.:.G z w l % # o + o + + + + + X X o # # + % @ 1 % < 6 k k 7 p n v 7 < 2 5 6 k f 4 2 * 3 d m m M 1.-.f.m.6.=.-.Y R Y R R N C R U U h h N U R U g t U L U C p.P.P.OXg.1.1.7.Y.1.m V ! ! 8.! ! S Y Z =.d.! -.m.D.c.G.0.9.;.F F q.9.-.f.F.w.v.w.F.G.D.e.9.;.0.;.6.D.S.0.f.0.9.9.w.w.w.w.G.S.G.S.G.w.v.9.S.F.F.G.S.v.S.v.v.v.v.<.X.X.>.v.<.e.<.<.r.*.*.G 6 k A :.<.r.;.r.&.M l 5 z 5 Z G  . .<.X.X.O.{ { O.a a ..a { +.{ O.O. .{ { { v O.b }  . .b b  .c c | c 8 p n k 8 p p 8 8 9 8 8 8 8 a v a a a { ..O.[ #.@.u.[./.n.+.+.@...[ ..+.....@.....@.@...O.@.[ O.H.H.v.R.d.d.+X( ^ ^ U _ %XC.|.; _ B.P : O I P ^ ^ U # s./ / 8.A.+ a.K.1.K.V P.qXnXY.k.{ { `.GXvXwXzX9X9Xv.q.D.Q.J.n.n.t.X.).7XF.y.&.f.Y.P.K.D.0.f.1.7.OXP.p.+XOXM.-.1.D m d.;XpXp.S V l 4 2 N ~ d L i.^ 0 g r t & t h 0 L g 0 r - g.9.o.A R a.-X1X1X%X-X+X+XOXC.s. X+XC.C.C.+XP.",
"0.m.0.-.&.6.6.! 7.Z.i.C.AXcX;XT.,XvXpXP.f.e.1.:XzXwXE.9.V.cXMXcXtX6X9X6XS.-.M.eXrX9X*XoXpXpXqXE.W.J =.9XaXpX*XQ.S.R.W.Y.=XfX9XE.U.$X9X@X@X$Xm.-.5 ~ M.Y.Y.D.V.C.N.p.T.OX#X+X;X=X8.U U h L E W ^ a.Z.+XY.7.7.! h h 1 6 Z =.M.L.w.7.-.:.v.G.9.q.0.k.D.0.2.=.-.D H T Q 0.q.d.q.2.Q C T M M T T z Z J ~ g.R Q ! 1.Z M 9.y.u.O.{ a ....[ [ X.Z w v 9 [ +.H.>.o.| n c A A A A v b } >.}  .} v 6 q @ 3 w m h 2 f d 6 w c Z G x G G Z Z f Z Z y 6 k T =.F Q 2.;.&.| M q q m l M f q 0 h 3 0 t h C C A A n n p 8 8 k k 5 y M k 5 5 l y w y x 7 z 2 2.zXDXNXnXe.J.tXrXW.0 3 2 $ q V K.Y.-.q.=.q < 1 7 k e.6XrXQ.G.v.v.<.>.n 5 5 1 + + + + + * * 2 * * $ + $ X + @ % 5 B 4 7 6 B 8 6 p v v 6 1 % @ 2 k 5 l ~ N 4 f V ! R 7.2.0.M.4.Y ~ V V U U N e N V U h h h g t E h h e U L 0 U 1.M.P.a.M.oXK.7.1.V ! ! =.Y 7.=.Y Y ! T 1.2.S T 9.q.f.D.w.5.r.*.| :.r.w.G.y.w.v.r.9.$.9.e.q.q.S.q.f.G.S.d.f.f.f.9.e.q.9.f.k.w.S.G.w.q.G.9.G.G.G.G.S.G.H.v.v.v.v.w.>.<.e.v.<.e.<.y.<.o.o.n 7 x :.G | o.=.J z 6 < 5 5 7 | X.X.<.O.X.X.O.{ [ O.{ a O.{ { +... .X.t.X.v v p v 8 8 n p b n b | A p p 8 < 7 8 v 8 8 p b }  .{ { v a a { v a [ { +...#.@.x.[./._.n.....@...[ ......@.[ +.@.@.@.[ @...{ y.H.G.9.V.R M.! _ U ^ A.|._ h.o -XA.; ; O I E ( a.h # |.P 8.Y.+X# V.dX-.U.C q.6XR.;.S.v.O.).GXsX*XwX6X6XQ.$XtXtXH.v.+.{ {  .>.| =.D @X@XK.M.w.9.c.M.K.$X$XZ.d.T.Y.K.M.M.P.0XvX0X9X$X! M 2 l 4.1.4.r W N & 0 L r h L 0 * * r * # d M.-.Z T >XgX2X%X+X%X-X+X+XOXN.B.#XT.d.8.C.T.T.",
"q.0.6.Q J 6.0.r.m.T.8.V.VXCX;XK.e.9X6Xf.q.:.z 7.9XdX9XF.;XcXzXMXzXrXrX$XS.0.1.XXK.Q m.Y.$XdXtXD.Q.=.8.sXvXfX9X9XR.Q.W.L.U.tXeXY.K.U.*X=X=XY.f.M % D D.S.e.:.J 0.f.K.Y.M.T.K.Z.M./ / 8.3.g.8.U E T.#X+Xd.f 5 4 * 3 6 x p k A >.n k x Z o.X.:.e.6.9.9.T =.Y D Y T 2.q.D.D.7.d.q.! / / U U ! 0.=.;.;.J M.Q 1.6.q.l k  ...+.{ v 9 v b v { *.2.6.| v ..O.y.y.*.o.:.;.*.G | G v c }  .v c x 8 < 3 g h L r h L V V M w x G | c G &.G Z 8 z M l l l &.2.;.;.6.2.G G $.B h d q m 3 3 e h * 0 t e C Y G b } p v c z x k w 5 6 M d l l l l y 8 6 6 1 B F 0XHXNX:.x y.6X6XY 0 @ $ m.L.rXtX$Xd.! m C D < 5 T D.tXW.G.S.e.:.o.K 4 4 2 + & + < 2 2 1 < < 3 5 m 6 < < 7 7 c ,.6 7 6 n 8 7 v *.A p @ % @ 6 6 w G Y N 3 0 d 8.7.4.7.4.g.! U U U U h h h 0 h h h * g t ; * E r 0 r U r r W R N.XX%X&XT.d.d.! C C C V ! d.2.R ! T D -.;.T T -.2.q.f.;.r.e.>.x v  .<.,.,.,.<.>.9.&.=.=.6.e.6.;.q.S.f.q.f.f.f.6.2.9.2.q.w.w.f.f.q.w.f.9.G.f.S.G.G.F.G.v.G.G.v.w.<.v.v.v.e.<.<.v.X.n o.c 6 z | Z :.>.G Z 6 5 1 6 7 7 | <.X.>.{ X.<.<...{ +...{ O.O.b X.O.O.v X.y.,.>.p n n v v  .b c b n x p p v p 8 v A } n p p v b } { { {  .{ X.O.+.+.+.@.@.@.@.u././._.u.@.[ @...[ ..@.@.@.....@.@.[ ......,.y.F.2.M.R N.~ a.W /  XB./ h.# -XN.P g O r P U  Xg * B.t d.W.s.& i.Y.0.$Xm.m.6X-.d 2.y.{ b.GXpX=X9XtX$X6X6X).v.O.,. .{ ..{ A ;.T q.vX:XY.K.0.w.M.m.K.9XrX:X7.M.M.p.2.oX#XhXVX:X=X$X=X$XL.$XP.q W e N U e h 0 r U U t 0 * 0 & 3 6.q.6.1.K.gX1X1X X+XOXXX+X+X+X7.! f.q.0.Q 7.q.N.",
"q.d.q.&.-.q.7.6.6.m.3.+XiXcX@Xq.Y 8.Y.6.l k p H 2.K.E.U.xXsXK.OXaXDXMXwX$XR.Y N.$Xd.W.6XU.wXrX6XtXL.Z.aXzXzXzXfXrX6XtX9X6XtXdX$X=X$X#XOXT.d.M.=.l l &.Z p a p p o.r.-.T q.D.6.f.K.Y.K.U.Y.N.M.T.T.0Xp.3 3 % 1 1 q B  .b v v v 7 7 7 6 6 6 b Z z z l S S l m Y &.d.6.m.m.Y m.K.N.a.p.8.^ ! 8.-.9.5.:.r.l m.c.r.M.l.k.c :.G.,.| 8 y ;.H.:.z e.y.b @.t.H.J.<.:.r.*.G Z r.&.c c { a 8 6 8 8 6 0 0 q d f 4 V V M G Z 6 c Z z x Z x c k x 8 6 m m T S 5.;.&.;.| A $.T C V M V h h e h 0 * * d m V G b *.v v c z Z Z k 5 5 M m q l l l 5 < 5 F M F 7 T NXNX6X<.<.6XtXe.% + % ).R.L.v.S.4.N q q d 6 2 f C U.W.G.w.9.&.D 4 % % % @ % 1 k x 6 6 7 6 5 7 v b v p 8 6 8 7 @ 7 6 c v 8 6 8 5 1 + @ < k 6 6 z Y C 0 2 2 U d.0.g.4.3.! U h h h h r h 0 h U 0 & 0 & # & g r & h g 0 0 E p.T.%X#X3.R W 1.V C R 4.=.! 7.1.T S S 2.-.Q T S -.0.w.0.q.c.r.A x | ;.w.9.9.9.r.e.y.S.e.2.2.9.9.6.2.q.w.6.f.0.6.=.2.;.=.2.f.f.9.q.6.0.;.6.f.f.S.S.G.F.S.F.G.S.S.v.w.w.v.c.e.9.e.<.o.G o.n x x o.x *.:.z z < 5 7 x p x ,.<.t.>.{ O.t.O.O... .O.+...t.O. .O.<.>.{ O.>.<. .n n } A x } } c c A A 8 6 6 x 8 8 8 v v 8 v v b v b { b a a a { ......#.@.@./././.]././.@.@.@...[ ..@.@.@.u.@.@.+.[ @.O.v r.S.d.3.8.8.V 8./ ( C.U r E g <XXXa.; & ; ; P C.g ; +Xh R *XR * a.~ R q.m.Q.rXr.6 &.v.X. .nXtX!.Q.7X6XH.O.{ s s a +.O. .X.:.=.-.U.Y.d.d.d.d.K.M.! 2.L.9X#XT.Y.P.P.D.#XP.sXCXfXdXwX=X5.2.2.4.e q e Y m 1 e h h * * + 2 2 t * N 6.m.7.T.;X1X-X X|.%X+XC.Z.C.A.1.Z Z Z q.6.0.f.f.",
"m.d.m.Q ! M.d.6.J &.3.-X X;.;.W.+XK.+X$XL.D.&.z =.M.N.q.CXmXY.@XvXCXMXwX6XtX=X9XkXQ.!.F.r.9.9.G.M.1.N.*X=X6XqXfXE.L.$XqX9X6XtX=XY.Y.P.XXZ.M.d.! T k G H x |  . .o.} p A | o.G 5.D.w.D.6X=XU.W.=X$X#XN 4 d 1 0 3 e l B v v c c c A y q M y } A n Z z D F l D -.;.0.q.v.J D 6.2.q.U.D.! U ~ N d F &.*.:.Q r.o.G 8.N.9.H Q 0.:.G k z :.<.S.| ,.u.O.u.>.G.H.y.k.9.e.e.9.w.<.| | X.{ b } } } F q 1 4 N C l Q T l k o.v v | B y y k x Z x p 8 x y k Z M G $.5.:.G M V Y $.T N d N N N h t j h w 5 B o.{ v n c c G G 7 5 d l d 6 y z 6 q w w :.e.;.n y 7XHXNX7X7XrX7X8Xq.! l y.8X6X7XR.f.l @ % q m f 6 5 S.6XG.0.6.Q d 2 % 2 = @ < f x p 8 8 8 8 7 8 7 8 {  .v p v 8 p c 8  .| } c z 4 @ # 1 4 w 6 w M Y m N h t e 3.M.g.R R ~ U h g g h r 0 0 0 h - & & - o & & - 0 g ; h h i.V.,XiXZ.j.g.:XoXR U 3.3.7.Y Y ! 2.! D =.;.Q ;.&.w.G.S.q.;.;.=.=.D.9XvXvXcXcXdXM.9.;.y.y.w.2.=.9.;.6.0.f.0.f.0.0.=.9.w.;.2.D.0.=.0.-.6.Q 6.0.m.w.9.w.D.G.D.G.G.S.S.G.c.v.w.v.c.e.<.o.:.n p k G | z | c Z Z 7 4 4 k c n <.t.t.O. .O.t.>.O.O.O.O.X.X.>.t. .X.O.<.X.X.>.>.O.n  .} } A 8 n b } c c | c 8 6 6 8 p x b } X.} }  .} b b { { a a [ ..@.@.#.@./././.]././.#.[ @.+.#.#.@.+.@.@.u.@.@.[ @.@.{ r.f.d.m d.1.! V.V.~ C.U j h h Z.<XA.- g g r ^ s.U - B.h N wXM.0 U C.R 7.! W.tXy.y T w.v.>.J.~.J.J.y.y.O.{ n s b v v o.} *.;.G F -.6.d.q.d.N.d.f.p.K.9XpX0XzXvX9X9X=X:X9XaXxX#XF.F.m.x m.k.D u V T M m N N h & * 3 & * t 0 # U d.U.d.XX-X1X%XXX-X>X%XV.g.M.a.8.D B M 0.f.D.D.7.",
"N.N.M.8.8.m.f.! x ~ r.2XfXG.y.dXCXCXvXhXvXdX9XT.K.#X*Xv.1XfXeX,X<XMXvXpX6XR.6X9XJ.v.G } Z H 5 M ~ m.T.@XD.w.R.pXdX9XwXzXwX*X9X5X6.8.a.C.P.P.1.q 6 f V f M T &.>.X.X.o.o.O.X.G | D x F D.m.0.w.q.8.8.q 0 5 f f 0 4 * y z p n c 8 x l e N D } O.n k p x Z F r.F.w.o.<.e.x Z D D r.m.G.6.1.7./ 1.d.<.:.:.9.A G Z o.<.O.o.,.y.,.A $.o.G A J.H.t.O.O.@.t.H.G.q.G.k.I.e.:.r.,. .<.t.t.{ a } X.<.S d R ) ~ %.;.=.A *.:.{ a G A 6 l $.$.F H x y x w 2 w 7 6 x :.:.&.G T Z F G l U U U U h j P h N e l n n c G A B Z S w 3 4 3 q q q m w w M 6 k y.S.*.} v ~.NXtXQ.Q.).yX'.`.R.| v.J.lXnXtXQ.C q q q l 3 5 M -.e.;.:.M 4 1 3 q 1 @ @ q 7 8 p < p p p n 7 9 v O.{ } A b b  . . .x x v y % + + @ w w k Z Z Y V U U N h U K.q.Y h h h r t - = ; - * + r - o # & o & X # - r ; j W P.OXgXuX#X+Xa.V.M.p.Y R =.d.~ Y Y ! C M Y F F q.q.0.;.n v o.R.9XqX=XOXcXAXAXSXJXAXrX).H.e.r.e.9.w.0.d.2.0.6.6.d.q.0.0.0.2.r.9.6.6.6.6.7.-.Q 6.0.6.6.f.S.D.9.S.G.v.S.G.v.F.c.c.S.y.y.,.o.n K c $.T x A A | x 5 4 y z n b O.>.,.X.X.>.t.t. .O.O.O.O.O.X.O.O...O.X.O.>. .X. .o.H o.| n A y x M c 8 6 p p 7 7 7 8 x p v  . .O.X. . .X.X.O.....[ [ [ @.@.@.@.[././././.@.[ #.#.[ [ +.@.+.@./.@.@.#.@.@.O.y.k.7.2 8.! M.d.d.~ OXg 0 h ) U >XB.; j j L P ) U & h._ ~ U.p.^ = C.e 1.m 6X!.G.k l $.o.b z b.(.b.+.a 9 a X.<.&.o.| >.;.9.2.| n n 0.k.S.U.E.;XwX=XY.,X<XiXCXSXzXdXwXY.d.+XwXY.k.5.e.;.m < 3 V N V V e f e h h t * * - & o r &XT.@XP.C.C.+XOXOXOX%XC.i.8.p.p.P.d.=.T 0.m.m.m.M.",
"K.T.N.d.d.M.N.! D 7.7.3XLXSX%X2XbXvXAXvXzXvXvXmX:XK.Y.c.p.@XwX0XY.fXAXdXwXU.U.dXwX9Xw.5.G.v.q.f.oX0XsX9Xw.o.o.e.=XrXtXwXwX<XY.K.L.Y.P.g.d.Y.! + 2 q e M z Z G  .o.:.*.n | e.| M k z x z F F z z x F 0 - 4 5 4 5 0 4 0 q d m r & q h d z *.} c l n p v x | e.<.X.F o.| p 6 k Z ;.m.L.f.2.6.-.w.r.w.Z G ;.G Z n n o.<.>.G J 6.q.f.G.c.z y.H.H.O.a u.(.).y.$.A } b >.G G t.t.u.b._...a O.y.b.S.f.f.Q Z Z | <.>.X...{ { b n c $.w.*.z x x x z z c x < 5 6 x | <.*.$.z F =.Y U U ~ h j h R U U g 3 v { c c x k z G M q 5 2 q 3 5 w d m V m 6 G J.,.} 8 $.NXNXtXtX6X`.>.x G.G 7 7 e.rX8XrXtXD.2.U U m m l C D &.S l 3 4 1 2 % % 4 5 6 p 6 v v p a b 9 p a { 9 9 p 8 a a b 8 7 7 6 5 + X + * 3 2 l m D Y Y U E W 0 t g.p.U r r r 0 * & : : # # . # : O o & * # + # & 0 ; L j.&XOXiXuXV.h U p.3.3.m W ! q.V D ! S w z x F T 2.k.X.p 6 g.fXAXAXvXcXiXVXFXLXCXVXCXFXKXZX+Xc.>.<.,.:.r.2.6.;.9.;.6.2.0.w.9.0.d.d.7.6.6.q.1.-.-.D M Q q.q.q.0.0.w.G.G.c.S.F.c.G.v.e.v.<.} G p G *.z M Z G D f k 6 x A } o.O.O.<.X.O.<.t.O.X.O.t.>.>.t.O.{ X. .{ +.{ X.X.,.n X.>.n *.G Z z k k z k 8 7 p k x p p 8 p 8 b } { { { { b  .{ { +.O.[ [ ..+.@.@.[./._.]./.@.@.@.#.[ ..[ @.@.+.u.@.@.#.@.@.u.y.;.Y h R 6.K.M.d.~ +Xt t E / * +X) r L g E W / U 0 ) s.C q.8.;Xh dXU 6.M 6X6X4.T k 6 x } X.J.t.O.{ { o.O.O. .| 9.M.P.M.8.! Q Q q.Y.$XuXdXwXsXhXaXsXaXwXdX9X@XG.9.:.6 6 V f.f.q.f.M 2 @ $ 5 m Y d 7.R N m e h h 0 0 * + L ;X,X#X$XM.M.C.OXXX-X|. XZ.7.M.p.7.p.7.=.=.d.M.M.d.D.",
"Y.K.1.7.N.N.N.8.N.d.0. XvXAX#XXX,XiXOX9XeX9X:XvXfX@X*XK.1.T.sXcXfXeXcXvXzXdX9X*XzXMX*X$X6XW.D.oX*XsX>X*XS.e.e.q.Y.tXq.w.6X9Xm.D.W.=XK.;.D q.d + & 0 < m S H G v o.X.<.} p c y Z F Z M z F ;.9.9.G l 3 3 3 1 % e e 0 * 2 f d 0 % q h N l *.*.x z G n c v } *.G p G A x x c p x z :.G.q.&.$.*.y.| 9.:.r.A G | x >.<.9.:.:.| =.@XU.d.rX5X7Xe.:.<.>.@.b.H.>.v v y.} *.<.x | b.,.u.b.u. .>.t.u.H.y.e.e.r.F G ,.t.X. .O.,. .$.e.y.,.v p x k x x Z x x y &.$.M B | } $.B ;.9.2.~ Y C * g U U d h r 3 c { c c y l 5 M S d 0 q q q e m d w m m w 7 *.G.S.H.).nXNXNXzX8X8Xe.< 8 A t.o.>.R.).6X7X7X6XD.-.m l F Z Q =.S Z 3 ; 4 % @ 1 5 p 8 7 9  .b a v { a a a s a v b v a a 8 8 7 7 6 * + X + 3 1 1 w l Q =.! R h h t 0 / 4.h ; ; - 0 o o # & & # & X & O o # & # * & & h ^ s. X1XsXxX;Xp.i.oXZ.3./ R j.M.f.Y D Y S l z M Z G G ,.| G.9XcX;XC.;XaXaXhXDXCXSXzXzXzXFXKXKXAX=Xw.w.&.b o.2.6.1.D.m.d.6.7.2.;.2.0.f.6.2.0.q.6.7.7.! S -.0.1.=.0.0.0.S.D.D.F.K.G.G.G.S.w.9.:.G A A o.z k 6 ;.D k x 6 c o.G } o.X.<.X.X.t.<. .X.X.>.>.t.>. .X.o.,.X.{  .,.} *.o.| <.*.c G 8 6 1 6 y p A v x p c n } *.o.} 8 v v  . . .} { v a v { ........#.@.@././.]./.@.#.#.#.[ ..[ +.#.@.@.u.@.@.#.@.b.r.Q ! U C ! d.K.8.C g.C r ^ U * / h U U j / a.g h h ^ d.M f.d.@X! dXZ.g.2.6XBX6 7.8.Y g.qX9.<.O.9 p c n { a p a Z Q 1.2.d.7.=.1.K.Z.P.hXpXdXcXcXVXcXCXsX;XV Q d 5 w 6 5 5 6.q.$.2.F l 3 4 V T N e / 3.3.W N N 0 t t X e ,X;XP.T.Y.M.N.oXXXC.+X-XT.Z.M.D.-.d.d.T 2.m.K.M.0.d.0.",
"m.-.6.U.M.7.C.T.C.N.h._ 8.P.$XOX+X0XwXrXS.M.@X=XzXpX0X>XT.*X<XdXzX>X,XdX=XwXdX$XG.6XrXwX=X*X+XuXpXaX9X9X=X9X:X:X,XdXG.p < z H J.W.m.;.=.J M = o o @ @ * m D n } o.A >.*.G A k Z $.z z M S T =.;.Q Q M d 3 % 0 g N h - * 0 e l z e d d 0 l &.z k k z x A n x Z 8 A } c c A } } n b X.>.e.G.y.S.&.G o.<.o.G :.o.O.,.*.9.R.F Z 2.d.K.qXE.Q.H.F.F.y.u.u.H._.b. .J.e.<.J.&.c O.a O.u.u.u.O.a t.J.H.t.(.).y.v { O.t.O.X.y.e.e.F.w.*.>.{ k v A A :.&.x 6 ;.w.=.%.| | ;.T $.&.=.V N V g P U R U h r 0 Z } G S l =.6 l V e 0 m e m m V m M l m =.k.y.G.y.y.:.6 | nXNXrXyX7Xr.n v H.8X`.G.5X8XyX`.).'.`.T R F &.m h d w 4 e 0 1 6 k v { p p a a 9 a { ..+. .a 7 p { b p a n p < , 5 2 + + * * * @ 1 3 C D 1.7./ R P e h i.R - & & o & . O O # & . & o # # O # & - t g g E i.OX,X2XVXxX%Xp.3.i./ 3.3.g.P.oXXX1.S k z S Q J &.G c :.P.VXAXaX;X#XzXiX;X@X6XD.U.R.=X$X6XdXSXHXDXHXGXvX*XI.2.;.r.w.m.q.6.6.9.5.e.9.q.9.6.7.2.=.R T =.Q &.=.&.&.2.-.q.S.q.m.D.m.G.G.K.D.w.e.<.X.| o.| 6 @ x y.A n k x X.*.n X.X.O.<.O.X.<.O.o.b >.O.n X.<.O.X.}  .,.X.}  .A b o.z c Z k Z c M 6 6 6 7 x G b p v } } } >.,.,.>. .{ v b { v p 9 8 8 8 a { { [ ..@.@.[.[././.@.[ [ #.[ [ #.#.#.@.@.@.#.@.@.t.v.Q 1.! q m p.@XN.h p.U E ( r ^ U h g g P U ;X= 0 L h M.Y ! ~ R D.=XvX7.-.w.nXf l 0.q.D.$Xe.{ { 7 { A ;.e.0.0.d.d.d.0.f.f.f.D.Y.9XZ.j.VXcX>X;XsXcXaXAX;XU 3 k e w f 5 1 @ V d.;.T 9.m.Q D.P.N 0 r ; r i.3./ / t & * > *X>XT.V.A.Z.K.M.M.+XZ.XXXXV.V.4.Z T 1.6.D q.D.m.q.7.d.D.",
"J Z r.m.1.8.M.8.3.P.|.A.d.g.Y.>XsX#X$XfX=XD.Q.r.L.wX>X;X=X=XT.:X>X0XeXdX9XwXmXdXL.I.Q.W.! OX=XdX0XpX9X*X9XwXwXrXpXnXnX<.< 6 6 J ;.Q T Q D q * X & #   o g ! G } F o.:.>.:.| z z =.T F F D F S F C Y m m d e e h R R h 0 0 0 f d e e e 5 6 &.F M l f k Z G c n c x n c c H A G n G n A G J.H.O.} c | X.G 6 n o.} *.r.F.Q.9.Z 0.C M !.F.S.G.e.H.w.b.t.y.H.H. .v.y.,.y.:.| <.O.t.t.{ t._.t.t.H.u.b./.(.H. .} 9 O. . .Q.I.G.F.*.A *.<.y.y.*.b G $.B 7 x ;.$.A c | e.B $.$.F l w N U U U V U h r 0 S H F D l 2.M S Y m m U e q d m m M M M F H.7X7Xy. .c 8 a (.nXdXdXrX7XJ.<.G.R.H.<.).H.H.J.b.`.8XZ S D N + * m l q 4 3 5 8 p O.....X. .n 9 { {  .{ ,. .a 8 8 p 8 8 7 < 1 7 < 1 $ $ = % % * @ 3 S C Y ! R / U e P / h & # O X & X & O # # X O # o o # # & 0 h W / i.h.XX,X3XxXgX1XV.U R p.7.~ 3.P.#XC.d.D l Z Q Q H d 5 f D.sXvXCXVXgX1XaXaXvXpX*X=XeX9XfXQ.E.E.mXSXAXDXGXSXLXGX*Xw.>.*.9.f.q.0.q.-.2.2.f.0.6.-.-.1.T D Q &.-.;.5.0.-.G 0.0.=.d.D.c.D.L.K.D.f.e.<.>.>.b n 3 $ | <.} n v n >.*.b O.O.O.<.o.X.e.o.X.c X.>.v v o.<.X.} b ,.X.O. .k A b Z x Z F Z F G x 6 x 7 7 v } a 8 a b p 8 v >.<.>.O. .b b 9 8 9 8 p a p v [ [ [ ..@.[./././.u.@.[ [ #.#.[ @.[ #.@.@.+.+.@.y.G.T R ! q M 4.M.N.~ 1./ s.a.0 V.U U h r U / eXL * P P p.C ! 3.N 9X9XdX6.2.;.rXE.w A y.} p 8 v v 7 T 0.f.D.Y.P.K.L.D.w.D.K.$X0X9X0X#XXXCXxXh.h.;X,X>XgXpXK.M 8 d 6 k 6 6 @ 4 d.4.M :.7.v.L.3.g I : & g L h E U r # # ) =XA.N.Z.XXT.Z.V.Z.oXoX@XK.C.OXp.d Q 1.! 6.F.D.m.0.d.d.f.",
"n n :.2.6.d.f.! 6.K.Z.T.m.0.6.a.;X%XOXsX*Xm.w.p 7 T 7.1.XXZ.N.+X0XsXdXpXpXeXzXvXmXwXQ.G.-.@XoXP.9XeXpXzXiX0XwX<.z S.tXw.7 w m l l C m 3 2 4 + $ t #   . # C A b o.o.:.r.o.6 p l T D M C C D m f 3 l Z B R =.e h 7.w.| l 5 * 0 l w q 5 w l S Z T D x H G | n x G n c Z c n H c A o.o.n p o.o.} v n } b p p v a {  .X.o.G D Y L.m.} b t.J.'.(.J.v.(.).).y.b.(.H.J.J.J.e.y.y.../.b.a { @.b.(.(.t.u.y.J.).H.J.| | &.,.Q.F.G.F.<. .>.,.y.,.} v | | k 6 u y.,.| | A G M Z | $.S V Y W U W h U U h e l k l m M Y V T R q f d q 2 w m l f f y &.v.7X).>. .A 8 a ,.rXzXzXtX8X).G.k.9.y.<.J.<.r.W.R.5XtX<.J / ;   * e U 1 % w x a { >.{ [ { X.{ a { { b 9 a a p p 9 a p 7 , 7 < 7 @ 1 2 3 3 1 0 @ $ 2 d m Y 1.R U R h t R j * & O . O X # # # O o o # # # ; r t h ~ i.Z.%X&X1X3X3XxXVX1Xp.p.3.W 1./ V d.8.Y 1.Y m Y Y l 6 =.9XcXGXSXbXCXVXSXCXxXsXvXfX0XvXAXCXFXwXqXf.$XaXzXfXMXMXCXSXGXJXvXV.8.-.-.0.0.-.=.$.2.;.J F <.e.o.o.J &.o.A M A D H 6.R R 0.m.-.m.D.K.D.m.f.e.<.,.n c 2 < | X.o.p p } ,.| b >.O.X.t.} O.t.o.X.n >.>.n x n o.,.} 8 b A X.,.A b } G 6 7 k l f H f 7 6 x v p n v } v 9 8 8 8 p v a a p 8 7 p 9 7 9 7 8 8 [ ....+.+.#.@././.]././.#.#.#.#.[ #.[ #.@.+.@.[ @.y.w.D D 1.C D ! M.6.8.1.a./ i.* a.U U r r U s.+X/ j U U g.4.1.Y Y 6XNXwXf.9.G.Q.Q.z x G k x =.L.G.f.oXwXE.K.@X*XY.K.L.$X6X$XqXdXsXaXsX0XaXaXOXcXcX3.% e d./ m M f f f M l < $ S $.Z ;.G.Q.I.W r ; : r L 2 * 0 P h.r h =XW.N.V.P.OXT.M.T.oXoXM.Y.K.T.;Xd.Y 7.M.q.7.q.q.Q -.0.m.6.",
"&.-.m.0.6.6.0.=.y.G.f.9.9.y.q.a.C.#X;XvXaX:Xm.G f m V Y |.>X0X>XcXvXzXdXsXsXeXpXsXeXE.=X6XpX#Xa.:X0X>XaX>X=XtXe., x q.f.l Z S l 5 w M q w 3 + & 0 #     o 0 D o.Q G &.e.=.x F $.F F M M T T m f q 1 5 M l S d @ f ;.*.c 3 = f Z d w 6 f S C m V F f H D c x v c c A A n x | n A o.o.o.n n o.n v c } >.} v 8 p o.+.{ x z H z e.y.b.v } <.b.y.b.H.<.b.'.H.J.7X_.<.y.v.y.,.X.s O.n.,.a 9 +.<.7X'.(.y.H.H.J.(.<.| 0.w.G.F.k.S.e.X.,.&.S.J.*.| | B w M l ;.*.A S Z =.B l w w B m m U U L h U U U C m k y d d % * d U h h 3 % 3 q l l l l 6 | e.6Xn 6 p c >.b a F.6XtX6X).).v.y.y.w.r.v.Q.tX6XJ.I.Q.H.J j o . 2 h d 3 x A a o.X.O.{ 9 [ t.O.{ { { ..{ { p a { { { a 8 6 7 < 7 7 f 6 w w m 0 X + 0 d C p.g.U N U W N U t X X # o o X O > O # X O & : - g U U R 1.g.XX-X,XgXgXVXVXxX1XXXa.j.g.oXp.m =.T Z M M H n c Z 0.mXGXSXLXCXvXSXSXGXCXCXvXvXaX1X,X,XgXvX9XqXQ.W.$X6X*X9XeX9XpXvXSXLXLXMX$Xf.5.=.&.F D &.Q z x F &.;.f.d.K.M.g.g.K.M.d.! m V 6.6.T q.D.M.D.D.D.e.e.r.} c 7 k n o.X.v v n X.O.O.>.X.o.<.X.X.<.o.X.G X.X.n x c x } <.n v A Z n o.G Z G M 6 @ 5 k x x 6 7 v } } b b } *.b v v b { { a 8 8 v a 9 p 8 7 9 v a 9 [ [ +.@.@.@.u././._./.@.@.#.#.#.#.[ #.@...@.#.+.y.G.Q M 3.C Y V M.! ! d.P.3.s.h XXR P g r ~ ~ d.E / U j 3.4.p.R ! S nXmX9X0.L.6.6.D Q K.@X#X@XW.$XtXrXnX6XE.W.W.W.Y.W.D.K.U.9XsXaXcXcXbXvXcX+X=XZ.K.7.m.6.d e d k 6 w k d 2 $ w k.I.w.;.Y N U r ; : r - & t 0 r I 0 M.v.U.K.M.@XXXT.K.d.M.M.M.M.P.V.C.7.4.K.L.m.1.2.f.Y T q.f.D.",
"f.7.0.1.q.6.q.w.k.e.v.e.e.y.w.q.g.M.N.wX*X@X@Xq.d.1.8.r.%XsXsXaXcXcXzXfXpXaXvX0XdXwXY.9XwXaXaX<XmXcX>XpX0.J tXiXy.;.l S M F G k d q l d w 4 + - o O   . + + q G ;.:.o.:.;.r.G.9.&.=.z l T Z d w m f 1 m m T M @ , A >.f % 3 l 8 % 5 k 6 l l d e S l V V z x z H } } | A x :.| c x X.,.O.X.G G v x }  . . .n a a v b p , @ < p a ,.n n <.J.v.v.H.b.u.u.I.G.(._.y.y.e.e.*.8 a { O.O.{ 8 [ 9 ,.(.(.(.H.t.X.).H.*.v.D.f.w.0.f.D.w.q.7.@X6X9.%.A y 5 V 3 m Y B V S D U W N e V N d U V U P P d N ! Y M m m e 0 0 r L h U 0 % 4 d m w l M w k 8 7X*.p z x G.9.6 ).nXlX6X).).b.v.H.F.k.e.k.J.J.t.{ o.Z @     . h h 1 z G {  .,.o.<.+.[ { @.O.+.+.O.O...{ { } O.X.a p x 6 < 7 < z l 6 z l V % + - * t V j.j.h h U ~ R U h o . # # # o o & & & o # ; t t h U / i.N.Z.XX%X-X1X2XVXVXVXsXC.j.3.3.7.4.D 2.;.;.;.Q n a  .L.hXsX,XiXSXSXcXVXSXAXxXxXaXcXvXCXcXdX$XeXrXtXR.!.!.5XF.e.I.U.=XwXbXhXSXKXKXGXMX*XK.g.Z.OX,X0XwXvXzXvXAXCXSXxXVXSXGXGXGX9X2.k T -.Y 7.m.f.D.D.K.q.9.9.G k 6 x A X.X.v { { X.} X.<.O.} ,.,. .<.o.>.} o.} A c 8 G p X.n z Z Z G A Z x x k z 4 % 1 6 6 8 k p p v b >. .*.,.O.b p b { v v 7 7 7 9 a v 8 9 8 a { { [ ..+.@.@.[./.n./.]./.@.[ #.#.@.#.[ @.+.#.#.@.y.G.T Y d.V T S d.Y 1.M.Z.j.Z.U -X^ r L g h U N.^ a./ U E h 4.W g.3 E.9XMXK.Y.! 2.M.w.I.rXqX$XE.W.F.R.tXqXQ.R.U.E.$X=Xm.$XL.0XAXAXvXcXvXAXXXt M ~ K.#X7.N l l d 8 w w l d < @ 7 Z S w 0 h * + X o o : # r P - r - V Q.e.l.D.=.K.T.OXq.J <.w.m.P.Z.a.N.4.P.K.K.d.d.D.M.7.7.7.7.q.",
"0.6.6.6.0.6.D.w.J G X.t.t.>.:.9.r.A.M.:XfX>XsX;X+XK.N.0.%XaX%X,X:X;X0XaXaXAXVXsX>XdX:XsXsXvXhX9X~.9.G tXG.c 6XzXR.w q M l l Z l l 3 d x 5 % * * .   .   o o X & f D o.o.o.X.:.%.o.r.F l Y M l z l d q M G Z J Z < 7 M 1 < H z y % d M f m d V m d d C l l x n A b o.Z v p <.<.x < p X.<.<.<.<.v 6 n b n n b } b p p p 7 < 6 8 v a a o.n :.r.:.J.(.(.Q.wX6X).H.(.J.J.t.,. .,.,...{ v v { 9 v u._.@.O.J.y.).).r.D.6.m.m.d.M.$X=Xy.0.E.f.&.$.T l e m f q h Y R U e f N N 0 h R U d d U P N e d Y D q H V V C R U t g h h 3 0 q d 5 4 w 6 6 6 rXy.n c z S.y.p J.NXfX~.H.J.G.G.v.5XI.S.e.J.8Xt.b 1 o       X g & 4 S o.o.O.t.t.u.O.{ [ { +.O.O.+.{ a 9 a a 9 9 9 a 9 < 7 7 y &.M z B H M 2 0 * * 0 N / i.U h L E U L g # o # - & o X & - ; - ; h R R U ! 7.K.T.C.XX;X-X2XgXVXVXsXoXV.~ Y D C m w m N k M C p } 5.jXSXvX9XdXGXGXpX>XdX@XA.VX*X$X2XaXhXwX=XE.eXzXeX=XQ.!.!.9.R.=X9XwX0X=XxXLXKXKXJXLXLXVXFXSXSXFXLXKXLXSXCXVXAXaXvXDXHXbXvXbXHX$X7.Y l &.r.6.m.m.D.D.9.9.n K y x G >.*.p } o.O. .o.t.>.} } >.o.o.X.| c o.x k &.k c v } c 8 x x G z G k 6 l f S k < 7 6 7 v n c A b b { } } O. .} v { v a p 7 7 7 8 a { a a a { ..+.+.+.#.@.u././._._.7X_.+.[ #.#.#.[ @.@.#.@.@.H.w.Q 7.3.R 1.! 7.C 7.M./ a.C.^ C.h.0 E U g ^ ;X/ g.R R ( U d.U p.% =.D.nXtX9XM.f.k.w.9.J.rXqX$X=XW.L.oXR.F.U.W.$X:XpXhXcX0XmXfXL.K.N.M.q.R R g.*XR e 0 0 m h m f d l l 5 5 M w.7.e E ; L ; o # ; & I g r r 0 h r N.Q.H.v.y.| k.K.C.N.8.M.V.V.M.Z.T.M.3.d.d.d.M.K.L.d.M.0.0.m.m.",
"c.r.6.6.6.6.-.:.G H v o.y.<.G :.w.<X$XZ.OXdXfXuX0XY.d.7.( +XOXoXV.! oXT.C.aXiXaXbXzXcXcX2XVXcX*X*X;.7 9.J.9.=XzX6XD N q z K x l m q d q @ % r #     .   X # + X + 3 M J $.z k n w.v.S.;.S M V C l l d e S l d 0 2 0 e 1 6 | B 6 M T M w M l M ~ d f l M M c n v p z 8 8 n e.e.*.o.} <.X.<.y.>.} o.v b 7 v X.>.<.n G X.b G >., < n n n n n -.G.r.k.J.rXaXwX).H.J.H.J.y.H.G.H.).(.y.>. .O.v 8 a @.[ ..(.k.W.F.F Q T W.W.Y.U.*X*X!.F.E.I.f.=.D m 3.! q m h h h h U U U N t e L U N U W U h d d V m q w M U U V h 0 h h h d e 4 2 1 4 w f w 7 =.c X.} } v.y. .y.6XtX6XH.).w.:.;.F.e.9.r.v.lXt.S + o     O O & X f G O.,.O.t.t.t.X.{ a ..{ O.a +.O.{ s s 7 7 8 a a 8 9 p v | } z F A F k d ; + # o * h ( / N U E U h r - * * r r * & = 0 g h h h Y ! 7.d.f.K.P.P.+X%X2X2XgXVXxX1XM.8.U 8.m d V M l N Y U Z G m.$XcXSXvXwX9XmXDX*XM.F.E.>XVX9Xm.+XaXfX0X9XsXSXGXGXAXAXAXDXMXvX6X@XzXeX;XZ.T.AXHXvXxXiX;XcX2XgXFXFXSXVXsXxXzXzXcXMXfXwXvXcXcXGXHXvXL.C M F D q.m.D.D.D.w.J l z z X.*.X.n } X.<.X.X.y.>.} o.<.n | r.c x G x 7 Z z p x *.G 6 p p f z G Z < f 5 5 z x 8 8 n n } X.} n v b p { b a a 8 v  ...{ 9 9 8 p 9 8 a { { s { O.@.@.@.@./././.(.7XjX8X(.n.@.#.#.#.#.+.@.@.t.H.m.8.R ~ Y 1.! 8.l 1.M.V.XXB._ C.V.g ^ _ 0 / OXN.Z.R W ~ s.=Xp.Y.T w L.zXdX9X=XR 9.e.<.| F.9X*XfXmXdXzXrX*X@X&XoX#X*X=X=XM.! 5 5 D 5 % 6 V Y Y d.g.e 3 q 4 % q l m Y S V =.;.S d r ^ r I I ` |..XE I ` ; # ; - 0 1.<.X.o.v.S.F.6XY.M.P.T.K.oXM.Y.+Xg.d.N.~ Y -.q.D.d.f.7.m.d.m.",
"0.6.f.0.q.0.-.0.r.G n G v.v.n n e.+X9XOXV.>XaXcXpXd.Y =./ oX*XY.@X! Y.$XP.Y.8.M.=XY.*XcXaX>X,XY.9XnXS.D y 5 x m.9.z w w z z k k w q 6 * + # - X X . .     X & & o + + & m M m z A &.e.e.=.M w w l l d w S m 2 X + - h 4 l A n k 6 &.o.Z G x 6 S M m C C M M x c v Z 8 A :.w.:.n >.<.y.>.o.v.o.>.t.O.O.7 } H.,.<.b | >.X.X.O.< @ 7 n } } :.c.tXtXT J.R.iXeXrX9X).G.H.H.).(.b.u.J.(.(.H.H.t.y.y.y.H.H.F.F.=XtXE.$Xd.7.0.K.m.U.:XQ.E.K.K.Y.K.1.h 3.4.q f N f * P V N h h h 0 r P U / / U d q w d q q f l m C m N U R C m C R N d w 6 l w 6 6 z k G ,.F 6 A >.y.7X7X6XH.7XF.9.&.k.:.Z A F 8XZ + o     . . O . # N X.n.<.t.t.t.<...[ +.O...O.{ { { { +.8 8 p p p p a v v v b b n } *.o.A m * * # # 0 0 j U U L P U P h t 0 t N N h e t h N ~ ! R 7.d.7.M.M.M.T.oX%X;X2X2XgXVXaXP.m 0 U d.m m d M D D d l Z q.vXCXcXcXcX!.G K.sXdXmX*XwXpXaXcX>XsXcXpX@X=.oXvXsXSXFXLXFXVXgXxX9X$XW.K.fXoXE.Y.K.=X9X;X+X<XeXpXzXvXzXvXpXbXvX:XzXMX@XdXMXMXmXzXMXJXJXAXwXK.U S Q q.q.D.f.&.z M z *.>.X.o.b } t.>.<.y.,.} n O.} n :.F z G l 4 3 m w k c | k k f 2 q C M m 5 w < 7 } c 8 b b n c v v 8 v p 9 a p a 9 8 { a X.v 7 9 v v a a { { { ..+.+.@.@.u.u.n.(.(.Q.tXrXtX).b.u.@.[ [ ..#.@.t.S.0.d.M ! ! 3.! d.d ! g.C.N.V.V. XE L g B.h T.*XZ.V.E / h W Y.d.M.=.6 5X6XnX*X0Xe l 2.=.D f.:X*X:XdXvXvXwXwX$XU.*X9X=XY.+X~ @ < f 3 % 5 l m 1 0 e m h e 2 d d q m 0.d.L.$XD.=.R R r & ; I r ` E I I r L ; # & # X d n 6 p p p 6 ;.U.M.M.K.K.T.Z.K.M.4.7.8.d.7.M.D.d.d.d.D.m.m.m.",
"0.2.2.6.f.0.0.K.;.&.| o.:.>.n p =.C.oX>X,X0XsXwX=Xp.8.m.T.fXP.Y U.f.K.K.0.@Xm.Q D l l 1.9XeX@XU.L.F.=.S l z p 6 7 6 z Z G 6 f f l d 4 # o o o   X X . .   X * * # # o . % 5 M M x z H r.0.m % d D f d V l l q = + 4 C w d f G :.n :.&.J &.=.D &.T S T S Z $.A c y 6 z e.9.r.o.o.<.<.e.} H w.>.o.>.t.y.o.>.y.X.:.n } A n } +.&.! 6 7  .n A x F 5Xm.y.Q.#XW.zX0XwX).7X).).7X(.b.H.(.).).l.u.u.H.).5X6X*X*X9XqXwXjX$Xd.W.W.q.6.T.R.U.L.oXV.Z.A.W W 4.C q 2 * & * * 3 0 0 h h U ) E / s.U d f l m e m M m C Y Y Y 3.! Y S S Y R V M l m f 6 y k z c &.B 2 k x >.8XlXtX7XrXQ.Q.y.G.y.k.| &.E.-   .   .   . o o & R y.n.<.t.<.b.O.a { @.O...+.O...{ { X.{ a a a 9 9 b a 8 {  .b  .} X.| $.l * + & - - r j h h h U ~ ! U N h d C U R V U U Y ! 1.2.0.0.d.M.Z.K.XX+X%X;X>X2XxXxX1Xp.d N p.3.C V M m 6 < @ S F.rXLXZXsXzXDXrXb.S.C.;XhX;XOX+X XxXVXCXvXvX6X,.y.=X>XFXSXFXGXSXMXAXcXvXcXdXAXAXGXgXZ.V.XX1XgXiXiX#X#XpX,XcXaXaXcXuXvXdXY.pXzXeX:X=XaXAXHXHXAXvX:X-.H =.=.f.D.r.o.Z c :.<.<.O.}  .t.O.>.t.e.*.b X.X.n >.o.H z k 6 4 l k w 6 =.F K 6 4 1 q 4 m 4 5 6 < 8 v v n v v v 9 p 9 a } b v v { p 8 9 a { {  .8 v v v { { ....+.O.+.O.@.@.t.u.b.H.`.`.tXrX6X(.@.n.#.#.#.#.#.b.S.7.d.Y ! ~ ~ U s.f i.^ i.i.U V.XX/ ) r _ U V.$XN.s.8.A.h W K.*X=X=.F ).D.zXwXzX! m =.;.M.9X0X@X$X9XpXhX6X9X9XqX9XP.P.;XT.N 2 M m q e N d 5 @ 2 d w C / h d R R 4.M.P.@XK.Y C 9X0X^ - E ` ; ; . . & ; - 0 0 ; & # * :.8 l z x 7 6 Q U.m.Z.P.Z.K.M.d.d.d.! d.M.M.M.M.d.1.d.7.d.Q ",
"m.9.&.9.c.r.&.e.;.A o.J Z G c v b m.L.M.j.+XCXxX#XD.L.D.C.=XK.q Y M.d.l S M 6 f k z G z D.=Xf.5XQ.n z w k Z K w 7 6 k z x K 7 K w 3 % o X X X . . X . . . X * 1 1 * + # + * h l M M z &.Q w 2 m m l M Y k z x k f f l l f 0 M *.t.t.{ v o.r.H z S S T C C F F c 6 5 :.w.>.r.9.>.<.X.9.o.n <.<.:.>.X.X.} b o.n G G n b c k } >.>.x n X.p p 6 8 <.S.,.v.;.e.rXfXAX#XM.2.&.E.qXrX`.Q.Q.F.G.H.<.H.$X$X$X$X6XwXW.T.dXfXdXtX6XG.6.C.D.L.P.#XC.8.3./ i.i.3.U e f f f 0 e U P U h g h h U U C j C m m V C M z M M Z M M V V S M m C m C m l 6 k w 6 l k m M M S x 7 p >.v.'.7X6XJ.5.0.d.L.v.(.;..   .       X X : X 6.J.v.t.b.<.<.a a { t.+...O.{ { { 9 a v 9 p v v v { a { { } *.} A | *.r.m + # ; & * r h L t h R 7.p.1.Y V S Y Y ! 4.1.8.6.1.6.0.f.d.g.M.P.Y.oXOX-X1X1XgXgXVXgXXXg.g.T.3.d.Y.wX$XM < e.DXDXvXCXxX0XzXGXDX$XE.dXvXbXc.{ c f.6XeXVXSXbXxXsX#X#X,XhXdXMXLXKXKXJXtX).nXHXAXAXAXcX,XpXdXvXAXaXsX0X>X>XOXMXCXFXLXDXMXwX9XcXiX;X;XcXFXvXmXeXW.wXDXSXpXV.d D 6.r.;.&.G *.:.e.<.O.X.<.X.O.<.<.,. .o.X.} >.| z 6 z f 5 f 6 z 6 z &.z w q e 1 4 @ < < 6 6 6 6 p } n v } p 9 7 p b X.{ a p { v 8 a a a v a v a a v  .{ O.[ ..[ ..+.@.t.t.u.b.H.).6XwXfXrXJ.@.@.#.#.#.@.H.S.Y.D.! / U / ~ N.N Z./ ) V.h -XB.h. XP ^ ^ U d.K.Y.8.@XU U 3.=XwXU M F.I.Q.wXdX+Xi.OX0X;X1XvXgXcXhXzXsX8XtX9X:XV.g.P.@XU * q V l M m q < 1 @ ! nXM.R 7.M.d.U ~ M./ / m m h 1 e e 0 # L ^ r # # - r - * - * - r ; ; U =.G 4 4 % l x W.T.K.T.Z.Z.K.1.7.K.K.K.Y.P.N.M.Z.1.f.d.K.d.",
"q.9.;.r.:.F G J G F =.F G Z H F G q.D.K.g.K.cXGXvX:XD.2.2.6.c.m d ! =.C D D C Q 9.-.r.J 6.=X7.Q o.v B f l z 7 w k k 6 6 x 6 6 z 6 3 4 o o X X   . .   .   . # e 0 * # + + % h d k z Z Q T m d d f m V Y T T M C Z w 5 q 0 0 3 l Z <.G o.9.:.M M C R ! M m m S M w 5 ;.9.9.9.v.<.<.>.>.r.z G X.X.e.X.o.o.>.<.p p G n p 7 l n } } n X.o.o.z x n v b } F z x X.r.tXtX0.$.w.J.R.Q.).F.Q.R.6X8X6X6X6X6XtX6X=X9XW.7.*X0XwXW.U.S.D.T.D.L.E.K.XXV._ B.h.|.h.` E U h U ~ U E E U U g r P U ~ / E R ~ V N l m S V M C V l w m V V m M d d l l w M l w y l K x x H p 8 x H A  .9.6X8XG.e.G.S.J.R.3           . . o .   m.J.y.n.n.O.O.{ { +.t.t.O.+.{ +.+.9 9 a { .. .{ b a a  . .}  .v A *.;.e.e + * 0 ; 0 r U P U h ~ f.d.6.1.=.Y ! =.1.7.1.7.6.6.0.q.f.M.M.K.T.Y.oX+X%X1XgXxXVXVX1Xa.P.:XiX#XwX*XpXMXzX=XrXmXvXmXbXwXvXAXVXvXcXfXwXfXcXR.G B Z G ;.0XSXcXbXsX0XpX;XiXwX<XvXGXGXvX;XiXCXCXSXGXCX0XaXGXAXuXaX>X,X=X:XeXdXHXLXKXJXAXzXeXwXvXvXaXsXAXDX0XpX9X9XeXaXzXMXAXpXT.-.J Q &.G &.;.e.e.<.<.<.O.O.O.t.<.X.} X.} G G D 6 6 l l 6 l k 6 6 z Z k < 3 5 5 5 < 5 p x n n p }  .v X.{ 8 7 9 b  .b p 9 n  .v a {  .[ 9 9 v { b { { ....[ a ..+.O.O.@.@.u.b.(.).6XtXrX).u.@.@.#.#.@.y.D.U.d.R R U i.^ i.~ i.i.a.h.P -X( )  X^ E L g U T.Y.~ K./ h 3.E.wXR -.R.Q.D.Y.pX#X@XdXwXM.#XpX$XE.tXtXQ.E.wXeXT.XXZ.R q e e h C M V M q 4 * % % 8.0X#XM.#X+XU W P.3./ R =.U h d 0 h + # E L r ; 0 r r & ; * * r g r h W <.7 8 8 8 6 G Q.Y.M.L.K.K.~ M.M.Z.Y.Z.K.K.M.Y.7.p.K.U.d.",
"q.q.6.Q D F =.&.T q.D.&.F Q Z F =.r.J f.K.m.E.AXGXaXL.5.;.=.&.J &.-.Q l F 2.T S 2.;.&.G Z D.W.m.z 7 k q l z 6 6 6 K 7 6 x 6 w 6 3 1 & o o o . X . . . X o o o ; 4 * * o # * h q w M Z l w d m l l m V l k S F S l q f 5 q d q e d m f J :.G &.9.1.! ! ~ Y V D Z y 6 ;.>.<.r.9.e.r.<.>.<.*.o.>.o.<.<.X.>.<.<.H 7 o.} x 4 H n >.x x A A o.n n A F a 9 8 v z p 7 p r.2.0.6X).6XtXwXR.5XqX$X6X6XR.Q.6X6XtXW.U.=X=XwXdXwXL.D.!.W.;XL.U.2.V N.T./ ^ h.V.i.h._ ) ^ / ! g P U L U E U ^ R ~ ^ U U ~ U R C V D C C C C d V V V m d N m m V m k m Z z k B m m d m Z B G F m 5 q 2.y.G.F.J.H.6.=   . .         O o   : M.G.y.t.O.O.O...{ t.t.O.{ +.{ ..{ a s a ..O.{ [ a v {  .b { b { | >.S.k.q * e h r ; - P L E h / M.m.7.6.6.-.1.-.=.2.6.6.6.0.f.d.d.M.Z.Z.C.T.+X%X-XsXsXxXxXxX2X,X9X>XiXuXhXcXAXGXJXzXW.~.zXMX6X<.9XFXLXFXGXJXvX,XzXzX#XD.{ a z d.AXcX;XuXcXMXAXHXMXsXcXSXAXsX,XcXsX2XLXKXAX2XbXAXbX;X0X$X6XqXnXpX>XMXJXJXFXAXvX9X=X*XpXzXzXvXvXcXmXwX9X9XaXsXzXAXGXDXiXW.m.=.D o.;.2.w.e.e.<.>.>.>.<.e.X.*.X.n x k T 5 w 5 l < M z 5 5 < 6 6 6 7 6 y 8 6 8 b { } o.n b X.} } >.o.p 8 x { { v 8 7 v { { v { { ..s a { { { { a +.{ { { ..[ { +.+.@.u.n.H.(.6XrXrX).u.@.#.#.u.y.@XZ.a.V h E |.E i.B.L ( C._ h.2Xh.) %X Xg E g ^ _ A.! K.a.~ p.r.9XR D.6X6XQ.U.wX0XwX9XT.M.9XpX9XE.9XtXW.g.*XeX@XN.m 2 % 3 e N Y h h q % * 2 1 @ $ 4 1.Z.3.XXV.E g.p.W W Z./ r U h h - & h U h r t r L P g - - g I r r h ! r.<.n n k 7 Z S.D.U.!.d.4.U.m.N.P.V.V.K.M.Y.M.7.N.m.d.",
"m.S.9.:.z c G Z G D.D.-.Q 2.6.-.2.:.J r.f.e.!.W.mXzX6XI.&.z G =.l w 6 5 T 0.l < < 6 G o.| ;.R.BXM , k f M w 7 4 5 w 5 6 6 w 6 6 3 @ o $ o o o o o . X o . o . o * 0 * + # 0 f 5 f f z f w w d l l d l 4 < 5 6 5 M V d d d m N h r * 1 l G D Q 0.7.~ ! / 1.! V S l M 9.e.e.o.o.>.*.e.y.r.*.A o.<.>.<.X.X.>.:.H F ;.,.z 5 m } y.x 8 z n o.| | A J v < 7 p p 7 7 , 6 x x G 5.P.K.6X6X$X$X6XK.2.-.r.I.k.E.U.W.=X@X@X@XwX=Xw.w.@X;XU.f.5 6 4 7 @ % 6XB k ! _ ( ( s./ W E ) E U ^ / U ~ ~ R U W R U U W Y Y Y V Y Y R ! Y C M V R m C Y C l 5 l z z Y 4.3.W 4.wXD.;.9.4.S M 0.5.&.0.R.;.+     .           O .   r q.J.v.>.O.<.t.+.O.t.t...{ ....O.v { O.{ ....a a a  .{ { a { v  .X.*.G.w.e t h 0 & 0 0 t U E R 8.D.m.N.7.d.8.6.-.=.-.0.q.0.f.M.f.M.K.P.P.Y.oX#X,X,X2XgXxXVXVXxXuXXXC.sXsXaXvXFXJXGXvX5XJ.tXAX6Xy.$X2XCXVXFXJXFXMXMXpXAXkX .8 c 2.iXvX,XiXAXMXiX>XMXvXSXCXHXHXrXL.S.!.dXSXxXxXvXvX+XZ.*X*XY.W.zXzXeXvXAXFXSXvXvXcXY.D.#XmXAXAXvXvXMXzXwXdXmXzXbXvXCXcXcXDXDX9X@Xq.2.9.w.q.w.e.,.>.X.>.r.>.,.>.A k w M 5 w 5 f 5 w w 2 6 7 6 p z v x B v n a a { X.X.X.o.} <. . .>.o.v v v v  .b 7 8 { v  .{ 9 ....{ a { ....a ..{ { { ......{ ..O.@.@.u./.J.6XdXkX).n.x.@.b.G.+Xa.j.U U / |.R i.B.g _ +Xh.|.gX|.h A.2XI L P s.r / V.L.T.g.p.r.wXN c.R.qXtXY.9X*XL.D.f.Y.wXzXvXvXcXcX;X9XdXZ.~ 0 + % q U m e d 3 0 2 @ @ 3 1 * * 1 U a.j.P.;X;XR g U h / h.r L N U U L E _ E ; r L r L L r r L r g r P U ! q.:.n J Z 6 x Z G v.S.D.K.d.N.V.s.a.T.K.K.K.6.q.m.0.",
"0.D.q.&.Z c G A Q 6.q.2.Y 7.f.2.J e.e.&.:.9.R.y.G.v.Q.6XJ 4 w 5 @ % < k T Z 5 4 % 4 l F :.&.:.tXx < x Z Z f 6 6 4 5 5 w 6 k l w = o o + # o X o . . X o X X . o = 0 t * * * q f f d f l l f f l 6 f f 6 6 z f w 6 l d M z G S d h f m m m Z S Q -.~ Y ! 1.! C R C S r.v.v.>.>.o.n :.e.:.*.X.>.*.n X.<.:.>.>.n o.n }  .z z G *.G p n G o.n b c B p p z x p 7 6 6 p n z x k Y V s.*XL.f.6XR.k.y.R.`.rXtXtXR.D.@XoXT.W.6XM.C d.:XF.:.< F @ k p | HXG 6 d / / ) s.B.^ P ^ ^ ( / / E R ~ U U R W W U Y Y Y / ! R R R Y C Y V R R Y D f d d 6 x z B M S Q l S R.o.n *.:.Q S F :.G.L.D.& . o .       .   o O   : : S.H.w.t.<.t.t.O.t.u.<.{ { X.......+.t.+.{ a s  .O.O.a { { a {  .} *.e.6.V N 0 * * ; g ; h U W V.D.m.c.6.q.7.0.9.9.9.2.6.0.d.d.d.M.K.M.Z.XX+X;X;X1XgX3XZXxXxXxX2XXXK.:XOX>X,XcXGXKXHXdXb.tXMXwXF.w.!.dXzXJXFXAXvXzX9XbXbXY.L.9XsXxXgX2XxXFXsX8./ vXFXGXFXSXGXcXK.R K.>X2X:X#X+XpX;XOXT.+X=XY.m.D.9XzXbXvXMXvX,X;X9X7X<XdXMXAXDXSXSXvXrXfXvXzXvXvXDXvXzXbXMXdXwX<XD.6.9.r.e.6.<.,.>.O.X.o.>.:.G H x c 6 4 f d k 6 p z K K x p { { v c 9 b  .b v b X.X.}  .t. .{ } ,.8 9 p v a { 8 9 { b a +.a a { { { { { { { { { O.{ a n n { ..O.t.O.n.b.(.'.rXhX7Xb.@.O.y.F.Y.a.s./ ( ^ +X^ _ h.L )  X_ |.+X_ r XX1XL P ^ i.r P a.7.W.$XM.U.nX4.9.q.tXzX=X*XD.6.d.0.D.U.6XtXU.D.zX9X8.8.~ h 0 0 g C V d h e 0 0 2 * @ * 1 e e 3 $ 1 R oX;XM.R 0 E L h ^ L L h h ^ E _ h.U g L P r r r g L P L h r I U f h ~ ;.$.;.c < 7 < | G.R.W.T.N.T.g.7.T.Y.oXP.8.c.m.6.",
"Z Q l l H c Z o.=.6.D.7.Y 2.0.T &.&.;.Z G o.o.X.} p Z P.q.m 6 f 6 f f Q =.2 < < 5 f 1 M A G A o.6 6 6 k p 6 6 7 k 6 5 6 f w q % + o # # o o X . . . . X o o . . . + 0 * * # * 0 d l l l f f M l l f f k l z m Q C f l M Z J J H h h q q m V C C D ~ C U V V m Y C k Z :.>.o.} p p o.:.G *.o.>.r.G z o.o.>.<.b o.n b ,.z H A o.X.A >.X.o.,.X.8 x n G Z l f k K 7 2 2 < y l T 4.P.wXU.S.w.e.G 6 F m.W.tXzXrXR.q.m.Z.M.c.R.Q C K.6X6XG A 6 q.o.-.JXtXe.f N ^ ` _ .X) E ^ E / U / ) p./ Y U U U R R 8./ U R R U Y Y N N R ! R Y S M k l l M Z Z z 6 6 p p p a 9 6 H G n n o.Z m & .         .   . . . & O . > & W.G.w.t.O.t.O.O.@.t.t.....O.{ { O.{ ..{ a s { X.a a { ..{ b b  .{ <.9.0.8.~ g t g g t L W ^ ~ 7.K.d.q.0.q.q.0.0.6.6.6.0.q.m.M.M.K.Y.P.XX+XOX>X>XiXgX2XxXxXxXgX2X,X9X*X=XtXOX>XMXFXKXJX6XrXbXbXBXv.<.<.Z.bXvXwXtXDXsXfXAXMXcXxXCXCXVXSXZXSXCXCXSXJXSXZXCXCXFXKXGX@XmXFX2X,X,X=X=X9XdXcXvXMXzXdXzXzXfXaXvXAXJXSXiXd.r.;XpXsXhXcXzXvXvXvXfXcXAXvXvXMXwXeXpXvXcXaXvXE.R.Y.q.c.w.<.y.<.O.X.X.>.*.Z H x x 6 5 4 M D p 6 G | G :.} b v  .*.v a { X.{ p O.{ {  .O.O.{ b  .X.8 p { v { { 9 9 +.v { ..a [  .{ [ O.{ a [ { a v a } v { { { ..O.+.t.b.b.5XjXrX`././.b.G.U.i.s.a.) U +Xh ) B.; ^ <X( XX|. X0 B.2X_ ) ^ A.L r / ! =X$Xg.! 9XK.F.m.rXmXeXd.M S 7.7.&.K p < 7 7 b J.-.M q 2 0 d U V 0 0 e 0 * * % % + @ * @ 2 d 1 % + h OXoXi.h g g U / ) L r e U E ^ ^ P E ) ^ E g r g L L P L g L U r r t V 5.%.M x z @ @ 4 S D.m.N.C.T.C.C.N.C.XXK.N.M.m.",
"5 l 6 z F H G ;.6.w.m.-.S T 6.D Y Z $.Z n G n G G | ,.S.e.D l m S -.&.;.T 2 1 1 d d 3 6 7 7 p 6 7 6 p z p 6 w 6 6 6 7 7 5 5 2 # X o # # X X X . . o . . X X X o   X = + + - + * f l m l d d M M f f f f k z z Q F f l C Q F S D j g h f e Y V h C V C C V V l S l w F 9.9.<.r.G G >.:.>.G o.:.*.o.o.G n o.>.o.o.>.X.} 7 K k | o.o.>.G G <.:.k M -.-.=.Q C S k < 7 6 7 x k z =.d.#XY.L.f.rXZ 7 1 t R T.*XwXtXY.7.4.D x R.9Xd.! c.).(.y.H J p < nXHX6Xy q W B.s.^ ^ ( i.~ ( W / / U R ~ / / Y Y 3.! Y R ~ U U Y ~ U R 1.3./ C m m J &.o.Z M Z z K 7 6 p p z n x n G } X.J =         . . . . .     . & O o O I !.G.c.t.t.<.t.O.t.O.O.+.O.+.a O.X.9 9 8 a v { a 9 p p 9 9 9 a { } <.r.f.M.p.V W / / U h U W 8.M.D.d.0.q.q.f.0.q.6.6.0.q.f.m.M.M.K.K.P.XXOXOX>X,X1XsXgXxXxXgXsXxXxXdXL.5X6X=XL.J.~.GXJXSXCXCXCXvXzXiXt.J OX<X0.y.dXL.E.9XY.8.M.*XP.&XmXsXaXvXSXLXFXcXSXSXFXAXFXAXm.$XdXxXVXvXvXrXcXaXbXbXeX@X>XzXAXsX*XzXwXvXvXAXpXT.:XzXdXaXvXzXdXvXAXcXvXSXDXbXzXtX=X6XbXVXCXDXtXrXwX!.!.9.9.0.5.e.<.<.o.X.F c k z 6 1 % 5 z c p G ,. .X.>.O.{ b *.O.{ }  .O.v b X.b X.X.<.>. .v  .n 8 p  .a { v 9 { a { ..{ a +.X.{ a { [ ..v 8 n b } n } X.O.X.O...O.t.b.(.tXrX7Xu.u.y.D.K./ i.B.E ) C.L h.h.& ^ <XB.XXs.-X0 ( -X) ^ ) ( P & ^ ) W.6XK.M 6Xf.F.;.rXmXdXY.-.R 7.7.w < w w l V M d./ R h t 0 t h r 0 * * + * * * * @ # + $ * 0 0 d 0 V p.P.s.j.E U U g ) U U e h E ^ E L L E E L g g L L L L g P L L E P r j =.>.G D Q m @ < 6 &.F.W.@XZ.OXY.K.T.T.P.3.7.M.",
"m Z l D -.D J ;.-.q.m.Z k S =.=.! S T Z H x G o.| } r.e.G G F l M 6.9.;.=.C e 5 m d l 6 6 6 6 7 8 c H x 6 6 f 6 k 5 < 4 4 % + + + + # o X X . . . X . . X X X O o   = 0 * - # * l f 6 6 l l M C M f f l k k l S :.D l l D F S M g h h h 0 h V U M d m V U Y C S S M F ;.9.:.e.<.:.:.X.:.c :.9.o.*.r.:.o.G } }  .<.O.n @ % 5 7 6 x Z c c G n n D J J 6.6.7.f.-.m f f 6 l f 6 l H 2.S.wXf.fXY m 5 0 3 D 6.!.0.Q 0.f.rX`.W.*XM.U -.).yX,.;.-.6 @ G.HXZ @ x Z Z G y S 7.q.=.8.N d C U R ! ! ~ 1.=.4.1.1.7.=.U ~ R R / 1.7.1.R V M &.6.:.*.v z z l f f Z x x H } x G N 0 e @ o                 .   . # & O # : P R.v.w.t.t.X.t.O.O.O.@...{ { a ..a p v a v { O.{ 8 9 8 9 a 9 a o.} :.:.w.f.p.4.p.d.p.p./ / 4.d.D.D.m.0.f.q.f.0.q.7.6.w.f.f.m.M.M.K.P.P.+X;X;X>X,X1XgXxXxXaXcXgXCXCXmXD.:.v.J.k.u.[ [ #.7XGXJXGXVXHXmXH.<.l.H.8 T 1X:XaXaX@XM.L.fXsX%X9X1X;X>XxXCXxXgXCXJXJXFXSXvX@XY.sXvXxXgXvXvXCXgX>XcXzXpXdXpXwXeX=X9X=XzXdXwXE.6X6XnXdXpXzX6XrXmXAXzXwXdX=X*X9XdXsXdXrXzXFXGXfXcXvX=X=Xm.9.0.;.e.w.e.X.>.:.z 6 c f % @ % w G n v X.O.>.>.<.>.b b X.X. . .} { n o.b b {  .X.X.v b n n p v v p b a v a { { O.{ {  .{ { { a a { b a 8 v b X.X.O.>. ...+.O.t.n.7XkX8Xn.u.J.L.Z.a.B.B.U h._ ^ ) E g E >X<XB.W <Xj ) ;X%Xh.^ r ; g ) ^ *XR.@X=.6XL.F.G.6XdXpX#XM.d.1.q @ 5 f 6 4 f f M d e 0 @ + 0 0 g 0 & # # * * % % * + * * * 2 2 h e N U V.^ a.B.i.0 ; ) P U t 0 L E E U g P E L E E L I L g g ^ E g E U L g d r.Z z S M < % % < z e.L.K.7.-.f.K.Y.Y.K.Z.T.",
"Q =.=.-.9.=.;.5.F Q 2.w f F &.T =.;.&.Z F Z G :.J o.*.| A | G l k M F &.1.Y Y C D T M w f f x z F G A 6 7 4 6 4 2 4 4 4 1 @ + + # # + o X . . . . . . X o o X O .   . ; 4 = + * f f q 6 l f l z l l M f w f l m &.1.Y V C S M k d f q V N d h h d N R R U C Y R ! m l &.o.G <.y.>.o.X.X.x G <.<.*.o.:.o.o.G {  .o.n H % # d 4 < @ % 4 x p 8 p k 6 6 G D Q D.M.q.1.Y Y S m k p x n 6 -.2.4.V m 6 N q f z 6Xw.6 Z ;.lXlXwX@XL.M.q.w.8X&.y.S.v 4 p NXv.J 7.6.! d.4.) ) / V ( R e R / U U C Y Y V R =.4.7.=.V ! Y R ! ! =.=.! -.&.G S z z k c c Z x H A b a a v 5 * O   . O : >             . O . O & O # * : L R.v.S.t.O.O.O.<.t.O.O.O.{ 9 { ..a { O.O. .{ a 9 < 7 7 a 9 7 b <. .>.,.k.f.d.D.D.f.g.7.p.p.p.d.D.L.S.q.d.q.q.0.q.q.0.0.w.f.f.M.K.P.P.XXOX,X;X>X1XsXgXgXgXgXcXhXvXxXfXrXJ.b.u.u.@.s [ [ [ O.u./.+...[ 7 7 [ a $ !.FXAXDXAXzXdX2XCXFXVXVXCXaXvXVXxXSXCXLXFXSXJXAX1XaXSXKXAXpXsXCXFXLXGXiX>XT.*XaXiX:XzXDXmXnXnXtXtX$XR.G.tX*XY.R.;.0.f.E.dXeX9X=XqXpXzXsX9Xv.O.R.sXiXsXaX0XwX$X6XU.r.9.9.<.<.,.9.F k x d 4 @ 4 6 | o.n O.X.O.>.v.t.*.} a } { } o.b n o.} v } } A } b v x n b 8 p 8 v n v a v { ....{ { a v a a a a v c 8 n o.} n b  .X.{ { ....u.(.yXrXu.u.R.d.V.B.A.C.L ^ P ) ^ E L I s.xXC.^  Xj B.B.OX Xh.I : ; ) h $XD.D.0.f.E.Q.Q.=XzXwX#Xd.K.~ 3 4 q q 3 w S S S U e d d 0 2 0 t * + & * & * * + & 0 * * t 0 * h h 0 t 3.V.h.U ^ E L _ ) ^ g 0 r E r r r r L E ^ E P E E L P E E g L L P r 0 Q :.v F F 6 % 4 < % 6 k z F F =.;.k.=XW.K.T.",
"6.6.0.f.S.0.w.9.T T &.4 f S F C -.6.S Z &.&.G | | G } n Z A x G &.Z &.F 2.1.d.7.Q F f z l w M F A z x 6 6 1 5 4 < 5 q * + % * * # o # o X X . . . . o X X X o O       X 0 ; + % 3 f d d l w k k l M l f d 6 5 6 M =.! Q Y Y M l V l d R ! Y V h 0 d R h U m Y ~ ! V V &.H c | >.e.G.y.X.G n } o.9.:.:.} o.} A n o.k 2 + % 0 4 6 3 @ % y v 8 7 k 4 1 6 k k -.;.9.q.2.=.T A c p a o.z T 5.y M N q L U d < F ;.6 Z F G.J.=X9X9XE.c.e.8X$XrX).t.-.v NX)./ h U ^ P g L E h N / 7.=.U U C Y Y 1.Y C V C M V =.! 7.7.=.8.2.Q F Z S F G z z 6 6 x z x n b b c c k 4 +         . X . o . . .   . o O O & & # # * r ^ Q.H.G.t.O.O.O.t.t.O.O.u.+.9 { O.{ [ { { { v 9 7 7 8 7 8 9 8  .,.} ,.9.S.7.6.q.7.7.p.2.7.d.M.d.D.K.m.q.q.0.0.0.0.q.q.9.0.d.f.M.K.P.T.XXOX;X;X>X1X2XsXgXgXgXgXvXxXgXpXzXnXF.X.[ #.t.mX,.9 9 9 u.u.{ 9 7 $ , @ % NXFXVXvXcX,X,XgXZXCXVXCXAX:X=XcX-XCXLXJXAXvXSXAXcXxXCXJXCXvXCXLXFXCXfXwXwXT.V.#XiXuXfXAXfXmXdX0.;.w.D.c.qXmXwXtXR.S.m.R.wXhXcXzX*X9XmX<X=X!.t.v.rXrXdXvXvXzX9XzXW.q.F.2.=.r.;.9.=.G v w 4 @ 3 w } >.} >.o.X.O.t.<.>.} X.} { v { a c }  .x n A x n  .A c n n p 8 8 7 p a a { a a { +.a 8 9 9 b v 8 6 p 6 c } { {  .b O.O.[ [ [ @.n.7XyX/.H.Q.M.C.A.V.|.^ E I ` P I : ^ L xX%X^ B.L A.XX>Xa. XE r & P j @XL.d.M.-.R.6XrXdXdXXX#X+X@X=XA.P.g.g.1.! V e N U U R U h 0 * r t 0 0 * + # * * t h * * t t * t t & 0 t h W / ) i._ P P ) r 0 0 ^ L g L r L E P L I P L L P E E L L j g 0 - ; T G G G k @ 5 f 6 K l 6 z l H z 6 C Q d.=X",
"f.7.7.f.2.;.w.9.=.C M 5 M 2.Y T -.F z F o.o.:.>.A v p a c n x H G G r.G =.0.M.8.Z w 5 M C M M Z n Z p < 6 4 1 4 4 4 * @ % * * * o o o o X X X . . . O o o o O X   .     o * = - 0 f f f d d l m M M l l M f 6 5 5 D -.Y D Y S V S Y d d U U U U h e N 0 R Y =.! Z M Y D Z Z A A | v.v.o.G G :.o.:.} :.>.} G G G T @ X + 5 w f f l 5 5 Z *.X.v c 4 < @ @ @ 6 x Z x H Z :.,.} 8 p 6 5 f H 6 7 5 d U 7.d.Q H &.A o.:.:.c.D.W.$Xd.&.! d.M.rXyXb.R.c.lXJ.f h M Y V j /._.:.m U R =.T Y S -.-.q.0.7.=.-.D f V V 4.7.-.T M 6 6 k y k z x H K 6 k l z o.G m * + o           . o X # & : : : & & O O > & # : : - I _ J.H.w.t.<.O.@.t...O.t.t.a s [ { ..{ a 8 v v v 6 8 8 9 8 a  . . . .<.w.w.6.7.q.0.0.7.9.0.d.D.M.M.D.d.q.q.6.q.6.0.0.q.q.f.m.M.M.P.oXXXOX;X,X;X1X2XsXgXgXgXxXgXCXGXSXAXVXMXzXkXy.9 +.mXH.s 9 7 { O.{ 9 7 7 m.gXSXKXLXcXaX>X0XhXmX0XW.v.r.@X=XM.Y.OXGXJXAXbXiX#X=XeX1X2XbXxXcXxXCXcX:XK.9XwXP.g.0XsX<X@XT.eXrX6XR.:.R.F.L.zXeX,XwXwXdX@X!.M.;XCXvXXX;XMXGXAX0XrXF.6XL.Q.fXzXAXcXzXrXtXrXD.q.5.;.:.=.o.c f * % 2 l A o.} X.X...X.X.O.X.X.} X.b } n n n n } c x x p k x c k x c x 6 6 7 7 p v  .a a a v 9 8 < < 8 7 6 8 c c A v n { } { O.O.s a ..#.@.7XyXb.v.I.g.B.C.C. X_ L E ` I I : ' P |.+X-Xh.P |.,X;XC.|.) P ; g U p.L.K.U.M F.Q.W.dXMX+X*XwX@X:X:X;X>XuX;XT.p.-.M e h d h 0 1 * * e e @ * * * ; t h / h 0 * * g h L t 0 h h + h B._ E L g E P r r L E ^ P g L P L & - g g L E P L L U P L r ; = R 9.6 z M @ w 6 m d 5 w d f l f 5 6 6 k ;.",
"f.=.M =.T Q 9.6.2.M m T T 0.Y R ! z Z :.o.G o.} a v 8 a Z n c c Z o.r.F T =.Y l q 5 w M D Q H z z H 6 < 4 4 % 6 * * # + % * * * # + # o X X . . o o O o o o O .           X * = t h f d h d f C M l l f l l l f 3 M 2.=.D D Q Z R V N h h h h E R U h e R =.Y l w M T T ;.G =.G A >.>.n z *.e.>.:.G o.b } c n Z 0 $ $ 5 6 7 f m l x 6 c A } n x 6 M w 1 @ < 5 < < w z | A c k 6 $ X 4 z 5 6 4 4 e V D.qX$XS.9.Z b c G c b <.5.| T M C e.NX'.<.A '.yXC R R 1.Q g y.].].n.D P 3.w.6.6.6.9.q.q.6.6.d.2.Q 1.D Q -.-.1.M 7 6 w w 4 5 q V B z n o.9.~ * o             . o . # # : : ; ; ; ; ; : : : : ; : : r E E Q.H.G.t.O.O.t.+.{ O.u.O.s [ +.O...a a 8 8 8 7 6 7 < < 9 v } *. .*.<.e.5.0.d.0.f.f.0.q.d.m.f.m.m.D.g.q.f.6.q.6.0.6.q.0.q.f.M.K.Y.+XOX%X,X1X,X1X2XgXgXgXgXgXgXCXJXJXJXJXGXmXHXkX[ s y.u.t.,.b } 5.*.+.h.pXDXvXVXFXFXgX9XC.T.:X;XY.F.<.{ 0.E.*XpX,XCXFXvXOXT.T.OXvXCXxXVX>X6X;XCXAXY.o.R.rXd.s.zX=XG.r.n <.c.r.-.Q rX>XwXvXdXsXAXfXoXiXCXVXaXvXFX>XeXnXSXzXT.~.v.O.o.c.R.=XMXhXzXzXnXfXW.U.9.Q F o.:.} S 2 % @ M c o.<.>.t.O.X.O.X.X.O.X.>.<.,.} c } | } c 6 x x 6 6 c 8 k 8 v 6 7 7 7 9 8 { { a p 9 9 p 7 p p k 8 8 A n x c n { { v { a a { [ #.@.].lX(.H.@XZ.B. XB.|.' : E E ` I ' I B.) h.%X^ P |.OXB.A.B.C.` ; L / R M.*XK.d E.`.D.tXdX@Xd.K.7.d.! ! d.V d 0 0 j f 0 t 0 * 0 0 - & e U % @ * 0 r h L E g 0 0 t j * * * t h j 0 - ^ h.) _ ) E P P P P E ) ^ ^ P L g O & P I L I L g r L L g g r ; d ;.5 m V 2 m 5 k l 4 1 q f M m d f l e m ",
"6.C x F G ;.9.;.;.S D Q 2.d.=.D d C S F :.| n  .v A A c H x c b x x n G Z f 5 w 5 f M m m d 5 m l 6 4 < 1 3 3 < + @ * * 1 * 0 2 # & + + o X .   . . . o o X # .             . o * h 0 3 f f h h f 3 q f l f l d K 4 T 6.T M S C M Y h e h U h N ! U h N Y Y y 6 6 w l =.e.o.*.o.n &.G x o.G o.:.o.o.} n n n f @ + 4 d C m l m M k 6 z Z Z A &.A 6 Z M f w f w 4 1 % + % @ < M T Z M D S =.-.l 6 % % M M.rX6XW.J.>.H G.X.8 p k 8 K 6 k p } lXy.< v.lXR ( ~ 1.( R C n /.lXJ.F V 9.c.9.m.2.M S 2.4.Y Y ! 7.4.1.2.0.c.C 5 6 q < 1 4 4 C T T Y f & .               . . o O # : : & : ; ; r I r r r ; g ; r P L E D.J.y.u.O.t.t.a { ..+...a ..a { v 9 9 p k 8 v 9 7 7 8 9 { X.|  .<.q.9.9.q.w.f.f.f.g.6.0.m.m.M.D.D.m.0.q.q.q.2.0.0.0.6.q.m.M.K.T.&X#X%X-X1X1X2X2XgXgX3XgXxXVXSXFXFXFXFXGXAXnXnX`.J.H.).).7X8XrXkX5XnXGXAXMXfXcXmXSXAXbXeXsXgXsXeXL.Y.=X0XhX:X0XbXSXSXiXOX<XU.W.$XiXvXzX>XsXY.T.zXdX#X*XOXj.>XaX:XuXwXG.W.6X6X!.c.nXwXzXMX*X!.eXwX:XvXSXCXvXGXFXxXv.G.zXMXsX*X`.w.<.J.Q.Q.rX9X=XzXmXAXeX~.K.d.&.M Z n &.f 1 % < A } X.O.O.>.o.X.X.O.O.b o.| o.:.n x z J G w 6 p K 6 B 6 < 7 y 6 k 8 7 7 9 a { a v 9 a v 9 v a 8 6 8 b c x } { o.O.v 9 s a [ [ @.@.].lX'.G.Y.a._ _ B._ ' & P ) |.' ` P B.B.L |._ r _ +XB.( B.h.r L L _ V.D.,Xj.5 9.`.L.=XW.:XM.P.p.p.m d f * * * # * t t * * * h r g 0 V G.m r * @ 0 L g t t h L 0 * # * 0 t j U U 0 h L U E ) ) E E ^ P ^ ^ ) ) E P L ; g ^ P L L P L g L P P L g g 0 h h M w 4 M 5 x f 5 4 6 l f M S V d l Q ",
"7.-.=.S T q.;.0.c.&.=.=.q.D.D D =.=.F o.e.r.G G G | x 8 6 6 k c H p z &.T l l M l m m f d l m S l 4 4 < 2 q 4 % + + * * 2 2 0 0 = * # + # o     . o X O o o # .           .     X g 0 f d d d f 0 0 d m l f l l l w M T Y M m l d m 1 0 h h f h R R Y V V l l w k l k 2.q.F G o.&.;.G G } } <.<.:.<.G n G G 5 % w l M m f C S S Z z Z 6 z z G A c G S l m d 6 w C l @ * + * Y =.f.0.w.=.0.d.C K 6 6 k 7 c.c.D.Q.!.q.E.v.p 7 7 o.9.p y z p <.rX<...8Xw ~ M Y V S / V a '.lXu.&.q.m.2.f.=.D Q ! Y ! ! Y ! =.1.=.w.Q w m l 4 5 m Y C M l q - .               .   . O # O # : : : : : : ; ; ; g ; I r ; E P g U F.R.H.t.O.u.@.a ....@...{ { a { 9 9 8 n v 7 7 < 7 7 a b { O.| *.e.q.q.w.q.q.f.d.0.f.q.f.m.m.m.D.D.m.q.0.q.q.6.6.q.0.q.q.f.M.K.T.+X#X-X,X,X1X2XgXgXxXxXxXxXxXCXgXgXVXSXFXGXMXwX*X=XQ.6X!.J.).'.H.=XGXvXeXaXaXaXzXcXAXcX:XaXsX;XiXaXAXFXCXvXaXvXFXMXvXzXdXsXp.G.D.OXVXxXAXAX9XU.zXGXFXGXvXuXzXAXhXaXAXzXmXdXwXG.S.tXL.=XzX6XS.Q.qXmXSXHXvXaXFXPXxX9.e.9XSXAXcXMXnXrX).w.w.6XrX9XzXMXGXzXmX9X=Xm.=.Q z C d 1 @ < k G <.o.X.<.>.>.>.X.X.c A G Z z H Z k z G Z 6 7 6 7 6 p 6 7 7 < p b p 9 9 9 a a v  .v p v { v 8 6 v  .} c b {  . .[ a { a a { #.#.'.lX'.R.M.a.C._ h.B.` & E h..X` I L ^ B.g B.%X* P C.) ( C.) g g P E V.=X9Xp.0 C 8XQ.6XeX*X4.N U / e 1 4 2 * * - 0 t 0 * t 0 U t 0 r 0 F e g 2 * ; 0 0 * 0 t 0 * # & t 0 * t ^ E j # r E U ^ _ ) ^ ) ^ ) E ) _ ^ E P E ^ E P L P P L P L g g g g g g t 0 C q 6 k 6 l z l 5 3 l w 5 d V M m C ",
"0.7.=.D =.-.F k.q.e.6.-.2.-.D =.=.=.D F ;.Z k k z z 7 5 5 6 x G &.n G ;.;.9.0.! Y V d d d l V V 6 < 4 1 1 4 % + + & * * 2 * * 2 * * # # & o     . O o O o # #           . O .     # * d d d d f e 0 0 e f f f d m 2 w Y V M m l M M 2 h V N N 8.Z S M M ! 2.Q m l S Z 2.;.F n Z 9.e.&.G v.e.e.<.:.:.G X.:.k 6 -.;.G Z F D D S T D Z Z z Z Z G &.*.r.T M C S M l M S d h 3 % m c w l 2.f.@X9XE.F f x G x 6 n r.S.F.I.R.`.6XR.o.e.v.H Z $.G 7 r.NX(.`.w ! o.;.e.f.w.G.H &.7X8XS l -.Q =.2.V ! 8.! 1.3.! ! R =.-.m.w < N q 2 q C e 2 t * X o o O > & O . . o O & : : : : ; g r : : : ; ; ; ; I r I g L E g P E U.G.S.t.O.t...a @.O.t...a { { { [ a a 7 8 7 7 8 8 8 8 b {  .X.>.e.0.w.w.w.w.f.f.f.f.m.M.f.M.d.M.M.M.q.0.q.f.6.6.q.0.q.q.f.K.P.XX+X%X-X,X2X2X2X3X2XgXxXxXVXgXxXxXSXKXKXLXFXFXSXSXSXGXGXMX>X9XJ.v.*XVXhXcX>XaXmXtX9XgXsX:X,XmXmXVXJXKXLXAX>XcXcXvX;Xa.:XwXzX@X0X2XxXLXZXFXSXvXrXU.0XvXvXdXnXzXJXHX$X$Xq.R.6XwXR.r.I.6X0XdXwX=XY.pXpXOX0XgXaXFXJXJXJ.y.~.rXzXzX=XrX6XS.e.H.6X6X6XtXvXAXaXHXzXmXrX=XK.D z $.y 4 < 6 x y.<.<.<.:.r.e.<.<.:.n z z f w 5 3 * 5 6 w 5 5 8 8 8 6 8 v 8 v b } { v v { {  .X.{ p a b v p v n b v c { } } a 9 a s 9 { ..@.u.].lX7XF.8.s.B.W ^ ^ ` # ) _ h..Xr g P P g ^ |.L U _ P A. X^ L r L h a.wX=XP.N 5 J.).$X=XK.U 3 h e * ; * * * - - - 0 0 2 0 t h r ; 0 1 w 0 ; * * 0 * + & 0 t 0 t 0 ; ; ; ; * j r 0 ; L E ) ^ / ) g E ) s.) ^ ) ^ ) ) U ^ E E P P L L L h j h g h L g r ; e f m l f l l w d q < e e 3 d m e q ",
"f.f.;.2.e.e.9.F.9.;.q.q.D.f.&.F M M H G G k 6 6 w f < 5 w 5 f H F A Z F ;.w.6.=.4.1.m m d q q 3 1 < 5 4 % % # & * * * 4 2 * * 2 * * & & & # X     O O o o # O             O         . 0 d C f f 0 * 2 2 3 4 4 f M < w Y m m m f S T m d m C V d.V S S =.w.9.;.Q C T Z =.;.:.*.o.e.9.:.r.r.| :.9.:.| F >.:.z &.0.G G A G F F S D D C z S D S F Q ;.&.=.C D ! ! 6.! V d U V q < 4 y z F f.0XsXpXK.S m 6 x p z 9.;.S F f.Q.tXtX6X7XQ.v.G.Q.6Xn < H.lX'.D q.v.e.9.w.H.H.G.-.$.NX9.6 R Q -.6.=.7.d.! 4.7.=.R V D &.6.w q g * * 0 * o # ; - + 0 ; & O & ; & & - : : & & ; ; ; r r ; ; ; ; ; I I I I I L ^ I g E ^ F.H.H.t.<.t.{ [ O...+.a a { a 9 v 8 7 < 7 7 7 8 9 8 p b O.>.,.e.e.w.q.0.w.f.w.f.f.f.m.M.f.M.d.K.M.D.d.0.q.f.7.0.0.0.q.d.M.K.oXXX+X%X,X1X1X2XgXgXgXZXZXVXgX-XxXSXSXFXLXFXHXJXJXFXFXFXGXJXsXdXzXMXMXvXfXbXbX,XQ.Q.rXGXSXzXzXDXAXsXcXAXKXvXL.9XpXAXvX=XaXaXvXvXFXKXJXLXFXJXVXvXDX<XE.@X=X*XdXsXAXHX=XtX6Xv.J.8XJ.*.2.dXdXzXmXvXaXCXxX+X*XzXvXFXCXSXJ.n Q.W.Q.6XG.6XeX6Xv.J.rX5X!.G.*X:X0XwX9XzXrX9X6X4.2.S.G l 1 C x <.<.e.e.e.<.e.9.;.r.;.z m w % 3 % X @ % 5 0 3 f p 8 v c v v b v b }  .} { v  . .v 8 7 8 a } } n b A c } b b v { s 9 9 { ..@./.'.lX6Xf.i.V.i.E P _ `   _ _ B..XP ; P I P E ^ r ^ _ g B.B.` I P E j ~ dXC.Y.C 3 e.6X6XU.V.N N 0 * + - ; * * * - # * q e t P r ; * * h R * - 0 t 0 * 0 0 0 0 ; j 0 * # ; 0 * r j g / ^ U ) ^ / / U ^ ^ / ) ) ) / h.^ E / U U E ^ P U W h h C g g L r 0 r e h e h f q e 1 * 4 + 1 0 t d l d l ",
"D.D.w.f.9.w.e.v.D Z w.e.w.q.=.&.Z G Z 6 6 6 5 6 6 f w f d 5 f z Z G F F =.r.F T K.7.m q q 4 2 < 1 3 3 % % % = & * * * * * 2 0 0 * & # # # O o .   O o o o # o             o   .   .   . - C j e 0 0 f q q 5 q h D q D -.M S C M Z D V q f m m m V Q =.2.Q S 0.;.f M G ;.w.e.<.:.:.&.&.v.9.G ;.:.:.o.*.*.n M 0.9.&.:.G &.F F F $.=.Q D D D T Q D Q D q.1.N.d.d.K.K.K.d.0.=.2.2.m 6 w k S T.XX=XdXd.6.=.S z M G &.H Q S.Q w.tX6X).J.).7XJ.`.e.G n '.'.;.:.<.&.r.e.6.9.w.A 6 H.).G Y R Q 6.-.2.0.F ! 7.7.p.1.=.-.S M h e 1 X o # # & : # o - - # o - - & - - & # O & r ; r I I I I I I I E I I I P P ^ P U ^ ^ m.R.H.<.O.O...{ +.+.+.a [ a a a a 7 7 9 9 8 v 8 8 8 { { X.*.X.r.9.w.0.0.w.f.w.d.d.0.m.M.d.D.d.D.M.D.d.q.q.d.q.0.7.q.q.f.M.K.oXXX+X,X1X1X1X2XgXxXxXVXCXVXVXgXxXFXFXVXAXFXvXSXJXLXSXSXVXFXFXHXSXvXpXjXdXzXvXMXJ.} U.gXsX0XeXvXMXAXiXuXAXmX~.6XzXCXCX>XaXpXxX1XcXaXgXiXmXvXhXFXCXzXtXrXvXGXLXFXSXJXSXMXnX<.X.9.v.Q.=XtXeX*X,XxXxXFXFXaX=XpXcXbXAXDXR.b 6X6XI.J.J.rX~.R.<.<.J.rXrXzXAXmXzX9XwXzX=XR.tXE.H.R.>.:.M H o.e.w.w.y.y.r.e.w.9.9.5.&.m 5 % + + + + % @ % 1 6 p v A  .}  .{ { { X.X. .{ X.X.} v 8 8 6 p } } n { n 8 { v n a a a 9 [ { ..x./.'.nX6X6.a.Z.) ^ ^ B.`   ) E B.) P : g g I L L r ) ) L _ h.P ^ ) L g W wX7.wX! q X.S.nX1.h h U g * * ; 0 ; * & ; * & 2 0 e h 0 + * * N e & 0 0 ; 0 2 0 t * 0 * 0 j 0 * * 0 P ^ h.h.a._ g h s.h./ ) _ ^ / E ^ ) ) U h ) ^ ^ ^ ^ ^ U P h h C U L g g 0 0 r L t 0 f 0 - t * 0 * & 2 % @ 1 w V q ",
"0.f.f.D.w.w.:.:.z k Z Z &.J :.=.A G Z 6 k f 6 5 M D Y V m f S F F Z G &.=.r.e.q.0.7.! q 0 3 4 4 4 2 % @ & & = + * * * * * 0 h 0 * * # + # O X X   o o O O O .             .               - j g 0 0 0 0 e q f d m l Q ! S Q D C D D V d h m m e d w m -.k f T Q k Z =.r.y.9.r.r.r.:.*.9.w.r.o.r.*.;.r.H G Q q.9.;.:.A &.F G $.&.1.1.Q Y D 6.-.-.-.1.M.N.d.M.K.Y.L.E.G.F.$X!.rX6Xm.-.D m q.M.D.rX6X6.U.m.f.0.M l m f.9XY.q.:.p { y.v X.y.H.`.H.<.J.].'.b.:.2.;.:.Q 1.;.:.:. .b.;.6.C -.=.1.! 2.2.p.4.! ! 2.6.! l V h N L & # ; ; - o X o & # O o # # O & # & & : : ; ; I I L P L E P P E E E P E ^ E P E E ^ q.J.S.<.t.t.t.{ +.{ { { ..{ a 9 8 a 9 9 a a 8 7 7 a  .{ o.*.,.,.w.q.d.f.f.f.f.f.d.f.m.m.d.D.q.M.m.M.q.q.d.0.f.0.0.q.0.f.M.K.oXoXoX;X,X1X2XgXgXgXgXxXVXCXxXgXxXFXFXCXVXLXFXAXDXHXMXrX6XrXFXKXJXcXR._.!.J.v.).O.7 k.zXVX,X*XtXwXAXFXvXCXCXvXeXpXvX=X9XbXcX,XdX`.o.S.!.vXvXvXGXAXvXmXVXzXzXMXAXdXzXMXDXnXI.R.S.,.G.=Xv.v.G.Q.rXR.Q.zXDXvXsX9XMXAXHXrX9X~.6XdXfXcXvXzXtXK.*X9X6XfXtX~.8XMX9XwXnXzXQ.8XrXiX<Xd.0.k.5.5.D.S.w.G.G.w.G.m.q.w.2.6.Q d 3 4 + % 2 3 @ % 1 6 8 b  .O. .>.X.X.{ O.} >.X.X.>.>.n v v p p } } a v v 9 { o.b a s a a ..[ #.[./.yXNX9Xd.V.a.) P ^ ^ ` . ^ L -X) L I I ; I I g L ) P r ) _ - P h.j h L N.L.W./ h <.e.nX~ 0 ; t 0 & # - ; ; 0 h g * * e 0 0 t t + % 0 h & & + & & * * ; & & * * ; 0 0 t * * 0 L _ _ i.h.^ L ^ ) s.h.) ) E E E E ) ^ / ) E U E E U E h E U N U h r g g r r N g t t * * - 0 t * ; ; ; t e 0 4 % ",
"6.q.-.-.;.9.| c z z Z G G z F o.&.:.=.Z G C M H Z Q =.-.Q Q 2.;.T z Z ;.=.;.;.0.=.d.Y 1 q q 4 3 q % % * * = * & & * * * & t h t * 0 & # # O O o   o o O O O               .     .           X & * * & * 0 0 d h m m V V D T T l Y Y C d h V R d d d f ! l 1 M T &.Z &.e.w.;.r.<.e.:.F &.9.J &.&.F &.o.H ;.0.q.q.;.=.F T D M T &.! =.! Y ! 6.7.d.2.Q 1.M.0.$X$X6XR.).6X8XnXtXnXnX6XQ.6XQ.rXrX~.tXtX9.m.W.Q.6XR.9.k l 0.9X6Xe.7 X.yXv.X.X.H.'.).b.b.(.'.'.H.S.e.c e.y.9.J w.v.n.J.).&.;.w.2.0.D.f.p.Y l m ! 0.1.V h r & t # # o o : o X # # & # X & # # ; : & # - - ; ; r g L E I P P P E ^ ^ E E ^ E E ( ^ ^ m.H.S.t.t.t.t.a +.+.a [ { ..{ a { v 8 s a a 8 p v v  .} X.>.<.9.w.d.f.f.f.f.m.m.f.M.m.m.q.m.0.m.f.m.q.q.d.7.d.0.d.q.0.q.M.K.+X#XOXXX%X1X,X%X1X1X2XxXVXSXxXaXCXJXLXSXAXLXFXAXMXAXzXwXtX9XxXCXJXJXpX6XR.).y.<.| B 0.:XDXGXMXbXW.Y.zXMXzX>XvXMXvXvXT.sXCXZXOXOXxXbXpX<XtXU.w.G.rXAXvXVXrX5XuXAX=XG.AXGXnXwXMX8X(.rXN.e.r.0.$XzXW.L.OXvXHXVX=XMXAXDXfXnX8XQ.6XqXdXAXzXkXmXdXmXnXmXmXJ.Q.zXdXeXrXdX9XtXtXMXMX=X6.y.S.S.m.G.v.H.F.S.S.c.c.d.q.9.2.V 2 3 % @ 6 x k 6 6 7 7 v o.,. .>.O.{ { O.X.{ O.O.>.O.b b p n p p }  .p 8 b X.b 9 9 s { [ ..[ #.x./.lXNX=X8.p./ U L U P P   ^ h C.C.P I I ; ; I r r ^ - g ) ^ r g ( h 0 E U N.=Xa.U y.J.zXV.& ; & & * * * 2 * * R h * 0 0 0 0 0 0 0 3 N 0 + # @ 2 * # @ # * 0 ; * 0 t * ; # * - r E E / E / E h h _ _ _ ) ^ ) ) ^ E ^ E ^ U E P U U L W W P h L h g h r r h U h r t - * ; 0 * - 0 0 ; * * * + # ",
"G :.o.G &.:.n H &.&.G :.A 6 z z G &.F Z D &.2.;.Q F =.0.-.-.;.&.T z A S 6 M Z Z ;.=.< < 3 3 2 3 3 @ * * = = * * * - * * = 0 t 0 * * & o o o o . . O o O o O       .                     . .     . o o o + # e h d V m d m l S V R Y d d h V V e q e 4 f C 2 q m =.l F e.9.:.e.e.<.*.G r.F F w.;.r.:.&.=.Q &.:.:.2.=.M Z F -.=.Q S =.7.6.q.7.q.7.C f 3 m Z e.G.w.o.<.:.r.e.r.J.6XJ.y.H.).7XrXrXrXrX~.c.R.y.J.Q.`.G.S.2.d.6XnXR.:.).`.).b.H.(.H.b.).<.v.`.'.y.v.v.-.X.w.6.Q.).b.7XrXQ.2.T =.q.=.8.7.1.V S T R 1.Y r &   O   X & & ; & & 0 r r ; g 3.U t h ^ E r r & O & ; I E E I P ^ ^ ` ` ) ) ^ E U ^ ^ E ^ m.H.S.v.t.u.O.{ t.+.[ +.[ { a a a 8 9 p a 9 9 v a a  .X.,.<.,.e.9.d.f.f.w.w.0.d.d.g.m.m.q.w.9.f.m.m.q.q.d.0.0.q.f.q.f.0.f.K.Y.#X#XP.+X;X1X,X|.%XgXVXCXCXxX>XvXGXFXLXJXKXGXSXvXAXvXmXdXeXGXcXwXJXJXvXpXvXvXfXMXJXSX;X0XAXJXKXFX6X:XcXiXwXvX3XvXL.@XFXZXAXvX;X>XcXgXcX9X@X=XS.I.AXKXLXSX0XxXJXNX!.>XDXwXvXDXtXH.zXsXQ.tX6X@XzX9XzX=X>XzXfX9XvXcXSXzX=XwXdXrX9XtXrX=XU.NXqXD.tX8XrXH.S.tXzXvXMXMXmXMXzXHXAXHXM.J w.F.L.D.G.G.F.R.F.F.G.M.m.0.0.-.q q 3 5 z G &.D F n a x {  . .>.X.X.{ {  .{ { <.X.b b } p p v 8 9 { b c { { p 9 s a a { ..[ #.[.].yXnX@Xd.~ h L / U E L - P r U i.E ` I & g I r ^ ^ & I g r ; g ; ^ # h j / rXp.U <.v.qXoX+ ; 0 0 * * - 0 2 * 0 0 0 * 0 0 h h * 0 V 3.t - & + * & - 0 r 0 ; 0 * * ; & # # * h U U L L P U U U ) i.^ / h.i._ ) ) _ ) / / / E E P h W E U U L P L h g g U U E P h g ; 0 r 0 ; * & # & + # # # + ",
"6 n <.:.o.:.=.$.D S F =.Z z S M M H Z Z Z :.e.9.J H H H &.=.;.T D f Z G x G 2.2.J 6 1 3 3 3 3 2 & + * * & * * 0 * * ; # # ; ; * # # # # O o o O X O # o o O                           . . . O .   o # # # + * h f h h q f d C D U C h d q N h h q q 3 4 Y N d h V w F 0.;.;.r.9.:.o.&.9.o.=.w.9.:.<.;.9.G =.=.;.;.9.H Z =.m.r.2.J 6.0.6.0.Q q.q.Q 7.6.D F e.G.e.e.G.F.F.G.} G R.J.v.`.8X`.7X).7X`.6X6XtX`.Q.I.).J.G.:.:.R.6XJ.X.v.(.`.`.y.).b.H.J.a <.O.'.'.J.Q.J.w.G.H.R.H.v.J.).6Xw.5.;.S f =.-.Q f D 3.l U L g & # - X # r 0 * ; * h r r P P a.U r j P E U L r r g g L P E ^ ^ ^ ^ ) ) ) ) ^ U E ^ _ E ) D.G.G.e.t.y.O.+.@.{ [ +.{ { { { v a a p 9 9  .a 9  .O.} O.<.<.<.9.f.0.0.f.f.f.M.f.D.m.q.0.m.0.f.m.M.q.0.q.d.7.d.f.f.q.q.m.M.T.XXOX;X%X-X-X-X1XgXVXCXSXSXxX1XxXSXFXGXFXJXLXGXAXMXvXnXzXwXHXDXdXSXKXmXxXJXKXKXLXLXCXvXzXsXxXLXGXSXGXKXSXzXAXJXGX=.=.$XxXVXCXxX6X:XAXLXVXAXzX2.k.hXLXKXCXsXFXLXHXlXqXmX~.:XzXQ.*.g.0X6XzXrX6XdXpXaXdXmXeX,XrXrXrXDXGXvX=XtX9XqXrXnXzX6XmXnXW.=XL.R.7X).MXdX*XMXMXvXJXNXbXbXAXV.e -.R D.D.q.;.r.F.F.R.D.D.m.c.q.q.M w z H D Q 2.&.&.| n a v { o.O. . .O.b {  .+.X.} { b A p v p 8 b } v b { { 9 9 9 { a { [ [ #.[.].nXnXW.d.U t E ) W i.- g j U ) ^ P .XP & ' I ; ^ E g ; & ; I I : Z.0 V E ~ dXC.Y S 6X6X=XU & 2 * * 0 2 0 2 * * e e h h 0 t e * 0 E h * + * * * & * * 0 ; - - * 0 0 * & X # ; W / U g r L E / _ s._ _ i.i.a._ / ) h./ ^ ^ ^ E P U E E U U U P L L h h R U U h g j g g g - ; ; & + + & & o o # ",
"6 k | :.9.e.;.&.C D S 2.=.2.&.C l M D D :.e.:.F F G G k Z &.5.&.Q F Q 2.:.&.9.2.5 5 3 3 0 1 * * # * 0 * * * * 0 0 * ; # # - * * # + # # # o o O o O # o O O                     .       . . . . . O & & + + + g 0 h N d d f h V N C m N N V h e e N h q R C q N Y k z $.e.6.r.r.r.r.r.9.:.r.9.9.:.9.;.-.Z -.;.;.9.f.&.T 5.S.r.e.0.9.0.w.6.-.6.q.0.U.NXzXrXnXnXrX7X`.tX6X8XrX6X~.Q.J.H.7X`.rX`.Q.).7X8XtX8XnXzXrX8X`.G.8 < *.J.v.v.v.v.J.y.H.J.'.J.x w.>.,.).J.v.).).Q.9.A Z p J.).8X6XQ.5XL.=.2.7.6.m w =.V d # & ; ; 0 * +XpXt L E U ^ U r r g U U h L P / E U E E E I I P E ) ^ ) ^ ^ E ^ ) ) ) _ i._ / j.G.v.G.<.<.t.>.O.O.{ +...{ v t.O.v a a { { O.{ 9 { X...{ >.<.,.e.9.f.f.0.q.f.w.f.f.K.m.q.q.m.6.f.D.M.d.q.q.d.0.f.f.f.q.m.M.M.P.XXOX>X1X2X1X1X2XxXVXCXSXSXxX2X2XVXFXLXJXKXJXFXAXSXvXrXzXrXmXDXBXAXFX=X!.6X9X,XvXGXGXAXAXmXrXAXJXKXFXAXaXW.>XGXHXG.H.A 9XFXPXLX`.M.CXCXxXvXbXm.v.H.#X;XtX6XfXzX6X~.k.b.<.rXHXnXyXfXzX6XvXzX~.tXwX*XdXcXzXeX=XQ.6XvXAXhXdX9XW.W.6XrXrX!.6XnXnXnX=X!.tX~.fXmX6XzXHXvXHXmXmXGXMXN.* Y m Y =.Q Z M =.D.R.R.Y.U.D.q.m.=.G F -.-.q.d.9.9.;.=.G n b } O.} o.{ {  ...{ { } o.b } x p p p {  .{ n v s 9 s a [ a ..[ ..#.[.].nXnXV.! h h / E / i.g _ j L ^ g P C.^ > I g o P ^ E : ; ; I ; r h.t g g / tXW.7.T ).W.8.h 0 N 0 2 0 0 t ; * 2 h e 0 t * 0 L 0 e U * 0 * * * * + * * 0 r g t 0 r r 0 & # & O P _ U ; r L / _ ^ ) h.h.h.i.a.h._ / ) ) ^ ^ / E U ^ R N W U U P P U E U U U U h r g g g & & - ; - & & & & & & # ",
"G :.&.o.r.9.| G D S Z ;.2.9.Q S M M Z D Q D K k z G F c x Z &.Q -.T z &.&.&.9.! 3 V m 0 * ; 0 = * t 0 * * * * t h * * * & * & # & # # o o O O o X O O o O # .                       .     . X . . . o & & & + ; t f h 0 * 3 e 0 0 d d d N h U h 0 h h d V V q q ! M f x w.c.9.9.9.e.9.;.;.v.r.;.9.S.9.6.F F z G &.1.1.T ;.G.r.r.9.9.9.;.-.;.=.=.;.;.$X$X6XrX6XrX6XW.rXtXrXnXdXwXrX=XG.6X6X6X6XQ.).).R.tX`.`.~.rXlX6X8XG.o.y.'.J.`.).J.H.`.`.b.(.v.v G <.t.'.'.n.y.J.q.C Z F < o.n r.6XrXtXtXQ.D.5.:.M d =.T C S 1./ r r r U ~ 2 U P E E h h h h U L h L r E ) h r P E E ^ ^ ^ ) ^ _ ) _ ) ) _ s.) i.h._ ^ j.q.v.v.<.>.<.t.O.O.{ O.O.a a {  .{ { { {  .{ a { <.O. .{ >.,.,.9.w.f.d.f.f.m.q.f.M.U.D.w.0.m.6.q.M.M.d.q.d.d.7.q.q.f.m.D.D.M.oXXXOX>X2XgXgXgXgXxXZXZXZXZXvX1X-XxXLXLXJXKXJXJXJXJXDXeXrXdXdXzXwXsXvXmXdX0X,X0XvXxXCXLXSXvXpXAXAXJXGXAXAXbXpXy.X.v.(.X.y.~.wXGXmXL.vXGXzXQ.Q.U.v.t.G.G y.H.>.tXzXtX6XR.w.G.o.G 5XzXbX6XwXmX9X~.6XL.!.<XwXrX*Xr.e.wXvX0XzXmXmX6Xv.v.nXrXtXtX9XwXdXnXBXzXzXAXmXQ.J.~.eX=X9XHXNX9X@ 0 N m V S d l f D q.K.U.W.U.D.f.k.w.w.9.w.D.f.f.f.0.6.&.G | o.X.o.o.{  .X.O. .{ } >.X.} } c p p a p } { a 8 a [ ..a s ..[ #.#./.].nXrXC.i.g U R C a.U ^ i.^ P P L ^ A._ ; ` P # ^ ` ^ & g L g P E ) 0 r 0 W U.=X-.R ).rXa.* r 0 0 0 * 0 e 2 * ; ; * * 0 * * h 0 h h 2 t * & & - 0 h r 0 t r 0 ; - * r 0 - # # ; E P g j P ^ E E h.h.h.C.a.a.i._ ) ) _ ) / / / / / Y f h W U E U E R U U U U U P g 0 - & & - & - - & & & & & & ",
";.&.G G F &.D G T T S T -.T m S T D S m l f 5 K z z x x 8 k Z Q T C k f z &.M 5 % S ! 0 + * ; = 0 t r r 0 ; & - h * * ; * * & & & & O X . O # o . o O o O # .                             . . .     o * 0 = & + & * 0 e 0 0 h 0 % 3 f h N f h g e h h f V N 0 h Q M l M 9.K.w.q.D.w.w.6.6.9.&.:.-.q.0.w.;.Z k F -.~ ! &.X.e.y.,.e.=.| &.r.9.;.Q 5.;.6X6XtXlX~.Q.6XrXnXnXdXzXzXmXMXzXrXzXrXtX8XtX).6X6XrXJ.Q.v.w.`.6XtX).v.>.J.Q.'.).J.v.yXlX`.{ 9 < p } X.(.'.'.w.A S q Y m < F } c :.k.Q.6X6X).J.G.=.Y ! r.6XK.=.8.E r 0 * * r g r r 0 r L r r U U ^ E g ^ h.U P E E P E E ) ) ^ ) ) i.i.) _ _ h.h.h./ / i.-.v.y.<.O.>.t.O.+.b t.t.b a p { { O. .{ { a { X.X. .{ X. .>.e.e.w.f.f.f.0.q.q.M.K.U.D.m.9.m.9.q.M.M.d.d.d.d.7.q.0.m.D.D.M.K.@XOXOXuX2XgXxXxXVXZXZXZXZXZXxX1X2XFXLXSXSXLXAXSXFXFXMXwXzXDXfXdXGXSXvXFXGXFXJXmXqXSXFXVXFXJXSXmXpXCXJXFXLXFXGXb.s a { { y.o.o.&X*Xv.6XVXhXyXR.=X=XH.5Xr.<.(.{ v.zXzXrX9XpX`.a 7 D.vXMX=X!.vXzX6XG.G.m.Q.rXrXrXJ.H.~.tX@XW.$XfX6X<.o.6XzXwXmXMXzX6X6XQ.wXzXAXFXrXJ.`.tXR.L.MXdX9X0 e N N m C d m l d S S -.W.R.Q.w.y.w.v.w.L.K.D.D.D.m.6.6.&.G n o.o.o.{ X.>.>.o.b } o.} c G b n n b v } v s 8 a a { [ { ..[ @.#./.'.lX~.Z.~ f h U h a.g / +XB.^ g E P A.C.E h.L : L P _ # r P L E E E L h 0 W W.`.0.4.!.6XB.& P + = * & * t 0 * 0 2 * ; * * * 2 2 h t 2 0 0 * * 0 r h h 0 r ; ; ; - 0 r g g r r g U U h h P ^ ^ h.h.s._ a.h.V.s.i.i.i.s.h.i.) / _ ) R m h E W E U R ~ d U U h R U P r ; ; + + - r - & # # # # # ",
"0.F D S Z F Z Z $.=.=.Q D C f M ! Q S l K K f f f z x 8 p k M S M M Q &.S M q q 2 w 2.D + $ * t t 0 0 0 0 0 & # h t 0 0 * * * * - & o X   . # O X O O O # # .                           . . .   . . O - 0 & & o o + * 0 t r t 0 % 2 f h h h C h h h h h V h d 1.V d d l z 7.q.m.F.;.q.f.0.9.;.D ! =.6.m.6.Q F 6.;.! &.y.(.t.O.>.=.&.&.o.:.9.=.2.=.&.E.*XtXrX6Xv.Q.yXtXtXW.6XzXnXzXdXdXzXrX6XrXtX6XR.6XzX).`.tX~.tXtXtXtX6XG.F.$X).J.J.=.Q 9.F.Q.6XR.G.y.n | G.F.H.X.6 V d.T M } <.r.| F Z o.Q.5XtX6Xf.w.k.c.h X + 0 E / U U 0 L U g r g g L L r E U P U E h.h.L U E ^ E ^ ) _ _ ) _ ) i.h.i.i.i.a.h.a./ i.p.7.G.y.O.O.O.t.>.X.{ O.+.{ X.{ b { X.{ { { { O.{  . .{ X.X.9.e.w.0.M.f.f.d.d.q.f.M.M.w.c.9.w.6.d.D.M.d.0.q.0.q.f.6.m.D.K.D.Y.+X#X,X1X2XgXxXVXCXZXZXSXFXZXxX-XgXFXSXSXCXAXGXJXVXdXzXhXwX6X8XtXmXDXvXHXJXJXJX=XU.JXKXvXdXFXKXJXmXCXvXvXGXKXJX7X@.[ { O.9XvXAXAXMXtXrXxX1XtXA.-XsXwXvX=X<.O.O.o.Q.6XJ.G.zX5X{ +.R.eXmXdXW.zXmX6Xr.G.H.G.J.J.6X6XQ.J.`.7XrXtXrX6XJ.9.J.tX6XwXGXAXrXQ.J.rXmXhXvXMXAXmXvXrX*XDXrXE.* e d Y W V d 4 0 q 3 e d C w.!.<.G.m.9.Q L.D.K.m.f.D.q.d.2.o.n o.o.o.X.<.t.X.o.} o.} n c | A } n X.} p 9 9 9 p { ..[ { ....@.@./.'.lX`.d.m N Y h U s.h / ;Xa.^ L ) g XXC._ +Xg r L L  X0 P h.E r ) h h / V P W.6XS.f.Q.E.Z.+ ^ 2 * 0 0 t 0 0 * * 0 0 0 0 0 * * 0 h 2 t h 0 0 - r t 0 0 r h g g r 0 g g g g r r r L ^ L g E ) a.C.a.a.h.V.h.a.s.s.) i.s.) / ^ U ^ E U R E E E ^ ^ ^ U h / U R E g h g 0 g - # 0 0 # - & & ; - # ",
"2.Q &.T F &.F D T F T S M C Y Q 0.Q M C D z f K 6 Z M 6 l k H M M k M Q m 2 3 0 q 4 m 6.% $ * * * t 0 0 r g 0 # m h * 0 0 * ; ; : # X o X X O O o O O # # # .                       .     O .   X o o # * * & # + # * * ; t 0 = 0 t 0 d h h U h h N h C U h Y d.1.C Y w w D f.D.f.Q 2.w.;.F &.=.0.6.-.6.6.6.6.6.e.;.<.H.yXlXH.O.:.:.:.&.:.F =.;.;.-.0.Y.rXtXF.c n H.v.v.R.Q.9X6X9XwXrXrXrX6XtXnX6XG.Q.rX).6XrXzXzXnXqX5X6X`.G.6X`.v.e.0.1.q.q.$.F.rXR.;.&.S T R &.6X9.F 2.=.=.y.y.r.5.0.=.&.G.w.W.6X6XQ.R.6X/ r U U ^ ) / U U U U U E P h L P g ;X1X^ E / i.h.U ) _ i./ _ i.s.s._ i.) i.s./ s.a.a.a.V.g.V.3.d.S.y.O.<.X.O.O.O.b O.t. .O.p v O... .{ v { +.v { { X.X.,.e.9.f.q.f.f.d.d.d.f.d.K.Y.c.w.9.m.6.d.D.m.d.q.0.0.d.f.6.m.K.L.L.K.K.oX#X,X,X2XxXCXZXCXZXSXSXZXvX2X2XVXSXAXFXSXSXKXJXMXmXDXmX7X7X*XwXpXvXvXKXKXKXDXwXVXLXAX>XcXJXKXKXKXVXAXHXJXLXrXb.X.s <.iXgXVXFXAX@XtXbXvXtX:XZXiXwXvXzXQ.!.6X).J.J.t.o.6X5X>.v.).Q.6XzXQ.wXMXNX6XS.J.y.o.o.y.W.!.v.X.v.).tXnXlXrXH.Q.rX`.=XDXSXCXpXF.6XnXtX~.9XaXbXmXnXzXHXBX6X* d m U R V d 1 0 0 2 N 0 * R / N e m f V m.m.K.m.q.D.f.7.9.o.o.o.:.| >.t.<.} o.b } X.v p o.n c b  .{ p 9 a s 8 [ a s +.+.+.@.@._.yXlX:.9.V V U N R R ( a.XXC.P ) ^ * C.Z.) OX^ P ^ P B.U L -X( # ^ j h Z.V 0 M.W.R.I.J.K.^ + E N * * * 0 * 0 * * t 0 t t 2 * 0 h r * h L r j r g t 0 ; ; L U L L L r r r r r 0 L ^ C.B.h.h.h.a.a.V.Z.h.h.a.s.a.B.i.) / / ^ / ) E U / ^ U U L R / ^ h R / R i.h h U L r r g * ; ; # - & + & # # ",
"F F &.2.-.T Q D Z Z D S T T Q T S m m S Q Z l z S S 3 % q d M H $.A G f 3 1 0 0 h 0 + S V @ * 0 P R h j 0 g r ; N U * ; 0 * - - & # o O O O O o o # # O O # .   .                     . O O . o o .   . & 0 * & X & 0 t * 0 j 0 0 0 * h U h h N U W h h R h C 1.7.R ~ l M C -.0.0.&.-.f.6.2.-.=.0.0.6.=.1.q.m.d.D.r.A k l q.6XyXv.b G G :.:.:.2.r.9.d.d.9XmXtX).J.rXrXQ.U.w.E.$XW.tXeX9XwX=XD.rXnX6X6XnX8XtX6XmXzXzX9XtX6XQ.W.9XtXrX7X).G.r.f.2.l S.G.6.1.-.m.1.N w.7X<.:.S F <.c z S.S.K.w.&.x <.6X6X~.!.!.-.f ! ! h 0 0 P a.:X8.1.V.s.E h L P j.C.3.^ U i.|.a.a.s.i./ / ) h.h.a.a.a.s.s.i.V.Z.a.3.3.g.8./ p.S.y.@.O.X.{ v O.p  .<.>.O.{ a a a  .{ {  .{ a { { >.O.<.:.w.d.d.d.d.0.7.7.f.M.W.6XG.w.w.m.6.q.m.d.d.q.q.0.d.f.2.m.D.K.M.K.K.T.T.:X2XxXVXZXFXSXZXCXSXZXxX2X-X,X1X0XAXJXFXSXGXHXMXzX9XR.6XwXzXwXpXhXKXKXKXAXwXxXFXFXzXcXVXFXLXJXFXFXAXFXFXbXBX).s J :XwXwXAXvX9XS.6XzXR.Q.AX9Xc.wXhXzXzXfXDXnXrX`.D.wXG.X.:.Q.nXdXrX6Xc.6XdX6XG.e.<.e.H.6XzXR.H.`.lXW.R.J.Q.tX`.e.9.J.H.tXSXJXJXdXU.tXBXW.G.7X~.rXNXDXmXtXrX2 m Y U R N d 1 0 # 2 0 # - - L r X + 2 d C Q 2.f.K.D.f.8.2.G G A r.o.<.y.O.} } v n } p k | A n } { v 9 7 p a s a a a ..@.@.@.@.'.lX6X*.2.V U / / U h i./ +X+XU |.P 0 s./ a.;XZ.P ^ ^ U h.h  X^ * ) U h 0Xp.U 1.! Q.J.`.W.8.+ * U * 0 r t * * 0 t e 0 t 0 0 r L U r r U g r L g g g L g g P g r L g g r ; 0 0 j E V.+XC.a.i.j.3.j.Z.j.a./ ) a.a.a.i._ / ^ E / i.U Y i.^ U E W R ^ R / / R 3.V.L L ^ P g - - & ; - * - - - * - ; ",
"S =.Q &.=.D T D -.-.Q Q Y Y M l M m D T S M l M Y M * * 3 d l k A c A 6 2 * 0 0 t ; X 2 2.e * h h j 2 0 ; r 0 0 d R r - - - # & # # # # # O o O # & & # O O . . . .               . . O o . O # o .     # = & o & - 0 j t g g 0 h t 0 t h h t U U h d h V d 4 Y 1.! V T S C V &.6.&.S 6.0.2.m f S =.d.q.1.8.M.Z.f.;.M j P h x v.'.).e.A A $.:.;.r.w.Y.K.=XnXnX`.`.~.6X!.S.:.w.f.Y.dXwXE.E.L.M.K.).`.~.6XH.;.M.9XvXHXnXtXrX6X!.=XzXjXjX`.^.~.6XtX$XtXR.I.L.q.R.m./ T n.(.v.&.c X.| =.2.1.6XW.S.9.w.Q.6X).R.G.m.S =./ g - U U h 9XfXM.p.p.g./ / / 3.E / i.R / V.a.) a.h.a.h.a.h.h.a.V.Z.A.A.V.C.V.a.p.a.p.s.4.p.F.G.O.O.X.{ } t.a v  .y.X. .{ { +. . .<.O.{ { ..O. .O.y.<.f.f.M.m.6.d.f.p.g.p.U.Q.S.f.w.c.6.m.m.d.m.q.0.7.f.M.1.d.0.D.M.M.Y.=X;X,XsXxXZXZXZXZXZXZXZXZXVXgX%X>XcXpXfXFXJXJXFXGXAXeXrXtXdXrXtX=X9XDXJXKXGX$X$XCXFXKXSXAXvXCXJXJXGXAXHXDXMXMXzX6Xb.b ,.Q.Y.hXAXyXb.$X0XQ.G.*XQ.v.6XwXdXdXvXCXeX*XrXpX,Xo.} &.y.).dXMXnX`.~.wX6XQ.R.R.6XnXzXdXR.y.`.dXpXrX(.J.6XkX`.X...+.w.mXFXMXHXHXGXSXMX7X7XH.5XzXAXvXnXBX0 U V V Y V d e 2 & 0 * - 2 + e 0 * * h 3 3 q Y f.d.K.q.7.2.$.G | <.<.y.v. .o.} o.} A c Z | } v }  .p 9 8 a a a { { { +.@.@.@.@.'.8XQ.5.Y U P ) ( L g / ^ +XV.) %XU r ( V.oX*X;XL ^ E r B.U |.a.U C.R r uX3.p.f./ 6X).).I.C.0 * e 0 t r t 0 0 t g h t 2 ; r r j U 0 t g 0 r g L L r g r r L g r 0 0 g r g r r U  XB.s.V.|.XXXXV.3.a.Z.Z./ ) a.s._ / / / ^ ^ ) W d C V U U E / ^ U U U R / i.i.E E E g - ; ; 0 g 0 ; 0 r ; - * # ",
"S -.-.-.=.S R T r.1.=.! V S C V V Y -.Q Y C V m f m q d f V d 0 0 f h d q 4 3 % + + + # h 3.0 e ; ; ; g ; ; r ; - U r = 0 ; - * # o # # & O O # # # & & & # o .     .   . . . O . O O O & O O o     . # X # # + ; ; g U h 0 * - 0 t e h h h d h U h h t h h 0 Y 8.~ U V Y S T Y =.0.6.0.6.M M ~ D 1.m.s.i.2.<.,.<.J M ! C C e g U b.'.'.b.| J :.J 6.m.w.<.v.Q.0.:.D.D.d.K.6X$X=X~.=XD.D.R.w.E.wX>XK.M 7 p.-.7.5.c.mXrX6XmXrX=X9XtXrXwXrXF.F.-.6.F.6XF.R.R.f.qXM.r.;.S ;.F.<.*.5.S.tXm.=.0.S.w.e.G :.).).`.6XR.e.r.1.U W / 3.U R M.M.~ N.Z./ a.V.8.N.B.a./ 3.a.a.( N.V.C.XXC.Z.P.V.Z.Z.K.L.Y.Y.Z.g.K.P.g.g.d.K.F.e.O.O.{ a a { 7 a { O.v { +.b { v } O.a s +.{ X.o.o.9.q.w.f.M.d.-.1.7.p.f.D.$XW.q.c.f.0.d.M.M.d.m.0.6.0.q.9.9.q.q.m.c.D.R.9X1X2XsXxXVXCXSXCXCXZXVXZXSXvX2XxXSXPXxXxXFXJXJXFXHXBX9XwXzXwXSXJXLXKXJ.CXCXrX6XpXAXSXzXMXFXLXJXGXFXJXKXLXHXfXjXVXFXVXdX=Xd.eXMXzXU.`.7Xb.`.`.5X6XqX~.tXW.zXHX*XD.9XrXv.o.G.F.H.e.G.NXzXJ.`.nXCXvX*X6X9X~.rXtXR.<.H.7X6X8XDXfX#X7XnXdXE.6Xt. .tXDXGXJXKXKXHXzX`.b.6XLXHXwXzXU.2 R U N N N h t 0 * & ; 0 = * ; - 2 3 ; & + j g N ~ 6.0.w.e.6.9.e.G.y.y. .b } X.X.} G v A } b b  .v 8 9 9 a a ..a ..+.@.@.@.@./._.rXG.$.V m U i.) h j ^ s.B.C.|. Xh.i./ ! N.0XXXs._ P L E ^ +XC.,X-X^ h =X7.K.R.D.L.m.d.m.8.* 3 * 0 0 e h g 0 t ; 0 g j j h h e d N h P r 0 r 0 0 0 r r r g W E U U / g.1.4.g.XXZ.h.C.a.C.C.a.V.i./ s.C._ i.B._ / ) ) / ^ / / E U R E P U U U U N U N R / i.s.U N U U E U W W h h g 0 0 & # X o ",
"T 6.-.Y S S =.-.=.Q =.=.V ! ! R D Q Q T D d m m d q 3 d m m N e f 0 0 3 e e 2 * + + * * * N R N 0 0 ; r r 0 ; ; 0 L h = ; - & & & # O O & O & & - - : & : & O O O O O O O O O O O O O O .       .   O g & - - - r * g L t 0 ; & g 0 t h h U h e h e e e h R h N / V ~ h V m S l Q 6.K.m.q.0.7.m.6.6.-.6.2.;.<.>.o.D C =.Y 1.R R -.G o.J.yXR.<. .J r.6.=.Q ;.c.F.D.S.9.k &.Q.=XM.D.J.q.2.U.m.6.L.9X<XY < 3.N.Y ! 7.9XdXnXHXtXW.9XnXrX6XNXR.9.S D Z ;.&.F.Q.R.tXf.c.U.2.=.G.H.J.6XR.R.G.W.w.&.G e.H H v.e.y.7X8X).U.-.p.~ U p.Z.K.Z.d.d.p.i.~ V.0XV./ ^ ^ a.P.N.T.Z.Z.C.P.P.T.C.V.A.Z.Z.K.Y.@XY.d.d.d.M.D.g.M.K.k.e.+.X.{ { s 9 7 b { O.n a { +.{ { X...s +.O.}  .o.>.f.w.f.f.f.p.6.8.=.7.w.Q.8X5Xw.m.f.6.d.m.M.d.q.7.6.0.6.9.6.q.9.m.m.D.U.#X>X2XiXxXCXZXSXCXCXZXZXFXCXxX1X-XcXAXmXfXtXtXFXKXLXzXdXwXzXdXGXKXLXKX7XwXAXhXmXzXzXuXW.dXAXKXLXFXGXJXKXMX7Xb.7XfXvX>XzXdXrXzXAXMXD.e.v.v.v.G.E.nXeX6X6X$XeXzXdXmXzX).v.>.G.6X8XJ.R.kXwXJ.O.v.BXW.D.Q.Q.W.nXNXrXQ.!.tXrX6XmXMXtX6X8X`.`.lX'.<.O.v.6X8XAXKXGXnX7X).Q.SXGXMX9X-.q U Y U C d h t t t 0 r 0 0 X - = & + * t + * 0 0 U f.0.m.m.q.f.D.S.y.e.} b O.>.} n c A } X.X.} { a 9 p s b +.{ v ..@.@.u.@.@./.(.lXF.:.a.~ / h.E E P P s._ B.B. XA.|.E C W.:XZ.a._ P E ^ / OXa.gX XZ.~ Z.N.L.2.$X=Xq.C d R * * * 3 e 0 * * # * t h e - r r 0 L h h t t 0 r P W U U U ^ / ^ ) / P P h h e t s.+XXXC.C.a.C.i.i.a./ s.V.V.B.a.s./ ) ) / / ^ / E U U E E U ^ E U h h U U U / U / / E W E ^ E h U h g r * - - # X + ",
"Q =.=.T R =.q.7.F D R ! ! ! C C R Q S Z V m N m q 2 2 e m q e h e 2 t r t h 0 - # * ; 0 * t h V g t ; r r 0 0 - 0 j h * ; - ; r - : - & & O : : & & & & : - : & O O O . o . .     .                 ; : # + ; r - ; 0 t t * * 0 j t t h C h h g h h t 0 e U h d U U / N m m m m Q Y m.d.m.d.8.7.! M =.k.r.e.>.o.M h h Y h / 8.r.e.d.1.&.9.H.'._.v.e.0.d.6.q.0.H.9.} z 6 2.D.m.-.0.G.f.G.Q.Z.q.0.U.wXN.D ! 1.1.d.*XtXzXrXnX$X9.T D.tXF.6XF.F.0.R F 5.Z 9.Q.S.U.M.d.K.Y.6XR.H.H.R.R.).Q.Q.F.F.:.;.:.9.D.c.c.R.).7XtXL.p.P.M.M.p.d.M.T.M.1./ 3.i.g./ / j.j.g.T.P.oXK.M.Z.V.Z.T.Z.A.Z.Z.p.V.Y.U.Y.U.0.7.0.L.E.D.f.S.G.O.X.{ { [ s 9 { { +.+.{ b b a b b 9 a +...X.{ >.,.q.e.S.K.d.7.1.R R q.v.J.7X).m.m.q.7.q.d.N.N.q.0.0.7.-.9.-.6.&.9.m.!.R.Y.;X>X1XgXxXZXSXSXSXZXCXVXVXVX2X<XdXvXbXcXVXgXxXGXFXVXvXFXJXAXMXFXCXHXNXmXJXAXmXmXmXvXwXzXiXxXCXFXKXKXKXHX`.v.`.dXzXmXtXwXmXfXtXrX!.Q.J.Q.!.U.9XdXwX9X6XnXmX=XE.mXmXG.9.} b y.8X`.).rXrX8Xv.o.(.v.G.'.H.y.G.v.).rX6XQ.6X$XzXMXfXtX`.(.`.9X8X8XQ.,.t.O.U.GXAXmXrX`.6XFXGXHXrXd.U d d N h N L 0 t r ; * & 0 & - * # O $ * # X o ; / U Y N.K.K.Y.U.w.:. .v } >.X.b c n A { O.>.o.n a 9 8 a a O.{ { +.@./.n.@.@./.8XyXd.-.|.E h.^ ^ ) ^ P _ A.%X1X.XB.|.j h =XpXOX|.g E _ A._ sXZ.AXV.+Xs.V.@X*X6.R.6X0.C @ 0 0 * g r r 0 0 e g j r h m m / U U i.U U U ^ / / R ~ ^ 8.C h L g L g - L g g L U |.XXXX|.V.i.C.a.a./ / a.V.V._ ^ / s.) i.a._ / / E U U W W E ^ h W ~ U ~ p.3./ h h ^ / U U W U g U g r g - ; 0 + X # ",
"7.2.2.1.=.R 1.2.M V Y Y Y Y V V l l m m d m h m e 3 2 e e 1 q h e * # ; - g r ; & - 0 t ; t j U W h 0 r r r g ; 0 r h h t 0 g L ; : : & & & - ; - & & & & - & & O O O . . . .                     O : o ; t ; ; ; - * 0 0 * 0 h g - 0 h h N h 0 t N h e h U N V C U U e 0 ~ h N 1.C ~ 0.0.=.1.1.Y l S 9.,.X.o.1.Q d 0 h d C &.>.G.D.1.=.F n <.b.).`.G.q.0.D.9.e.o.n Z T U.U.F.G.6XjXd.<.R.9Xf.w.D.E.M.A.-.2.9X6X=XR.W.$X9.9.;.z M tXQ.G.9.9.=.5 M F.w.c e.w.m.S.7.p.f.D.;.y.c.e.<.H.).v.<.e.F.w.S.G.9.m.G.c.w.).Q.$XV =.M.Y.M.p.M.U.M.M.M.M.3./ d.7.K.@XP.P.P.#XY.Y.+XoXZ.M.K.$XE.K.M.f.L.D.F.f.6.F T e.D.0.q.F.v.O.O.+.{ [ { a { { { X.O. .{ { { a { <.O. .{ o.<.,.f.f.D.M.f.d.7.4.4.f.Q.).).5Xm.f.q.0.d.d.N.N.d.q.0.7.2.0.2.6.;.9.0.c.S.K.@X;X>X2XVXCXZXZXSXZXVXvXVXZXgX<XL.k.=X=XtXrXdXmXDXGXAXmXSXpX!.MXVXDX6XL.JXFXvXgXVXAXGXLXzXMXvXAXAXvXFXKXzXeXwXeXzXzX!.rXmXfX7X8X7XnXmXmXzXzXnXwXdXwX@XrXqX=XtXAXzXW.e.>.X.a O.H.H.).dXmX6Xr.y.J.G.J.y.y.J.<.o.v.).6X6XE.*XrXtX8XtXtX6X$X5XNXzXU.b.#...8XmXGXnX6XrXSXzXzXtX@XoXR N U 2 h U t t 0 ; & & 0 ; * * o   N W.wXp.U 0 X . U K.P.T.T.D.r.o.{ X.>.} n c n X.*.o.>.b p a p 7 9 v b t.+.+.[ +./.@.@.(.`.8X5X/ N./ ) |.` .X^ E ^ E h.|.3X1X%XC.^ / @XeX;XxXg _ h.C.U sXC.iXs.XX8.T.fX*XD.R.rXD q 0 t U h e h h t h t ; ; * r U Y 2.F q.I.q.d.U g 0 0 0 ; t E L P U g h P L P g g L h.%XZ.B.V._ t / C.V./ / i.3.) s.i.^ U U i./ / / P U E ~ / E E E U / U / s.p.W h U U U U h h h h g 0 0 ; & + # 0 - - - ",
"8.1.1.1.R Y 1.1.V V C U V Y R C @ # + % * 0 e h V U 0 0 3 4 q e t 0 & 0 - r ; - ; ; g g r - L h N L ; - r r r 0 - 0 t h 0 0 r ; o O : & # & - ; - - - : & & # & O O O .           . .           o O O X * j r r L 0 - 0 ; g j h g 0 r j t h j 0 0 U h h h N h N h h h 0 0 h 0 3 ~ ~ V 0.D.d.d.7.! N d ;.;.| Z ! D f 3 C -.;.9.<.y.G.q.f.9.,.*.*.>.J.`.(.H.y.:.:.w.f.d.M.L.W.$XD.K.VXm.p 6 e.d.P.;.=.G.K.:.Q r.&.G &.x e.e.G.6X9.G R.F.G.9.;.0.q < ;.R.e.Q.R.D.U.m.q.-.9.&.<.e.w.<.v.H.v.J.y.r.9.F.6Xy.w.F.!.S.H.k.Q.D.f.K.D.m.7.M.M.M.f.f.d.7.8.K.K.Y.3.N M.T.oXd.M.U.E.Y.L.K.K.d.d.K.f.m.q.D.k.w.e.&.;.F.U.m.v.v.O.<.O.{ [ { a v v { ..O.X. .{ { } } O.O.{ { X.>.:.q.w.f.g.d.d.2.p.p.d.W.tXtXtXm.m.q.d.d.d.M.d.q.0.7.6.7.q.0.9.q.9.9.F.S.m.K.#X;X2XxXZXSXSXSXZXZXZXVXZXVX>Xf.a [ ..+.>.<.H.rXHXMX=X@Xy.} mXSXGXmXr.MXKXKXDX:X=XCXGXrXbXMXzX:XzXHXJXHXGXJXFXzXpX*XdXBX9X6X6X~.dXdXpXDXzX9XrXwXwX9XMXnX=X9XSXzXF.<.e.b.t.y.t.t.b.rXnX6Xv.t.J.v.v.H.H.`.).y.H.J.).rXdXdXzXzXrXnXrXNXnX6Xb.n.a 7 s [ t.e.mXMXW.rXGXvXnXD.M.0Xg.~ a.R 0 t 0 0 t j g r r - 0 # o & W.yX7XtXrX1.* o j p.K.Y.D.y.,.b { X. .v v G } } >.>.O.} p p p 8 9 { { @.+.+...@.u.+./.).`.7X`.s.B.^ B.^ |.B.E P ) E )  X1X3X.Xh.) i.XXpX+XxXg h.C.C.^ AXXXaXs.A.V.:XfX$XL.R.rX-.% 0 - r r 0 3 * 0 h V h V 8.8.3.! U W V 3 e h 0 - - r h R / W ^ U i.s.E h L P g r E +X+XC.C.s.E U a.V.a.a.C.a.a.j.h.) / ) / / P P ) U E L h h L U U h U W a.i.~ R U W U U ^ ^ W R ) ^ g 0 ; # # + & ; 0 0 ",
"M.M.1.Y Y Y Y C V Y V C C Y Y m * o X + # = = * 4 U / R g t t 0 e r 0 0 & & o # 0 - ; r ; - g L r E P r h g 0 0 ; 0 0 h h r 0 & # # : - - ; ; r - & - - : : & & & # & O o . .     . . . .     o o O : - ; r g t r 0 # o # 0 t r P U g h h h N h h h e U E U e 0 t U U f e 0 j * N / m C -.Q M S m d D -.D Q Y V -.p./ R w.e.e.*.5.G.w.w.r.| A w.:.} O.n._.).v.&.~.wX&XK.m.q.4.0.D.gX6XJ.*.o.f.#Xk.;.;.B G J H } *.r.:.y.Q.Q.tXQ.S.G.:.S.!.w.2.f.q.D.Q.F.w.w.e.q.w.=XR.F.e.q.G.w.e.J.H.,.y.H.F.Q.H.Q.J.).H.J.R.Q.I.G.I.$XR.E.U.M.E.D.L.Y.E.Y.Y.$X=X9XdXK.d.D.D.E.R.W.E.U.E.Y.K.L.L.M.$XE.S.k.k.f.5.;.*.>.,.G.Q.H.v.t.t.O.{ ..{ { v a { X.X.>.<.{ b X.o.O.a a X.X.t.<.f.f.m.K.M.d.f.M.g.K.E.nXnXrXm.m.m.d.d.m.M.d.d.d.7.6.0.0.9.;.e.9.e.G.G.Q.W.#XXX-XsXVXZXxXVXxXVXZXCXPXSXsXL.{ s { X.X.} { G.9X6Xv.J.7XH.9XAX<XzXrXGXKXCXHXNXF.@X$Xt.o.!.NXwX$XlX~.c.mXSXJXGXGXfX6XrXzXvXmXtXtXQ.dXGXzX<XzXMXMXwXzXrX6XmXGXGXzX8XH.X.v.7Xv.O.s { (.8X(.b.).6X).S.G.).J.<.<.v.G.6XhXeX6XnXdXtXJ.v.n.O.[ +.).7X6XQ.).}  .`.:.6XFXvXnX-.7.+X*XoXi.p./ h t j j U j g L ; r U +X0Xd.| *.e.G.E.p.j R d.K.Y.m.y.+.p ..O.b v G o.X.>.<.n p a 9 9 9 p a { +.n.n.n.@.@.+.+._.(.7XrXW.) h. XB.B.1XI ` 4X_ ^ h.B.xX1X.X) ) |.V.sXU -X^ |.C.Z.i.#X#XvXZ.g.P.9XdX$X6XL.=XM.1 & t h f m Q Q =./ ! f f 0 * * % - : r ; r ; 0 h P P U / Y 0 / ~ U U ^ i./ ^ L E XX;XV.a.a.i.E ^ a.3.3./ i.a.i.E _ h.h./ E h P E U E ^ U U E E E / / E / s.R U U V h h 0 L U h 0 U r L g ; # ; & + + X X ",
"f.U.! M V D C V Y =.! m d m C e * # & * + + & + + * h ^ / / g r t j r ; ; & + - r r g g r g L L r g P h L g r 0 r ; ; r r 0 r r ; ; ; ; ; : - r - - : : - : & # : # # O O o     .     .     . O & : ; r ; r g - & ; # X + * g r r P h h U h U h h t * 0 h U U g h h h h 0 0 0 = * U 1.Y Z F l 6 5 T &.w Q D V U ! / / V D &.w.w.5.;.o.&.o.F | w.e.,.n 8 n v.J.J.J.<.9.5.S.S.Z &.c.#XW.6XI.w.U.W.m.;.5.T r.;.2.2.y.G.F.F.tX6X6XL.R.F.e.J.F.w.=.2.W.D.w.&.G e.Z S L.6XR.Q.7X).Q.k.G.v.Q.v.y.y.y.).v.G.v.H.S.R.tXNXtXG.D.Q.I.Q.W.L.R.F.E.6X6X6X$X9X9XW.6X6X6XR.F.G.F.W.$XL.K.E.F.R.5.Q.7X7X'.7X).Q.Q.R.H.y.A r.).H.e.<.e.<.X.{ } { { { v O.a O.>.v a X.X.X.b  .o. .<.9.f.f.M.M.M.d.d.f.g.L.Q.6X6X6XD.D.m.f.m.d.M.d.d.q.7.6.2.6.;.-.&.:.9.e.e.G.U.#X#XOX1XxXVXgXgX2XxXCXSXZXxX,XZ.+.{ { O.O.O.X.J.tXzX`.G.b.v.w.NX9XtXMXFXFXsXAXmXQ.zXzXt.9 9 (.nX!./.6X@.yXhXFXJXGXfX`.8XzXwXzXeX6Xv.K.wX=X=XzXvXMXwXrXzXrXmXAXJXAX6XH.{ O.`.`.`.(.{ <.`.J.G.H.).`.J.H.Q.H.H.v.v.v.v.qX@.[ @.@.[ 9 9 9 +.).T.rXyXJ.!.nXb.O.n.>.MXKXvXnX=.d.T.+X0X:X:XpXoX3./ U j U R s.%X1X>XpXfXd.% k r.k 0.! R R g.Y.L.c.t.a p } O.n v G n X.<. .6 p p v a 9 8 b +.O.u.n._.u.u.+.@./.(.rXnXP._ .X.XB.3X-XI .X3X` %X|.B.vX X` ` B.|.+X+X; gX XB.i.XXh.Z.;XsXC.! 0X*XwX$XfXtX=X8.Y S =.T Y l M M 1 h h * ; - - & & 0 # * & 0 0 e h L g r r P h L E h g h h U / / |.#X+XV.V.a.V./ ) 3.^ E U U _ h./ U ) _ ^ E U / ) E E U L P U U P E U L / / R / ~ R U U 0 g P L 0 U E U g ; # ; # o # # o ",
"7.d.Y Y C M M C V Y Y M m V V d # + & + $ + + + + + # 0 h ^ U L P g r g g r ; r g P U L r P P L E r g h h g g ; r r g g r r r g g g ; ; ; ; r 0 ; ; ; ; - - & & : # & & & O o . .           . & r r 0 ; r g r - * ; r 0 ; 0 L g r U U g U h U t 0 t - & 0 h U r f e e g h g 4 # * 0 ! Q z F F Z &.e.n < 5 d Y D -./ / M D o.;.v.&.M z G w.w.>.| c A 6 p x p { y.(.t.} k =.6.f 5 Q E.-.F.D.q.L.=XW.c.D.B ;.=.f.1.;.T F.Q =.d T 2.f.Q.9.e.;.;.f.R.U.D.q.w.r.F.D.S.S.Q.J.H.J.y.v.v.H.y.G.r.H.e.,.J.Q.J.G.G.<.y.F.F.G.e.S.w.5X6XQ.Q.6XG.W.6X6XW.L.L.L.D.L.oX+X,XaXsXwXW.R.F.I.Q.y.*.5 f.9.G.J.H.5.5.5.:.>.,.8 7 r.H.v.<.,.<.X.{ } O.O.X.v { a X.X.p } X.O.v v o.{  .,.<.f.m.M.g.p.d.M.M.M.0.:.b X.J.U.D.f.m.M.q.M.N.7.6.6.6.-.9.:.;.0.;.y.y.e.v.L.:X0X>X1XgXVXxXgXgX2XgXvXCXCXVX;Xb { @.O.O.t.O.`.~.6X8X7Xb.{ A tXSX8XeXbXJXCXDXBXQ.E.6X'.b.a a 9XtX`.nX6XQ.$X,XGXJXzXt.+.~.mXDXrX6XW.E.5Xy.y.tXMXzXhXwXsXzXzXdXHXAXwXrX`.v.H.).'.`.t.e.8XnXfXW.v.y.H.J.6XJ.y.v.H.v.J.).+.9 7 9 ..t.(.7X8XrXrXG.`.`.Q.fXrX(.n.y.MXJXDXE.m 1.p.p.N 1.wX*X$X*XpX0X+XOX9XpX,X+XW.qXfXrXq.w.6XM -.7.=.Y p.Y.D.e.O.a { o.{ p n o.} <.} 9 7 b v v a v { v +.O.O.t.(.b.b.n.n.n.b.7XtXa. X-XB.4X3X` ' 3X3XI %X.XB.xXB.' ^ B.OX;X^ L gXA._ U OXa.j.vX#X~ U hX@XwX9XE.m.9X~ d 0 @ * e U U h o h N f 2 & # - * 0 * 1 % h r r j L g g h U L t U ^ j U h U / Z.+XOXC.XX|.s.h.^ L L U ^ U L U ^ ) U E ^ ) ^ E U E ) ^ ^ E U U ^ E W L E / U U h U V N U 0 g g U L i.) P g ; - r ; # & ; ; ",
"~ ~ Y ~ Y m V Y V V S Q M d 0 ; X o + + o # # # = * + + 2 # 0 P E g g P P P E P g ; g g L g L U P W r g L L g r ; ; g r ; r r r r r g g g r L r - * 0 0 - & - 0 & o & : ; & & O     . .     O r g h 0 g g g 0 - - - r j r h U U L U L U U h h 0 0 0 0 0 r r h g g j f h h h g 0 e 0 l d 1 4 G :.o.n r.H.l & h l D D Y G &.Q M A H x :.e.e.,.| T H n k G z :.H 6 n v.J.>.X.r.D.Z.T.E.W.R.U.F.7.M.!.q.S.&.9.q.K.U.X.p q.l y @ &.P.e.6.0.f.m.0.Q f.G.`.J.F.R.R.I.S.X.<.v.y.v.,.H.F.v.y.I.e.).I.I.).Q.G.H.).y.<.y.H.<.:.F.e.G.R.Q.Q.Q.R.J.R.L.D.L.f.!.E.$X5X$XpXpX$XQ.R.S.I.e.S.v.6 < J 6 F ;.9.G.k.&.&.} a O.,.y.I.v.<.t.<. .X.X.<.>.O.n { { o.<.X.o.G v a } X.X.X.<.e.0.d.d.Z.M.K.m.a.f.X.n 7 9 t.E.D.m.D.N.d.M.M.q.q.! =.-.e.9.9.c.r.c.H.R.F.K.@X<X,X-X1XxXgXgXgXxXsXvXCXSXAXuXb.{ { +.[ +.{ `.HX'.y.J.'.u.s U.LXv.c.rXAXMXdXqXDXmX=XfXAXrXH.DXDX=X~.fXI.<.H.I.=XzXlXy.R.mX0X0XwXpXdX>XH.F.pXKXSXAXbXzXnXzX:XfXmXzXMXdXkXrXzXMXdX~.R.`.rXzX8X`.y.t.n.J.J.J.H.H.k.).pXzXdXzXzXnXnXrX8XeX0XNXtX`.7XtXDXHXrX).$XhXAXbXQ q / p.a.q @ W 7.2.1.M.#X>XuXeXwX9XtXW.c.G.Q.Q.L.9Xk.2.1.R C ! m.m.;. .{  .X.H n o.X.,.>.n p v { a ..b { { v s +.O.t.(.b.(.(.n.n.J.6XT.B.%Xh.` 3X.X` .XVX3X' 2X.X.XxX^ |.|. XOX X) ` gX( _ / <X;Xh :XXXd U jX=X9XpXp.p.0Xa.& & ; 0 0 g 0 # * D V U N h t 0 r t 2 0 t U U U j g j h r g g L E ) h E E U a.XX|.|.V.a./ E i.L / _ h.B.h.) U E ^ ^ E U ^ ) ) ^ E ^ E E U L E E ^ E U W U U U 4 ^ U U R t * - r P / ^ E g g g P E r ; - o ",
"V Y Y ! ! ! Y m m V ! ! d * % % X # * + $ = & # + + o o # + r L g P L P ^ ^ E ^ E L g g ; ; ; g E ) g r L h 0 r g 0 ; ; : r g g t 0 ; 0 0 0 g r ; - 0 ; - & & - & O & & & & - : & O o O O & r E U g r g P g g r r r h j g h h W U U h L j h h h g 0 ; * 0 r g t U h 0 r g g U m C g 0 0 6 C -.V f 5 m 7X6Xf 0 5 4 % Y Q m M Y Q S % % % q f l S M m d 5 w 1.l m x o.w.F.D.W.zX*X*X@XrX=Xw.R.$XD.0.m.R.F.D.w.6.F.R.Q.8XrXnX6XNXNXdXoXqXmXnXtXW.f.!.J./.u.G.f.y.y.G.e.J.H.,.A r.q.!.S.H.G.H.I.J.v.G.y.t.v.b.H.J.H.y.r.R.5.F.J.J.Q.R.).H.k.S.D.Q.I.F.R.I.Q.S.e.v.H.J.e. .,.,.,.F.B C 9.2.9.5.9.G.Q.Q.I.n 8 e.I.y.e.v.<.<.,.X.+.X.,.>.X.o.{ { O.X.<.o.G a o.O.O.O.>.9.e.q.m.M.Z.Z.K.M.V.S.,.n 9 < n =XK.D.D.N.d.N.M.d.7.=.Q ;.6.;.;.S.c.c.H.6XW.W.U.T.;X,X%X-X1X1X,X1XiXVXZXZXZX2Xo.< ,  .<.X.a { n.n.}  .t.@.a H.tXJ.H.`.R.8X`.<.).'.t.v.6X`.y.MXDXtX6XmX`.s [ _.rXDXDX7X6XrX9X9XpXAXAXVXcXcXgXCXAXDXDXAXzXtX=XrXdXeXeXzXmXvXAXFXAXAXnX6XtXrXQ.v.G.H.J.H.v.y.v.v.y.7XNXDXnXlXnXmXvXzXzX9X6XrXrXmX9XR.fXGXAXHXGXtXnX$XD V V 3.Z.1.R 8.E.L.d.g.0XfXzXzXwXW.6XrXqXR.G.R.6X6XI.e.&.V U 6.M.m.;.X.{ } X.G o.:.o.>.o.v v  .v a { a a v { b +.t.@.b.n.J.(.b.n.(.tXXX%X.X_ .X%X|..X4XZXB.` 2X|._ 2X; ) -X-XOXB.h.E gXi.V.h.;XXX+ 8.#Xd d dX9X*XzXK.K.T.C.; 0 r 2 * r ; 0 h Y f r r C R N r h h e N U h j 0 0 r r ; U U P L s._ ^ E / Z.j.i.h.h.^ L ) i.L _ _ B.h.U E E E ) ^ E U E E E ^ ) _ ^ ^ E U U E E P L / U U U t ~ R R U h * & # r U E U g P E ^ P E L ; # ",
"D T Y V ~ R C m N d V f = & + & 2 0 0 & + # + o X X & - j U ) ^ - P P P I P E ) P L P P L L I L E ) E L P U g h h r r L g r g g t 0 - - - ; 0 - ; 0 r ; ; & & - * & - + + # ; g ; - & : ; g L E g g g g r r g j P P h P U U U h r h j j j g h h g r r 0 0 ; 0 0 g r 0 r 0 0 U V U e 2 f G o.M e 3 * * G J.H q m f X 2 Y M V W T m + o X + % < 4 l 4 1 2 d V M 8.S f.p.g.@XwXrX6X6XD.w.F.m.U.=XU.K.W.6X6X6XtXtXtXdXyX7X`.).R.J.Q.(.J.Q.).).R.kXrXnX<.+.[ O.r.e.H.Q.G.!.F.J.y.e.y.Q.Q.6X6XH.H.y.e.v.y.y.y.t.H.J.(.H.X.<.e.G.H.y.G.H.Q.Q.E.F.F.6XQ.F.H.w.D.5.<.y.J.`.Q.k.$.e.r.G.nXW.q.c.0.f.G.9.L.I.8 A y.e.f.5.v.G.<.>.*.O.{ X.O.*.{ >.O.} O.O.} o.}  . .} { ..X.r.6.f.d.M.Z.Z.M.C.A.f.>.b { 7 c U.K.D.D.d.N.d.d.7.1.-.Q 2.9.;.r.w.S.S.S.Q.W.W.$X$XOX>X2X-X-X1X>X1XsXVXZXPXSX3XU.9.| 8 x X.{ O.a 9 [ t.t.@.O.(.8XNX!.v.t.O.n.@.{ [ +.J.R.J.k.iXcXNXmXAXnXv.9 [ ).GXSXGXvX6XtXfXcXSXzXtXaXvXfX6X6XdXvXhXfXwXW.~.tXtX~.tXmXzXmXdXwXrXrXQ.rXnX6XQ.Q.J.R.J.Q.6X6X`.H.G.`.DXdX`.6XmXdX~.~.8X6XQ.wXDXvXtXJ.$XxXJXnXt.v.z c.8.-.Y.:XeX9X6XwXnXMXAXfXwXeXpXoXU.tXdXwX~.R.I.I.G.,.k.S.1.7.K.K.q.9.o.b >.o.G :.o.,.*.} v v 8 v { a s b { { a O.t.@.b.t.J.(.u.n.(.6X-X.X`  X%XB.-X3XZX.X.X3XxX|.3X3X; P -X XB.( %XP -X XXXZ.#Xs.N d.M.m 3 qXtX9XeXzX@XV./ j h h P 0 0 r r h h 0 - # + C Y e e e h R U h h r r 0 r r P L E i.B.i.i.a.XXN.3.a.h.C./ L h.) E E W / ^ E P E E ^ E P P E ^ E U U U E ^ / U h U U I E _ U U t h W U e 0 0 0 & * - g / ( g P P ^ ; r g g I ",
"R d q < q d q q f 6 1 @ + * 0 V N = o o o X + 4 * h R ^ 3.U g r # - L ) E E g ^ L - r E ^ E E ) ) ) ) E P E P g L L U E L r r r 0 r ; 0 0 ; & - * * 0 ; 0 0 ; 0 * & * # # # - 0 0 - & r L P P U g L g r g L j P R U h U / C U j h L h h h j r j h r 0 0 ; ; r r g ; 0 t j g h U m d z F F M d m e 0 t l <.x m Y U $ % U q 2 + 4 * X X $ + @ @ % m 1 q V 8.8./ 3.p.pXcXvXvXzXzXwXtXnX6XE.Y.@XqX=X6X6XF.G.J.nXtXw.e.<.X.p 7 T 0.Z 8 c A | c z 6 ,.kX$.y.y.G.S.H.H.y.v.o.>.G.).6Xe.e.w.I.Q.w.w.R.H.H.H.b.H.H.H.b.t.t.v.b.y.y.y.y.H.H.F.W.K.f.G.Q.W.6X6XQ.$XL.v.H.e.F.6XF.k.k.S.r.J.).Q.6XF.).yX).l.y.$.| e.H.Q.G.J.v.>.O. .O.o.X.>.*. .O.} } O.t.X.p n X.O.o.{ { o.r.6.q.q.M.Z.Z.M.T.C.f.| v a 7 p q.U.D.D.d.N.d.q.7.6.6.-.2.9.-.q.q.c.9.e.F.Q.=X$X$XOX%X1XxXgXgXsX1XiXVXZXFXSXZXtXF 7 $ 2 ;.>.X.>.t.O.b.b.t.s a t...9 ..(.H.b.).X.9 t.yXnXtX5XhXhXvXAXMXNXNX,., < { (.nXnXMXnXmX9XvXeXzXFXSXxXR.9XzXrXfXmXnX6XQ.W.6XQ.w.H.6XzXhXwX8X6XR.6XkX7X).'.W.Q.H.!.6X6XtX~.c.X.rXDXmXeXfXrXtXrXrX6X6XnXrXtX6X'.6XvXHX~.n.e.*.K.W.tXzXzX*XQ.tX6Xw.r.`.zXdXdXsX9XK.tX6XZ z v.m.9.R.'.`.K.M.D.Y.m.w.&.o.<.:.n G >.,.,.v v b n a {  .9 8 a n a a +.n.b.J.n.(.n.@./.(.$X.Xh.|.%X.X4X4X3XxX.X1X.X-X' SX-Xg ^ %XV.L B.gXB.-X%XV.+X>XC.OXN.U m 5 6XR.rXeXsX;XV.r r L r r e h r r U g r ; ; * V T F Y 0 0 h r r ^ h - & r g g U h.XX~ V.+XZ.a.XX;X;XOX,X+XZ.U r P U E L L P E E L E P U ^ ) ^ E U U ^ ) E E E U E U P E ) E U t e r 0 - * 0 0 ; & & r |.( g L E _ E ) E E E ",
"N Y Y M S ~ V = * @ * N p.p.* + + * h ! 1.! U / 8.h * * & + # & & ; 0 _ E P g P r & P h.L g L ^ E E ^ ^ ^ ) ( E P P P U U U P r 0 g r ; ; ; - - - # # # & - ; ; - & & & - - 0 r ; g g P E E L U g P h h h U U P g h h U ~ h h U P L L U U P g g r ; 0 g r r g r ; = * * * + * * q -.;.M f h m N e h q 2.Q 3 h N N e e h 4 t * * # * t 0 0 e h j U R p.! U N / ,XfXcXpX9XdX9XwXnXzXdXrXrXrXF.U.$XQ.e.x  .G 9.6XQ.n Z e.>.v 5.tXw.q.;.;.R.F.9.7 7 (.).H.L.f.=.e.w.0XMXU.!.S.!.6XL.F.S.G.w.r.G.H.e.v.y.v.y.H.).8XR.b.(.(.7XJ.5X6XJ.H.`.lXwX6XQ.6XtX6X6X6XtX6XR.Q.v.I.7X).Q.F.Q.6XR.L.L.Q.k.r.c p 5 7 7 k Q.Q.k.R.Q.G.<.O. .X.X.} >.>.X.}  .X.>.,.X.v v b { n { X.<.9.9.d.d.d.g.V.K.T.C.f.$.G n 8 7 -.W.U.M.d.M.d.d.7.6.6.2.9.0.;.S.e.e.y.v.G.F.L.Y.@X,X1X%X2XgXgXVX2X-XxXCXSXSXZXE.C S Z m < @ v ).'.t.+.@.@.s 9 9 , 9 +.(.'.n.(.v.9 o.H.rXQ. .Q.qXAXzX6X>XAXdXt.s , , s o.J.e.`.6XdX0X9XvXdXwX6XrXrXtXtXmXDXfX6XtXnXMXtXJ.v.fXAXtXrXrX6XrXrX6X`.).W.).u.v.J.H.Q.8X).y.H.7XdXnXNXnXzXnXfXrXtXrXzX$Xv.6XtXDXmX`.(.(.).`.H.y.!.zXzXy.L.nXzXJ.a X.6XmXHXMXwXwXrX9X9X=X=XG.<.t.`.1.g.K.N.m.q.:.:.o.G n o.9.<.} p n v b v v 9 8 b { a b ..O.b.).J.n.(.b.b.).5XoX|.` ` _ 3X3X|.ZX` 3X3X.X3X` ZX_ & B.%X+Xr 2X%X|.-XXXC.T.V.i.zX7.N.Q z L.U.6X$XmX,XU r - r U E W W P h U r r & g g e V =.1.V h 0 g V.,Xa.L g E P ^  XC.a.Z.V.j./ a.Z./ U h / C.XXV.E # h Z.E U L E _ ^ ) h._ ) E ^ ) ^ ) _ ^ E U ^ ^ U L E P U L g t 0 & - + X # - ; r + -  Xh.h.) h.s.^ E L ; : ",
"f ~ V l f f q 2 f Y ~ D f 0 0 L U h h N f * X . + + - g ; r g I P E P ( A.h.( E g g ^ ^ E L E L g g P P ^ ) i.E E L g r h E E U g g g r ; - & - ; * & # - - - - 0 r ; r r r g g r g g P U U P E U / ^ U U R U j t h P U U C r U U L L h L L h g ; ; ; r r g g g - & * + o o + q V M h e g h h g e d d =.Y 0 e h f 0 t e h / U h U ) ) L P g L ( a.a.P.R 3.P.0XaX=XK.W.R.=X*XdXmXvXvXmXzXlX8XtXW.G.$.&.H.Q.D.$XNX$X$XR.v.<.*.k.2.k.e.F 9.w.G.6.9.=XR.y.y.:.:.G.m.VXcX;XW.m.m.Q.E.e.9.w.y.w.F.I.G.G.<.v.R.).I.5XQ.R.J.H.).).`.`.(.J.7X8XrXrX6XQ.W.6XQ.R.6X=X9X9XQ.Q.).G.y.S.5XE.D.dXD.D.f.k.&.9.T d.K.$XtXQ.k.G.I.G.<.O.} X.O.o.>.X.O.<.<.<.<.o.n o.b { b } o.X.:.q.m.D.m.d.M.Z.K.Z.Z.0.G A G c 8 c U.U.M.M.M.f.d.0.1.2.=.q.e.5.S.9.<.v.J.H.!.U.*X:X,XgX2X-X2X3X2X2X2X2XZXZXZXPX#Xd.7.d 3 2 < 7 X.b.t.O.}  .b `.~.{ { X.H.6X7X'.(.7 p <.J.Q.X.y.L.DXHXMXvXcXzX8XG.v 9 9 n +.+.n.6XvXhXqX5XJ.Q.6XwXdXrXW.6XnXrXdXdXdXmXnX7Xv.6XrXlXwXdXfXvXvXvXwXW.*X~...>.7X6XQ.(.H.J.J.H.R.`.kXMXHXzXtXrXnXMXDXdX~.6XrXHXmX'._./.t.n.+.a } Q.tX5XfXkXkXnX<.b A 5.wXzXwXnXrXwXmXfXtX8X<., ,.;.d.V.N.q.9.:.r.| A b >.<.,.X.A } 7 p v v 7 a v { b O.+.O.t.).G.n.b.b.H.$X:X+XB.` E ) 3X` .XxX.XVX1X%X1X%XZX.XP |._ ) P CXC.|.gX%X1XXXi.h.vXg.7.Z A H.=XQ.R.zX>Xh W U U R 3.d.7.1.a./ C h h h h 0 q d V U V 4 ~ XX/ 0 & P _ _ B.XXV.s.a./ i.a.a.s.~ h U i.g.g.+XV.U U P L U U E ) ^ _ h.s.h._ ^ _ ) / ) ^ ^ E ^ E U / ) ^ ^ U U U U h U r + & ; # ; # - |.E E E _ P L & - o ; ",
"h h 4 4 k F G G r.;.k 7 @ @ + $               . & g P E U L ; I U C.C./ XXi.^ ^ _ P ; j L U _ E ^ P E / p.j.g.3./ W P g g g j r t t j 0 - * * - & # & & ; & + + - r * * - r r g h U E ^ U U U U U U / ^ U U U U h L h h h C 0 L 0 ; r g h g g r - ; ; ; ; ; g h - 0 * # X ; U R f f j r r h h h N f 1.Y ~ 0 t U h 0 0 0 g r ; g L ; r I _ B.B.h.a.E i.;XAX0X0XP.K.$X~.Q.tXwXzXvXAXJXHXHXlX`.6X7XtX8X6X).7XtX6XNXmXrX8X6XF.G.G.e.k.D.Q.F.5.C 0.Q.=X2.F.W.q.K.D.R.Q.w.y.F.5XR.F.R.R.F.R.G.F.I.y.v.F.Q.F.tX6XF.Q.6X6X6X).`.).).J.(.J./.@.J.nX).H.~.Q.I.G.Q.tX$X9XjX$X| 8 7 } 5XkX5XDXfXR.E.nXkXzXW.$XL.qXrXrXtX$XR.H.e.<.*.X.X.} X.o.>.,.X.X.X.o.c } } { } o.:.>.c.q.0.d.m.M.Z.V.Z.K.|.m.} c v n c 8 f.U.M.M.M.d.q.d.6.2.=.0.;.=.e.9.<.y.H.S.S.R.=X>X>XiXgX<X1X1X,X%XOX;XxXFXPXPX1X/ V e m e 3 2 < 7 A b.u.....8XlXnXtXW.dXvXnX).b.9 7 X.<.<.H.Q.F.qX0XdXGXAXeXdX6XF.X.8 9 9 s { O.n.rXvX6XQ.tX>X:XqXfXD.v.Q.`.Q.H.6XzXdXrXzXSXgXzXfXpXzXHXHXvXvXzXzXwX..{ 6XzXzXrX6X,XzXeX6XF.=XiXFXnXkXmXvXAXAXAXnX6XzXHXrX} a ..@.u.(.b.{ n X.>.<.H.Q.rX6X} , 8 o.y.y.H.5XR.G.H.k.6XrXe.B 9.K.M.M.m.e.:.*.o.} b y.<.,.>.b p 7 p p 8 v v a b +.+.>.>.J.(.y.b.J.`.~.>X%XB.|.' ^ 2X` ` 3XgXxX2X X2X1X3X-X_ B._ L P h.2XA.s.OX-XAXsXW XXaX,Xc.-.&.J.=XU.m.9XT.h U R U h 8.p.7.m.N./ 3./ ) / U h d 0 V % 0 p.,Xi.h ^ ^ h.A.h.XX-X/ R C.a.i.N.~ 3.p.g.g.3.p.~ / / / a.C.a.s.L 0 E ) L g L E / / i.) _ _ / E E ) ^ ^ / / / i.i./ ^ i.h.|.B.^ r ; o & . # B.- # h E r r B.xX^ P ",
"=.M.f.Q q.$X9.A T T T =.~ U h f d h h * # o # r E ^ g L a.h E _ i.Z.XXa.Z.p.a.V.XXi.R s.8.N.OXXXXXa.g.7.f.M.N.N.Z.a./ / ^ U h h t 0 0 * ; 0 h U U r r h h e 0 & & ; * & r L L P U U U U U U U h U U / U U P W U h U E U h U 0 r 0 r g E E g r j h g - - g 0 L 0 - & 0 h U E h * 0 h j 0 g h f m ! 1.~ e / C C d 0 * * 0 r r r r r o - P h.|.B.A.XXa.N.*X9XK.K.p.E.=X!.W.=XY.@XsXSXSXdXNXNXnXyX(.).lX8Xb.7X8X!.tX7X).'.nXqXU.W.Q.R.I.R.e.R.9.w.R.Q.f.e.G.I.L.r.f.H.v.*.e.6X6XL.D.).Q.I.G.tXtXF.J.R.Q.6X).Q.Q.Q.6X6X6XR.Q.H.).J.t.t./.n.'.NX7X).`.k.H.v.<.J.H.).rX6XF.5X*.< k W.S.P.6XD.6X6XF.W.D.Q.0.D.!.F.I.F.!.H.t.<.,.>.o.} X.<.<.>.X.o.o.o.b } } X.e.e.9.y.1.=.2.d.d.N.Z.V.V.P.C.D.| b v A G x e.E.M.M.D.d.d.d.7.2.-.9.;.F 9.w.<.<.G.F.R.W.=X:X1X1X2X1X+X%XXXg.p.XXiXZXFXSXpXM.L.7.V @ $ % % % 1 8 [ 9 9 +.+.,.8X8XtXnXtX).v. .<.rX`.v 9.W.w.G.D.{ Q.NXzXwX6X6XG. .p 9 7 7 9 { 7XzXR.c.Q.K.6XkXNX6Xw.<.H.).v.H.6XkXrXeXDXcXnXMXdX9XMXHXAXSXDXFXAXt.n <.J.eXnXyXfXnX6XQ.Q.NXDXFX6XyXHXHXJXJXGXnX`.rXzXm.< 9 9 b b.O.y.8X(.H.G.X.<.v.Q.$XZ < >.F.I.`.J.6X9.J Q.6X9XAXDXK.d.M.q.D.f.e.>.:.o.n n y.<.o.o.p 8 v n p 8 v 9 a  .+.+.<.t.`.J.H.(.).7X6XsX.X` ` E _ 2X` ` 2XgX1X%X X2X3X3X3X.X|.^ E ( 1X-XV._ XXVXCX%Xh *XpXcXW.f.2.Q.I.W.m.d.a.E j h h * E / ! m.7.E U R / 3.W U U f V C g.T.W t h / i.h.h._ A.a./ W V.a.p.V.i.Z.T.M.i.a./ h p.p.p.3.j.) a.g # ^ E ; ; ; E i.) i._ / _ _ ^ E _ ^ U U / ) / i.a.s.) E ^ ^ E _ ) ^ E ; : h.g . * U P P 3X2X XU ",
"r.0.F B 5.$X@Xp.P + X = t d Y ! !.lXlXtX$XR / j._ ^ h U a.U ) i./ 8.P.N.g.V.g.1.( 8.d.M.@X6XdXgX:X@XM.0.6.0.D.m.d.d.g.g.V.a.a.Z.M.Z.Z.p.p./ 7.oXE.a.i./ N h P 3.E g L g g L P E U j P U W E P P h h h h U U U U U R U h g / g r ; 0 j h L L t g L L r ; g r r o + j Y R P = + & 4 h j 0 f r U =.H l 0 g ) f 3 2 = 0 r r g 0 0 - ; P _ h._ B.h.XXB. XOXOX*XW.K.@X=XQ.H.*XeX;X*XfXMXrX9XzXHXnXDXb.+.J.).J.J.~.v.yX'.u.>.y.6X9X0X6XW.W.$XE.tX).G.Q.H.G.w.2.9.<.F.k.Y.D.R.G.9.=XW.k.S.6.L.H.6X=X6XtXJ.!.F.v.v.H.e.(.J.R.6X).R.).(.H.<.@.@./.7XtX7XtXH.y.t.<.b.u.y.6XW.`.`.7Xk.*.k.v.G.6X$XqXR.H.Q.R.E.;.F.).Q.R.I.H.H.e.<.<.,.| X.O.>.<.*.<. .o.X.X.X.} | X.9.9.=.7.0.M.M.M.M.V.g.g.Z.Z.0.Z A c x x p G U.M.q.K.M.f.0.6.1.2.;.G G :.:.X.<.e.J.`.6XwX9X:X,X1X*XoXg.uXP.@ ~ OXgXSXSX$Xe % 5 m l e e 4 % .   + 8.tXrXR.+.[ ..b.'.b.7X`.o.n <.O.9 -.wXrXrX8Xb.{ q.$XW.7XdXQ.v.,.X. .s 9 9 { +.a X.Q.F.H.S.=XqXR.R.tXyXb.n { /.(.`.rX$XqX2XzXeXE.wXDXVXSXLXMXv.{ u.b.b.b.n.H.y.b.).8X8XmXSXG.t.fXGXJXJXJXzXQ.6XNX6X7 t.| < H 7 < y.nXkXmXtX).tXnXzXW.o.e.gXAXGXAXFXMX7X5X6XR.eXzXT.m.m.m.w.<.o.*.*.n c *.e.o.G c v x p } 9 n } p { >.t.t.<.v.).J.6X6X@X6X*X X` ^ I ` 3X4X_ _ vX-X X|.1X2X2XxX2X%Xh._ B.P A.-X X0  XsX1X#XV =XzXzXwXI.H.).Q D.D.R E P L / j g U / 3.7.R E U U U U E ! R R ( C.+XE 0 U / B.B.Z.XXh.L P h.i./ / / a.g.T.g.3.R 3.Z.g.a.W W E R ^ / E E ^ E r r L E E P ) h.) ) B.C.C.OXOXh.i.i./ W / s.i.E g L L L U L U E L & j / + & s.E / -XB.B.C.",
"0 & 0 _ .X|.i.e.<.3 . . O O .   * ! 1./ 7.Y U ) / U U P U V.+XZ.V.V.T.p.1.p.g.U R / V.XX+XU.M.P.;XaXpX;XT.Z.Z.T.T.C.P.XXXXC.V.C.Z.Z.P.+XC.~ / 3.p./ U g.K.d.7.U.9X5XtX6XY.d.W U P E U E U L U h U U h h U R W U / R h j h / E L h r g g r L L h g r & - t R e N E U h - 0 o o # & r t 0 - m u.{ q * # 0 _ - & 0 - - L L r ; h h ^ XXi.r P E g / N.V.Z.#X#XdXW.@XOXpXwXvXVXvXaXAXGXvXrXtXNXtXHXQ.#./.`.)./.u.t.(.`.'.t.O.I.5X5XI.6X6X6XtXI.H.7X$XR.).F.e.T 2.Q.$X$XR.Q.!.U.~.Q.k.L.E.6XH.G.R.R.v.v.9.G.Q.6X).H.>.<.J.7X`.J.n.(.b.y.<.X.u.n./._.7XtXG.G.L.$Xy.w.8X6XeX=XrXrXrXH.y.Q *XhXhX6X=XF.@X$XR.6X6XW.E.F.G.H.v.<.<.>.r.>.>.>.<.>.>.<.X.X.} X.} X.X.&.;.6.f.K.K.d.d.g.g.V.Z.T.P.=.6 k 6 8 y z F U.D.m.U.M.M.q.2.2.2.&.D =.=.:.:.<.v.<.e.F.Y.*XeX+X%X7.|  .,.).z 4.;XCXSXFXeXY.@XV.! C d N R N * M 9.fXAXGXLXLXFXS.[ n.t.J.<.n n { O.n =XMXwX6XQ.).H.v.Q.H.Q.vXaXzXW.v.y.t.b 9 s a a b e.y.Q.R.$XrX8XJ.v.G.y.p 7 ..n.n.@.[ @.9.H.rX).v.J.J.`.NXHXt.{ +.s s [ [ +.[ [ +.@.+.O.8X`.>.H.`.8XNXbXrX).yXlXC @ b.'.9 6 d Y { O.,.r.Q.H.R.E.dXNX6XE.J.9X*XpXrXmXAX6X7X6X9X6Xd.d.d.D.9.:.o.*.o.n c >.<.o.c x x v 8 v a n v n o.O.t.t.t.J.b.(.`.W.Q.5X*XB.` I ' |.xX` _ _ xXB.%X%X2X-XxXCX%X|.B.s.^ ) C.-X%XU >XgXiX:XR f.qX@X9Xm.J.6XV ~ 8.U h N 3.s.K.f.2.=.! N R i.7.Y ~ i.i._ ^ ( a.B.t U a.A.XX%XA.C.;XXXU E i.U s.|.a.XXN./ ! R 8.p.R 7./ W h ^ a.s.a.E ^ r P L g P ) ^ P E h.B. X|.|.|.|. X%X%XXXB.) h.B.^ U L g h P P E ^ E L g W B./ L g U XX-XA.( h.",
"i.E _ _ B..Xg @ 2.D.h & & : # & : ; - ; g g g E t & # o U +X#XV.3.d.P.N.p.a.g.a.g.V.XXOXC.q.7.4.! $X,X;XOXOXC.g.s./ U h U s.s.s.! ~ / ~ ( h / ~ ^ g t M.K.d.d.D.p.! L.6X9XY.i./ U h U P g a.T.U U / / i./ U N U U ~ U U U / ) U U E E U P P h 0 * 0 0 t N ! U h # + & # ; r o # & = f U :.*.x 1 # - & * 0 # - g = = g g = r t r i.i.^ L ^ E h.+XB.C.T.g.4.R.8X6XrXtXW.9XeX*XwXAXDXMXwXtX7XrXHX'.s [ u.).n.J.H.).H.8XS.Q.qX5X).6XkX6XR.Q.G.e.Q.`.7X7X`.Q.R.f.R.F.5.k.J.J.6XE.G.e.c.=X5XJ.H.Q.R.y.y.S.!.6X8XtXtX).Q.).v.>.,.<.b.<.,.>.t.b.t. .+.(.).(.(.b.H.J.G.).rXjXwXT.2XSXdX$X9.I.d.$XE.S.G.W.6X5X6X6XQ.6XF.Q.Q.v.:.:.X.*.:.>.<.<.*.O.,.} o.X.>.X.e.v.G.G.e.D.M.g.3.! / i.a.V.Z.Z.4.5 f M y < z k m.K.D.K.f.0.1.2.2.2.-.F ;.&.;.e.<.v.v.<.w.w.D.Y.;X&Xg.y 8 u O. .P.sXCXZXgXK.~ Y h t * * * X X d =.;.W.nXNXzXMXHXNXb < O./.t.t.J.(.u.x D.HXGXNX`.R.J.6XNX6X5XHXGXMX$XtXH.<.9.>.Z G t.+.+. .O.t.t.u.u.X.p 7 } b t.(.(.O.s { t.b.J.t.>.y.+.[ s ..+.9 9 s 9 9 [ ......+.+.a s [ b.).7XyX/./.'.n.@.@.n.D + . s /.>.$ e o.t.y.y.8 } v.v.6XR.6XQ.e.b F.E.H.7 $ < Q.H.c.6XU.N.d.d.f.<.:.<.| A A c *.9.<.o.p 7 v p } n a a X.O.O.n.b.).(.(.J.H.`.6X=XXX^ I I .X4X1XP _ -XVX_ %X-X-X-XCXFX` .XB.s.^ _ B.%XB.h xXgXaX@X! 7.@X@X$XD.6XrX2.f C U 8.3.i.i.U ! 0.M.f.V 4./ p.h.h.i.3.s._ a.a.U / ,X;XOXh.i.s.g j h.R ^ i.V.XXV.^ U / 8.p.! Y V N U U E U ) i.E U h P r E E - r E i.V.B.|.A. X|.B.B.|.|.h.B.V.B.s._ ) ) E E U P E E ) E U P h L r h g & ^ OX-XA./  X",
"6X6XY./ / ^ - . X r m.j.e * ^ s._ ` E a.C._ ) U 0 ^ ) I h.s.Z.! 1.p.M.Z.a.a.s.g.Z.g.P.oXp.-.6.=.l =.m.L.E.$X9XqXwXoX/ V h ~ U U ~ a.s./ i./ s./ C U U h R p.U U C 0 2 0 e d 7.d.6.-.-.P h Y 7.R Y V V R / U U U N U R R U U / ^ E / / / ^ U U U R U R C h h * X   O g - 0 r h 3.Y ! Z.1.O.z X O & * ! 7./ ) 4 + * & o ; j h / h./ E ) h.h.i.Z.i.a.T.@X*X=XF.`.y.e.R.wXtXR.K.=XmXGXvXzXNX6X6XrX`.[ s 9 [ v.J.5X).J.'.F.J.v.6X6XG.Q.`.Q.`.rXzX`.@.t.y.v.b.J.H.H.v.D.S.S.G.I.Q.W.6X6XtXQ.!.Q.tXtX6X6X6X6X6XQ.).7X).J.<.R.<.<.t.b.b.t.X.b. . .>.{ [ +./.n.u.t.e.v.H.b.u.8X6XnXfX$XtXrX6XS L.6XF.rXdX*X9X$X$XW.$XD.6X6XJ.<.>.X.r.<.<.>.>.<.X.,.<.X.:.X.>.*.>.:.&.:.0.7.7.p.V.A.Z.A.C.XX|.7.d 2 2 6 5 M f m.U.K.M.d.7.7.6.;.;.&.G ;.:.r.y.y.y.G.G.v.S.c.M.U.#X;XpXR.;.e.R.0XcXVXVX>XY 3 % @ + X X X f -.$.I.qXR.G O.8XyXz J.NXb.@.n.v.(.t.} { t.y.F.J.R.v.H.yX7X$XtXQ.*X9X6XW.6XqXtXtXrX9X=X:.9 a [ s [ [ { 9 7 7 p { O.t.t...+...+.u.+.@.[ s [ +...{ { { { +...{ a { ..{ +...a a +.@.@.+.+.[ #./.+.s [ #.<   $ m t.[.].]./.x.[.t.H.b.t.O.<.y.e.A b  .{ Q.NXrX@.s 9 `.NXdX=Xd.d.d.q.6.:.*.G G n n o.r.r.n p x v p p p 8 a { { b O.n.v.(.n.t.n.J.).*XA.I : > I B.3X|.P %XVX%X^ %XB.-XxXxX%Xg 3X_ B.I g E  Xg ) sXcXOXL.P.0.qX9XL.q.Q.tX8.~ U i.j.E P ^ V 1.~ Y 7./ 8.a.XXC.Z.C.;X X) ^ 3.3.p.! g.Z.8.Z.sXU g OXU P h.XXs./ ~ i.a.C U R e N U U R p./ i.C.Z.^ h E E L g h h.h.V. X+X%X X%X+X+X+X X|.B.h.) |.A.P L E E ( ^ ^ ^ ^ E E E ^ E U L E h.E / Z./ h.) ) ",
").`.).).`.J.S.P ; # h #XY.A.+Xi.i.XXp.4.7.Y a.V.s.) ) ^ &Xg.M.g.M.8.p.P.Z.V.a.V.XXP.oXK.1.6.=.2.7.1.d.K.k.w.D.K.9X0X9X@Xd.7.R h h h ^ _ h.|.h.a.i.~ W e V 8.d h V Y N N R 3.7.Q -.2.4.U ~ T $.Y V N R V Y R 8.7.R U U R N V / ~ U U U W / p./ R V V U U / W h h.L /  X3 $ C @X5 q 1.2.Y &.:Xh d Z Y sXOX8.j X . # # ; E ) / XXZ.a.i.XXaX+XN.i.P.OX;XvXdXvXnXR.q.~.6XeX9X*X0XiXgXJXAXMXnXnXrXrX6Xy.9 [ [ { ,.rXtX'.lXNXyX'.8X6Xb.b.8XyX`.Q.dX8Xu.b.b.v.H.J.7X7X`.tX6XBXnXtX6X6XW.`.7X7XJ.6XtXtX6XQ.R.).6X`.6X`.J.Q.w.6X).).(.....t.<.v.5.5.y. .{ O./.@...u.J.'.@.+.@.@.u.(.).(.H.Q.6XQ.6X6X6XMX9XjXNX$X$X=XqXR.5X).G.>.<.X.:.<.>.X.X.<.*.X.<.o.>.9.r.o.o.<.9.S.D.K.T.C.C.C.C.|.A.XXXXp.m w e d q 4 w 0.K.K.K.7.6.6.2.-.;.=.&.y.e.y.G.v.H.G.v.R.Q.U.@XL.P.XX<X=XOXOXeXsXxXvXaXU.Y e 3 3 * X + d m.:.&.rXrXQ.v $ < u.{ v `.lX(.@.t.u.X.n +.<.<.<.J.<.s O.yXrX9XwXQ.R.H.`.8XR.=XtXrXlXmXNX;.9 a n n { o.c 8 8 x p s [ { O.O.a ..O.@.....[ [ [ +.{ b [ { ..{ [ { a b a s a a s +.@.@.+.+.@.@.@.+.a 7 p :.$ 5 $XNXNXyX'.'.'.yX8XQ.6XtX!.| o.e.9.n a { s p 0XSXfXJ.(.6XzX,Xg.d.d.N.6.r.:.o.o.*.A A 9.9.Z p n A | } v a p p v { { O.t.v.t.@.<.v.R.9XOX' ; : O I 2X1XE h.%XxX.XP  XV.%XaX2X.XI 3X^ A.I : L %Xg C.iX0XT.K.d.5.rX9XE.q.Q.6X! 7.8./ a.Z.P.M.oX8.V ! M.K.g.V.K.T.#X%X%X^ U h.p.! / U h ! K.P.i.) XX+X8.+X Xh.C.+XC.p.p.3.U 3.g.XXC.V.~ / N U U r h U U g P E U Z.V.a.i.B. X%XV.i./ h r i. Xh./ A.C.h.( E ) ) ) ) ^ ^ U U P ( ) / h.h.^ r g E r P ; ; ",
"J.G.b.b.'.NX7X1.) T.~.6XrXnXqXD.8.8.( ! 3.3.g.g.g.Z.g.Z.$XU.E.Y.p.p.g.Y.V.a./ i.C.V.P.0.=.0./ 3.7.7.M.K.5.*.0.m.K.oX#X:X+XoXN.! t # * j L U / 3.N.g.g.7.Y C w e d 4.d.p.3.a./ i.p.7.4./ / 7.=.g.R R 3.3.3.! 3.g.R U U U N V ~ ! / / / / R h L L m U h h 4.4.f.fX~ / Z.T J.7Xv.z -.Q v.d.f.$XR.L.w.j.U ; # & r E E W 8.~ / 3.3.B.V.a.g.+XT.;X:X0XwXzXzXT.;XAXzXxXvX0X9X:XsXwX;X0XHXSXmXnXtXdXnXmXrX+.9 +...G.nXtXb...[ @.[._.8X'.(.u.7XJ.y.F.wXwXrXG.<.<.H.).6X8XnXyX7X`.7X7X8XrX8X'.yX8XkX8X6XH.v.J.H.G.y.G.7XJ.q.G.`.).6X).X.t.R.e.y.5X6XqXQ.8X5XJ.H.u._.(.'.y.n.(.O.n.`.5XI.I.Q.6X6X6X9XdXwX$XdXMXrXrX*XK.U.F.).H.<.<.X.*.<.*.,.} ,.*.o.o.o.>.v.r.| G &.9.9.m.M.V.V.C.|.C.C.A.A.|.p.M q % $ % % q ! L.M.M.7.7.6.6.;.;.*.<.v.w.w.).J.~.~.G.R.E.T.=X=XL.m.#XcXVXgXaXaXxXvX>XD h V e @ % q K.6Xq.d.`.NXnXyXlX..$ 7 ....).MXzXy.n c o.p 6 x b b y.| 8 v y.rXDXmXwX8X).7X6Xv.J.).H.Q.nXnXo.9 8 p b {  .} { 9 7 v { {  .*.} 8 7 7 a v a { a { v 9 s [ s { { [ { n { } { v a a O.O.+.@.@.@.@.} 8 9 6 Z 6 X 6XNXvXwXaXmXzX0XaXmXMXMXmXmXtXW.$XD.&.p 7 7 7 ,.nXAXbX9XqX9XP.g.q.0.d.6.9.r.| o.G n r.w.o.x G :.n p x p p 8 p a a { ..>.t.t.t.J.*XOXC.^ I I : I E 2X# E  X.X3X^ E B.V.|.iX X^ P 4XE ^ : > B.B.U C.sX#XK.D.2.m.6X=XR.$X6XL.~ 7.7.P.a.s.( P p.p.P.oXZ.oX;XoX3.Z.OXXX/ t _ OXE h j * 0 ~ V ! / |.+Xi.V.a.^ U 0 U R U U j.Z.XX&Xa.g h h 1.M d L U E ) _ E |.1Xi./ h.i._ |.%X%X^ U h @ 0 E |.B.^ h.) h.|.B.B._ E ( B.h.( _ _ ) ^ ) W r P r 0 h h r & E ",
"U.U.y.*.t.u.} Y 9XzXtXtXR.m.D.G.q.i._ a.C.|.|.XXZ.,XK.m.L.K.6XM.3.p.Z.P.3.~ h U i.3.g.7.7.7.1.D ! ! 6.0.;.&.e.m.7.R ! N.V.M.P.oXP.3.W ( h h h h e 3 2 3 d C Y ~ / M.W.D.! 7.p.3.g.1.~ / / R R R h ~ / R 3.! R / R U / 7.8.M.Y.@X! U C U W U E U U U W ~ M.G.5.q.! R D.S.<.>.| *.R.I.q.f.r.Z v.qX8.* h h j ^ ) 8.-.S.G.e.F.U.=X=Xp.g.K.P.@X*X0XmXzXwXmXpXdXzXvXLXxX:XK.cXSXDXvXsXvXVXdXqXrXrX6XnXnX`.b.'.'.`.R.,.(.t.@.u...@.H.H.`.H.'.'.yX`.rXfXzXrX`.v.e.y.e.,.w.J.b.u.n.O.<.Q.).X.X.,.G.R.7X6X).b.H.tX=.< k.5Xv.H.H.e.H.v.H.).J.J.H.J.H.J.b.b.J.H.y.t.@./.7X).tXdX6X6XtX6XfXfXmXDXDXDXDXDXmXMXtX6X6X6XI.k.).J.6XJ.<.>.:.:.>.,.X.G | X.} o.o.} o.:.9.<.<.9.r.7.g.V.Z.|.|.C.C.V.A.XX3.m q 0 0 * @ 1 l U.D.M.d.d.q.;.;.;.F <.v.y.:.:.G.=XW.!.R.U.Y.Y.+XP.5.f.hXvXhXxXcXxXvXOXQ j f 3 V 0.=XtXtXrXrX6XR.b.(.8XQ.v.y.b./.t.9XGXDXQ.=.;.k 1 x | b >.*.X. . .y.mXAXfXnXjX5XG.,.y.J.J.`.J.<.n a x p v { ,./.u.a v t.t...O.,.v 8 a v b p s +.+. .8 8 k { ..{ a 8 v a 9 7 9 ..t.+.+.+.{ ..+.b 9 7 6 7 9 G Z F.mXzXNX8XU.6XtXnXmXzXzXvXmXDXDXmXDXHXHXrX2.v o.y.).dXDXpXeX6XD.0.q.q.q.6.q.r.:.:.| o.e.e.G &.&.| n n | G v a v a [ { +.<.O.u.u.H.OX.XB.h..X' : P  X-Xo |. X X-Xg B._ ( %X,X) I ` -XE ^ > I h._ ) C.T.:Xd.d.F.S.R.~.W.9XoXg.3.d.P.C.U L ; L i.i.XXZ.h. XXX_ j U ^ E P h A.OX+ o o o & ; E T.i.h L s.U & / B.U h U / XX;XOXp.3.V.^ U e 2 @ 2 L h j U U U _ h.U ) B.h.|.%X%X_ L a./ U / h / i.h ) _ U ^ ) _ E P ) B.|.B.h.h.h.i.+Xi.U E L U L E U / s.",
"#X$XH.,.,.@.O.G.6XtXfX$Xp./ XX>XfXXXp.4.p.XX%X X-X>X@X! Y.1.q.8.s.Z.P.p./ V.U ~ d.4.4.7.7.! 1.Q ! C V l M M =.&.T m D ! 1.d.7.1.d.g.p.a.U C h 0 r d M V R Y ! / / 7.K.7.q.M.! Y P.Z.3.R 0 0 1.p.g.Z.R f N C h V V h / d.d.Y.*XK.~ R 8.7.! ! 7.d.3.p.K.q.!.J.J.`.rXrX`.v.y.rX<.H -.Y =.).m.2.D 0.tX! / ^ ~ Y Q h G y.H.v.R.L.L.=.V M.Y.9X*X#X>XmXzX9X9X9XrXq.N.CXbXY.j.aXAXAXpX%X*XvXmXdXNXmXtX`.rX6XyX'.`.~.`.H.'.).J.(.(.n.(.7X6X).J.).7X(.J.J.6X7XyX8X`.'.H.,.| y.v.t.t.<.H.I.P.G.<.Z Q w.Q.tX).H.).qXL.y.H.H.,.e.J.t.).I.6XrXtXJ.v.d.w.v.v.b.).`.(.O.u.v.7X7X6X6X).5XQ.tXdX;X$XqX6XG.y.F.6X7X5XH.,.<. .7X8XJ.6XG.e.r.9.;.>.e.:.o.| X.o.o.o.>.n p | :.r.9.m.M.M.Z.Z.C.Z.V.C.C.Z.a.N 3 0 3 % * $ % 4 K.D.m.d.d.q.6.;.:.o.>.X.<.G.G.w.D.U.!.!.G.oX$XoXK.9.9.~.9X9X1XzXCXxXh.h = @ e m.U.6X6XD.=X~.F.t.+.t.Q.6X'.b.t.<.t.p &.$XBXnXnX=., x <.n G G.e.*.a <.rXnXvXnX8X<.X.<.o...[ @.@.@.O.b A z v v o.t.t.@...O.t.u.u.O.n }  .b a { { X.b p s s a k a s a 8 { b { ,.@.@.t.n {  .{ b p < p k 7 7 , %.5XdX9XoX6X).D.F.e.J.tXrXrXMXGXGXSXGXGXGXGXKXJXe.>.H.r.K.DXnXqX@Xj.N.q.q.g.d.r.:.:.o.z G e.e.w.:.p k x n c p p v 8 9 { ..+.>.t.u.v.U.-X4X%X1X) E ` L  XI o ;XV.%X) ( h.P P >X%X^ L I -X' I O ` ; s.a.Z.d.fX! ! $XI.Q.W.Q.Y.@XE.f.F.=XQ.R.5Xw.f.m.6.D.U.=X).Q.).J.y.9.0.1.^ 3.XX* & r - - B.;XV.N h.%X%Xj * P U ^ g i.a.) t t 0 h N h e R e h h U g h a.+XB.|. X|.|.|.|.|.%X_ h I ^ ^ _ / P U i.a.a.i.U U ^ i.h.|.|.h.h.^ E ) / P.,X,X;X|.^ L - ^ V.a.i.",
"=X=XG.r.y.y.u.y.v.(.b.R Z.#XxXPXFXrX@XL.M.XX$XW.+X+XsXM.U.K.K.U.B.V.XXXXa.sXOXh.N.a.d.7.4.=.d.f.1.M z 6 M C =.;.D D ! 2.d.K.g.p.a.p.p.i.a.V./ j.U ~ ~ 3.^ L U h 0 3 h P 1.1.U 4.( / 3.3.U Y p.-.Q d r j W E V 0.v.J.W.@X~ M 6.d.V -.6XD.T 5.<.y.v.y.,.%.y.y.u.y.e.r.G.,.| 6XBX0.l f m N S -.=.8.MX8.3.R U ! / 8.T.L.Q.k.K.U.@XZ.V.>X0X*XC.#XpX0X=XW.-.-.c.9.d.W.~.m.T.cXsX<X=X@XW.eX*X6XmXmXAXVXvXzXNXR.Q.7X6XtXrX`.J.J.).b._.`.(.'.H._.yX8X`.5XQ.G.v.J.Q.J.)._.(.).7X`.7X7XfXmXwX`.v.:.v.v.t.J.Q.F.G.q.7.P.@X6XU.=XqX0X0XrXrXW.Q.G.Q.5XfXzXfXwXW.H.J.c.S.>.<.Q.Q.J.u.).).I.6XtXrXJ.>. ... .y.t.X.J.).k.5.5X).H.6XG.9.e.e.>.r.e.:.o.b { >.X.G o.:.Z G :.;.;.6.f.d.a.V.|. X|.A.Z.Z.N.f @ * 2 0 t * * 1 Y.D.m.m.f.9.r.:.*.*.X.>.y.J.6XtXdXdX*X#XXXY.D.m.d.} *.D.eXxXxXSXFXSX&Xd $ % 2.0.f.W.e.p e.`.(.).H.t.J.'.8X`.y.{ H.v.<.t.v.y.Q.2.f 4 G G w o.,.t.{ +.{ o.t.t.n.<.v.nXNX6X{ , 7 3 6 p 8 p 8 7 8 k v +.X. .O.{ O.O.{ a v a v a a a p n { O.[ 7 { t.t.u.O.....{ n n n z x c y 7 1 1 6 q 5 7 :.tXnXnXmXpXK.D.L.!.9.!.=XM.R.rXfXbXMXHXDXAXcXGXJX,Xq.y.} 9.dXfX6XU.d.7.7.d.d.0.9.X.>.&.B ;.k.w.o.7 7 8 x a v v n v p 8 { b { ,.O.<.W.2XxX3X%X_ E ^ ) ^ .X- B.|.h.B._ ) _ ^ ) B.) g ; ' -X` : & ` : i.E / N.fX1.0.!.~.U.6X9XE.P.9X=X6X6X6X7X7X8X7X`.'.yXlX7X6XJ.H.y.| ;.7.4.7.! Z.j L ; t 0 N.P.OXC.+X/ U E ^ W ) g g s.( s.g # $ 4 C / U N R R ~ j U a.OX_ _ i.B._ E _  XXXa.a.V.s.A.i.) / A.%XE 0 P E i.A.XXC.B.h.h.s._ h._ L 0 ^ ^ C R _ ^ P P P I L E ",
"Y.Y.K.6.c.).y.y.H.y.+.>.H.`.@XiXAXtXK.E.=X+XY.@X$X:XbX*X=XdXD.8.s.V.C.XXV.;XXX~ / d.d.d.3.R / 7.K.2.M k Q Y 1.q.0.d.d.d.d.Y V Y / 8.p./ ^ 3.~ 8.0 * h i.U U t 2 ; 0 * ; 1 h d d * * e U U =.R u N U P E E W @X7XH.v.t.b.<.O.(.`.J.`.'.J.y.y.2.=.;.V f 5 M :.n 6 y &.>.{ G J =XmX!.9.U.*X=.Q m.m.HX9XhXoXg.$X#X:X0X@X6XY.oXXX+X#X0X+Xp.K.W.eXdX:XG.m.-.=.-.c.=XD.o.J eXgXDXAXcXxXaXeXD.Q.nXdXaXvXNXAXNXrX6XtXtXdXzXzXeXrXfX`.J.Q.9XrX6X`.Q.rXyXtXyXrXQ.Q.6XF.e.G.(.<.y.Q.6XtX8X`.tX8X'.7X`.`.`.).(.(.'.'.(.y.$X=XtXzXsX;XtX7Xt.n.(._.yXyXyXyX8X`.(.b.n.`.R.6XtXtX6XH.y.6XfXmXfXzXAXfX6X).I.5XR.).W.6X6XG.yX).W.=XQ.G.r.e.9.>.;.9.w.>.} o.X.X.o.o.:.G G o.<.q.2.1.d.A.V.V.C.C.B.a.a.V.W 0 * * * * * * 0 @XD.d.q.q.;.r.*.| <.>.v.Q.J.6X6X>XpXwX0X@XZ.p.-.-.v >.U.9XcXCXZXCXSXcX1.0 N.$XE.6X$X&.7 x X.v.'.'.(.H.b.b.6X).<.b.8XQ.v.n.<.S.=.m @ 6 &.c x p c n b p v { O.b.U.tXhXAXDXdXb $ % 7 7 6 z A x z 6 8 c n p 7 < 9 b >.O.} v c p p v c n b  .a p v p 7 { { ....p 8 a a 8 6 p 6 7 < < 6 2 4 e.W.E.fXfXDXAXeXtXnXrXy.).nXMXMXMXMXwXmXDXmXGXFXJXAX1XwX<.y.6XwXW.m.m.M.N.7.7.7.0.9.e.&.Z A e.v.:.c 6 p c z v v v v n a [ ..[ s  .f.;X%X3X2X X^ ^ ^ ( _ B.I I %XP C.s.s.L 1X^ ^ L P L g I ^ ` ; : E I P / / U.9XD 9.W.9X0.U.$XW.1.V.K.d.g.a.C.C.V./ ) j.h.) ` ) P - ; U ~ ! V ! 1./ # 0 i.T.p.g./ d.7.g.V.OXU U h./ U L h r _ B._ ^ U V / ^ h * 3 N U g.XXB.^ _ C.+X|.C.XX|.a./ a.a.t h ^  X_ / B.^ i.C.Z. X%XB.i.R / / ) _ E h._ ^ ^ E E P P h._ ) E E ^ h.",
"#XXXZ.Z.>XtXy.v.rX6Xt.O.X.O.x $.zXnXG.9.D.$X:X@X@X9XdXwX<.R.q.1.P.Z.B.p.3.M.K.3.p.7.3.K.d.8.7.V R 4.S m R ! ! Q R Y ! V V V 5 q N j.V.s./ ~ / ( P P h.V.U ( / Z.+X+X;X>X$Xd.=.2.7./ 8.3.Y l M 7.g.oXT.|.g.J.7X<.X.O.t.n._._.b.y.n._.'.'.`.7XtX$XY.d.7.1.4.I.S.-.l y.*.b p 6 S W.6X`.6X6XtX`.W.H.NXF.6XDXdX@X6X:XOXXXoXp.p.XXaX9X;X7.d.6XtX6XQ.I.R.R.m.0.1.Q Q 3.! 8.>X>XSXAXgXsXGXHX6X`.S.#X:X9XrX6XMXAXnXzXDXNXdXmX6X~.hXdXtX6XeXmXnXNX8XdXlXtX`.6XdX9X#XqXG.Q.W.R.=XR.Q.7X`.t.`.Q.`.Q.6X8X6XI.b...(.(.b.'./.u.@.@._.lX/.u.b./.@.@...+.(.n.@.@.....y.7XR.E.S.@XdX5XQ.$X*XrXW.6XaXpXbXfX$XbXbX9X=X,X8.S.yX`.6XrX`.S.;.e.:.<.;.>.e.:.X.<.y.e.:.F | &.G Z o.9.m.K.K.C.C.XXXX|.V.V.s.V./ L L g ; * g U 3.M.m.q.0.9.=.:.o.:.y.>.v.J.6X=X$X,XhXaX>XOXoXK.0.:.n o.!.9XiXiXfXAXgX_ ~ D L.L.L.D.D 8 8 6 @ G J.n.O.y.`.).NXrXJ.).`.6XH.H.(.rX7.* * @ q l $.5.T @XvXGXDXkXnXdXqXdX6X6X!.rXNX6 @ < q f 6 5 e 5 < @ 2 1 w w 5 6 6 k k 6 x 7 1 5 Z c n n z q 2 * 2 2 d l l m T M x y y d 3 4 < % d $.4 y H.G.L.zX9X:XeX6XQ.qXtXG.c.L.zXMXAX9XF.G.R.6XDXGXeX( -XvXW.1.d.*X@XD.m.d.8.q.q.2.q.e.&.Z x r.H.*.8 c A v v v v v { { a s s [ a <.=X3X3X3XVX%X) ` .X%XB.|.P ^ ` L L ) j / h.h.# _ g g L g ; P h.; ` I ; U g.~ K.Y.l 0.@XtXg.M.@XW.g.a.a.3.7.=.m.! & . # 0 _ Z.h.~ 1.1.7.M.1.1.~ g.Z.f * f Y.Y.~ U Y q.0.$X0XvXsX/ U j 0 g 0 & j U r L h 0 E i.C.a.;XpXXXoXXX|.%X XV.s.V.|.B.P 0 & * L s./ g ) U s.V.s.R 4.7.U j 0 d N U P E ^ P ^ / _ +X%Xi.L W h.) E / V.a.p.",
",X;X:X0X>XY.S.r.W.$XH.e.>.>.*.e.9XwXM.6.1.g.XX,XOXY.R.(.r.Q.Q.I.#X;X,XP.p.g.M.d.p.g.3.g.3.R 1.! D M M M C D S D 2.1.! 1.7.f.q.$.3.M.i.s./ ~ N U ! V ^ / _  X<XT.C.+XOXZ.f.w.I.L.D.=.Y Y U N p.dXbXzXtX6X6Xb.`.`.(.(.J.v.v.X.c x 5.y.G.H.7X6XG.c x | ).S.9.`.7X8XD.e.*.).G.7.0.e.| O.<.y.Q.J.H.b.lXb p R.nXwXM.j.7.3.K.d.Y.aX0XP./ d.*X=X*XE.F.k.J e.q.-.d.K.U.GXKXSXeX:XeX>XzX0XxXvXY.o.K D.rXlX).R.T.bXAX0X:XwXtXnX/...).Q.`.7X8XlX8X(.yXNXNX`.rXqXrXtXU.`.v.J.=X*X6Xm.y.S.;.S.nXhXwXqX6Xv.o.v.).6XfXjX:X6XH.H./.@.`.=X@.(.5X<.O.O.7 @ e.).y.+.,.H.tX6XF.G.M.zXdX6X6Xv.{ n.t./.uXwXfXvXpXAXAXmXqXqX0.7X`.>.} G e.m.6.9.r.e.:.o.:.*.:.>.<.e.e.F A o.F ;.9.;.q.d.N.Z.|.|.|.|.B.h.a.a./ U ^ ( ) ^ |.1XfXM.M.d.q.;.=.:.o.:.<.v.J.v.`.rXdXsXaXaX>XT.P.M.6.r.;.;.S.6XqXwXrXMXhX/ t q 1.f.k.Q H k c G 7 7 n.b.>.,.H.b.9XNX6X).y.7XQ.J.J.6XV.+ P 0 2 @ Z 6XwXAXvXvXzXvXmXnXnXrX8XBXwXdXLXfXp X x =.2 * 3 % @ + + X + X X $ @ % @ @ 3 5 1 < x n a 9 6 @ # o X . X . + o + @ # + + # X X # & e e T k.y.<.L.9X$XzX9XR.Q.*XW.~.F.$XjXmXrXw.D.E.2.F W.$X6.m.$X1XSXaX@XR.G.D.m.m.d.7.q.q.9.r.o.n o.G.y.H z G p p p b } b v a a s s b &.%XZXIX3XsX-X|.4X3XxX.XC.h.^ B.) r P r 0 _ |.g P ` ; r L O ; ^ ` g ^ : ; Z./ 6.m.f.F ;.E.=XU.@XeX*XZ.|.C.~ a.U Z.C.s.h.C./ W / W U R P f 3 ~ h h C.R $ e M.=XK.7.m Y 0.0.K.g.i.>XC.P j _ E U P P E 0 ^ V./ a._ h.h.Z.N.U N U |.3X|._ _ s.) / P e t t / / 0 . 0 h p.! 1 $ $ q V g e U N.iXxX-X|.sXXX1X%XbXAXuXa.+X>X<X0XfXvXmXzX",
"1XsXcX0X+XP.L.L.M.L.F.D.d.w.m.0.9.r.O.X.| y.w.D.Y.U.W.=X+.b.H.I.k.q.0.F.I.I.k.2.9.f.9.6.-.~ 1.1.4.~ ~ ! d.L.f.1.W R Y Z B f U a.V.V.) i./ U m Y ! U N V.+XA._ U Y.:X+X_ ~ 0 ; & e l H ;.r.H.'._.^.^.=XrX(./.].(._./.b.e.G 5 q 1 3 =.m m -.E.tXQ R T } 7 @ K n G.tXR.e.).H.6X5X(.v.J.t.v.U.m.D.I.MXd.=.0.S.W.tXL.7.f.d.;XgX9Xe.v.y.<.G.!.t.t.(.).G 9.*XcXSX;X7.#XKXKXAXpXfXsXcXhXwX$X| 8 K wXfX*XsXvXiXfXKX~.n.7X`.7X).b.7X@.(.).n.y.J., a NXNXzXNXH.J.9X=XE.@X6X$XH.<.8 *.*.G nXmXcXHXwX6XD.Q.qX0XpX0XwX6XJ.Q.I.Q.tXO.p X.jXqXR.Q.*Xm.S.I.J.y.W.eXmXQ.I.).qXnXnXwXR.F.R.<. .O.n.Q.tX).).rXHX5XnXMXzXm.nX,. .H.Q.6Xm.e.<.X.<.*.>.:.r.<.X.A :.w.&.Z $.G &.9.q.6.6.2.-.8.M.M.g.g.N.V./ N h g E #XaXvXvX,Xg.M.0.2.&.&.:.X.X.A v.).b.J.rXdXxXvXxXgXXXd.0.;.o.2.w.F.$X6XeXzXAXeXf   X D T 5.9.z p z G Z 8 O.b.n p <.9.,.(.t.b.t.).6XJ.b.).m.& 0 L P U fXMXzXzXnXNXnXnXzXeXzXmXmXmXmXDXGXKXHX5.7.=Xq o + = * % * q 4 4 * * 3 @ 2 q 5 5 3 7 6 l 0 # O . . X + 0 2 + . . . X X   o X . X + % d S tXtXG.R.J.v.9.tXrX<.J.rXQ.F.`.zXMXD.l D T.<XzXW.7.m l Z -.1.@X9XpXcX$Xd.M.q.6.6.q.0.;.&.G :.v.F.v.G G n 8 p p p p a a [ { ;.h.3XIXPXVX1X-X%X|.VXZX-X1X|. X- P ) P g g ; U B.|.L ` g : ) r O : _ E & E & P a.h -.w.$.F v.Q.5X$Xm.1X;XK.) h.|.P.4.R P.f.$XV.U E L E h h h 0 e / 4 C T.; & U Y.U.7.! e d ! 2.g.8.U ^ ) U h i.h.|./ ^ |.) C.A.B.N.0 % q N % + C h / h.^ E C U E r 0 t E XX/ OXh.i.U t W =.R U ( N.0X>XsXV.m m.nXkXoX/ @ Q y.H.F B L.W.MXfXfXf.I.9XwX",
"sX2X,X0X,X*X$X$XE.I.L.F.D.G.D.q.S.E.F.;.n { a { { { ....p B c S M C m C M $.5.0.E.E.K.K.K.f.0.q.d.Y d D G.Q.D.2.Y Y R R U ~ 1.Y ! 3.1.3.( / W W / U ~ C.s.s.^ ^ +X,X>X XY.C m 2.H.`.b.t.t.t.{ ..@./.yX].n.@.t.n @ < G k =.;.R.m.-.R.6 5 l S.$Xl S k.H.e.M.f.v >.W.U.y.H.v.).Q.(.u.@.{ y.nX=XR.tXNXL.D.d.=.! W.sXaX=XY.=X=XF.,.e.e.R.J.'.@.@.t.q.>XDXGXMX9XU.R.T.zXMXHXvXDXAXzXpX0X4.k x G.DXvXpXvXVXsXtXKXmX@.H.G.!.H.<.,.{ u.).:.X.b.7 , k.NXNXDX<.<.$X6XrXqXrX0XL.S.F.6XG.).rX5X6XnXqXrXtX`.6XR.6X=XwXzXrXfXzXmXmX6X6XtXsXzXwXzXnXmXHX6XH.H.(.).J.9.E.tXwX*X9X6Xf.R.6XJ.b.y.J.t./.u.b.).nXF.*X9XnX6XnX5XrXnXnX6XM.w.>.o.*.*.<.w.e.r.>.n F :.:.&.$.=.e.9.6.q.0.p.M.d.3.p.a.i.i.s./ U h R XXaX,XXX+XM.d.d.0.6.-.;.r.>.X.} >.J.b.J.6XtXsXvXxXxX+Xp.7.2.G &.2.L.9XfXzXMXCX@Xf o * 2.=.=.9.M Z A :.p 7 y.H.O.8 X.y.>.v.).(.b.b.6XF.b.yXZ.r & g a.Q.`.b.t.u.O.b.b.(.(.).yX7X@.+.s [ J.BXHXNXrX=XM 0 * 2 e 2 4 d Y D.M.M M 2.6Xf.=.F e l 6 q o     o . $ N V H l 0 # X X X X & & # + & * d 7.6XrXqX6XF.c.v.tX6XH.Q.zX=XQ.6X*XN.Y d s.oX~ 1.d m Y T G 7.;.l f.*XaX;X7.7.0.q.d.1.=.e.&.&.v.!.S.9.x x x f z z p v v a c 4.,XvXSXZXVX%X%X-X3XZXVX^ .X%X%XE # _ ) U g & 0 ^ _  XP I ; - V.I O O _ P ; B.- ) ) h q.F.$.J w.Y.9X9X=XuXOX9XT.P.#XZ.C.Z.B.B.-Xa.p.T.R / N.Z.a.8.Y C 2 ~ C.j g Y M.L.@XoX! q ~ T.#X/ h 0 j h r ^ U P h L .X-X( P U h * $ X 0 N h 8./ h t - g U s.XX) ^ / Z.a.0 / ^ V.T.+XdX9X6XkXtXI.5XnXJXp.$ $ D $XP.+XC.P.6XkXMXpXK.q.tXdXzX$XS.U.6X",
"gXiX1XuX;XoXoX#XoXU.L.G.D.S.f.w.q.#X#XW.!.v.D.D.A.K.D.7.e.w.Z =.;.;.6.0.C M S C 4.1.Y 7.0.2.0.D.E.U.d.D.G.G.D.1.8./ / i./ i.3.3.p.p.R d.! j 0 0 r t 8./ W N.Y.R.D.~.6X*X`.(.'.`.).v.v.O.O.+...[ p H 5 M a n p 4   - h 3 g.=.F =.*.G.G.v.y.`.W.R q.S.k.5.g.I.'.).tXqXe.v.`.<.G X.O.O.y.H.tXR.>.5XMX6XpXK.8.6.M.N.;X@XD.y.(.'.o.5.U.nXJ./.@.b.I.>XSXFXVXAXdXrXtX=XeX=XMXvXCXAX0XW.~ S $XNXHXDXMXAXSXvXaXpXLXnXb.(.6XQ.b.{ 7 , 9 <.r.v.u.p 7 9 +.lXNX~.7XtXrXtX$X6XhXuXuX9X6XQ.6XH.*.>.J.6X5XtX6XtX~.6X6XqXdXdX9X6X:XtXtX).b.AXLXT.tXNXNX=X6XtX5X).5XqXqX9X6XW.E.wXtXw.Y.E.y.H.y.b { ..@.u.).8XR.=X$XI.).lXW.6X5XI.G.K.w.<.o.:.:.:.e.e.*.e.:.o.F &.2.=.F &.=.! 7.q.=.1.3.p.a.a.j.p.g.~ W 3.XX>XOXC.V.Z.M.d.q.6.;.-.;.e.>.} } } v.G.v.W.qXaXvXxXCXCXaXP.-.V &.! f.*X,X9XtXAXMX8.o d 0.9.&.F D o.o.G.<.6 H.`.H.o.<.Q.y.e.`.v.O.<.J.R.b.(.h & & g M.y.@.......[ [ 9 9 9 s [ [ 9 9 s ..u.v.G.yXNXHX6Xk.T R 7.0.5XL.5.k.D.-.G w.k.f.6X9.R 1.l Y h * X o # h Y z p H H l h & + + + ; 0 t g 1 Y M.H.Q.qXdXrXQ.Q.nXnX8XrXfX$X6XI.6X@Xf.$X0X/ d Y M l q < G m.K.W.=XZ.OXT.p.M.m.m.7.8.-.;.2.w.H.r.H 6 < 6 k p F G b n c 8.1XZXPXCXxX3X4X.X%XgXFXgXI ` 3X%X` : E h.) ) g r P ^ _ -XL r E L h.: > . P ^ r B.r ^ 0 p.U.$.$.r.@X,X;XsX2XhX=X*XdX&X7.V.+X;XT.Z.;X2X;XK.q.Z.C.Z.T.XXg.j.E ^ U & 0 q V 3 * d M.e N d N e 0 r P / XX+XP j A._ h.j./ s.B.i.U 7.U XXXX-X-XuXvXcXvXGXMXcXmXcXaXAXDXDXDXGXVXAXDXMXdXU.W.Q.&.e.l. .l $ 1 d 2.M.=X9XvXiX9X$XpXzXL.=.2.Y.*XtXrXnXzX",
"aXgXgXgXsX>X;X,X>X&XoXD.D.D.Y.W.D.M.R.$XoXOXiXxXiXOXT.|.*XL.f.L.0.V R E.K.! =.D 4.K.! 1.0.d.d.D $.d.! ! $.9.D.M.P.P.M.1.s.a./ B.p.a.a.C.=XD.f.m.E.$XnXdXdXrX8X].'.7X`.`.b.n.+.<.} 6 Z C F :.J D Q D + * 3 r ; & X t d t p.0.w G } y.6Xw.!.6XtX$XtX6X(.).q.<./.n.`.nXH.a y.`.e.9.W.@X9XW.R.~.>.5X6XK.#X*X*X=X:XU.e.;.y...+.O.G.tXdXnXv.G.iXLXLXCXSXFXFXFXAXMXuXDXDXiXFXAX;X*XE.U.-.S.NXnXD.wX9XMXDX2XsXzXLXwX7X7XyX6XR.`.7Xy.{ <.9.o.y.*.t.O., t.nXv.v.H.`.Q.tX*XJ.rXzXfXdX9X6X6X5.>.`.6X6XR.G.).dXhXfX9X~.Q.H.J.6XH.b.t.O.fXSX$X_.NXnX6XrXtX9XgXZXvX9X9XqX5XQ.E.Q.k.J.F.w.$XI.} y.l.v.<.I.G.D.6XtXG._.'.'._.*.y.G.D.S.e.&.9.<.X.*.r.o.<.:.&.&.&.=.-.F T 6.-.T 6.d.p.p.s.a.a.g.a.g.i./ V.;X+X|.V.C.oXM.p.q.6.;.;.;.9.}  .,.X.v.G.W.$X5X1XgX1X-XxXDXDX0XoX9.1.0.~.L.6XrXAXbXQ - q.L.G.$.Z D o.:.w.v.A >.7X).>.o.J.G.=.`.'.J.t.b.rX6X7Xp.) g 0 M +.@.{ O.<.{ { { +...[ +.O.{ { +.>.y.O.t.b.BXMXNXyXJ.J.`.J.8XnXqXI.L.R.I.Q.L.D.W.m.Y S 2.L./ U U 2 0 R Y V S m e u h & $ @ @ 3 d V.C.N.zXdXH.E.wX6XwXtXwXoXK.R.tXqX$XrX9X=X9XZ.E / i.h./ N e 0 % < @ =.=XY.=XZ.V.N.Z.d.q.7.7.=.=.w.w.z @ 2 < < p a { { a Z j.3XSXZXZXZX3X4X3X3X3XxXZXgX^ h.ZX3XP I ; B.h.E |.: L ^ ) )  XL r ^ g ^ O > : h.E L a.P L - aX2.y =.!.0XsXsXSXgXgXT.c.Y.L.E.l l 2.F.9XaXiXK.P.M.8.XXV.Z.E g f 0 $ X ; & * $ + h q P.R C C g./ h.h.V.N h N 3.XX1X%Xg.) E 3.OX%XV.g.V.1X%XgXcXOXh.P.XXGXdXpXDXAXfXfXfX;X;XpXhXmXMXhXSXMXY.sX1XhX5XL.9XwXfXvXmXfX6X~.U.tXrXQ.G.w.9XGXAXbX=X6Xq.-.6.",
"gXgX2X1XsXiX1XsXiX,X;XOX&X#X#X:XL.K.K.K.g.oX0XiX+XM.l.g.0X@X=XU.m.g.3.p.p.7.p.7.i.1.f m 1.g.XXi.8.8.U R V d ~ p.-.1.K.6XrXnXNXNX(.`.nXnXyX6X8X`.`.^.^.+.[ [ [.n.<.b o.<.>.t.u._.o.n &.Z &.;.=.S o.o.q p 5 t f ; & 3 m C T =.D R.(.;.5X&.=.F.S.k.!.v.y.b.R.b._.n.<.6X).b 8 v.H.H.!.U.$X*Xv.`.H.rX7XW.9X=X*XdX9XG.m.9XR.b <.6X=XQ.v.6X=X0XSXPXFXSXMXFXFXFXAXzX:XAXHXMXDXrXI.Q.Q.I.9.J.7Xw.T 9XT.fXHXxXzXvXFXmXyX8X6XrXrXdX8X8XH.(.).H.v.e.G.G.v a lX`.v.b.v.J 6XwXJ.G.).rXNXnXyXNX~.G.6XF.!.v.H.F.G.wXfXnXlXrXrXrX`.H./.@.t.G.Q.).O.v.~.tXrXtXuXdX6XE.R.U.q.S.f.l.v.w.<.b.5X6XH.u.F.9.c y.J.c k.5XzXnXlX).yXlXH.5XK.M.M.q.<.9.<.o.o.<.*.:.<.o.:.F F ;.2.F $.2.7.1.d.N.N.N.s.i.a.j.a.p.C.OXXXXX-XOXT.Z.N.q.f.;.=.2.r.r.} } >.t.y.v.!.T.A.C.,X>Xp.! 3.;XVXSX<XZ.d.L.q.v.6XDXrXM . V 2.6.G F o.| $.$.o.} X.`.7XH. .e.`.H.J.H.b.O.o.6X(.rX6X$X! ! l } o.n  .<.o.{ { X.o.p <.t.{ s s s @.n.n.y.nXzXrX7XJ.Q.`.).J.qXrX6X6XtX`.H.rXrX5XS.< % 4.P.T | S q - f S 3.R V C e 4 U h V 7.l.4.f.D.Q.lXnXQ.6XnX=XY.D.L.XXh.E / ) _ ;XOXZ.+X|.h.|.-XC.C.h.j 0 e e d d.g.W g.Z.Z.a.i.s.N.7.8.2.9.w.J 5 @ 2 5 6 l p p x p.3XZXZXZXZX3X1X3X3XxXVXVXCXxX.X.X1X1Xh.; I P ^ B._ _ & E _ A.B.) I E I ) ^ > > I  XL h.) L & N 9Xz B m.fXCXsX2XFXVXcX;X:XhX=X8Xe.N S =.P.OXN./ M.#XuX1Xh.h.j 0 V d X & 0 0 h U e W 3./ XXk.=.$Xa.VXVXuXj.r = oX0X3.oXoXg.|. X2X1X%X,XSXKXVXs.N.2.e 5 h fXfX*X+XOXpXfXzXzXrX*X*XjXf.~ :XfX9X>XwXmX9X9XvXP.D.pXzXAXDXDXdX0XwXU.=X6XV.,XeXfX$X9XfXnXdX",
"aXcXaXiXgXgXgXgXgXiX1XuXaX0X#X,X#X@XL.K.D.Z.P.#X<X#XP.i.>X0X@XM.L.d.U * h ) / j.K.M.P.Z.Z.i.s.a.XX#XXXN.Z.V.XX,XtXkXlXyX'.'._./.@.[./.n.n.n.{ 7 l N 0 Z y.X.n.n.<.F Y 6.v.J.J.o.o.G.=.o.v.H.;.Y ! 1.U U V N q = & 0 C &.z B 5XNXD.=.NXS.I.6XQ.tXrXR.,.7 F  .,.k.y.v.J.yXH.5Xb.n.'.yX).`.6XJ.y.`.6X~.qXf.$XL.m.zXAXGXGXHX0XpXqXe.&.0XaXgXcXcXaXvXAXAXxXCXbX*XmXzXvXwXF.R.R.R.!.tXlXNX7XE.L.R.m.=XDXvXwXnXGXDXzXrX6X`.`.lXH.y.J.b.<.y.).J.v.v.b.n.H.G.R.H.<.9.kXrXG.H.e.X.>.v.`.7X6X6XnXnX7X).(.G.).6X6XrX6XM.d.K.T c O.O.t.H.O...+.b.).).`.dXfXn.[ O.H.7XW.b.R.F.R.e.8 >.J.Q.e. .y.X.+.b.t.y.7XI.! f.rX7XQ.W.9X;XT.N.q.r.9.q.e.,.<.<.o.:.*.o.w.;.F -.2.9.6.2.-.2.-.! 8.s.s.s.j.V.N.C.XXC.V.V.Z.Z.g.g.d.q.6.&.;.;.e.<.b o.b b ,.G.J.W.8.h h / m 5 d ~ h.XX-XsX0Xd.=.w.H.HXvXY + m F T X.*.w.r.k 7 7 , @ v v.a 7 6 rX`.J.y.).J.o.F.~.G.H.6X6XdXD.Z n a { O. .X.t.>.O.a { @.a { >.@.H.y.O.y.MXAXmXy.I.).).dXtX=XrXtXmXfX$X).qXl.zXAXk.2.tXnXyXnXNXQ.T 5 d L W 3.7.Z.#XoXR 7.P.D.0.T S Z :.E.c.L.F.E.6X9.Y * - r 0 : > : ' ' ' ^ _ h.B.-XxXVX2X|.-X-X;X;X+XXXC.V.h.B.s.N.s.d.6.-.&.-.l 5 5 M l F S m ~  XIXIXZX3X4XB.|.xXVX3X2X3X3X2X.X%X-X` B.` I I _ .X3X.Xg ; L |.A.^ E 1X` h..Xr I g _ |.i.OX; r - Y.U.D l S.fXvXvXpXvXCXSX2X1X1Xf.$XqXB. XgXuXuXT.M.;X0XuXcXsXsXfXP.C * # 0 W 3.l.s.0 + e L U V $ &X&Xa.Z.E g.=XY.7.! g.4.2.Y.JXAXVXFXAXVXSXGXM.  X 5 R g.P.$X1.N L C.pXqX;.1 < -.$Xk.F.qXR.c.6X6X6X9XfXmXfXmXvXbXcXsXaXgXFXAXFXfXsX9XwXMXqX#XfX*X*X=X$X",
"gXgXaXgXcXhXgXhXgXgXgXsXuX>X>X>X:X:XE.U.U.W.*X#X@XE.oX#X#XY.D.Z D 0.7.d.Z.Y.U.Y.@X$X$XL.L.d.M.N.Y.M.p.T.fXhXzXmX].].n.@...O.t.y./.[.n././.'.<.| 4.;.G v.8XnXnX7X'.'.e.e.H.y.m = f ~ h U M.U.S k Q s.E P h 2 * ; + P / Z.p.M.rX`.y.I.mXw.y.v.T.vXSXcXdXJ.v.R.(.).6X`.7XlX].rX'.@.J.b.y.^.'.(.v F.9XU.6Xt.[ ..eXvX>XsXsXvXhXpXzXv.L.cX,XsXaXhX9XfXzXzXcXaXcXvXDXcXdXrXQ.F.).!.c.rXnXtX@X+XM.Q 9.E.7X:.{ O.J.eXzXrX6XyXb.n.(...t.).7XQ.).H.y.J.(.'.H.2.$XrX$XQ.rXdXv.6Xw.<.+.{ @.u.t.>.t.J.6XI.H.O.H.b.y.J.<.p &.y.;.y.5XdXJ.y.*.y.).b.<.S.v.J.tX(.t.H.=X*XY.<.9.m.v.} 7 *.6Xv.{ [ J.H.J.H.y.S.m.N.:.e.).yX'.S.f.P.C.d.w.e.w.c.e.&.:.e.:.:.:.Z =.9.-.6.-.-.1.-.=.0.-.! 1.i.s.s.p.V.a.C.C.Z.C.C.V.V.j.V.d.d.6.;.w.r.;.>.n c o.o.*.v.f.N t r - - 3 5 Y f.G.Y.K.M.d.Y h e.b.MXAX-.2 q M G 5.<.*.x 6 7 7 7 < 8 b.<.} 7 >.v.7XG.G.J.o.v.`.7XQ.r.e.6XQ.Z Z +. ...b x O.O.O.t.t.+.[ .. ...n.<.@.t.DXGXmX`.o.@.@.y.W.qX7XJ.rXzXtXJ.H.k.hXKXmX7XX.v *.5.H.NXkXG m e 2 q V V R 3.e U R =.R C Y x =.D.c.G.D.$X6X~.U./ U ; - r I I ' ` .XB.I I ' ' ` ` 3XZX-X-X3X3X3X-XC.N.p.g.d.7.7.0.Q C Q Q p < % Y R Y V.-X3X3X4X3XgX4X` E 3XFXxX3X-X%X` .X.X.X.X` .X` ; ` .X.X3X` O P P gX X` -X%XE 1X) g P h C.i./ / r r I M.8.R q @XMXvXxXcXSXPXSXxXVX1XoX$XtX+X%X;X*XeXaXXX:XmXW.F.:.o.rXfXp.s.T.uXpXOXC.gXiXh 4.P.f $ < oXuX4.Y.T.oXY.$X5X$X9XwXhX! U R i.%XgX,X0XvXM.f E.pXMXdX5 3 ~ C.aXGX0X$Xf.=.K.g.;X*X$XaXcXSXxXvXAXvXAXmXnXdXpXhXmXzX:X6X9XU.`.:.a 9 6XGXqXqXMXdXnXwXfX",
"gXgXxXvXvXcXxXvXxXxXgXgXgXcXvXsX>X#X:X:XY.$X=X@X@XY.@X#XP.f.6XR.2.f.f.L.K.M.D.Y.T.M.9.,.t.t.y.*.A *.y.7XyX(././.'.].yX'./.t.J.S.@.@.t.@./.'.'._.u.n.@.@.+. .v c O.J.<.b.!.f 4 * g U R 3 1.d./ 7.=.~ q.q.! W i.g.&XhXrX`.J.lX6X>.H.(.'.X.k.Q.tXmXDXwXdX7X6X7XH.J.J.<.B y.7XjXfXI.7XH.t.(.G.J.n.7XrX(.@.{ H.vXLXbX9XpXrXtX~.W.6X@X0XaX+XcXvXmXzXsXaXvXFXSXAXmXzXwX6XQ.$X6XE.&.6XdXtXrX*X0XwX;.c v.tXQ.c ..(.nXrX(.(.NXJXxXAX6X<.H.6XdXaXdXdXpXtX6XD @ < { yX7X8X6X| ,.<.b.t.a v 9 p +.+.{ 7 < H.y.t.v x v.y.q.wX>X9XdX1XxX6X$XL.F.S.y.(.).o.9.e.@.@.n.n.v.^.H.).H.*. .*.I.6XJ.J./.<.o.:.9.k.P.C.Z.M.M.0.L.L.p.Z.&X|.N.w.9.0.q.r.,.r.r.| &.r.&.&.0.M.d.q.8.q.8.1.2.7.d.7.i.i.i.a.a.V.Z.C.Z.Z.V.g.g.g.P.d.q.;.;.e.o.$.o.n p G X.A l f & + + + * f Y j.XX+XM.g./ / R j M t.6XDXp.= % < C ;.&.x 8 x 9 k x 6 z 9.e.| A H e.yX`.`.Q.y.J.).y.T M 5.e.F m l Z S G 7 6 { O...{ a o.O.<.{ [ n.)./.y.NXDXR.GXHXnX).5XMXfX'.o.9.v.v.H.nXmX*XzXr.6 k x o.o.| kXNX`.tX6X3.0 1 2 V R p.9Xp.3 1 0 0.k.Q.`.!.Q.W.f.R Y N U ) E I I r I I I ` h..X' r : I I : I 4X3X|.-X X.X|.B._ _ _ ) / Q D G o.n H M ! OX1XgX3X-X.X.X4X4X3X3X.X3XFXgXZX3X.XB.%X-X` .X-X.X.X' ` 4X%X.X.X& I ) ) xX^ _ xXB.%XxX` I _ U _ U U U g g ` D.Q.D.D zXvXCXZXCXAXZXSXFXaXpXhXpX8X6XtXtX#XoXY.U.K.7.d 3 < z F.kX0X;XP.M.DXvXtXpXfXmXAXDXR.H.y.| *.$X9X0XmX=XzXAXpXeXvXCX+X1.Y.#X*XmXzXvXAXAXKX X+XD.f.P.#XE.0XvXAX#XpXMXHXFXGXFXMXmXzXbX;X0XGXcXMXp.6 tXrXk.p.tX6XU.qXk.$ @.n.9 $ , G.;., F.NXNXdXeX",
"gXxXcXxXgXxXVXVXvXVXVXVXvXvXVXxXaXaXaXuXuXfXzX9XE.D.5XdXdXG.).`.S.F.G.w.y.| G S :.w.2.q.e.F q.6.T `.(./.].n./.].[ s [ @.n.b.BX6X'._.'./.G.Q.lX'.[.7XJ.n.`.v.*.,.t.8XyX8X=Xq.9XdX9XY.qXL.qX&X#X,X1XK.C.XXa.i.s.pXdX6XR.W.tXrXF.R.T.~.J.K.mXwX6Xm.6X<XvX$XwXjXmXmX6Xa w M.=X$XaXvX`.w.I.jXVX7Xn.O.<.t...$XCXVXpX9X=XoX$XS.o.<.U.gXvXaX;XuXcXpXmXMX1XxXGXGXmX*XtXrX6XJ.v.e.e.nXNXR.~.rXw.K.dXW.m.=XcXmXmXrXNXMXzX`.u.b.nXHXMXtX~.6Xv.J.t.s @.8X'.8XF + q } G.Z tX6Xv.).k.<.>.<.6Xf.p { s ..+.[ @.@.u.9 8 %.w.K.L.P.D.4.7.M.>XpXrXtXD.,.H.).*.;. .[ 9 [ [ 9 s @././._.(.(.lXyXt.7 { 5 y 2.Y 4.P.Z.C.C.P.P.g.P.g.Z.P.|.K.w.0.q.q.:.<.;.&.| :.9.2.6.q.K.f.M.M.m.1.1.1.7.d.d.p.i.s.g.V.Z.Z.Z.V.V.g.g.M.d.M.7.2.=.;.9.G | v b n x k 7 % d h U C N ~ p.&X%XiX9XoX! R N r 0 z ,.`.NX&X( l 4 3 6 z 7 7 7 < 8 p z z 4 @ 2 $.2 @ A } } e.| <.<.=.=.Z T G < 1 3 0 3 =.x z G b v 9 7 v (.`.s 9 t.$Xv.b ).Q.:.hXDXyXp >.D.#X!.:.<.,.J.R.vXcXG { y.y.;.B (.yX8XtXrX7XR.nXHXqX-.R 7.@X;Xg.3.U.fX#XK.F.y.lX7XW.U./ W ^ E ; : - I ` ` .X-Xh.' ' ` .X.X' I > O > : ` ,XCXFXZXZXZXZX3X3X4X.Xh.^ _ B.B.OX-X%X.Xh.^ E E ^ ' h.3X3X.X-X3XVX4X-X|.|.1X-X` |.gX3X^ .X` ` 4X` I I O .XE h.gXP ,XgXV.-XxXB.g  XE r E / h.* E _ o.G.@XK.DXcXSXSXmXJ.*XeX6Xy.y.y.$XR.t.b.H.;XE.f.l X $ C 1 x | 9.J.6XwXT.D Q M.y.rXzXfXC.=Xq U L.E.wXfX6XdXzXpXAXvXvXaX1XVXJXP.e 0 q 7 k =.l.f.DXJXFX< l K.AXGXmXaXaXvXDX=X*XwXdX*XM.6XrXfXm $ K.mXkXz z G c.&.=.k.R.@XnXtX$ $ 7 t.8 B nXMXqXjXqX0.Y.zX",
"gXgXxXxXxXxXvXVXVXVXVXVXVXVXCXCXVXhXcXaXuX9X#XwX$X0.G.6Xf.| y.F.w.k.0.r.F % 6 S T $.l.oX7.V @XnXrXtXv.n.'.yXJ.e.9 9 ,.Q.7XQ.6X@X8X/.).lXMXHXlXb.@.@.@./.'.'.'.b.O.<.:.k.(.`.8X).7X`.rXrXMXnXfXvXHXzX9XwXOX:XU.*Xp.k.6XrXnX$XI.5X~.6XwXaXvXR 0.m.rXtXAXtXy.yX).J.~.<.P.wXW.Q.vXSXeX~.6X~.rXb.b.I.tX7Xb.b.+.u._.J.5XQ.k.L.oX=XAXCXpXsX;XaXmXpXsXzX>XvXGXHXwXW.W.tXJ.J.y.e.8XJ.!.F.c.Q.q.U.=X$XDXxXZXVXcX:XzXhXhX8Xn.O.(.7X8XnX6XmXNXnX)...9 +.b._.6XZ.p.B w $ fXfXF.H.Q.`.Q.9.j.&X5X5Xy.u./.#.#.@.b.b.b.y.e.&.n A 8 v o.0.6X$XS.J.J.J.(.| c ).6XfX$X$XF.9.<.{ { ..(.NXlX[.[.[.#.O.y M d.~ / XXA.XX|.C.|.XXXXC.V.a.M.L.S.0.q.q.&.e.;.5.| :.e.0.q.6.f.M.d.7.d.N.q.6.1.1.p.p.i.p.a.V.Z.M.g.V.K.P.M.M.7.0.-.=.=.;.0.G o.n b k 6 7 < w ~ 3.7.6.7.p.j.&X1X2X;Xh.V / N * * g f.lXHXh.R 5 @ @ X X X $ $ < 3 6 f % X % < 6 q 4 <.8X7XNXrX`.`.F.R e w F l l w 0 $ @ M Z 6 7 8 H 9.H.=XHXp , t.H.b.n 9 7 8XGX).>.u.yXyXhX5X6XrX6X8X6XvXDXJ.t.{ '.NX).8 y $.e.n x Z } J.6XdXmX=X@XfX#X&XDXHXHX6Xe.y.lX=Xd./ P h r : & : & : g I ` 3XSXZX4X.X.X3X3X4Xh.I : I ' I P .X3XZXLXPXPXPXPXLXLXZXZXIX4X4X.X|.` ` ` ' ` .X3XFXZX.X' 3XgXgXZX-X.XxXxX_ B.CX3X^ ` ZX` ` xXI E ; ` %Xg |. X) ,XC.B.2XxX^ i.-XU 0 / C./ 0 _ _ Y 1.P.=XGXuXvXfX5XO.H.t.{ t.u.+.t.D.k.b.6XfXfXzXL.d Y D.&.D z c H.f.wXMXMXDXnX5XqXzXzXzXHXvXcXHXGXFXAXMXDXMXMXzXDXvX0XAXvXg.k.jXhXN l x  .H.y.e.F.6X2.M.M.d.C ! OXpXaXzX6XtX6X6XlX@XxXSXLXZX3X9XwXG.5X5X6X$X6XnXrX~.9XK.sXcX:XpXAXhXaX-XhX:XQ.=X2.f.2.",
"gXgXxXvXvXvXxXVXVXVXVXVXCXCXCXVXCXVXvXaXdX0XpXfX$Xk.G.tXI.y.H.H.I.Q.$XD.T.OX>XvXXXs.q.Q D v.rX6X`.(.n./././.t.O.).jXSXKXJXAXzXmX).H.MXHXnX(.a p } 9.,. .O.b.).b./.b.O.c.6XtXtXW.J.,.F.nXyXnXlXrX'.(.'.8XwXcXfXwXU.!.lXnXlX`.6XH.+.Q.AXmX~.F.kXvXsX=X0XR.| 8Xb.J.y.H.cXGXrX{ 6XqX9.*. .,.rX>.H.rXF.K.iXNX).H.G.n.@.n.n.9XAXCXVXxXMXzX:XAXDXzXpXiXpXzXAXmXrXrX6XtX`.v.v.8XG.6 m.9XY.F.c.G.Y.g.$X9XvXwX6X6XdXZXFXDXkX6XG.H.>.Q.nX6X6XtXMXNXwXtXBXlXNXNXNX).k., ;.5XzXwX0XqXdX`.J.(.7XkXkXdXtX).t.b.H.b.u.y.J.H.(.6X).H.w.k.s < 7 { X.J.J.$.p.GXLXPXFXLXGXAXFXGXGXNXNX(.X.9 ..+.t.J.J.S.q.M.P.XXP.T.T.C.C.Z.C.Z.N.q.7.d.d.q.q.f.r.e.9.q.&.;.9.9.f.0.1.K.K.d.1.1.-.-.1.1.3.8.8.3.i.g.M.Z.M.g.M.V.d.d.6.6.2.-.&.&.9.G &.o.n 5 q 5 *.J.`.Q.H.e.v.K.@X1X3XZX2XXXC U g r 0 # e ).nXqXL.I.L.$XY.g.7.p.g.d.d.U.N.U R 3.j.Z.qXQ.v 7 8 e.rXnXyX8XdXSXvXd.o.Q.NXDXmXy < N m M =.e.!.H.C.JX@Xx H.<.t.J.t.,.qX9XH.t.b.F.MXQ.7 b D.tXJ.J.mXJXKXZX7 , +.'.H., y `.y.7 n c >.<.5XDXqXrXNXnXdXtXq.G.5XF.E.D.U e r : ; : : > : : O . & I ^ ` 4X.X' ' I ' I g I I I ` .X` ' ' ^ %XxXVXZXSXPXLXLXLXLXSXZXZX2X-X3X4X4X4XgX3XB.E ; ` VXCXxX3X4XxX4X` -X3X.X` ` VX.Xg 3X` ; I ^ -X` ^ 1X-X-Xh._ |.vXA.( oXZ.p.! N.T.0 W ^ ) _ A.j.oXCX;X>X,X=X9XoXr.D.zX6XG.Q.6XtXS.m.OX,XXX,X0XL.R.I.2.m.0.%.P.dX9X9X$Xf.#X9XvXvXdX@X7Xe.y.pX_ `  XC.D.I.2.E.f.L.MXfX2 l.,XGXJXcXGXGXvXwXG.G.7XDXCXsXwX5X9XvXAXxXvXAXDXhXuXfXrX`.%.%.5.wXK.$ X 0.5X9X0XuX5XfX:XmXdXvXGXvXvXfX5XSXbXzX$XMXnX6XtX5X",
"gXgXgXgXxXxXxXxXVXVXVXVXZXSXZXSXAXVXvXvXvXpXwX0X0XqXqX*X$X5XW.*X9X9X6X5X).I.qXnX).v.b.n./._.n.b.'._.@.u.@.@.(.(./.n.n.'.'.`.6XSXhXmXzXQ.w.&.f.k.y.L.v.F.9X6XrX).7X6X`.`.J.H.).`.6Xe.y.7XQ.'.]././.]._././.u.t.y.H.(.n./.(.H.Q.q.[ @.H.t.n./.H.).H./.u.u.v.v.K.2XaXSXsXaXOXoX<.s X.b.e.Y.kX7 c.G.n 6.&XzX9XdXtX(./...[ #._.NXGXZXSXdXwXDXSXaXwX6XvXmXfXpXdX6X6X6X5X(.lX(.| R g.wXaX0X=XN.wXW.m.N.=X>X#XvXAXSXGXmXvXzXrXzX8X6XtX6XzXbXMXNXNXNXnX8X8XnXDXDXDX9Xw.o.6XwXnXrXrXkXlXrX8X8X6XQ.~.nXNXkXtX7X).H.H.u.t.t.t.t.{ [ t.t.y.y.<.Q.7XH.b.b.).rX9XwXeXzXHXNXnX7XQ.kXNX .v a A V p.XXXX+X+XT.K.Z.T.P.Z.Z.K.N.M.m.6.C ! m.m.D.f.c.0.D.;.9.w.0.0.f.d.2.7.8.8.8.d.7.1.1./ 3.3./ p.p.g.M.Z.M.g.p.d.d.0.2.;.;.=.&.q.Z | } 6 % h T <.y.b.y.G.!.m.Z.oX1XgXVXgX1X1.~ 3 r P # * 5.yXmXzXmXnXdXfXfXfXdXMXDXGXkXnXnXrXS.J.`.kXQ.7 < @ 4 9.8XJ.rXGXJXSX=Xf q c e.nXNX=.. * m.@ B w.).tXDXKX9XF.G.5.@X6X5XqX=Xk.H.t.< ~ 6X8XnXkX).{ [ ..t.GXJXmX9.@ 7 n.NX7XQ.J.,.X.>.w.2.T ).7XI.Q.rXH.rX$Xy.J.I.0.~ i.L ; : O O > O O O O O . . : I I ` .X` I I g ; ' ' ' I ; I I ' ' r I ' h.4X4X4X4X.X.X.X2XZXZXZXZX2X1X-X.XI : : ` ZXgXgXgX3X3X` I .X2X.X` ` 4X3XI ` ` > I .X3X.X^ ( -X2X|.i.|.sXaX( N.K.d.@X0.$Xd.0 Z.` W g ` %XvXVXZ.#XjX*XmXAXzXaXjXqXE.Q.tXwXfXwXrX8XyX5XvXpXsXmXnXHXHXNXGX6X< L.6XrXKXJXVXAX:X;XP.f.fXNX1.Y.T.f 8.U.f.=XmXcXzX=.5 hX%X-XVXuXp.g.$XD.z.k. .e.6Xw.8XnX*Xp.9XfXqX6XfX@Xq.v , u.k $ , _.jX|.+XwXmXzXdXAXhXaXpXtXT M H.`.rXQ.v.kXtX=XW.6X@ $ *.G.",
"2XsXgXsXsXgXxXxXxXVXVXZXVXVXVXVXvXxXxXaXaX0XpX9X*X=X6XE.@XqX6X#X9X,XaXR.v.@.(.@.@.#.@.@.@.'.(._.u.9 [ t.n.(.).yX).).<.`.H.X.).fXtXrXf.f.D.U.hXkXtXrXrX7XqXqXS.w.6XrXqX).).(.H.b.`.J.y.`.v.y.u.+...t._.(.(...[ _.NX8X'.(.Q.8X).tXv.J.9X6X7Xe.n.b.O.b.n.@.#.@.[.@.@.H.H.(.J.yXnX<.G m.9XHX,.,.rX9X$XeXwXwX*XrXG.K W.dX*X;.7 7 [ 8XDXzXfXfXSXvX$XH.!.tXpXzXfXtXrX7Xv.`.J.w.W.f.7.wXeXU.tXJ.J.Q.5X).Q.`.`.6X@XE.*X;XdXMXAXGXJXJXGXGXNXmXrXtX6XwXnXnXJ.v.y.y.7XNXnXnX9XeXwXpXfXmXnXE.F.J.J.`.Q.v.F.6X8X`.tX8X`.t.y.Q.v.O.a v y.J.y./.t.u./.#.u.O.[ [ n.].]._.b.y.c y =.&.w 5 d.V.|..X|. X X X+XC.N.g.A.Z.C.Z.A.V.M.M.8.~ Y -.2.=.-.U.q.;.;.G &.=.9.;.c.m.8.7.7.7.d.d.8./ / 1.~ / p.7.8.d.d.7.7.d.M.M.6.6.6.;.;.=.5.;.o.H < $ 5 F v.H.e.t.v.R.Y.C.+X-X2XVXZXZX+Xs.h 0 L & & G 6XnXcXdXzXBXnXnXdXrXnXpX=XG.qXnXtX`.R.5XdX~.p M z 6 y J.t.} J.7XG.lX6 $ $ < a.hXNX0XK.kXG.y.0.;.O.e.HX6X} a '.J.:.f.q.$X`.H.8XtXU.y.| c ,.8Xv 7 9 9 @.(.`.rXX.9 9 @.qXFXzXnXmXH.'.6X9XmX<X<.X.jX;.W.6X5XW.;.R P : > # # > & : & O O O O O & & g I I ` ` ' I I ; : I I I ' I ' ' ' .X.X4X.XB..X4X.X4X3XVXCXCXZXVX1XB.` E : O g ` VX%X2XxXxXB..XI .XxX.X' h._ 4X` ` .XI g .XZX.X^ ) L |.h.j -X1X2X;Xj.#XP.1.K.d.D.Y U L L _ _ B.sXs.s.L.D.@X6X$XL.`.rXmXmXaXW.K.pXzXfX5X8X/.n.nXhXvXU.f.k.f.J f R.tXQ.y *.c.GXDXDX6X~.HXkX~.D.D.p.;XMXMXmXzXE.f.d.fXc 7 kXjX0XqXNXwXsXaXGXKX<X5 $XMX@XY.E.eXJXAXfXqX!.rXfXg.h.4.SXKXKXP.d.MXAXJXJX$XY 5.E.tXNX9XB rX).M l v.J.k ;.wXeXzXh.T.*XY.M.",
"1X1XiXiXiXaXaXgXxXxXvXvXvXvXvXvXvXcXcXaXpX9XqX$X$XW.Q.I.R.$X$X9X=X=XgX:X,X=X>X9.H.u.@.t.R.fX$XqX9Xz y.t.u.(.} l f.R.J.5X8XrXyXb.n.v.!.6XW.:XVX0XK.:X0X`.| I.w.;.e.e.Q.J.G.6X(.u.b.b.>.nXrXR.e.{ <.b.`.`.J.oX@XnXlXb.I.rX6XrXR.W.G.I.qXqXkXoXdXnX0XfXmXpX$X6X| , 9 ../.(.+.t.=XvXAXDXAXFXoXP.I.$XxX;X$XM.d.T.Y.T.VXKXKXcXE.@.G.MXaXbXvXsXcXaX9X6X`.R.6XrXQ.zXvX8XyXrXzXvXdXtXW.eXjX6X8X5XE.@Xg.p.V.#XcXCXMXJXJXGXNXnXnX7X`.7X6XtXrX6XrXNXNXHXzXzXyXJ.u.O.t.).H.L.=XMXdXzXvXdXzXdXzXrXrX7X8X7XQ.J.Q.G.rXrXtX~.rXzX6XQ.E.dXwXR.>.O.#...{ u._._.'.7XJ...9 9 a < @ f &.$.K.P.-X-X.X4X%X X-X.X+XC.Z.M.T.T.C.Z.T.oXoXoX@X@X@XL.m.f.-.Q ;.q.0.2.Q S 7.p.0.d.N.p.8.8.3.3.7./ i.a./ ^ ~ / 1.d.d.p.7.d.g.d.q.q.f.;.:.;.r.,.F q @ @ 5 k G r.e.<.e.m.@X#X;X2XxXZXZXZXVX2Xi.; 0 + # e k.6XwXrX:X*XqXdXzXtXzX9XtX~.dXzXdXzXzXhXvX8XH :.| l 7  .{ , o.nX5XNX0.=.S [ `.5Xb.G.A <.Q.v.J.rX`.*.tX).y., v <.:.R.L.e.S.} R.nX~.H.<.} F F.} 7 9 +.n.).`.5Xl.).(.O.P.SXMXfXgX$X6XtX6XfXdX7XrXwXQ.rXtXNXzXg.r O O # & O O O O o o O & & : ; ; ; : : : : : ; : : : : : > & ; ' |..X4X.X4X3XZXZXZXLXPXPXSXSXSXVX%X.XB.' I g ; .XxXh.2XxX%X|..XB.I %X3XE ` 4X.X` 4X' ' I ` 3X3XI .XB.i.+X^  XxX>XaXs.7.@XM.;XP.7.R.C % + & : L U 3.6.H S 1.F D.nXtX&.w g.GXJXvX@XwXsX@XE.~.@...tXhXvXc.Z.,XY.M.P.oXrXNXf.x < ).mXdXS.7 v.~.`.=.! 7.7.2.! $XG.0.0XHX@X$ X < e.tX2.D.Y.zXR.k.rXkXmXwX0XvXY.9XDXHXvXzXeXzX;XwXcXFXLXKXKXLXFXCXdXQ.N.9X=XD &.H.0.$XnXrXMXD.f.Q f ;.$ % mXHXAXuXGXDX9Xl.",
"OX#X;X,XuXiXsXiXaXxXcXvXvXvXhXgXaXsXsXwX9X$X$XR.I.H.I.I.H.I.$X6X5X*XhX9X#XhXCXSXvXf.S.uXgXsXwXQ.rX).7Xt.O.y.t.| p +.]./.t.`.wX7XyXK.MXdXzXvXgXfX=XhXvXm.F L.E.tXH.$.%.e.~.J.,.H.Q.<.<.6XrXrXqXtX6X$Xm.=XmXKXSX6X(.O.L.HXeXP.=XeXH.>.J.b.J.v.b.J.H H c.tX5.r.4 Z Q u k.qX6X).>XKXJXVX1XFXKX2X! y.J.f.Y.*XdXfXpXCXGXFXFXJXSXPXLXSX>XCXGXAXDXzXdXzXcXzXNXb., H.W.8X8XW.vXAX=XBXBXfXmXrXMXvXcXGXJXJXJXJXJXHXBXrXQ.y.^.).J.v.).(.).`.tXK.@X=X$X6XR.9XzXsXsXvXmXfX6XjXpXmXJ.).'.`.qXMXrXD.tXzXmXAXvXAXGXmXVXAXvXaXAXHXdX5XcXAXvXmXmXwXfXmXMXHXNXy.v.mXzX6XtXdXnXtXwXrXNXjXmXmX,X%X X.X%X-X%X%XOXZ.K.T.P.Z.P.oXT.oXoXT.@X@XK.L.L.m.w.&.p Z q.S.6.Q Q K.7.1.3.~ 8.i.p.g.g.a.a.) / / / 3.1.8.q.d.f.d.7.q.0.0.q.e.:.;.;.G M q 1 3 2 6 x c *.<.v.m.Z.oXOX2XVXZXVXgX3X1X;XE e & O & W ).tX9XwXzXwXzXwXy.6X7X8Xb.I.nXDXnXdXmXDXrXp &.e.&.Z v.'.J.H.b.{ t.7 2.J.&.;XoXH.y.o.v.`.v.J.nXNXzXzX9XmXnX=XtXtXrXnXnXNXnXtXnXrXzXNXGXGXAXDXGXDXvXmXmXmXAXVXAXiXE.,.f.Q.).SXHXf.R.Z 5 Y c dXKXeX<.b.;XU . X O O > O O O O O > > & : & O & : ; : g : : > O > > O ; ` .Xh..X4X.X.X3XVXPXPXZXPXLXPXZXZXZXZX3X.X X.Xh.h.|.` I h.h.B.2X_ ^ .X' : ' 3X_ I .X' ' 3X` : I I 3X-X Xh.%X|.;Xi./ 0X>XeX=Xm D.0.K.wX8.3.6.9.Y j o . * - @ Q >.k f p v 6XJ.% + q q.k.dXzX9XfXwXrX~.(._.8X#XXX- # .X%XVXJXAX9XG.<.).x 7 <.).7XrXwXnXkXmXDXzXdXkXtXrXE.@X~ cXfX3.:XqX0XzX9XvXvXGXl a './.'.tXQ.mXD.d.dXfXsXmXNXwXR.8XnXzX9XqXMXwXH.7 H.7Xu kXkXfXpXoX#X,XXX+Xg.&Xg.X . q V e / p.oXN g.7.B l.",
"&X#X;X,XuXsXaXsXaXaXaXaXaXaXsXiXuX0X9X9X6XR.R.H.H.y.k.H.H.I.).Q.F.Y.AXHXd.n v.kXrX<.<.rXjX).'._.'.b.O.@._.yXyXlXS.n o.v A nX=X( zX&XU.z `.nX;XfXS.9XMXW.mXmXdXmX@X=Xv.J.lX8X*.H.rXD.H.~.Q.nXmX~.f.K.vXcXY.zXH.*.H.K.aXFXmXmXzXAXJX*Xo.J.`.6X5XI.2.l.g.5Xy.m.P.pX3.2.P.OXDXXX%XJXGX<XV.$XKXKXCXU.:.rXwX=XeXE.q.sXDXGXzXvXGXFXDXmXrXdXSXAXvXrXdXfXcXrX).7 $ v.J.'.y.9.=X9XtXkXtXnXnX6XGXJXJXGXNX'.@.[ u.).v.v.G.M.mXSXSXAXAX>XsXzXkXdXzXpXdXQ.L.9XvXvXsXgXSXvXaXmXAXmX6XQ.Q.Q.dXdX9XwXdX0XcXvXsXvXVXaXfXfXzXvXaXvXfXnXAXcX0XvXCXVXVXCX,XOX0XrXnXAXmX5X`.mXdXlXnXwXmXzXrX*XC. X X X.X.X|.C.V.N.M.oXP.g.N.V.d.N.N.M.P.Z.K.L.M.f.m.f.=.Z T 2.1.1.C 1.7.p.g.i.i./ 8.8.i.i./ ^ U U ^ s.p.3.8.d.d.7.8.7.:.-.;.9.:.&.r.A G F l l l x A b *.v.J.!.Y.T.Z. X1X-X XXX.X|.XXh.U & o . 2 U.tX6XtX6XtXrXY.e.Q.w.;.y. .<.>.F.nXmXDX6X8 G 9.A 6 p { ,.r.5.fXMX*XmXmXuXKXPXJXbXU.`.6XtXtXtX6XtXzXzXfXnXnXdXE.6X8XtXrXQ.T S.tXdXnXMXzXzXMXvXfXvXvXmXzXMXHXHXvXnX8XL.G.b.*XQ @ J.tX#XGX9Xc.E.6X<.@ X . # & O O > > > O > O O O & : I I I : : g : O   O O O ; E ` ' |.ZXVX3XxXSXZX3X4X4X3XZXZX3X3XSXPXxX-X3X3X` ) .X-X` I ` h.|.^ P .XE ; : 3X4XE ` h.` 3X3X; I I ` 4X.X.X|.A.-X>Xa.;X*X9X=Xm.1.6.6.tX6X! ! d 2 < 3.7.+ 5 p.V ! o.o.x =.} O.a / Z.4.Y 8 G.$X6XfXI.e.nX7Xk.@X1.M 0 o 3X X>XeXY.Y.d.w G.7.k.c 8 $.5X=.< y E.MXfXdXnXdXrXnXDXDXzXvXSXbXAXDX#XiXcX9X$X, , 9 , $ $ 6 I.5XwXdXGX-.G 7X5.y.G.o.v 5.7XyX'.7X<.Y y $ l.5X7.$Xe iXJXSXAXfX9XK.V =.K.dXGXW e L.W ; W t @ ",
"&X#X;X,X0XuXiXiXsXsXiXuXuXuX0X,X:X#X$X$XI.k.k.y.t.5.y.y.y.l.H.H.H.k.Y.qXqXuXaX=X>XcXSXSXiX:X9XrXzXrXrX`.v.:.d.cX,XAXhXGXaXVX0Xc.,X6Xb.O.7X`.$XDXG.Q.tXS.L.9X;XuX$X5XJ./.lXlX`.$XzXeXH.J.G.q.Z.8.g.M.DXAX0XvX=X} b F.M.+XzXDXXXwXKXKX>X=XfXhXpX:X9XDXzX! q.M.6X6Xk <.p m.pXOX2XgXaXiXU.9.aXKXKXVX1X9XU.G.R.).).wXcXSXLXAXeXh.*XnXsXvXSXFXzX9XzXwX5Xy.8 < w yX'.).R.J.J.Q.6XNXrX7Xn./.'.H.J.J.H.).`.'.nXsX$XfXuXcXVX2XvXvXDXwXzXdXpXzXzXmXvXzXwX*XnXtX6XtXrXwXeXxXaXsXAXvXAXvXzXzXfXmXzXqXzXzXwXzXMXtX`.`.tXzXdXnXzXzXvXvXzXdXmXzXmXnXtXnXvXvXvXZXvXcXzXvXcXnXtX9X=XnXdX;X|..X4X.X|. X XXXg.d.N.V.N.A.C.C.T.M.0.0.g.Z.Y.Z.M.K.M.m.f.-.F F D 1.D F 7.1.s.a.N./ ~ ~ ~ / P r 0 g / V.M.1.1.2.-.6.6.1.;.r.J o.o.:.r.G *.r.&.J Q F :.>.>.O.e.w.f.K.+X( / h.C.OX3XsXgXsX-X Xs.# o V.zX9XdXdXtXpXmXrXzXrX8XJ.b.(.t.y.G.H.qXr., , @ &.| $ 7 f.DXAX;XMX@X=XkXI.DXDXrX'.yX`.nXnXrXrX8X'.8X8X6XR.5X6X`.v.`.`.J.7X6X7X7XdXrXQ.*.F.y.`.J.!.rXrXzXnX6Xr.g.$X*XuXtX<.CXGX=X6Xy.&.*XeXf.B y.G.p.E r L L : O O O O O O o . O O o O & > & ; I I I & : : ; : : : : : & & I : & I B. X X|.|..X-XxXgX3X-XgX2X.X_ %X-XC.I ^ ' ; E I P ; O : I 4XE I .X.X` 3XE & ` ` .X%XgX|.h.C.cXa.T.OX$XE.6.9.9.9.G.6X8.! N.U d y 7 T k m S.Z Z G &.<.x 7 7 7 0.2.R.tXJ.r.6X6X=XS.J.6XNX$XKXDXu.(.e.vX9XD.$XdXDXfXnX6X$XHXdX@X< , H.`.J.J.`.zXvXcX:XmXAXqX$XdXfXSXVXzXrX0.5XhXzXpXaXcX2Xh.l.jX9X$XQ.6X6XzXH.n 7 G.f.2 $ $ $ 8 D.G.:XZ.OX%.$.I.6X0.5X, w -.c.sXGXJX*XD.9.K.0XJXcXwXmX2XZXLXSXgX",
"&X#X:X,X0X0X0X0XpX0X9X9X:X9X:X$XoXY.L.L.F.k.k.k.y.5.<.<.y.y.y.y.y.H.G.J.F.L.0XtXQ.y.5XwXzXCXVXCXSXaXCXLXgXaXsXhXv.$XZXKXnX9XvXtXQ.eXVXBX(.J.9.I.jXqX1XCXiXwX=XW.=X9X$XR.uXzXBX:X+X=X*XI.v.E.iXuXfX0X;XC.6X-XLXHX2.| g.f.9XaXF.+.9XKXGXG.r.K K V s.hXVX;XY 6 y.nXsXwX7.J c.M.s.C.FXGXvXeXzXCXKXCXpXq.eXFXPXFXqX6X9XiXxX3X` C.vXmXc.lXlXtXv.R.rX9XtXQ.rXnXmXnX].].[._.6XAXpXlX6X`.y.....[ /.n.n.t.).6XF.J.tXrXm.$XzXtXtXW.wXwXdXwXeXpXvXzXcXpXzXdXcXsX0XmXzXfXwX:XpXzXaXcXAXvXwX9X=XW.9XwXpXdXvXzXc.J.8XrX=XwXdXrXwX@XwXzXeX9XmXwXrX,XfXcXbXvXzXzXzXvXmXdX=XG.v.v o.tX9XXXA.A.|.B.A.B.B.N.M.M.V.s.a.Z.Z.A.T.M.M.d.d.g.M.M.Z.K.M.d.d.7.d.d.-.1.! =.8.~ 8.s.a.i.8.p.p.i.i./ g h V.Z.g.1.=.=.1.1.! ! ;.-.&.:.*.o.o.<.,.e.<.| &.$.| o.2.F S 7.R P.sXVXgX3X3XVX3X3X3X3X3X3XCXV.0 N.cXCXmXMXzXAXAXwXuXhXnX6XdXDXmX(.@.8XG.F.wX$X6 q.nXH.(.O.9.rXQ.8XF M 9XtX6XtX).@.X.8 b.kXnXhXdXtX8X7X6Xv.O.`.vXvXnXnXzXbXvX6XG.6Xv } n G c H.8Xv.v.6XtXQ.k.H.dXrXH.gXJ.+.Q.).v } 7 5 <.:.7 8 p c 5.R.M.E : O . O O O O O O O O o . . O : I I I I ' ` ^ : : O .   o O : I ; : I ` B.P g P h.-X-Xh.|. X,X,X X<X-X%X^ g g ' : > : & & & : ' ` .X` ` ` B..X` . I B..X1XgX-Xh.) >X:X1.=Xq.e.o.o.w.5.;.k.G.;.I.V , K j o 4 7X. $ % % $ < x F 9X9XN.4.6X8Xb.G.6X@XrXrX).u.u.G.t.).G.).rXnX8XR.I.tX$X2.rXrX$X0.rXL.jXzXtXrX6XQ.=.M L.@XwXD.Q.6X8XG.0.r.<.m.cXcXvX@Xz 0.5XB e.D.eXAXAXqX:XfXwXW.tXB $ $ f.I.$X$XmXdXH l q.:X#XU.dXFXCXT.l.E.q.g.R , N f.$X9XsXpX&., A I.8XzXFXGXGXAXzX",
"#X;X,X>X0XwX0X0XjXwXqX9X#X$X$XR.I.L.k.k.k.y.y.y.e.e.y.y.y.y.y.y.y.H.I.5X$XR.E.wXtX=XwXcXsXcXvXMXSXzXnXrXkXkXnX6X+.a R.rXdXhXpX6X'.'.`.mXoXdXcXaXmXvXpXAXvXMXHXFXFXLXVXCXPXFXCX,X0XeXvXsXdX9XwXvXE.=XiXoX6X:XgXDXNXE.&X>X-X1XdXr...b k 8 9 c 0.E.z x o.6X6Xo.o.Q.lX7XX.b.b.x 6 X.'.H.:.O.E.=.MXd.F.fXMXAXGXMXhXvXwX-.3. Xh.9XkX6Xy.I.qX#XY.rXyX`.lXyX'.(.'.'.@.@.@...v.mX9X5Xf.I.$Xw.v.tXtXk F.Q.$X#X=XQ.=X6XQ.tXrXtX$X=X@XI.$XzXzX$X#X$XwXwXdX:X:XwXU.~.tXR.m.!.wXdXT.>XvXaXwX@X$XY.9XzXdXpXmXzX6X6X6X~.tXzXMX=Xf.S.nXzXdXzXvXpXwX9X9X9XrXfXVXdXM.wXmXdXzXvXHXNXfXpX,X|.B.B..X.X|.|.C.V.N.d.3.a.A.|.|.Z.s.8.N.N.d.4.d.K.Z.M.N.f.M.d.d.g.d.7.d.8.1./ a.s.s.N.p.a.i.s./ U 0 U V.N.V.7.8.1.-.-.Q ! F Q F F &.:.o.:.*.X.,.,.&.&.F G Q =.3 C ! 1.+XSXSXZXVXVXxXxXgXgXgX3XZXSXj.E ;XmXv.w.J.tX=XJ.nXwX8X8X5XH.6 X 9 _.n < n `.p < m.NX .n o.~.D.0XDXrXe.!.rXHX=X4 X X 9 H.BXmX6XrXrXtXnXkXdXcXAXrX6XtX6XwXHXnXrXQ.6 c 7 9 y.O.H.lXnXyXW.;.@ @ 5XrXW.JXkXv.zXNXQ.Q.rXQ.$.L.Q.&.5XQ.*.K.K.oXC.L . . . O O O O & > O > > & & r ; ; ; g I I I : & O . O : ; I ^ .X.X` ' ; P ^ ) _ ) h.A. XOX2X1X X_ P I ' : : & : ' I ; & I ; ' _ ^ I ` 4XI O I .X.X X1X1X X_ V.zXN.U.m.D.f.9.9.r.| e.y.e.H.rX< . . . $ 2 rXr X N m.d.7.D.mXfXL.tX7XJ.B l t.yXNXnX6Xy.9 <.rXNX9Xk c ,.S.W.>.$XI.$.F nX=XP.;.$.B k.tXI.$XdXzXMXmXMXfX$Xf.8 } ).rX=Xd.6XmXKXoXpXfX$XrX7X$.X.-.8 9 /.a [ b.*XOXE.@X*Xa.mXmXeX9XAXvX9XL.B k I.D.! OXVX&XK.=.Q sXfXwXfXzXwXmXMXvXZ.+   $ f e * h XX,XfX",
"iXsXsXaXhXhXdXpXrXwX6X5XQ.Q.I.G.F.G.y.y.y.y.y.k.k.H.G.G.H.H.H.y.v.y.y.H.R.$X5XI.mXCXVXFXsXaXAXeX#XfXG.v.$X>X>XzXMXDXfXm.1XKXJX$X5X).b.VXDXhXmXdX$XrX*X9XAXAXY.Q M.wX:XvXHXW.nXDX$X`.).>XSXVX/ 2X=Xt.F D.Y.*XeXa.c./ I ; P 3XVX2Xb.R.rXqXjXf.6.d , R T.rX8X*Xq.6.n ;.l 6 f q @ X $ t j.w DXy.v.rXtXVXMXe.>.w.tXwXNX<.c E.W.XXB.MXMXS.yX8X'.].n.+.@.[ [ [ ].#.O.i.HXsX|.dXI.nX:.<.rXrXU.9XY.a.aXzXHX0XdX:XsXAX=X;XvXwXaXMXtX~.!.F.dX@X$X$XdXwXY.R.m.rXrXG.D.E.*XwXK.f.W.eXwX=XpX9XqX*X=X9X9XdXdX9XmX$Xf.q.9XtX9XtXdXnXpX,X:XfXiXzXwXrX6XtX6X@XwX`.H.6XqXdXfXhX*X0XDX#XV.B.B..X4X4X.X.XB.N.d.d.8.V.XXB.B.V.B.a.~ Y 3.p.! 8.M.M.V.g.Z.p.8.s.V.V.Z.N.Z.V.h.B.a.g.V.V.i./ E L t U V.N.g.3.2.R C R =.! &.D z A Z Z G &.$.M M C q d l k d d 3 ~ / V.h.ZXxXZXgX3X|.-X2XxXgX3X3X+Xi.P ) W.4 @ X.`.J.v.tX~.`.=XF.:X9Xv...S.{ y.rXDXGXGXnX6XH.b.(.7XHXGXVX9XJ.J.Q.JXSXmXNX9.e.7XrXwXt.tXnXBXQ.b.J.rX9XrX8X5XF.$XW.W.7.M 6.G 6 < < o.(.).6X<.k.8XyXX.r.v.v.zX7XJ.=XlXG.6XnXnXnX#X6 F S.).rXMXtX6XHXHXU L # O . . O O . . O O : & O O O . O . > O O > O : ' .X` ' ` I ; & O : I E _ .X3X-X-XcX1X X' : ; ^ I g > : g ` I : > : r I I ; g ` ` : : P 3X3X X%X) _ ) ( T.@XD.r.S.R.Z 9.J 6 S 9.z G 7XE.F.wXDXKXcX*XrXjXkXyX8X8XJXAX&XjXtX$X;X.X' IXZ.c y.,.>.nXyXnX6X=XzX~.H.*XgXFXGXAXmXtXtXtXtXfXrXM y 5.I.| yXrXjXrXnX$X;.rXrXG . y rXDXaXdXZ.9XrXrXrXP.P h.OXFXSX0Xp.g.T.cXzXMXMXkX6XtXcXfXwXdXwX;XiXvXHXDXdXqXdXvXhXAXaX,XwXE.I.pXbX>X,X>XsX0X%X,XvXJXKXbXfXrXpXpXdXdX",
"aXaXfXfXzXfXhXfXtX6X6X5X).R.I.I.G.G.k.k.k.k.F.I.F.F.H.I.H.I.I.H.y.y.y.H.H.L.L.I.=X:XCXJXvXAXfXQ.6XMXzXzXhXSXVXAXAXzX7XO.8 6XHXsXN.fXvXvXzXrX).u <.<XqXW.0XsXy...t.J.F.=.s 9 o.fXN.% 7 I./ pXK.SXM.n 9.p.P..XIXSXAXSXSX-Xj Z.cXiX*XA.,XgXvXgXSXDXOX*XzXkXf.qXmXkXq.a.,X0XaXV.p.! r.+XGX=Xg.R 5.mX=X<X6X< { +.<.<.'.7X{ H.fXGXyXNX'.@.n.b.H.H.5.I.0Xg.Q.tX5X<.y.X / R.9X:X6XNXo.< { v.9.L.dXDXfXU.zXbXAXhXGXJXvXbXbXxXtXdX9XtXtXwXzX*XrXrXdXzXfXfX!.tXwX*XE.9XmXGXBXQ.S.9.$XpXzXqX=X7.N.*XfX0XwX$XJ f =XrXwX=XoX$XR.6X$X#XrXzX&X#X6XtXW.wX6XtXnX6X-.~.zX*XzXzXrX9XzX>X X|.B..X%X-X XC.V.s.N.8./ A.C.h.B.V.V.a.j.p.d.d.~ 7.T.p.p.M.N.8.A.V.A.C.V.V.Z.p.a.C.a.i.^ / ) _ U r - W P.Z.7.7.p.! V Y ! ! D D M M d d N N 4 4 * t * 2 0 2 % ; h i.U P._ ZX-X2XVX3XT.B.%X-X.X XgXV./ 3.p.Y.I.k.I.5XwXtXDXyX(.rXwXDXFXrXHX0X7 9 8 z D.*XmX$Xo.`.J.s O.nXjXSXmXo.$.GXmXQ.nXmXtXlXqXdXo.`.qXrX`.t.t.n._.rXF.K.6.w.d.m.wXNXGXkX<   X v.).v.7X).y.o.tXNXyX(.<.J.`.8X7Xv.6 G nXHXG.~.NXJXrX5X6XnXy.H $.`.~ d L g - + . O > O O o O . # : & : : : O . O O & I g : O O o > I I ` 4X-X2XxXVXVXVXgXi.# . & I ' 4X` & : ' I ; : & : ' I g & ; : ; I : I ^ 1X X-Xh.E h.Z.d.D.K.d.e.F.&.c r.z ;.f.G.$.l.mXtXkX5XGXNXcXJXSX3X4XhXwX%XAXfX:XnX$X7XkXvXh.Z.`.O.M 8 2.6X5XI.T Q =XwX`.5X@X*.u.v.5X$XU.tX6XP.9.m.$XE.I.y (.>.p a <.l 2.I.$ < :.0.fXMXW.HXHX6Xn 7 NXtX,.7X6 ).yXrXDXmXvXsXpXdXV $ $.rXmXmXpXdXzXpX9XK.L.mXcXVXvXvXAXAXvXvXzX9X@XdXHXvXsXuXmXfXdXvX>X%X;XC.0X#X:XT.fXmX",
"xXvXcXcXcXfXfXjXtX6X).).J.I.F.I.F.F.G.G.G.G.I.I.F.I.Q.).Q.J.I.H.G.G.H.H.G.L.R.E.E.L.qX0XuXvX9XQ T :XAX#X:XMXmXcX;XwXtXw.v.b.!.MX8.+XcX6X7 x MXP.9XpXhXU.$X2XW.< 8 U.FXLXm q.#X&XvX<XqXzX~ K.4.h.=Xv.5.jXfXSXKXjX$X0XuXmXfXE.jXmXDX@XmXDX;.zXVXHXqXv.e.zXm.y.H.Q.dXbXVXJXJXGXzXzXzXpXdX~.| 7.#XpX).H.(.(._.u.#.#./.'.(./.u.n.#.@.#.].).fX6XI.qXpXf w.~.rX6XtXI.X @ 6 W.D S M K V 6XkX6X$X9XW.dXnXrX~.6XNX).o.y.lXrX0XwX9XwXMXgXwXzXzXcXvXuX9XfXzXwXfXzXdXNXdX1.c.wX0.@ ;.K.dX0XK.=X=XwXwX9XwXfXrX6X9XtXdXrXtX9XwX=XW.6XdXrXQ.zXnXeXtX=XwXdX0XpXwX6XrX@XD.9XtXdXfXzX>X|.h.B. XA.s.) a.a.s./ h / +X X XC.C.V.a.Z.p.! 7.3.1.p.i.Z.C.N.s.Z.Z.Z.C.XXC.C.C.V.C.C.Z.a._ E h ; & g XX,Xa./ / ^ U N N U h d C g h 0 0 d f 0 # # r # - - - & - L ^ U / E &XA.U V.2XP. X%XgXZX_ / 3.7.@X@XpXhXmXMXzXzXmXhXb.< a t.6XfX6X6X6XJ.yXnX0.6XH.H.nXdX*XeX).yXtX6X=X6X`.p <.n.J.5XnXtX).tXzX8XrX).b.).!.Y.tXy.J.k.M.f.Q.J.x @ A ).tXR.oXD.u.(.<.J.p 6 H y L.L.).8XG.`.Q.7X6Xz < l nX6XD ;.G.p y.Q.8XK Z =.Z 5 % W R U - o   . O & : g : & O . O O : : O O O O O O .   : h.3X3X3X3X3XgX%X%X X_ I     : .X3X4X3X.X` ` ` ` g I I g ' ` g O . : ; : : : g _ .XB.( g i.;Xs.M.1.M.=.D.=.7 G } X.R.fXrX).nXzX6XQ.S.F.$ C 6XcXxXZXAX9XqXR.I.tX).:.(.l.v {  .7XHXm.).JXAXkXrX<XHXDX5XH.I.B.I.O.y.Q.L.f.nXGXfXQ.mXMXmX6XtXrXw.D.y.y.5XfXkX6XHXnX8XtXzX0.G.V . X $ k.nXy.tXK.g.&.A H.*XmXbXfX*X9XdXwX@XpX#X*XjXzXAXAXHXzX0XoX9XVXVXVXVXCXcXiXsXgX#XoX#X0XpXwX>XMXsXwXdX$Xf.Z.T.oXwXpX#X",
"cXvXvXvXcXfXdXtX6X).J.H.H.H.k.l.F.I.H.F.G.F.I.I.I.I.R.Q.R.I.I.I.R.I.H.H.I.R.$X$X5XL.I.qX0X@X9XmX=.W l.P.F.S.L.@XCXGXaX;XfXuXzX9X@XmXrXF.:.f.GX0XvXDXaX/ 6 ~ #XL.tX0.1XLXKXgX1XgXCXZXVXVXgXVX%X` C.oXu w 8 ;.MXH.8 8 L.k.O.7 w G.T f -.&.8 b.=.C L.mX:XY.eXq.q.K.hXxXiX0X9XvXfX9XcXhXvX=X{ J.J.(./.#.@.n.@.@.s [ +.n.8XJ.o.D.E.5Xk.v.A Q.F.W.9X@XZ ,.yX7X .*.DXa.M.#XGX=X6XtX9XGXGXnX8.d Z * 0 #XT./ S w._.O.u.n.`.6XqXzXwXMXvXwXrXzXMXDXnXwX6Xq.U.AXzXw v.q.    @ v.G Q.@XsXeX9XtXtXtXtXrXrXtXR.Q.6XW.6XyX6X6XnXwX*XdXmXS.G D.R.L.q.tXmXrX9XzX9X*XnXnXnXrXrXrXrXzX$Xh.s.B.A.E C ) i.s.s./ U B.+XA.h.a.s.a.i./ / / i.i.i.V.V.Z.V.V.a.V.Z.s.a.Z.p.V.M.8.! ~ / / U N g - o L OXOXZ.~ U W h h 0 & # o o X X . X + * r & & P r > O o # o & O O & h / 8.K.! h N P _ ,XZX Xe 4.L.qX9XzXrXzXmXJ.8X8X(.b.p 9 a O.).8X7XNXI.kXHX6X$XE.qXvXnXrXMXv.8 ,.J.$X$XJ.c < @ H.yX`.p , (.8X7X8X8X6XtXHXGXzX6.rXmXMXNXtX7XtXr.4.R.8XkXcXE.w.tXnXlX7 $ 8 g.l.f.dXDXq.E.l.6Xl @ 6 < 7 ).G.@ R Q w X o.J.rXmX;XS.D.f.l y.rX=XW - O O & & O & : & O O O O O O O O O O : ` ' I I ^  X|.|.V.|.+X|.I I .XZXPXZX3X3X4X4X%X/ ` ^ ; ; : I ' ^ :   O I : : ; I ^ .XB.^ 0 W pXN.~ R V Z F q.F 6 o.e.tXwXJX>XM y.k.7XyXlXMXrXP.w @ 6 e.r., , 9 8 v.Q.Q.9.% H ~.W.E.HXaXg.$XMXhX;XT.DX5XX , &XKXLXvXSXzXS.,.b H.7Xy.L.9XdX6X7.oXU.2.H.D.fXtX2.-.wXpXG.k.fX6.;.p.h.4.$Xl.qXsXgXFXZXgX,XzXcXDXAXMXAXmXvXFX>XfXfXvXMXmXnXsXcXhXeXrXU.K.DXaX+X,X,X>XaXvXpX9X>XsXaXvXpXfXvXmXsX;XwXvXvXmXMXmXfX",
"xXvXcXfXdXwXtX5X).J.H.v.v.y.y.k.D.F.L.H.F.F.I.I.Q.Q.R.R.R.Q.5X5X5X5XQ.R.R.@X$X$X$X$X9XzXwXI.$XVXOX0.L.wXE.k.-.$XzXR.G r.$XhXGXAXwX$XL.fX9XY dXzXwXDXCXcX6XP.sX>X=XP.OX-X1X-XSXJXCXAXJX,X+XVXZX-X/ XXoXR 0.| Q 5XqX=.7.P.e., $ 9XF.6XW.L.H.5XmXM.aXSXCXpX=XcXCXAXuXCXvXwX*X6X9X>XcX>X0XzX<.y.O.+.,...@.H.Q.7X5XwX'./.7XNXtXdXsXaXrXk } 6XnXdX0.G.m.!.8XNXtXG.HX$X:XJXDX5 Q.rX9X=X8.!.C.#X6XU E pXxX4XV.x '.).(.{ Q.dXnX6Xw.m.vXHXJ < q.6XrX9X6X6X5XSXdX9.R.W.h W < G.H.I.dX:X*XzX6XR.R.8 7 < r.~.6X6X6XrXD.0.K.nXmXmXfXDX;.< 9.6XG.&.G.R.tX5XrXQ.tXrXwXzXwXdXnXlXzXK.s.) h.i./ a.B.B.i./ R / C. Xs.i.s.i._ / i.) ) i.s.a.a.V.Z.Z.C.Z.N.i.a.8.7.7.! 2.Y d 0 t t t ; ; O o E i.^ ~ j j L 0 # X   o X + * 0 0 ; & o # & & # X o 0 2 r 0 0 E ) P _ N M D.NXU.$ + 1 0 / Z.Y f.y 6 ! wXzXfX5X@ ..@.'.X.8XGX$X<.H.7XNXH.6 8 t.u.lXrXkXHXR.t.tXlXQ.6X6X).f.< @ 2 $ b '.J.<.7 n.} y.k.Q.m.v.:XiXtX,.5XrXG.8 $ T Q.dXKXdXS.S.jXGXDXGXKXzX% $ 6 4./ %.dXJX6X5XDXnXqXU.$ @ Z J.Q.-.NXGXDXHXZ 6 C OXXXS.6XwX3.$.v.J.rXp.; o O O # # : - & & O O O O > : I ' ` ' ' .X3X X^ ^ B.C.s.^ ` 4XZXZXxXgXxX4X.X3X3X) ^ ` L r g E ^ ` ; o & : I : ; I I ` ` I P ^ XXOX~ Y V M S 0.9.&.T q.F.rXP.AXKXDX$.9 k $.<.R.GXGXDXnXrX6Xy.$   . X q.DXR.7XD.A Q.DXE.W.vXrXrX6XzXrXzXmX$.B l.8XH.6X6XJ.Q.6XlXk.$ y.rXmXcXAXmX6X6XtX6XmXpX<XW.c ,.yXH.).6X7XJ.J.rXHX,XvXnXkXmXDXmXvXmXdXwXwXwX6XrXwX=XA.;XmXwX5XR.G.5.y.<.y.7XH.H.} p '.8X~.~.W.>XiXpXdXzXvXvXaXvXhX,XzX=XB.1X#X:X#X#XzX*Xp.",
"aXaXdXqX6X).).H.l.y.y.e.r.5.9.w.k.D.L.I.I.L.F.I.D.L.I.I.I.I.Q.$X5X5X5X$X5X6X6X9X:X9X9XpXuXqXaXgXaX6XwX$XL.E.q S M 3 V f.T.zX>X>XfX;X/ $XD.g.9X=Xp.d.+X@X6XoX-XKXaX;XKXKXmXl.a.>XOXY.K.w 5 g.a.Z 2.dXHXcXAXnX*XwXgXpXGXvXY.mX#XmXuX9XvXoX@X0XsX<XvXhXbXAXvXcXvX9X:XzXvXCXvX6X6XdX9X9XY.zXfXvXpXvXSXdXzXaXaXdXwXHXnX_.t.).~.(.(.zXnXnX`.A 9.L.f.e.H.8Xy.f.U.F.D.z 5XHXK 6 f.0.Y.rXk.o.MXJXDXs.|. X3X` ~ @ 6 D.rXX.2.xX@XrXtXD / C.m.r.L.rXnXrXQ.yX7XdXR.J.v.~.HXGXeXdXnXkXNXMXmX*XtXtXtXG.6XrXzXMXmXNXHXd.* t ! f.wXmXY p.p.$ @ 2.6XM l 6 @X=.M.Y.L.V h W ^ E 3.Y.wX;XXX/ h.a.a.C.s.h.s./ ~ B.A.B.B.V.s.i.s./ i.i.a.a.B.i.i.a.B.V.V.Z.8.N./ 1.8.! D h e 0 - O # & O O . ; Z.h.g t 2 # # O . # & ; V ! =.2.S q * * # o & e R K.rXrXlXyXyXNXNX< @ K.m.F q.G.N w 2.e.U.rXwXzX6 < D.tX6XDXnXr.'.(.(.w.;.@XrXrXQ.R.:.x $.8 ,.(.J.;.5.e.@ $ $ c 8X6XF.S q 2.R @ 3 X.).nXmX).yXtX6XQ.R.E.6X=XVXtX@ , @ k G.8 , w 7 bXJXR q N M $ N 0X9X9X9.4 1 d 0.$X6XyX;.u G Q.DXl , =.f.fXD.k.rXE.NXV @ Q.DXkXNXmXJXKXKXmXb.nXE.W ; : # & - - # & : & O O O O O O > : I ^ I & ; ) B.C.B..X2XZXZXxXgXxXxX3X XxXxX^ j ^ P E ` _ ` g : ; I I I I I I I I I I r L a./ 7.~ D d 5 G Q k =.;.;.&.Q.< 2 nXrXrXqXQ.`.7X7 3 2.5XI.6XnXnXrX:X+XvXGXGXG.J.VX_.9 l.kX6X6X9 O.n._.6XGXJXE.F.6X6XW.rXx $ <.<.I.Q.&.k.$XfXfXpXU.6X<.E.0XAXHXnXR._./.@.n.8X8X_.7X_.+./.lX8Xb.O.O.u.).8X7XtXtXrXzX6X9X*X6.T 5 =.6XrXrX8XMXHXw.< y.8X).a , < 7 p 9.rXaX2X>X>XsXsXzXpXzXpX3.$X6X:X-XA.=X0X0XpX9X:X",
"iX9X6X5XR.F.H.y.e.5.%.$.$.2.4.0.f.g.D.K.K.D.k.D.D.D.D.D.k.G.I.Q.5X$X$X$X$X6X9X9X9XqX0X0XuXpXaXuXuXpX0XK.Y.dXY.d.3XFXGXDX$X&.9.k.I.0.T F.6.nXqXk.@X:XgXsX6X*XZ.vXM.p.VXSX5X9X#XeX=X4.d., 1 4.i.p.wXAXDXMXHXdX0XdX>XcXaXcXzXrXeXzXpX>XfXzXMXvXGXY.7.M.8XSXGXGX9X>X9XU.XXgXDX} 6 rX*X6XfXwX*XwXsXiXvXDXXX&X#X$Xf.T.NXrXn.n./.+.+.u.H.Q.G.`.lX8XL.1  .'.e.5XnXf.qXq.6X6XK 1 $ &.L.6XS.:.wX:X1.  . : 2XgXwXtX6X@XdXnX#XKXwXtXjXN * r W C 3 d.~.tXrXlXm.! =.%.nX8XfXfXvXnXNXv.c.0.K.:X9XD.L.E.fX0XoXZ.C.8.d.+ & * * R q.m.l 0 N.e =.@X$XM.@X$X9Xe U U V 3 X X # r r 0 ~ C.a./ B.V.V.B.B.A.B./ i.A.( _ a./ / ( i.s.B.a.s.a.V./ / / a.Z.A.A.8.8.1.R 1.U j r ; # O o   . O O ; ) Z.h._ E e 3 e 0 e m 2.;.w.R.R.nX8X7X6XlXrXnXdXrXtXtXlXyX~.8X8XtXrXD.U.NXnXrXNXrX4.I.`.8XJ.8XQ.L.=.,.kXyXG.nX0.:.).DXNXDXnX*XS.6X6XkXtX7X7Xy.7X8XrXnXkXwX6XH.wXkXQ.Q.5XQ.5X:XGXY.l $ Z nX0Xz $.P.6XrXR.Q.mXnXNXH.r.7XH.5.E.G.7 R.5XK 0 # % @ , $ T mXGXiXv.7.wXHXHXNXR. .$.2 < G rXtX2 6 4.=.< c `.k.d.wXY G < < m.0.4.y.:.G.e.6X$XM./ h ; - 0 - # # # O > > O O O o O : : : ; g _ -X%X+X-X1X3X3XZXPXZXZXZX3X2XXX/ U L ^ h.) r P P : ^ %XE I I I : ; : I ^ E r L h U d.Q m 4 w k @ < y y.GXHXnX8 $ H.).zX=XE.v.J.} G.I.H.k.rX6.F fXKXKXdXR.qX,XY.PXQ.O.b.yXnX_., $ , b.5.C :.c B =XdX:XzXDX$XR.7XyXtXHXHX7 ,.a F.dXrXL.=XDX9XJ.H.n { y.7XrXfXrXR.NX8X8 8 J.6X6X6XnX7X6XqXzXtX9.8XNX9XwX9XF.I.$.5.m.~.nXwXwXA.@ X $ } 7Xn r XX#Xg.;XAXgXxXsXAXvXAXMXrXW.9XpXqXy.mXKXAXdXzXdXpXmXzX",
"*XoXK.K.f.7.0.4.=.Y W R =.7.p.g.g.j.g.g.g.g.p.d.d.0.d.f.f.k.D.k.F.F.L.I.@X#X:X:X:X0X0X0X0XsXaX#X9XuXdXwXwXsX+XAXJX<XJ.v < @ $ l y k.jXmXzX9XL.dX6X*X2XMXL.:X9X6XM.E.6X1.< 3.aX0X6XjXvXmXwXmXAXFXaXP.2.K.3.W #XdX0.qX9XqX9XT.*XeXDXvXp.9XdXY W 0.K.&X6XgXGXM.D OXsXnXmXaXzXE.q.wXrX9XpXcXrXzXfXfXdXmXl m W.6Xy.&.fXhXpXDXrXqX#X:XbXCXOX6.F.G.D.=XnXlX9X&X9XeXnX2.-.w G.D.3 6 f 0.5 @ i.3.m U *XsXDXHXzXnXrX;XvXtX3.2XwXtXDX2 + > j.U   o % * p.0 4 2 + * D.1.Z.d.K.! 6 4 5 3 8.C.OXh e V h P ^ E ) * U h P L * h U W d.C.#XZ.U R q h Y -.7.! V 0 0 h XX/ W C.+XV./ U / s._ h.B.h.h.V.h.) B._ j ^ a./ ^ s.B.h.B.C.h.h.V.h._ / h.h._ p.8.6./ U L r o   o .   .     o : I ` B.h.|.%X@XD.S.8X8X8XnXlXtXR.Q !.8X8X`.J.`.7X6X7X8X6XrX).).6X*X:XwXDXNXW.wXHXrX6 q I.n v.J.y.yXdXrXnXnX6XG.8Xn Y hX8Xc.E.wXvXfXtX6XnXG.<.H.7XtXQ.H.R.6XaXHXzXGXmX$ @ % M D.f.-.E.NXrX< L.zXNXrXpXnX@X6XwXqX2.Z   X . 7 5 l @ @ 1.q < r * * e 3 @ $ D.E.d y f.l m @ L.HX< F GXNXF.rX6XM nX5XJ J.NXJ.m.dX9.Q.nXH.e.=XNXNXyX9 b nXQ.L.M.a.B._ U r & ; - : O O O O O o o . . . ; ^ h.B._ ) %X+X+XxXCXCXVXgXgX3X-Xa.h U ( / U P g E ) L h. XL ) I & O O ; ; ; ; # g g ~ M.0.D C e 2.nXnX6XI.).tXF <.X.rXlX`.Q.nXlX).&.F < ).NX6Xl.,XkXy.k.8 a O.).rXyXKXGX`.J.J.v., 6.=X$X=.M E.lXlXlX6X).J.).S.Q.6X5X$Xc.r.x , ../.).zXmX#XrXtX:.{ 5XkXNXzXaXCX0XpXpXP.K.wXqX$X2XVXVXxX-X-X+XvXHX1 5 I.qXrXnXS.8Xy U +Xy 5.I.M % $ q w @ e d.pXGXSXbXvXvXvXDXwXhX>Xp.f.G.6XrXsX*Xn $XKXxXwXzXeXwXMX9X",
"K.d.p.p.3./ / ~ R R R R =.3.3.p.g.g.g.p.p.p.7.7.4.=.-.4.-.5.w.w.k.G.F.E.E.$X$X$XqX:XwX9X>X1X0X*XrX:X#XqXpX1X1XVX&X6X<.G f.oXg.wXP.AXCX>XvXfX9X=XwXzXsXzXG.+X+X|.>X>XP.R l s.LXLX9X#XgXMX;XMXAXVXfXtXDXiXB.i.rX).9  .%.k.$Xg.P.9XdXwXF A y.7 2 !.0XmXF.8.eXJ.).Y.:XqXW.6X=XT.>XfXwX9XxXZXvXcXgXcXfXDXmXV vXrXrXw.fXrXv.8.L P.:XK.L.&Xp.wXnX6Xm.eXnXrXfXmX:.@ *XrX5X5X8XwXW.W.W.R.e.D.B.GXGX! z 6.qX`.6X*XS.A.i.1.a.%X7.A.XX+ # . 0 C 0 ; + X * + ; X . V -.Y M.i.j.N N h. Xh.t f P R P ;     # r L 0 / 4.R j./ ` j.E U h U / 1.d.7.3.q ~ 3.3.R E / i.V.h % = d R i./ N / ( _ _ h.B.C.h.s._ P h P _ / _ B.h.) h.h.h.h.h.h._ _ _ ) ) 3.! R N h : O >   . O > : : - ; ; P ' ` _ E _ @XtXJ.J.nXW.rXrX7.$XrXrXnX0.f U tXkXnXrXnXnX8X8XkXrXtXtX`.Q.D.!.GXdXY @ @ 0.e.y.v.v.).nXzXzXrXnX'.u.`.,XKXjXtXdXnXNXQ.`.J.7XrX`.Q.nXrXrXyXlX8X6XkX6XcXfX2 2 k $.y.D.~.q.Q.fXZ @ $.Q.R.fXDXbXHXnX6XG.l 2 ) OXhXGXHXC f l q t 0 0 0 e * * f.`.>.Y.F R.C $ 2 %.NX~.HXsXN.K.tXNXtXHX! ! tX6XI.gXKX;.,.e.7 o.9.m.V +   h 6XG.w.U.a.s.( a./ E g ; ; O > > O . . o o o - I P L g ) _ XX#X>XdXeX<XwXwX*XT.Z.XXuX,X) N h L r E E h. X/ ( ) O O & O & & & > & g 3.1.m M D R e 5 G.yXF.6X).tXw.| @ H H.tXtXE.G.Q.mX5 < 7 f.$.OXDX$.k.lXe.<.n.'.7Xy.ZXDXE.vXKX>XfXGXAXLXLXNXy.O.#.u.6XrXmXmX$XMXqXqXvXGXjXqXf.B | v.rXnXlXyXX.<.5Xk.K.6XJ.U.6X).).5X$X9XaX<XfXfXgXZXgX3XuX$X5XzXf X $ b tXNXH.).L.1XKXcX,X-X1XsXFXMX6XjXfXcXCXxXsXsXbX0X1.:XmX0XoX7.6 7 ).nXAXwXO.O.*XdXfXvXeXM.9XD.",
"3./ / / R / / 3./ i.i.j.h.h.B.h.V.Z.C.K.D.g.l.j.2.T W U V V ! 4.g.g.P.&XoX&X#X:X*X:X0XuXuX0X,X;X;X:X:XwXpX9XuXXXq.=XwXfXvXAXFXoX=.Y.*Xf.qXwXhXCXCXtXK.jX$XK.f.S q.m.G v.$XY.F.9.=Xf.dX5XE.Z.>X-X=X1.$XP.vXGXDXp.Y sX1XuX:XoXj._ W.=X;X1XVXgX:XS + 0 ;X+XM.@XD.g.oX$XY.*XdXf.*XwX=X~.dXtX6XrXrXnXQ.S.W.* ) N.=X>XMXvX2 % R 4.~ U j ^ / f.,.H.I.Z.:.Q $XM.g.g.0XdXs.P.cX#X#XpXwX9XOX>X+XuX:XXXXXT.*XT.7.p.U & h / B.^ = ~ 0 X 0 h j P ( V.B.C. X X XA.|. XB.) i./ s./ g / / E 0 E _ ^ B.|.B._ B.C.^ _ B.B.( %X1X-X XC.s./ U V ! a.N.+XC.U R R R g.8.7.V N f * h U ~ t # t U E ) _ ) h.B.h.^ U L - j ^ ( _ ^ ) _ ` _ _ _ _ _ ( _ _ _ ^ P P g : O . O & : r r I I r r ; I E P P r h R m 7.=./ t e P.~ Z (.8Xf.@ + 0 ~ OXh h h N p.p.m.Q Z 6XNXW.S 5 c.+ . 0 q q.X.k.K.M k.nXnXx 7 *.w.w.tXG $.G 6X2.c.rX6 z ;.y.G.rXm.nXdXnXl < ;.~.J.`.e.;.Z W.nXrX!.hXMXdXW.Q.`.fX0XK.E.tXL.D.4.k.I.$X$XmXfX9Xd.2.NXrXq @ X $ $ # X q m d.NXdXZ =XL.rX$XS.=.< ;.wX=XwXf.9.F.G.7 k.k % S =.M.HXJXmX`.rX=.@X$X$XqX9X6XW.rXS.-.U.d.s.U 8.N.a.i./ ) E P P : & O O O O o O & : 0 g 4 h Q S ;.w.w.f.4.d.=XbXxX2X/ h t U P ^ h.|.h.^ h._ : o - & : * & O o & h M 5 x J.y.~.C d I.8X7XQ.I.BX6XyXtXT S v.J.v.7XH.MXW.8XNXmXAX`.,.[ [ s [ t.@.....@.u.u.O.b.rXS.FXJX>XgXJXKXCXxXaX0XwXaXKXKXLX0XD.U.J.e.G ).BX6 7 p b.8XyXJ.`.6XvX4.f.I.oXjXZ.j.C.XX:XP.:X9X=.l.JXFXCXKXLXgX9X1.d.W X t P.&.~ 1.cX2XCXvXuX>XMXSX$X).f.R zXdX6XY.0XfXAX2X8.rXmXP T.wX=Xf.y 7 &.MXSXCXSXDXmXuXU & C.0X",
"~ R ~ / 3.i.p.a.j.Z.Z.C.Z.Z.XXXXoX&X$X#X$X@XK.f.0.4.Y U U V R 4.g.f.K.P.oX#X#X:X:X>X>X>X,X,X#X&XOX:X9X9XY.$X$XoX$X@X9X*X*X,XfX:XR ! V. XgX%XOX0XMXdXT.+XsXg.6 @ k p.Y.g.2 4 M D W.nXMXR X U aX,XmX6Xk.M.;X;Xi.,XpX2XxXCXpXP.h.1X|.|./ R d V g.U t U XXvXZ.P.oXXXOXs.i.g.P.e U 3.9X9XwX$XfXqX$X6XU.=.e - r r ; ) P.:XU D.4.m e 0 * & & * m S @ 0 + @ N 5 Y m.c.q.N.K.T.N.* * ! 3.( V.i.3.a.~ j.s.8.8.U U U t ^ E U E ( V.XX%XXX|.B./ a.V. XC.%XA.A.A.|.|. XC.V.V.B.|.h.B.h.V.V. X,XXX+X X%X-XXXC.|. XB. X|.|.B.B.B.A.V.V.a./ W C U h ~ h f e 0 R U e ~ W i.W / E ( j = = g g L U E / B._ ^ E g - E P g ^ ) ) ) E ` ) ) ` _ ` ` ^ ) ^ L ; : O O > & & : r g g E E L L g I L ) g U + . :X3.0 h N h 1.wX6X&.K.j.$ # * & X * / W P.=.Q Q 0.Y Q eXdXM d f i.sXdXnXo.,.d.4.=.Y ~ M.f.! D < -.2.&.w 9.m.2.l $ < 2.=.6XtX6X8XG.q.6 2 d @ $ =.6X6Xq.D.rX6X;.6X5.).J.(.`.yXtXrX7X8XL.L.$X9XW.W.L.U.6.m.~.lX8XrXqXdXL.K.M.3.=.L.f.l.k.S @ d 1.K.6X6X2.2.=.tXW.U.rX$X6XtX$XE.0.T 5.S d.N + R 6XzXq R M.K.p.2 m Y l < 5 R / i.~ ( i.i._ ^ ` ^ I g ; ; O O O O & O # & r U L r 4 % 3 M S ! W.=X9X0XV.R t N / 8.V.C.V.N.R / _ r # # : O O   & # - j e 5 7 Q e.).NXR.&.rXNX'.H.).6X:.v.6XnXtX5X6XG.*.y.BX7 $ e.8X*XsXKXFXMX9XmXrXG.`.5XH._.yXtXR.e.&.AXaXVXV.T.AXJX,XvXGX9X8.KXKXCXmXfXqX5X0XuXg.( @ x @ . , 8 6 H.6XHXJXzXbXAXbXCXAXfX0XwXmXmXfXW X g _ XXgXVXsXZ.R D =XpXSXGXiXfXdX=Xq.L.rXMXGXpXU < F wXmXAXvXeX$XI.5.8XtX6X8X9X+ 8.T 6 f 6 7 c 6XtXzXvXtXD.N.T.eXdXW.",
"/ / 3.a.h.|.XX%X%X-X1X>X,X,X>X>X0X0X0X9X9X$X@XL.F.f.=.R R R 4.p.g.D.K.Y.oXoX#X;X:X:X,X;X,X:X:X:X#X#X#XE.D.D.f.f.M.D.=XW.M.g.,XAXXXOX>X3XVX1X<X$Xf / XX+XaXP.S XXY.#XJXh.C.OX$XM.C g.>X+XU ) 1X1X;XoXj.i.h. X/ a.s._ B.-X2X,XE 2X3X-XV.N N p.;X+X%XaX-X X%XZ.%X1X-X X) ^ a.E h r h.XXZ.Z.oXm D V 1.1.N.d ; * + * X t a./ + @ g t + ; L E U h / ` L g h 3 % 4 f s.1.~ s.C._ i.B.B.a.) / / / h ^ i.i._ i.a.|.V.A. X X X%X|.|.h.h.B.B.B.C.A.B.h. XXXXXC.|. XV.C.Z.V. X X%X X+X|.+X|.|.B.B.V.B.C.|.|.C.|.|.C.|.A.|.B.V.V.h.V.V.C.V.V.C.h.|.a.i./ h E U U ^ E 0 # r 0 h / _  XXX|.XXC.( P E ( ^ g g g ^ g - & - g g L I I I I ' I g I ; & : > & & & > : : ; I I r ; I L I r # O E |.xX>XOXXXh * _ +XZ.8.! U $ N W 2 * U & . 0 p.d R w e 3 q q Y m Y.7.K.@X#X*X@XR E.D.4.N N e ^ C.h.h.;X-XV.q d C =.2.7.Y.wX$XY.d.@X! J.>.I.Y $ e $XY 1 f -.-.L.6X6X`.F.`.Q.rX`.nXrX`.6X~.R.!.K.$X7.M.U h f N.N.d.R.5X9.F.Q.Q.S.D.fX9XvXAXK.L.F.L.$XN Y.7.$X@XS f.qXR.=X6Xm.D.D.K.=X9XnXZ.1.C ~ + = U % d $ X * @ 1 @ N p.0 % f U U ^ U U ^ / j._ _ ` ` ` E ' ' I : # O & ; r 0 r r 0 e d N Y ! Q 7.q.D.Q m V R 1.4.p.T.M.7.8.3.3.g - O # & O o : & & / g.$XF q m < y y.nXy.R.R.`.8XkXNX7Xc  .'.8XrXI.:.6 t.`.8 $ y 6X6XD.jXqXzX~.zXnXM ;.rXtXk.pXKXh., W.AXa.uXDXK.>XGXDX=XzX9Xk AXJX9XwXl G.6X$XfX,X4.K.KXJXZ.%.L.9.S.F.6.2.K.K.B y.qX@X=XeX*X#X*XZ.9X@Xp.XX&X|.1XFXAXHXMXdXmX0XMXMX6X8XG.=.@ 9.6XdXsXhXdXdX;XaXcXAXvXzXL.6 c z F H.oX|.>XM 5 Z F x G H.,.0.E.w.r.N.D.W.D.m.",
"i.h.C.XX%X1X2XgX2XgXsXsXsXaXaXsXaXiXpXpX0XqX5XoXR.f.2.R R R ! 7.g.g.P.T.P.XX&X;X#X#X#XOXOX#X#X#XP.P.P.g.k.5.5.0.7.f.d.q.Z.$X,Xj.R A.Z.3.;XcXxXgX. 0 U |.2XZ.%X3X%X^ h.j |.1X-X|.r _ h.|.%X|.h.B.h..X.X|..X|.A.h._ ` ^ ) h.XX_ _ V.i.) _ |.|.h.i./ h.) _ B.^ - ` _ h.B.B.B.B.h.h.W P W ^ / + + = 0 h ~ * 0 h.U 0 # h./ E s.Z.C._ ) %X1X1X1X2X-X%X3X3X,X%X+X;XXX+XXX%X|.|.|.+X XXXB. X+XC.+Xa.|. X XA. X XB.^ h.A.A.h.C.|.|.B.xX>X XXXB.A.( / |.|.V. XC.|.C.B.V.C.|.|.B. X|.|.|. X X|.|. X|.|.+X+X-XOX|.V.|.C. X X X|.|. XA.C.V.C.V.C. XXX;X1X-X,XXX%X+X+X/ i.OXC.B. X+X XXXC.h.C. X( L ^ ( s.XX X%X XXX|.h.A. X XI ; & o o O : : : g I O   . O O .   O # : ; ; g E ^ P ; X - P P g E U r # # & * ! V E U p.Y ^ ) Z./ ^ W R ! 3.V M.M.4.g.pXd p.U N N.R h g.N ~ s.p./ L Z.;X,X-X.X%X+Xi./ / d.m.d.d.M.d.Y d.p.p.g.J.G.L.:XoXT.dX6XzXzXrXY.oX$XM.M.E.=XY./ / U W h V R R N q *XR ~ R V.a.C.%XXX3.4.! f.U.W.Q.D.N.~ C.hXoX! R f.K.4.j.p.3.h 2 C 7.7.-.Y =.m.D.8.8.! d 4 * h N.= & g * R i.L U * U U 3.3.R / R U E h j h g 0 r ; I I E ` I I g ; t ; ; g ; - 0 j L U R h e U d m q.=.z f ! 7.7.p.M.d.p.d.K.M.p.P ; & : : o X & 0 L 8.W.S.Q.H.< f @ 4 , v.8 1 x p y.$ 7 v.e $ c Q.NX6X`.NX7X`.0.E.DXzXJ.,.O.k T < X.v.<.yXt.R.;.vXKXKX$XnXDXW.D.MXrX:XvXmXw $ XXI.I.U K *Xl T =X7.$XOXV N g.SXGXmXHXE.D.NXqX5.=.N B 5XwX:X*X*XdX$XdXDXDXHXMXDXJXVXxXAXJXgXuX0X6X8 y.y.x lX7XqXL $ $.L.oXZ.Z.mXaXXXW Z.wXeX3.L E + @ b 7.pXY.< $ w 3 $ 7 J.y.5.f.D.5XfXfXmXhXhX",
"|. X%X,X2XgXgXgXhXgXhXhXhXfXfXaXhXpXfXfXdXjXqX$XE.D.d.7./ / 4.7.g.g.Z.P.XXoX&X&X&X&X&X+XoXXXXXXXoXT.M.D.g.7.4.4.R 7.4.! 3.g.XXZ.+X,X,X1.U Y ) gXh.2 ^ h._ h.gX|.i./ ;XsX3X|._ B.B.-X X|.s.%X-X X.X%X|..X.X.X Xh.) B..X_ h.h.B..Xg.B.A.|..XB.h.h.A.B._ B.B.V. XB.B. Xh.B.h._ B.h.P 0 t 0 h # # * + ; ` |.) &Xh.h.B.+X%X+X2X2X-X-X%X|.V. X|..X|. X%X%X|.|. X X|.|.B. X%X-X X X|.XX|.B.B.V.+XC.|.|.|.h.B.B.h.C.|.|.XX|.B. X X_ B.|.h.|.A.%X+X XC.B.C. X|. X|.B.B.+XXX|.C.-XXX X%X%X|. X X|.|.XXB.) a.-X+XC.h.|.|.|.%X X%X%X%X-X%X|. X X|. X XC.|.+XC.C.XX X|.|.XX XC.C.Z.Z.Z.a.A.Z.V.C.B.C.XX+XXXC.|.h.Z.V.|. XC.%X X Xh._ B.|. X%XXX,X-X|.h.a.V.) P - - ; # . X # & ; r ; + . # -   . & X . + 0 0 4.p.W j.7.C d h / Z.8.R ~ p.;X>XoXR U Z.3.* ~ 3.r R g.Z./ L P ^ / s.P X @ j |.,X1XC.U N.M.K.V.p./ P.g.~ g.T.T.P.p.s.U p.P.OXg.3.T.Y.N.V U / h t N W U ) h./ h.i.( U h h t / / / p.V.XX%X|.j.W / i.3.7.q.;.2.8.i.V.XXK.Q V s.*   * & + X $ X e M.! 7.f.f.f.4.! 4.Y R N h h U / 3.U ~ 3.) N./ i.W N L / t 0 E E L r & ; & O   . o O : & & & L j.i.i.i.i.U ; r 0 * t e h d V 1.d 4 R 1.R R Y d.7.~ 7./ U U R 0 + & r 0 + - ; d.nX6X=XrX8XmX2.mXrXzXR @ < @ G } b.-.H.l e ~ w w.).F S D M M.fX0XhXvXhXVXvXvXVXD.`.J.J.H.,.y.G.S U.Y.7XnXGXzX~.M.T l eXMX$Xf N.Y.;XdXR.g.i.:XJXj.DXVXQ.yXrX<X1XoXZ.e R fXfX=X>XxXvXMXCXcXhXvX9X7.d P.4.T Q ! Z.hXGXGXcXj.t 7.fXg   . . T ,.Y.cXL.W.C q e U s.+XhXoX1.g.K.Y.jXHX<XW.Q.4.W f.f.% d =.T =.I.tX9X0XuXfXDXvX0X:XsX",
"1X2XgXgXxXVXVXVXVXVXAXvXvXcXhXfXiXpXuX0X9X*XW.R.I.K.d.p.7.3.7.p.g.Z.T.oXoXOX#XOX&X&XXXoXXXXXXXXXT.P.g.g.g.p./ U R U ! 4.p.M.C.+XOX%X|.Z./  Xi.U 3.XX,X|.Z.P N 5 w e r r 8.1.Y ~ i.U ^ ) B.V.i.a.R d e W i.|.|.B.h. XB.C.|.|.|.B.|.|.B.A. XB.|..X|.B.B.|. Xa.s.h.h.h.h.|.h.%X XB.%X%X%X+X1X,X,X,XOX1X1XOX<XiX>X,X1X2X,X-X X X-X%X-X<X;XOXC.|. X+XZ.C.C. X X|.A.XXC.-XB.g V.-X|.|.%X|.i. X X XXXB.A.Z.|.|.|. X+X%XXX%X X|.+X+X|.XX X%X-XXX XC.+X X X X X X X%X_ h.OX|.OX+X|.h.+X%X X%X-X-X+X%X XV.i.A.V.|.B.XX|.C.XX X%X-X|. X X X X X XXX%X+X+XXXC.|.C.|.C.XX+X|.|.XX|.C.A. X|.V.h.C.XX|.|.C.|.C.C.V.C. XC.V.|.|.C.XXXXC.C.|.XX|.C.T.Z.XXXXXXXXZ.,XaX>XXXOX;X>X;X;X;XOXXX%X+XZ.h.C.XXC.V.+X#XoXP.p.3.g.8.p.7.i./ 3.d.8.~ U i./ r 0 @ * U U N p.g.3.3.3.h # . + - 0 0 U U p.U h e U U C N C 3 * 2 t U * U E U + 0 r 0 h W L h r 0 r / j.P U 0 U / U f h h % 0 j * N Z.a./ B. Xa.p./ N C j U C U ~ E h m l w ! / / 8.0 + + + * g / a.V.V.j.^ / ~ 3./ 4.R V N V R R p.3.N / / 3./ 3.! U s.a.U / / / R L / E h L h g 0 0 _ E - g ` ' & O o o ^ >XiX>X,X#XXXOXXXU N M.Z.( + 0 f e f V Y N h ~ 3.N e h h h h g = X # t m C R ~ ! W.Z l Y $.rXHXd.B $X<Xg @ 2 S 6 l p p yX=.%XKXMXT rX6X4.9XvX;XsX1X,XFXSXPXCXCXAXzXnXH.2 8 , z r.< @ 8 v.H.L.lXtXm.nXDXG.D.*X1.s.E L vXNXiXiX@X6Xe.y.r.% | yXeXMXCXAXGXmXT.oXfXmXcXcXCXSXvXsXvX+XP.! e . $ w y 5 %.L.L.5 l.qX@XoXgXSXKXXXL.k.e.N p.#XfXDXHXDXAXMX0XwXmXfXfX6XG Q.zXzXdX0XXX7.#XhXwXd.nXDXvXvXpXvXcX>X:X=X@X*X,X",
"1XgXVXVXVXVXCXAXVXVXVXcXhXaXiX0X9X9X:X$X$XQ.I.G.L.D.p.3.3.3.3.p.a.Z.XXoXoXOX#X;X;X#XOXoXoXT.Y.Y.P.P.D.l.g.4.R V N N U R 4.g.P.XX+XXXZ. X.X1X%X^ h.h.2XB.h.h.V.j.h.r r ^ H &.w 4.R 2 M 7.C q @ @ < $ h i.h.B.|.|.B. X X X.XB.s.B..X.Xh.h. X|.` h.B.B.|._ L N s.a.|.-X-X X|.%X X X%X XB.|.2X1XC.+X|.%X Xh.OX;X>X,X-X-X>X1X,X%XOXV.V.+X+X,XC.XX X+X|.%X%X-X X%X XV._ +X XC.-XOXC.i.a.XX+X X|.V.C.XX-X+XXX%XXX X XXX|.Z.|./ s.C.XX+X+X+X X X|.|.h.|. XB.h. X X-X_ a.%X;X+X|.+XXX+X-X%XXX XXX X+X-X|.|.>X1X-X-X-X%XC.A. X X|.h.|.|.A.h.B.+X X X+X%X|. X-X X%X-X%X|.B.%X-X-X-X-X3X3XgX2X%X|.C.XXZ. X+XXXXX%XXX X X X|.B.C. XXX|.h.B.XXV.C. XA./ B.V.B.a.a.V.Z.Z.V.Z.P.C.C.V.Z.V.Z.C.Z.V.i.j ( V.V.a.a.p.a.s.A.s.i.a.s.8.p.i./ U e R / i./ U h U p.p.3.3.~ R / L ^ Z.a.U 0 h / / / / R i./ h / R / ~ h 2 * 0 R U X + r P U h t h 0 0 g U P h.W h.OX>X,X8.~ 3.C.p./ h g / |.U ^ W r 0 0 t 0 g o     . . X   . . X 0 X   * ; P / a.g.Z.P.a.i.a.3./ ~ C ~ / ! p.4.! R 4.R -.C C 3.R ~ U h ~ U 3.a.W / / i.p.W 3./ ; * + o 0 - L E Z.h.) h._ E E L h t h # # i.U / 3.a.oXvXMXMX0 r 0 * q f h d N N h h h U ~ h t + = t @ 3 h e 0 2 5 q q R 1.S 9.dX$XB HXHXh E.! M.l.Q.w.0 e $ < `.).w W.MXM.Y.uXuX>XsX+XiXmXCXAXAXvXcXjXe.I.rXl.9XU.x M Z G B c J.6X2.$X@XU.9X4..   & i.vXmXeXXXvX$X9.J._.  X *.5XdXxXC.0XGXDX#X9XT.p.;XSXSXAXAXvX@Xs.K.B.h.;X1.0 e N R R m M.*XdXoXpXDXGX&X6XrXrX0XT.:XwXqX$XwXdXwX#X:XdXqXdX9Xl k.Q.*XwXsXcX*Xp.~ E.f.$X6XY.$XwX6X6X6XE.,X,XcXaX",
"VXZXCXCXCXCXVXVXVXcXhXjXpX0X*X$XE.E.$XE.L.L.G.f.g.7.4./ R ~ / 3.a.h.Z.C.XXXXoXXX&XXXXXC.P.P.T.oXP.D.f.k.d.4.=.V e d V R 4.d.M.Z.OXXXZ.B.1X3X` ` +XZ.^ ) %XB.E i.-X X%X%X X-X4X%X-X%X%X1X%X1X%XC.OX%X-X+X X.X.X.X.X.X%X.X X|.A.|.h.|.%X%X-X X+X X|.|. X XZ.C.+X|.;X%X X%XXXB. X-X|.XX%X X+XA.V.T.V.XXXXXX,Xh. X>X>X-XC.C.,X>X2X2XuX%X|.%X+X%XOX X%X-X%X1X+X<X-X-X-X;XA.a.B.C.V./ i.s.C.|.B.|.|.+X X%X+X X+X+XOXXXOX1X1X|. X+X X X%X-X-X-XXXC.h. XXX1X X-X<X;X>X;X+X%X X|.XX XC.C.%XXX%X-X%X+X%XXX%X+X%X-X%X-X%X-X+X X|.A. X X+X|. X+XXX X%X|.XX X|.|.|.%X-X-X-X-XsX,XXX;X,X-XgX3X2X|. X+XXXV.h.B.V.V.B.+X%X X-X%XC.XX XV.|.+X X|. X|.Z.A.s.B.V.V.Z.C.V.V.a.h.a.C.Z.P.g.i.g.V.N.a.g.h.i.B.a./ i.a.a.p.~ i.j./ a.s.a.! / / i.8.V.V.Z.V.a.V.i.U U U d $ * / t & 2 0 r h U 0 0 ~ ( ~ g.C.P.OXa./ U / a.i./ W / XXV.j.^ ^ ) / / / i.) E i.U j.C.! h 2 X . # U h.s.U r t X .   ; # O . E CXxXE : I P E |.h.j.L * r E / P.i.i.i./ h @ N *Xf U U U h h ! 3.4.Z q 0 0 m 1.p.N.s.T.K.oXZ.C * $ 0 E W U L h ^ s.s.h E 2X XP 3.W r & L t r P ) E E 0 r 0 L g / uXOX+XR * V 8.K.9X*XY.N 7.C.h e t h * 2 3.W U t / cXsXT.T.U 3 L ; - 3 Y N 2 < < H o.7X8X`.H.e.k.,   f 6XnXE.A.I.nXHXrXQ.G.e.z K.*X9XT.>XwXwX=X#X;XAXAXcXCXmX9XwX0XzXMXnX9.6 $ < 6 @ =.nXmXMXNXdXI.2.C.,X0X:X@XzX9XoXhXf.< >.(.sX5XL.pXpXcXqXdXmXvXvXcXsXAXDXzXP.qXDXzXmXmXmXAXvX5X3 $ # # r %.$X$XmXfX:XpXOXa.;XmXnXwXhXnXzXwXoX7.K.zXmXsXvXsX:X,XDXjX6Xe.f.=XmXHXtXzXvX0X@X$X6XW.K.Y.K.6XmX2XaXvXAXvX",
"CXCXSXAXCXVXvXfXwXwXpXqX#X$XF.H.y.w.f.f.f.g.d.g.7.4.4.3.4./ 3.i.) a.V.C.XXXX&X&X XXX|.C.|.XXXXoXP.l.f.d.5.=.R N e e Y ! 7.M.K.U.Z.T.oXp.oXOXC.+XT.|.|.%X>XXX,X%X_ |.-X%XZ. X%X.X|.B.4X.X.X.X.X.X.XB..X|.|.|. X.XB.|.4X.X.X.X%X X.X-X|.B.h. X Xh.C.B.|.+X XXX,X,XXXZ.g.Z.XXoXXX;X<XiX>XXXsXiXaXXXT.;X;X>X;XXXiXcX<XwX0XpXiX>X1X1X-X;X>XaX,XOX;X+XOX+XB._ h. X+XT.+X;XOX+X-XOXOXOX-X2X-X>X-XXX|.-XC.C.B.Z.+X;X1X-X+X-X%X-X XOXOX%X+X|. X<X>X>XsX2XC.OX+X>X,X>X;X+X XC. Xi.h. X&X%X-X;X+X+X-X|.%X1XOXA.|.%X%X X%X%X%XXXC.%X-X+X,X%X-X%Xa.V.%X+X%X-X+X+X+X%X%X-X;X%XB.^ / i.j.^ .X3X-X-X%X+X%X X XZ.C.C.|.|. XC. XXXV.A.|.V.A.h.+XC.A. XA.C.C.C.V.C.T.Z.C.XXZ.s.V.+XA.V.V.j.V.C.XXoXZ.A.B.C.XXC.Z.Z.V.Z.s.C.a.3.a.j.1./ i.i.V.V.V.V.C.B.s.s.V.V.a.E ( s.^ E Z.a.j.V.XXC.XXT.V.a.g.p.B.s.i.i.^ U g P ; U uXhXaXOXr h s.B.h.) h./ i.j.E N.P 0 o 4 E +   + C r Z.Z.g.i.W 0 P L U U i.P ( i.3.( Z.Z.M.M.N.~ / g.3.|.XXi.h t W j./ U W h.T.d % U 7.4.! 7.8.! 3.4.Y ! R g./ / g.2.Q p.a.h.( g U 8.A.B.t r h N.) h. X>X|.+ - j & - E ^ h - g r - + Z.AXmX#X^ * e + q 2 X $X*XK.9.9X1.l e ; = - f & * Z.E h f N.Y.vXnXm.=Xd.- X # # ! p.$ * K 6.$.6XI.Y.H.t.`.7.:XtXS.q.$ $ 6 q.tXm.Y dXmXW.6.Q 1.M.=.f.$XL.U % d XXVXSXFXCXbX0XdXnXF.R.;.D 4 =.f.tXnX0.Y P.=.S L.pXaXP.f.W.*X8.3 $ 6 @ B y.W.MXvX;X$X@X9XmXvXvXJXJXXXvX9X$   % R.q.8.#XvXfX+XB.sXgX3X3X.XXXOXf V g.W.6XtXhXzXpX*X@XY.U.mXmXeXpXY.pXDXfXbX-X,XC.~ 8.6XqX! XXvXwXW.cXJX<XY.W.W.9XzX@XY m *X;X<X;XcXaX",
"SXAXCXCXVXvXcXsXeX9X6X$XI.H.y.y.2.=.$.$.$.R R R ! 4.4.4.4.3.3.i.p.a.h.h.h.h.Z.|.C.C.V.g.g.g.g.P.P.g.j.2.%.Y V m q 3 m R 3.d.d.f.A.;XK.Y T D.$XU.oX%XV.B.+Xh.XXXX X2X#XoXK.A.|.B.B.|.-X|..X-X-X|..X|.A. X X%X_ ^ h.|. X|. X|.|. X XXX<X2XOXV._ ^  X<X,X;X%X<X<XOXoXV.V.XXiXuX>XXXZ.sXfXuXiX0XpX:X;XpX0XiXiX;Xs.a.N.pX;X>XaXiXiX-X1X%XOXiXaXiXgXaX;X-X2XiXaXsX>XoX,XOX;X,XsXOXXX+XXXZ.C.OXOX,X,XsX<X,X;X1X,XOX;XOX>X;X1X-X|.;X,X,X<X%XOX;XOXXXC.XX|.;XC.C.OX XxXSXaX>XsX2X2X>XOX+XpXeX@X+X+XC.Z.C.%X1X1X-X-X X%X%XOX+XZ.OXXX XXX XA.h.i. X-XXX+X;X+X+X%X X-X%X XXX Xh./ j.C.|.%X.XB.XX X+X%X|.XXC.|.C. X X+X XC.XXOX|.%X%X-X+XC.|.A.A.C.B.V.s.g R Z.a.V.V.h./ h.|.V.V.XXC.XXs.B.Z.N.T.Z.C.XXC.P.Z.Z.C.Z.XXV.B.C.a.a.Z.C.C.V.XXh * / s.) Z.V.h.g.~ R i./ p.i.7.M.p.s.a.a.a./ 3./ R i.i.Z.U X X ; t / / ; U ^ P * ^ _ ) _ E E r * - L h U U L N i.^ ) ) t # _ h f / P.s.U 2 % d Y C ! 0.k.D.L.f.D.M.!.m.6.7.D 7.g.p.U s.Z.d ~ K./ h 0.E.L.$X$XK.M.K.d.! p.g.g.7.! ~ U h U 8.! ~ a./ i.a./ ~ / E h h.Z.A.h U a.C.i.0 a.AXC.L V.C._ ^ ^ ! ! / 0 h 0.n P W Z.0 T mXN.K.P.V h T.7.4 g g 0 r h 2 & E h h j 1 3 ; tXtXJXR.o + & * h R o . / $XX u X   2  .`.U.#XMX&.k d X % 9.tXtX*XHX6XZ U d.G.K.=.M.K.Z.f.$.S $XmXvXCXFXVXzXI.c 2 f.6XrX6XU.fXvXmX#XP.,X4.6.rXzXmXdXMXpXg.p.L.2.K.Q.tXNXL.E.MXHXMX0X0X*X9XXXXXcXh / d.$ e f.P.d.S p.9XL.>X2XKXKXKXKXKXLXE X 2 =.w.f.W.:XP.@XY.K.Y.p.9XdXiXAXvXwX9XY.MXHXvXwX9XwXmXzXf h d.d.8.V.9XdXDXfXM.wXzXK.Y.T.;XsX>X;X0XdX",
"CXVXcXvXcXaXpX0X6XQ.H.y.y.y.%.T Y W N N m N U R R ! 4.4.3.4.3.3.p.p.i.3.3.3.3.j.j.j.j.p.p.7.3.p.p.3.2.$.$.Y N e e e m U ! 8.f.D.P.#XT.3.p.p.$ X W %X+X%X%XXX#XC.s.h 3.3./  XZXLX>X%Xh.) a.i.8.+X%XC.V.|.C.OXXX-X;XXXZ.+X1X;XXXoX,X;XaX,X0XpX>X2XaXiXzXsXiXcXpX,X,X;X,X,XMXsX0XvXoX*XpXiX;X,XT.#X;X>X0XiXcXaXXX,XvXvX,X;XsX1X,X1XcX>X,XaX2XaXaXaXcXxXcXcXaXaX,XpX;X8.Z.-X2X>X>X1X,X,X;XOXZ.OXaXaX>X1X1X1XsX0X>X XpX,XOX>X>XOX|.OX>X1X,XXXa.;XiX-X|.;XXXs.aXOX-XA.XXOX>X2XxX2X2X-XOXoXP.N.;X,X%X+X%X%X%X-XxX-X%X-X+X+XZ.|.XXXX|.OXC.A.+X XA.Z.XXXXB.-X X^ +X Xs.B.%X%X-X X+X%XOXXX%X%XXXC.|.|.+X%X|. X+X XXXXXXX XC.|.XX/ r C.|.+XXX+XA.A.XXC.V.C.Z.a.V.Z.C.+XXXC.Z.Z.C.j.V.( B.N.s.V.V.Z.V.i.Z.C.B.V.V.B.Z.Z.B.V.N.N.Z.Z.a.Z.h & + 2 0 ) C.a.a.j.3.a.j.V.oXK.M.~ i.g.p.j./ i.s./ W N / / / s.s./ +XA.B.A./ V.a._ E E ^ E 0 0 t L h.i._ ) ( * # & - h U  XB.U V U m ! R p.a.a.+XV.r * U U ^ E E i./ U 3.R 8.8.Z.Z./ / T.P.g.Y.Z.g.U.K.@XK.Y Y.K.m.7.8.j.3.g.8./ N.Z.e g U _ L h W j./ 8.s.U / * t U R t j U U ;XvX9X0XpXV.~ i.h.+X8.9XvXSXPXLXSXg h / / eXI.NXd.R V . . # / p.p.p.N - * + * W E 0 t . . + o + h   . X 1 0 $ Y U 3 2 2 p.GXxXP.1.=.$XdX0XDXL.;.W.Y.8XrXE.Y.p.;XZ./ R 4.r.-.g.K.wXwXd.w.q.7.$X).=XAXvX$XE.S.l V 5X$XfX9XfXAXhXmXhXhX:X9Xp.oX,XOXmXfXhXAXmX9XqXrXrXmXu $ 7 U.wX;XeXdX9X*X@XoXK.wXzXHXHXAXsX=XtX6XmXdX9X7.E 3.C.oX&XM.R 0.4.H.b.Q.jXqXp.oXwXdXwXM.P.P.P.AXvXN.3 @ Y U.NXnXtXzXAXDX3.% &.l $ < 2.4.E.dXwX9XwX@X9X*X:X9X@X$X$XM.",
"CXVXcXcXhXsX0X$X).l.<.,.>.;.T R N N u e N U R / ! ! ! ! / 3.3.3.i.p.i.3.p.3.p.j.g.j.g.g.p.4.4.4.p.4.=.=.T Y N N N d U R ! 7.d.Y.:XXX+X>X%XV.g %X X+X;Xa.8.*X;X= - g h.%XZ.3.;XiXN.( 8.! U ! j.,X-X;XOXiX,XuX1X-X1XOX%X1XsXAX#XiX1X;X%XsXvX>XOXsX2X#XpXbXxXgXaXiXpXaXcXaXvXhX0XzXXXXXpXcXiXxXiXsX:XOXoX>XaXaXA.A.>XsX>XXX>XaXsXvXcXcXsXsX,XgX2X1XV.OXaXaXaXaXaXaXsXsXiX>XxXsXiX>X0X0X>XpX,X-XiX,X>XsX1X%X$X$X#XA.iXiXuXiX,XXX,X1XiX-X;X;X;XiXcXaXCXgXxXXXC.a.XXgXsXsXiX,X;XaXfXmXiXfX@X8.OX1XCXZXgX1X2X2X-X%X%XOXOX%XOXXX+XXXXX+XXXV.;X+X|.+Xa.2 t ;X+X_ |.-X1X-X-X X X%X-X-X XV.|.+X|.+X-X+X X|.|.C.+X+X%X|.XXC.V.XX+X+XV.;X_ h.XXOXC.V.C.V.C.a.a.C.XXXX|.C.V./ s.Z.P.a.Z.a.XXa.V.8.~ a.P.V.Z.V.C.C.|.B.V.V.N.T.XXZ.V.V.V.XXC.OXa.L i.i.C.V.j.V.j.i.i./ / s.i.p.! p.V.XXV.XXC.V.|.|.C.h 0 0 * # 3.XXh.i.) g ; P R U - ; ^ Z./ %XiXVXSXcX<XV.OXsXV.r 0 h r U p.=.R g.i.g.%Xa.B.^ . O ^ |.-X) r & X h a./ T.K.8./ p.M.! N q Y d.i.V Y p.N 0 U 7.f.N.U t & N p.h L R L i.s.^ . 0 |.sX1XXX,X,XvXC.E U * Z.E . 0 0 N ~ U V.XXE r P h.- & r sXxXiXHXB.& r h 1.g.R ^ g     & 1 6.$X2 . $ # 2 2 * q e = h 0 + 0 - +     0 U yXnX% m C.4.Y m I.MXnXnXR.I.9.=.L.DXdXnXnXdXh.L U OXwXC R R e V E.U.pX=XL.6X6 $ w q $ ,.y c fXsXcX$Xk.dXT.+XuX>X6XzX$X#XhXfX$XhX;XDXcXsX0XD.! cXJX+Xd.qXDXDXN 1 C R.9X#X9XwX#X0XvXFXAXoXR rXdXD.5X5., , ! U.G.6XfXl.wXNX5X6XjXmX&X2 $ 2 e.jXnXjXdXwXdXzXMXvXmX>X8.C @ $ $ + z F k T M.pXeX6.J.G.;.H.7XQ.R.E.6XE.6XqXwXY.0.R y f.$XK.",
"xXvXhXaXpXqX$XI.H.y.5.*.T V m d h N N U U R ! 4.3.R R R / 4.3.3.p.j.j.g.j.g.j.g.g.g.Z.g.g.7.4.=.4.=.=.=.Y N N m N N V R 7.d.M.M.P.a.OXXXa.XXC.gXB.C.+XeX8.p.a.@ h vXgXhXoX~ N 8.OX,XzX=XvXsX>X,X;X,XiX<X:X,X;XaXvX,X<X>X1XiXaXpXsX,X>X,X>X#XsXsXiX+X X<XxXsXgXpX;XiXsX#XaXzXvXN.OXAXvXvXbXxXbXxXwX;XcXa.+XaX>XaXaX0XaX>XsXuX>X2XsX1XsXaXgXsXgXvX>XcXaXXXiXaXiXcXsX>XaXvXiX>XcXhXpX0X;XOX;X1X>XOX:X;X>XsXoXd.#X<X*XoX;X#X,XZ.+XoXOX,XcXsX;XsXsX2XGXgXgX>X,X>X%XVXOXsXvX>X+XOXT.T.Y.*XU.U.pX>X X3X1X|.2X-X X%XOX-X>X,X#XOX;X+XOXXXa.R Z.C.OX;Xa.Z.a.E ) B.B.B. XC.C.-X-X%X+X<X-X X|.XXOXXX,X,X%X%X-XOXC.s.V.C.+X+XOX%XOX;XXX,XOX-XOX+X+XZ.Z.V.C.XX|.C.V.Z.XXC.;X>XOX+XXXZ.i.i.XXT.g.T.#X+X/ W V.V.Z.C.Z.i.g.;X0XOXV.Z.+XZ.V.A.V.+XOX/ E / V.Z.oXT.V.XXV./ E V.C.C.Y.0.! 7.1.U 3.g 3.s.3.* 0 h * / j.0 h h h g * * h.XX|./ ) Z.g X # + 0 = * 0 e E ) i.p.g.s.e + 1 d R U g.P.a.d 3.r   ; g U / V.h = g V.h dXGXHXGXmXdXm 3 d Y i.i.Y R h 3 e * e N ~ ^ i.V.R 0 E P ; - g ,XiXU U ( s.a. X>XoX~ _ a.+XXXV.E h.cXh * * * h P U ) / E X     0 0 < 9XKXGX_ . ; 2 & X . N oXGXGX6XHXHX0X  . X : r E ` o   - ; e ' I 0 N qX&.8 J.nXY.XXeXhX0Xm w 0.I.T C l Z E.DXaXnX$X3 * * / mXrX6 $ $ @ * g.! 7.*Xq x 5.=XDXJXZ.Q.Q.k.sXzX#Xf.k.L.vXvXmXfX@X0.C q R 4.$Xp.uX:XcXGXGXfX*XzXmXaXAXvXg.0.zXGXmX9Xf.fXwX9X2.9XaXFXJXN X p.=X:XOXB.g.#XgXR.y.m.T.S.OXfXpXcXbXzXvXpXC.*XfXeXMXxXbXMXMXvXcX>XzXN.f < 1 d * . $ w 4 =.E.l.=.0.:.G 5 x G.6X6X9X6XtXdXM.1.K.g.7.7.D.qXwX",
"sXhXdXwX9X5X$XI.k.2.R U N N N V N U W R / 4.4.4.3.! R =.3.p.p.p.j.V.g.g.g.g.g.j.a.g.Z.P.M.g.p.4.=.R Y T V N N m N N W 4.7.p.K.oX=X>XsXaX>XVXSXgX;XP.$X+XZ.vXGX@Xg.#Xg.#XzXpXcXAXvXcX>X:XM.K.K.+X:X:X#XC.,X0X>X;XOX>XaX1X,XaXcXeX;X;XvXsXcXcXiX#XtX,XPXxX1XoX>X>XsXiXP.3.oX*X#X,XuX>X;X,Xa.C.aXaXaXvXGXxXxXsXsXvXMXpX*XXXsXiX1XaXaX;X1XaX-X,XgXxXiXiX>XpX<XeXOX,X,X-XiXaXaXiXiX*X@X9X9X$XT.*X*XY.Z.+X;XuXzX>XXXC.Y.Y.=XU.=XT.;X*X;X>X1X>XiXiX;XXX,X-X1XsX,X0X>X1XZ.+X>X>XT.XXT.iX=XW.-.m N.XXi.C.-X%X;X-XsX%X,X,XV.p.OXOX;XXX+X+X+XXXC.V.V.;X0X>X+XOX%X>X,X+XXX+X%X2X>X-X;X%X%X X|.XXOX+X%X|.|.OX%XXXXXC.a.A.XX X|.XXa.R U r B.XXC.Z.XX-XXXXXOX+XT.C.+X|.C.V.XXOXOX,X+XXXV.V.Z.V.Z.3.a.T.C.Z.g.g.g.a.g.p.V.+XT.T./ U i./ a./ h U V.U 0 W U 3.a.s.a.C.Z.M.V.a.Z.R 2.0.q 1 U d g.P.:XR N h h ~ e h h h / i.|.+Xg + g L E P L h E L P E ^ N.g.K.M.N.^ p.Z.K.M.V.a.j.N.s.p.V.Y 8.e e h.r # * g P P _ ) h / d 6 z 6.$XY.DXM.% h U / i.h e p.M.+XT.P.1.e 2 XXV.V./ _ ` ` ' ^ h.OXi.U h g r U _ U h j U E p./ d g.V.s./ r ; * L L g t U C 4 g r @ R D.9XNXJXg   + C.XXaXGX=.l D ! S.D.dXuX-X3XSXKXKXKXSXB.* e &XKXJXh.l.$Xw < , G.5XsX0XeXaX0XvXHXE.zXHXmXzX6XwXvX9XR.Z.~.W.K.6X6XG 3 % @ . # 1 m @X,XY.tX0.R :XP.kXhXqXhXfX@X@X/ R #XY.Q.=.M.9X9XoX0XP.0Xp.@Xh R s.R u e 2.R &XJXGXp.q 3.Y.fXwXoX#Xg.wXf.@X;X>XeXd.$XnXeXbXKXKXVXSXKX0XqXXX|.wXCXAXvXbXzX*XrXMXHXGXAX9XwXwXwXdXzX0XfXaX>Xp.m 3 y L.wX#XD.W.G.Q.zXDXwX9X*X6XqXtX6X=X$XdXzXeX:X;X,XaXvXdX$XP.9XwX",
"qXwXqX6X6XQ.I.G.k.2.R U L L W R R / 7.p.p.g.g.p.p.p.7.7.p.g.g.g.g.Z.Z.Z.P.P.P.P.P.P.XXoXoXoXP.g.j.=.Y Y M V V U W B =.0.f.K.M.M.oXoX+X,XXXe s.%XaX0X,X~ U XX;XK.f.K.dXoX! m >XhX,XsXhX:XM.+XpXpXmXwX$X0XsX;XP.a.P.zXAXcX0XzXdX$XN.Y.pX<X9X=X9X:XQ.+XKXKXSX*XeXcXvXaXOXsXcX>X0XcXcXvX>XaXMXDXAXcX;XsX-X2XgXvXvXcXaXcXcXvXAXvXvXxXAXaXiXvXgXiX-X>XVXAXiXcX/ +X,X0XaXaXsX>X>XsXaX:X@X=XY.Y.@X$X@X=Xd.K.P.+XsXAXxXpXwX9X,XuXaX,X;XaX>X>X,X0X0X;X>XwXwX,X>XiXK.@XXX-X,XOX*X,X;XcXvX|.Y.M.Y 4.M.OX;XC.C.XX,X1X;X;X;XiX+Xi.,X>X>X;XOX+X;XsXaXvXcX;XC.a.,X,XOX,XOXOXsX-Xa.V.>XOX>X>X>X1X1X,X>X-X,X1X-X-X;X;X,X1X,XiXsXaX>X+XC.a.+XZ.|.a.Z.V.B.C.XX+XXXC.C.%X,Xa.a.XXOXOXC.V.C.Z.C.V.Z.N.V.p.3.Z.g.p.Z.oXg.p.i.3.R N U 1.Z.Z.i.3.Z./ / j.oXg.j.OXa./ U + 2 e K.P.Z.i.V.V $ R R @ % 2 $ 3 R 3.N 9XOXoX3.R i.) E ^ U U ) h.h.|. X_ W r P ) g.a.B.cXP.$Xg.A.XXZ.! 7.g.Z.p.N ,XvX#Xp.Y.K.$XM.a./ XXZ.4.>XJXKXGXuXR 5 4 @ % w @ Y M.3.P.d.U # X R $Xd.1.! 8.oX9XW E N g.V.; X I I ) ) i.U 0 h E ) P P ) / 0 0 r i.7.* g L h P h * + - o - & - r & o # l.qXI.-.:.MXGXh +XHXGXE.u $ 4 1.$XqX$.0.GXvXMXvXvXKXKXJXJXrXrXw.Q.JXwXrXmXg.% 2 &.tXdXwXmXMX>X3.4.M.*XMXmXmXnXdXSXfXrXdXrX$XM.Z.N L.zXwX0XaXDXMXfXzXGXm.K.MXzXdXM.pXcX:X#XoX#XzXdXpXE.$X6XD.fXAXpXfXY.P.;Xf.mXGXHX9X7.N $ l.5XuXcXCXvXqX#X:XwXfXzXvX+XdXdXfXmX9X$XwXGXJXDXT.C.vXwX8.+XT.L.U E P.hXmXwXwX$X$.<.v.G.R.K.S.E.L.4.T oXpXhX:X;X:X9X@Xf.I.wXmXfXfXmXzX9X9XwXNXvXzXzXmXmXzXP.@XzXfXpXsXvXcXvXvX:X#XK.oX",
"5XtX6X6X6XQ.F.l.l.j.3./ E W / / 3.j.g.Z.P.Z.g.g.p.p.p.7.p.p.g.j.M.P.P.oX&XoXoXoX&X&X#X#X$X#X&XZ.g.2.Y S M N N U R $.2.f.E.wXzXwXpX;X&X#XwXoXhXsXaXSXaXfXL.9XfXP.#Xp.j.sX+XOXvXwXf.p.9XvXvXpXU g.qXK.p.fXcX#X$X0X#XP.d.zXL.2.D.R.f.$XwXdXzX@X@X:X0XP.AXKXFXaXdX0XaX:XT.HXHXMXcXVXvXAXsX#XOX0XcXAXAXgX) B.1XAXvXaXxXAXGXaX-X;X-XxXCXaXiXcXsXaXsXiXvXsXcXAXvXcXhXaXvXvXhXhXaXvX>X+XwX9X0XpXeX@X@Xd.V 8.C.0X,XcXvXpXfXpX0X:XwX:X;XgXaXhXsX0XvX*XY.9XE.P.;X0XY.W.V.XXiXiX;XC.&XpXaX0X;XhXfX$XM.C.>X;X,X+XXXaXsX;X,X,XsXsXsX+X,XvXcXiXiXsXV./ sXsXXX,XsXeX/ XXOX,X1XE e R V.V.C.a.+XcXiXOXcXAXgXgXxX,XiXiXOX+X,X,X-X,X;XaXcX,XsXsXiX+X;X>X>X>XiX;X;X,X,X,XA.* / ,XOX>X+X>XoXV.a.V.B.XXXX;X+X*X#X#XV.p.g.p.p.g.p.3./ V.Z.p.g.P.#XoX#XoXXXa./ h.+XCX+X_ _ E 7.Z.Z.a.#X0XU / XX1XiXXX/ / U +Xt / a.h.h.) N E &X;X3.h / V.P.OX,X+XZ.Z.3.a.$XP.* . t / f _ ^ + % N U g.7.R d.K.! m 6XnXnXR.R d.MXGX9XQ.wX*XwXnX0.$ $ X X 1 @ C $X#X$X@XK.p.i.Z.N w q S U R W C.U N 3.XXT.j aXsXaX0XT.U % $ I  Xi.j.L r t * L ^ ^ 0 E r e W 3.p.h j U U g P ) 0 X + Z.2.$.P.;.p.NXmXU q U.l W 3.Z.$XkXHXpXm.U.U 0.6X6XU.W.c.F.6X8X).v.).R.~.@XwX9XrX9XrXnXfXmX$X=Xg.0.D.=.d.rXM.9.=XSXsXNXnXnXMXmXHXGXHXNXvXnXDXDXMXqX<XMXR.qXzXrXkXL.:XoXE.P.#XmXzXm.=X9XwXoXpXmX;Xp.K.d.P.oXM.P.V.j.Y L.DXmXuXfXMX1Xh.g.wXGXaX:XP.0XvX~ R d.0XSX=.B D.U.3./ W.%.D 2.R.wXaXL.a.B.7.0.D.D.k.l.e.X.r.G.5X@XeXbXAXHXzX<X=X0XMXMXfXvXmXdX9X@XK.$XwXmXzXzXwXrXdX9X9XzXfXvXfX*XY.P.K.=X:XfX:XY.Y.,X0X*X9X",
"Q.6X6X6X6X$XE.I.S.d.d.p.3.3.j.j.p.g.l.P.Z.M.P.g.p.7.4.7.7.7.d.g.g.Z.P.I.oXP.Y.P.Z.T.oXXXoXoXP.P.p.4.%.M m N U R =.0.! Y V h / fXsXaXsX+XcXvXzXCXAXZXsXMX9Xw.dXvXdX>XcX0XLXAXV Y m < ! #X+XGX#XfXQ.;.w.@XuX+XfXfXsX;Xf.R.Q.;.y.).dXtX*XaX>X9X*XhXbXU.Q JXVXbXeXaXxXvXaXCXxXgXhXVXC.,XcXvXzXvXM.1XGXxXxXcXOX>XvXvXCXB.-XxXgXvX-XiXVXbXbXgXhXcXvXvXcXcXvXzXCXvXzXcXaX1XiX>XsXaXpXqXeXeX0X9XwXpXpXwXzX>X;XgX,X>XiX&XeXwXeXT.6.c.K.zXiXdX,XXXiXP.E.$Xq.R.dXiX9XL.0XcX<X,XsXfX9XW.G.wX=X<X>XD.m.aXgX;X>X;Xa.,X%X2XAXiXOXOX+XT.gXVXVXVXbX>Xf.~ p.$XqX>XOX<XB.T.>X<XsXhXdXwX0XhXvXcXGXvX;X>XvXaX+X|.gXgXdXsXiXaXgX2XaX2X+X>X>X;X;X<X1X1XiXsXsX<X>X;X,XpX<X+X#XuXOX+X#XXXi.M./ P.XX#X;XaXOX$XT.#XOX:X;X;XW.OX;X,XP.d.L.oX*XpX>X;Xg.P.K.3.3.j E h.|.JXKXKXJXxXi.3.e U h.%X%X2Xh.h.#XU ; ) i.-X&X/ P E h.0XM.f f m.7X7XNXnXN.i.N.:XzX#X4.0 1.K.f.^ 1XJXJXKXKX9XP.B.g.mXfXw l R.rXG p.6 Q 6XtXtX6XR.G M R.9.H rXiX3.2 - w d + U C.d.+ @ l.qX,X,X#XK.0.! d 0.V.T.C.s.~ g.mXfX@XnXMXvXvXHXMX@X2XJX/ 0.=X,XMXvXDXeXXXSXKXZX^ *XeXtX*XZ.XXcXAXDX>XpXpX$X4.f.L.3.Y C =XdX6.=.mXe u f.y @ @ @ 4.=.0.N g.k.F @ x y.;.z ;.rXaXvXAXfX@XDXJXJXK.+XrX9XzXW.Q.z ;.g.f.e.nXNXQ.~.sXT.;.D >.tXcXMX=Xm.D.dXrXmXf.0.6XzXzXQ D.6X2.H.H.G 5.jXmXvXvXhX9XY.oXaXgXbXiX;XZ.:XjXtX*X*XoXoX$Xg.k.tXrXiX<XxXOXW 2 u T.@X@X0XoXzXL.f.< U hXE.< &.p., * g.K.P.g.#X9XpXD.=XvXfX9XrXnXdX9XdXvX0X:X*X0XqXL.$XmXzXwXzXpXhXdX9XrXzXvXvXwXeXdXzXzXaXdXtXrX5XZ.M.m.W.eX$XfXdXQ.@X9X*XoX9XfX&X9XeX9XU.",
"Q.).6X6X6X9X*X*X&XoXXX|.h.h.h.h.|.|.|.Z.g.d.f.5.3./ R W W R i.j.d.M.P.Y.T.P.P.P.U.Y.oXoXoXY.P.D.D.5.5.$.B M M T ;.9.;.Z R a.T.aXvXsXXXg.iX0X%.u hXf., u u k.U.E.@X:XvXM.1XsXaXaXwXR.=XM.N.SXKXaXfXgXZXZXdX7.sXKXCXgXJXaXcXcXhXuXzXY.dX9X:XOXbXvXMX@XM G.Z R.S.=Xf.qXaX>XsX:XfXMXzXsXsXSXbXmX&.k.9XzXmXsX-X2XvXSXVXT.M.=XzX;XvXvX;XDXzXCXxXsXhXZXVXVXzXtXxX<XqX9XaXaXvXcXcXaXpXwX,X>X=X<X2XZXVXVXxXSXVXxXgXgXcXhX5X6X9XiXOXXXpX9X+XW.M.-XsXW.6X9X0XpXqXI.G.+X<XtX5.v  .X.*X;XL.:.S.=XaX*XvXaX2X2XwX:X9X:XP.XXOXsXaXvXzXT.A.7.Y.@X0X>X:XdXwXzX*X9XwX9XcXcXsXpXbXeX>XxXvXmX>XOXvXvXaXiX-X-X-XsXAXcXdX,X*X9XzXpXfXcXaX2XMXzXaXaXgXvX1X^ %X<X X^ i.+X-XSXiXpX*X9XU.T.T.pXOXW.:X*XV I.0X,X1X|.|.+X,X-XZ 0.f.U.T.T.T.f l MXHXzXdXK.U.1.f.W.0X$XS.o.%.I.JXvXB.&X~ j <XCXSXJX,Xd.pXD.*XnXNXnXGXC.h OXj.U m 4.I.} u.`.GXKXMXZ.! 3.*XfXk.q Z.GXGXAXiXvXvXAXFXzXGX;XT.fXMXN X 7.NXc.F.m.W.$XU.rXrX$X4.L.tXS < tXL.fX0XMXfXfXdXqXY.9Xk.2.dXdXiX,XmXvX9XW.*X! h.OX0XfXzXrXzX=.5 N K.rXf.G.lX6XHXKXF.yXNXrXGXg.=XmXvX0X:XHX4.! 7XH.I.Y.JXJXAXAX+XL.eXeXT D.6XMXwX! Y #XGX&XOXV.#XJXP.m e N $XzXHXSXKXdXrX=.$ w c , 6 6XaXzXDX5.<.J.pXdXG.6X`.k.k.R fX&X&XGXjXT l.p.0 r R < $.jX2.zXL.k.A 7 >.,.v e.6 :.NXC.|.4XgX=X2 m wXtXDXLXSXnXQ.mXmXMXBXmXCX3X3X3X1XxXAXZXvXsX:XmXCXFXFXVXCXVXAXiX2XLXJXSXZX3XvXCXsXcXiXhX@X1.w.rXK.W.6X7XqXwXtXwX@XP.@XcX;X#XpXMXzX*XOXzXvXMXdX9XeXzXmXzXvXaXsXfXzXvXAXSXSXuXqX$X@XwXzXvXzXvXmXwXwX6X6XC 6.E.D.K.dX#XoXpXhX0X:X9XwXwXnXzXdXU.9X$X",
"Q.5X6XqXqX9X9X:X#X#XOX XXXXX|.XX X X|.C.Z.g.d.7./ U h r r L / j.j.M.P.oXP.P.P.P.&X$X$X$XoXoXL.D.k.2.5.=.R V B $.p.0.l.E.#XuXfX,X2XVXAXpXgX,XD.K.KXdXK.Z.oXOX,X9X5X,XJX;XCXFXGXGX9X$XzXwX$XdXzX1XT.;XKXKXY.o.d.>XcX1XsXwX*XY.zXwX+XT.2XsXHXbXp.pXuXg.#XNXv.;.5.w.J.R.~.eXm.@X:X>XdX+XsXvXw.XXxXZXgXa.s.>XGXAXfXmXcXzXq.! 9.p m.GXJXVXcXCXxX,XfXsXdXC.V.G.*X;Xg.h.>XcXvXvXaXcXcXvXfXiXhXAXZXSXAXiX>XcXAX>XVXKXFXZXsX:XqXDXzX*XaXAXMXrXfXzXmXdXdX,X:X@X&.y.Q.SXgXN ) Y.G.W.bX2X=Xm.=XwXsX>XpX-X<XT.*XzXMXdXmXMXDX9X@XD.L.=X2XaX@XC.:X2XxXxXxX;X&XpXfX:X>X;X-X%XgXAXVXJXAXZ.C.;XhX;Xs.|. X1XxXgXSXHXcXiXdX9X>XwX0XwXzX2XxXaXVXvXbXvXvXxXLXKXGXSXJXvXf.dXoXaXaXGXfXaXhXmXP.f.P.7.@ ! K.+X>XP.XX&XOX%XXX-XgXGXFXsXN.@ $ q p.3.d.0.$X#X#X9XE.7.;XK.0.l -.L.NXDX6XjX7.V R $X7.K.JX3.@ r e 3.zXMXeXg.U #XaX XAX;Xf.9.wXAXHXzXGXHXmXoX0XGXcXAXVXfX=XvXAX9XMXR.HXGXvXP.K.9Xm l e.6XNX6XNXrX6Xr.D 6.tX`.!.L.L.dX/ $X>XtX+XhXvXzXvXJX>X7.mXP.:.!.rX$XMXdXqX#X0X9X/ % MXHXwXm q q J 6 @ 7 v.:.~.NX6XtXR.5XnX$ f mXJXuXoXeXvXZ.NXyXE.;XCXSXVXVXSXDXMX>XN 7.Z.eXtX6Xv.G.nXkXHXJXtXrXkXrXQ.$XnXrX;.@ e.8 Z NX7.4 tX:.6 2.8.$XNXx :.NXJXAXDXwXQ.K.4.$ T Q.6 $.V . X   X P.#X8.D fXfX6XwXD l $ 8 <.G tXnXfXaXI   L ;X9X9XGXJX@XR.!.K.J.J.mXjX$X1.d.;X1X<X,X>XcXGXLXJXAX0XzXvXxXVXCXCXCXFXVXgXZXKXKXLXSXSXLXSXPXPXPXLXFXFXFXCXVX>XV.oX9X*XeXmXnXrXdXjXwXwXwXdX$XD.W.eXaX*X*X:XeXpXzXsXsXpXzXzXAXLXKXKX;X*X@X=XzXpXfXwXzXmXzXmXMXzX6 -.R.J.S.@XwX9XoXdXfX0XwXY.2.L.9X9XK.P.$X",
"L.W.6X9X9X0XuX0X,X,X;X#X;X#XOXOX+X+XXXC.Z.i.^ U h r 0 ; r r E i.j.Z.P.oXoX#X#X#X&XoX@X@XoXE.L.G.S.2.4.$.T Y S Y p.k.F.I.$XhXDXcXSXvXcXdXcXiXnXzX-XkXzXGXGXAXMXpXpX>X%X0X+XV.B.U #XJXJX0XsXeXZ.VXHXmXGXLXZ.< k K.JXGXaXsX0XvXGXM.u B I.0.q D.$Xp.vX:XcX,XMX:X6X0XvXVXuXSXDXkXtXtXjX:X9XW.dXwX>XMX0X@XK.T.HXdXK.K.6.w.7Xv.H.{ p e.mXGXGXFXCXgXfXzXtX9X>Xk.9X0X:XvXsX;XhXvXAXcXcXaX:XsXeXBXJ.p 8XE.@Xq.0.M < NXDXHXFXaXdXpXC =XdX8.m f.0.d.:X,XoXOX>XvXdX9XL.XXGXAXzXeXE.6XL.#X+XzX0X,X,X,XvXcXaX0XwXY.3.,XhXpX@Xf.w.D.qXcXVXLXJXLXSXLXSXGXAXDXdX:X>XsXHXDXcXGXGXvX! *X0X,XaX,Xi.E h.vXFXxX2X X XvXAXvXcXwX9X9X6XD.U.aXxXcXgXvXcX;XHX@XD K.~.tXrX9. .6Xp =.w.wXnXMX9X#X$XL.p.K.M.HXHXM.K.E.U.$XvXAX0XV.XXC.vXGXfXzXJXDX#XfXfX@XK.g.pX:X! / XXxXGXGXFXLXZXKX$X4.6XNX).`.nX;.6XF.F KXKXKXvX0X0XGXGXGXFXKXKXKXKX%XY 6 * h qXnXwX+ oXhXY.SXGXI.2.zXKXzXjXrX9XV.AXGXW.MXrX9XrXwXd.X rXnX).6X6XrXfX@X9XrXm.M.X ; B.).|..XE 0 9.$X#XvXJXFXvX0XK.I.f.w R.tXd.vX;X$ q 9XK.4 U =.G.yXrX>.} ).<.y.L.mX`.6.tXGXDXU.C.i.HXHXfXT.,XmXpXvXcXgXDXaXJXaX<X2XvXDXGXFX~.z H e.Q.$X0XaX*XdX@XY.zXnXnXE.f.W.6X@ 7 Q.DXJXHXDXdXnXHXtXrXH.y.w.qXhXxXU 2.H.7XI.;XCXuXAXDXGXJXFXDXNXp.@XrX*XtXtXmXmXpXg.1.MXGXzXU.f.,XKX2XfXH.$.6 <.rXqX).{ } v 5.+XaXvXvXvXVXVXxXFXbXiXvXSXLXDXzXnXzXvXSXAXSXZXSXFXKXPXKXJXLXZXZXSXGXGXJXJXJXJXJXLXJXGXHXDXvXdXfXdXrX6X6XqXp.oX2XLXVX>XfXfXtXnXwX0XmXmXdXtXrXdXE.tX6XT.0XAXbXA.*XdX:XK.9XK.m.6X6XMXvX/ f % Z y.).H.S Y f.D.=X*XC R 4.e N g.mXDX*XM.",
"L.$X6X9X9X0XuX0X,X,X,X;X>X1X>X;X,X;XXXZ.h.) E L r r r r I U i.h.Z.oX&X;X#X:X:X#X#X$X&X#X$X$XE.I.G.e.5.5.2.&.T =.f.R.J.v.G.L.vXJXKXKXVXoXaX#XtXW.>XjXqXvXfX5XM.hXqX,XvXDXzXvXMXpXzX#X+X@X9XoXg.Y.r., S eXD.;.D 4 8.0XM.:X$X:X=X8.L.qX9XvXJXHXHXHXwX3.vXCXVXaXAXvXvXVXAXsXR.b.>.d.$Xm.E.w.LXJX$ +.(.7X6XE.dX6XeXtX>.<.t.v.9.H.| <.Q.bXHXMXGXKXOXJ.n.@XSX6XR.+XAXuXDXsXwXM.:X;XcXvXAXCXVXMXl @ jXM.3.9X0X9XF.r.J *X9X@X:Xa.e M.9XdX1.D f.4.D.rXzXMXSXKXFXmXk.P -XzXp.p.qXF.| 6XdX9X0XvXvXpXDXVXSXcXmXwX:XfXeX;X<XeXvXmXvXxX$XI.;.!.fXNXy q.6XrXrX:XfX9X$X@X$XfXL.!.k Q.*XdX0XaXVX-X_ >XSXVXgX-Xa.0XvXDXmXdXmXnXnX$XL.5XzX;XaXFX&XN 6X$ $ 8 b.y.H.G.I.7Xp $ , } v.9XvXoX*XDXHXmXwXM./ 3 T K.dXfXzXGXNXrXS.w.$XmXkXL.M.$X9XdXfXzXwX9XmXcX$XM.M.HXmXoX;X$Xk.tXeX<XeXM.!.S.rXtXtXT %.zXpX;X$X0XfXDXvX:X XgX4XZXgX2 N Z SXW 7 R.wXa.>XzX~ f ,XD.M.B.aXdXzXjXg.Z.AXDX9XDXrXqXtX9Xm.$ k L.k.Q.oXHXpX;XSXcXwXGX1X& ^ J.+XgXgXvXNXD.M T.CXJXKXKXaXMXmXV =.6XE.8.M.! U 7.K.1 C l 7 z $X0.;.tXH.k.9XcXM.2 @ E.9XP.4.P.:XpXdXmXwXzXwXdXmXvXdX6.MXzXAXcX0X#XHXGXvXT.f D U g.U P XXsXvXvXW.$X0X>X1XgXxX1.D.W.pXAX0X9XD.6XnX9.v.`.qXR B 9XJXZ.Q n.7XnXGXZXZXZXSX>XD.nXH.R.zXDXDXvX6XK.vXAXvXmXAXJXfXZ.P.f.V.SXAXW...7XyX).yX).k.< e B g.1XFXFXCXZXxX2XgXVXxXVXSXDXsX#Xp.! D M.pXmXfXmXAXFXKXLXJXJXKXFXbXeX=X6XtXrXkXnXnXnXzXW.m.E.f.:XwX*X;.e.$XCXCXKXKXKXKXcXoXp.Y.fXY.Z.pXzX$X$X5X5X*.B 5 , l g.qX9XqXwX$X7.9XfXm V 6.K./ @ + + @ 2 x &.T 2.2.7.m.U.! $ 1 N P.@X:X0XoX#X",
"I.$X6X9X9X9X0X0X>X>XuXuX2XsXsX2X1X;XXXZ.h.j.i.^ E P P E ) ` |. X&X:X>X0X:X:X:X#X$X#X$X$X$X5XQ.E.G.l.k.y.5.f.f.k.L.k.5.G M , D Y d.HXeXD.pXDXtXqXFXKXgX/ f.k.m.U.l Z.;XqX9X:XJXcX>X:X9X=XtX@X0XFXG.u.G.eXzXvXAXMXMX>XC.zXmXvXfXDXHXJX; ( AX+XP.5.H.5.$XHXGXzXMX=Xc.9X=X@XK.e.;.I.W.J 6X5.C.JXe z < X $ 3 d.9XcXG.*.*.y.v.r.v.{ s  .q.6XD.9XKXDX+.9 rXFXgXfX*XK.f.tXW.E.tXdX9X9XY.;X0X:X0XfXaXvXa.OXcXV.>X;X* $ oXcXDX9X,XHXrXD.,XdXE.nXtX2.6 S <XAXSXvXzXqXP ^ M.K.eXnXQ.e.6XvXpX$XwXoX;XiX XAXAXMXpXcXAXaX0XcXcXcXpXhX1Xk., $ , 3 wXqXK.5 @ e.5XtXR.6XF.G S.e.E.DXMX:X0XaXsXFXLXcXVXGXAXJXSX9XzXfXwX*XW.9XzXcXAXDXkXMXN.g.<X>X;XY.0 w e 9 <.8XR.J f.G n y.k.f.K.*XY.D.q.q.=.mXzX0.$.9XvXwXD.| ).NXdX=.k.6XnXtX0.jXDXzX>X:XDXzX:XuX|.P.f.Y.JX*XR.U.Q.5XyXFXJXHX< f.E.9XHXdXfXmXqX6X9XE.9X*XpX$X5XtXqXjXnX6X=XdXmXKX:X:.G.F MXdXqXuXnXDXa.E P ; ; B.uX>XvXgXjXfXfXDXGXMXMXJXGXDXwX$X$XMX9X@XvXJXKXJXJXJXXXU D.V.&XgXCXcXM.2.K.D.$X#XK.y.<.$XV W 5 &.nXwXvXAX0XdXQ.U.$.n k C vXmXcXvXzXzXF.zXwXT D.aX+XL.mXpX0XwX0XfX9XwX6X6XW.Q.x 7 7 I.6XtX6XwX2.y H.p 7 p 7 6 $.rXrXrXnX`.tXAXJXJXmX6Xw.R ~ T.*X*XmXqX@XfXK.! $XwX9X| 0.=X9XJXDXZ.oXgXSXCXxXvX5 7 nXtX-.6XDX0XiX9XpXAXvXvXcXcXfXY.d.f.-.g.pXwXQ.`.*X=XwXHXzXK.pXJXMXiXgXVXAXFXLXAXcXgXhXsXpXpX6XQ =.-.f.H.y.,.).nXBX9XaXAXmXE.).cXHXHXdXp.d 2 l d * * M k.D.K.P.Z.j.N e 6 y.=X0XaXMXvXAXMX9XK.P.uXAX=X#X9X=X/ q.D.0.D.7.7.4.5.k.5XL.R p.9XE.f.K.r h Y.wXY.f.p.N t e 7.@XpXDX:Xp.p.K.dXU.oX;XmXHXfX0X,X:X",
"L.@X*X9X9X0X0XpXiXsXsXsXiXsXsX2X,X;XOXXX|.h.h._ ) ` h.h.B.|.&X%X#X0XuX,X:X;X#X$XI.L.L.L.I.I.I.I.k.k.I.5.$.l.I.P.5X#X3.d -.2.tX9Xa.cXDXd.T.vX7 b =XzXzX5XL.pXeX$XwX0XMX#X=XM.AXAXfXHXvX;XpXAXaXVX-X0XAXSXxXbXdXHXAXXXiX0X;XpXdXnXf.D.X V U.e $ l A 5 oXZ.m.y.;.6 G tX$XdXmXdX5XrX~.< G $XHXdXjXAXmXGXdX@XL.rXW.S.r.o.<.<.r.r.e.B $.kXNXdXsXKXKXHX$ z pX$X=XzXK.S.~.Q.F.=X$X*XE.nXAX&.$.=X0XA.bXDXNX#XcXGXFXSXFXDXh.>X1X%X|.T.p.dX9X0.=.9.qXfXpX>XpXwXzX6XI.oXSXGXMXGXzXR.b.u.NX0XoXT.1.T.vX>XpXpXaX#XZ.OXg.XXGXJXmXD.0.4._ 3XgX2X2XXX@XXXGXHXzXwX#XoXfXF.f wXmXDXcXaXaXvXAXcX1XVXVXAXhXXX9XW.U.*XzXwXW.rXeXHX>XXX<Xg.L.$.9.U.=XvXAXcXGXKX(.m.$XrX5XdXhXL.j.,X>X=XW.tXyXG.v.K.nXmX@XI.9XmXoXkXf.A Y.#XR Y.M.W.R X , M.:XaXK.dXM.W aXE R 6XR.fXK.>XoXg.3 c 7.wXvXhX:XC.hXL.M mXM.7 u y.l.I.6Xf.l w T w m.6XG.F.6XqX;XwXQ.k.w T N.7.$XpXuXN.) j.E I 3XZXFXVXU e N * W =.oX6X#XdXHX9XwXwX!.l X $ j.LXCXaXP.9XsXcX/ p.%XvXSXFXzXpXwX*XeXE.y.k.nXSXGXdXL.wXpXHXdXwXfXwXhXI.R qXmXmXzXMXvXzXsXQ.AXmXHX$XDXDXdXmXdXwXmXzXvXK.wX~.v.I.).J.`.(.k.S.Q.6XQ.;.| y.7X6X7XnX8X(.).y.....@.u.H.J.b.+...(.NXkX7X7X6XtXmXd.E.W L #X0XHXMXvXfX:XzX>XZ.-X1XaXeXP.nXY $X*X6X-.g.>XDXAXnXaXhX%XoX9XeX=XtXQ.R.=X:XaX;X,X:XxXxX2XvXgXxXCXZXSXvX9X$X0X1X0X#Xg./ ~ 6.G.G.G.z 4 1 < Z H.{ <.J.v.o.D.nXwX+ .   . & U |.1XgXVXgX.X` i.$X*X,XsXSXSX0X9Xf.6X~.6XtX=X=X9X-.7.$XpX0X&XdXzXwXqX$XY.wX=XwX*XeX=X:XW.=X9X,XT.P.9XwXdXoXp.N.=X$XnXnXmXvXmXJXGXvXmX;XP.K.Y.M.g.U W 3.XX6X$X9XmX",
"E.$X#X9X9X9X9X0X0XuXjXuXuXsXsXiXiX,X;X%X&X X XB.|..X&X&X X+X;X;X1XuXuX,X;XoXoXD.k.k.y.S.S.k.k.G.k.G.W.F.G.Q.K.*XcXFXKXKXFX2XAXvX$X5XH.y.wXbX, v g.t.X.wX;XFXJXOXaX,XcX0X9XMXpXT.XXwX9XaXbXAXFXeX$XY.D.fXeXfXf.Q.@X;XFXvXcXVXpXcX, k.6XzXeX<XdX9XtXK.FXKXGXdX6XD.fXwXM.:X$X$X#XtXjXW.f.N.xXFXfX#XN.0XD.1.Y T -.v.b.+.{ s { +.{ [ [ b./.(.NXJXHXdXf.9X@X5Xk.wXL.7.U.R.R.M.Z.dXS W.ZX=XNXAX5XQ.rX=XwXR 2XLXKXFXLXKXaXoXXXGXAXAX6XQ.T T =Xk.6XzX+XOX#X$XS.=XE.wXvX=X<.8XJ.{ [ 7 e.dXSXAXY.@XdXMXZ.C 3.#X1.4.E.L.7.<XsX@XE.P.` .X` B.+XDXGXVXAX5X8XnXmXzXzXzX6XNX9XwXmXwXC.XXvXwXV L.1XJXGXwXnXtX*XmXcXvXfXDX6X! =X=X~.MXzX$ . . . t P.sXSXKXnXjXdX9XwXfXmX0XoXHXvXM.K.P.L.R.tXoXq 6XfX>X<XFXGXVXsXvXoX%Xh.;X9XNXNX2 @ 7.g.iX9X5.$ o ; - ! T.-.E.).5.OXJXnXe.tXl T.JXLXSXhX7.| T wXH.y.G.6Xv.n fXnX6XHXwXwXMXE.6XE.9.6X$XM.0X0XV.CXAXY N p.U.M.9XhX) .X3XZX%X) R jX&XqXE.7Xk.%.fXdXdX6Xw.K.GXsXL.P.:XzXtXrXfX$XaXdXmXmXoX:XAXzXwXpXfXFXDXnXMXfXHXAXMXDXmXcXMXd.6.wXT.GXMXDXwXY.nXnX=XdXJXmXG.0XMXvX4 1 DXvXcXOXvXMXDXAXaXvXsX@X$XF.J.Q.F.E.6.k.E.f.W.AXGXHXsXHXGXeX9.rXnXb 9 , 7 `.lX`.(.(.v.yX .n n.@.t.b.t.b.>.J.Q.Q.Q.!.Q.H.G.y.7 8 e q B <.Q.$XX 8.9XHXMX:XzXzXrXdXhXzX9Xe.Q.qXnXnXW.K.F.zXCXLXJXGXKXFXgXcX0XeXsXeXHXzXK.s.iXvXAXzXOX~ h M c K @ @ $ e L e U S &.2.L.#XzXbXC.  . o t / W L h..X-XsX2XCXCXCXxXvX,X9XzXzXrXE.e.6 0.tXrX@XtXz G e.G.5XoX9XpX0X9X9X9X0XwXzX*XdX#X*XpXSXFXAXpXY.K.M.P.9.f.2.0.=.0.f.Y.I.g.j.C.P.qXjX0X9XwX@Xp.L p.p.7.F.$XW.K.",
"U.E.@X$X#X:X,X,X:X,X>XuXuXsXsXaX2X2XiX>X;X%X;XOX+X+X%X;X;X;X,X0XwX>X>X#X$XI.l.k.<.<.<.<.y.G.Q.5X6XF.G.9.I.k.4.oX=XZ.0XGXNXK.P.:XtX;.G.X.&.U 7 l.3.Z.P.oX:X0XAXaXvXzXzXzXhX:X#X&X+XeXtXrXMX9XqXcXbXcX/ uXVXAXAX6X8XMXDX=XCXKXJXSXHXcXvXgXZXVXhX6XW.U.zXaXrXf.e g.sX9X#X,XwXMX#XrX6XU.:X+XgXVX1XT.C.wXS.0.GXAXfXg.2 $ @ $ , $ 4 @ $ X < @ X < } H.vXJXfXl.1XmXwXtXrXzXmXnXhXiXI.$XaXN.5 6...{ @.u.^.@.X.$XKXLXxXvXzXNX$XoX0XmXDXfX9XzXpX6XwXzXOX#X@X9X6X9X1.T.@XY p <.U.0.6XW.0XzX<XT.R Y D.6XL.R 5.tX, *.k.:X,XjXpXsXaX&XgX%X|.3X-X^ -XLXmXx (.y.7X!.Q.rXQ.!.6XtX`.S.$XL.5.2 , %.!.M.e @ 1.wX:X;XeXiX:X$XkXR l.DX:.e.rX$.W .X4XFXvXCXKXKXlXc.W.!.=XW.qXtXI.wXwXoX= *XfXK.*XXXN =XM.=XxX-X-X%XV.+X-Xi.JXKX>XcXvXL.1.,XdX;XM.#XP.9XMXR.XXAX;X<XnXD.Z.AX*Xm fXi./ mXwXJXKXzXnXW.zXBXtXG.&.`.Q.~.fX1.f.MXK.6XnXnXM.P.dXN.U GXKX( y #XW.dX8.aXJXKX;XX   4 =XXXfXE.P.9X8.D.0.=.E.rXeXzXK.;X|.LXFXVXSXdXeX/ g.T.F.cX0XwX*XD.Q.nX6X0.9Xp.;XwXwXf.qXmXdXmXeX<XeXMXwXrX).k.m.J.=XDXMXMXrXY 1.tXF.y.P.pXfXjXoXm.wXzXwXDXM.iXwXm.g.7.P.U.q.0.9.H.tXm.D -.=.nXAXvX:X$XdXm.$.k.=.5XI.tXDXXX>XmXW.zXmXwXHXd.$ e z d.wXfXe.H.`.8X`.`.H.n.u.s a { a n O.H.7XtXrXtXrX&.rX$X6X).>...!.6X9X*XD.tX6XMX6X6XtX6XtX*X+X*X6XCXvXxXVXHXfXW.m.p.0 + q zXMXiX6.Y / N.! D ~ U / C.cXgX1XgXgXhXeXGXJXJX-X= 0 3.E.rX6X4.3.1XiX:XT.7.f.P.#X:X9XaXwXE.m.m.mXoX$ T @X9XD.6X6XI.$X*XuX0XiXhXfX9XrX5X;.q.6XY.P.U U j.%XhXpX9X@X@X$XoXK.Y.Y.$XM.E.qX@XT.:XpXoXP.:XuXfXvXzXwX9X;XmXmX9XW.!.6.< ",
"R.E.@X$X$X$X#X:X#X:X:X0XuXuXiXsXgXgXaXpX>X>X>X>X,X>X>X1XuXuXiXiXuX,X,XoXI.k.5.,.O.,.t.,.t.H.).6XrXQ.Q.k.$XK.D.dXHXnXL.k m.nXhX&X&X>XvXmXhX:XR.$XV.AXAXoXfXfX,X,X*XY.Z.~ 9XfXhXvXaX7.k Q.kX$., 9.zXJXFXLXxX1XzXM W.f.,.v zXHXDX5XFXgXCXLXKXJXoX0XS C U.@XG.nXqXDXKX9XAX;X;XMXfXeXMX+X&XjXuXsXxXVXpXY.T $ iXGXAXSX1X1X_ h./ + 4.u U W W ! ;.).mX-XM.>XmXE.MXGXmXY.dX$X$XF.aXDXdXwXJXKXAX:X9XF.l.Q.K.JXGX5.Q.qXvXiXiX9XqX9X=X*X#X0XHXMXmXwXY.@X9XvXwXwXrX#XU U K.S.6XzXcXJXJX,XSXMX,XvXwX@X$XE.nXqX@XDXY.$XcXgXAX#XXXSXcXmXFXgXJXKXKXJX-X%XDX0Xm.7 ,.X.v rXy.S.W.wX6Xp.g.:Xf.$XNXNXzXW.D.V V Y.qX=XvXGXGXf.V K.rXH.$ , t.G.>XKXKXdX@XrXmXvXeXMXJXGXGX*XG.=XI.6XdXAXjXzXHXJXJXKXKXKXC.oXcXs.0 E VXGXHXw.f.qX=.#XxXAXMXGXDX0XsXJXDXmXmXoX%XLXLXLXtXq.M.T.aXMXmXzXGXGXe.K.MXmXfX6Xd.T 2.$.u k.$XtX6XqX9XsX4.U.zXU.wXl 5X5XW j.aX+XR.6 w dXzX9XmXi.3.mXp.m Q -.Q.D.Z wXmXwXK.R.f.D.M.K.j.jX;XsXfXmXLX9XiXKXKXFXCXKXZXgXaX#X3.7.#X;XP.-XvXvX6Xy M rXdXvXDXzXwX:Xf.tXH.rX6Xy.).tX*X@XL.< $ @ &.G.Y.eX$XDXGX:X6XtX9XE.$ 3 #XM m ! / C =.).9.;.rXdXzXzX< I.HX6Xe.H.H.,.b Q.~.-.S I.MXGX$X)._.6X5XY.pX@XM ;.Q.6X6X6X=XvX>X1XCXVXAXMXK.2.4.&XD.`.lXnXmXrXrXNXQ.< v.v.(.).).G.H.tXtXwXE.$XK.M.d.D.B 7 < , , , y a.cXGXDX9XU $ .   . - 0 2 .   X h j L h r L / N.=XpX2X-X<X>X>XMXJXDX&X/ ! `.`.nX6XdXfXuX>X>XqX5XqX5XD.9XvXMXDX@X4.! d wXwX% 3 S qX6Xk.f.R m pXvXDXFXOXm d $.0.d.d.$XK.2.! L.$XM.T.T.! g.9XAXmXzXwXwXMXMXmX@X! 8.Y.0X:X#XoXC.oX:XpX*XM.g.p.oXoX1.d S V ",
"E.L.I.I.I.P.L.L.Y.@X$X:X0XiXsXsXgXgXhXhXsXpXwX0XwXiXiXiXsXgXgXaX0X:X#XI.F.k.y.,.O.,.,.O.O.H.).).tXK.6X0XAX0Xg.L.PXZXLXZXJXKXKXKXVXGXvXDXLX3XK.+XOXvX;X#XsXAXvXfXpXP.P.aXwXcX,X;XvXDXmX#Xa.mXqXu.7 , 7 v.NXDXDXXXM.rXQ.tX).f.l 7 C.vXsXDXAXKXGXsX0XdXW.6XH.rXK.;XCX9XwXxXDXqXZ.0X1XgXmXqXa.B.pXmXfXnX6.@ 3 HXqXK.DXKXHXnXnXzXHXnXc.nXJXqXJ.e.e.rXmXzXeXQ M 8.3.wXHX5 q K.C.VXI.< Y L.7.<X1X1XhXkX< l 7X<..., E.cXaXiX,XT.8.MXMX6XQ =.dXfX*X6XwXsX$XtXk.d.JXJXGXR.F , 7  .D.U - E #XDXY.T f.q 7.*XP.C.sX;XXX%XsXsX1XuX/ =X>XW.R.=Xd.eXdX>XFXKXKXnXD l 5 l.I.k.I.9XvXJXJX>XT.1.M.G.sXAXZ.P.NX6XI.U.6X$X>XdXcXHX<.c 7 T 9XU.d.zX9X&.G.H.r.,.>XvXsXfXfX#XK.eXwXU.4.uXwXU.DX>X&   . $ $ % 1 9X5Xk.  * 5Xy.4.DXDXJXKXCX2X>X*XsXeXvXeX$XkX:Xh.ZXZX&XE.Q m d.f.W.nXrXdXrXNX`.`.BXnX6Xq.GXGXGXKXJX,XT.K.vXwXp.qXfXJXvXzXNXI.DX$XjX4.mXKXnXI.D.zXk.L.5X1.dXNXhXK.G S.=.9XwXwXdX6XnX9X6XHXpXzXtXE.G p :.HX9Xa.MXSXJXPXmXKXKXSXVXvXaXhXfXvXP e 4.mXHXMXdX$XwXmXMXDXNXrXy.tX9.< p k.mXnXkXmXnXtXtXqXdX6XmX9XwXdXfXnXzXY.1 X $ r.R.M Z.KXxXq | F.W.M.g.4.! $ 2 9.F.Q.tXnXnXNXD.p.Z.R U Y.6X7 } ,.A &.L.dXAXHXAXvXaX,X@XoX9XnXwX0XjXqXvXcXmXNXAXaXdX$X:XcXhX0X@Xd @ M $ @ &.=X9XqXrXtXY.=XmXvX>X@XI.w.W.9X=XT.a./ XX:XV.s.h 0 N j.XX9X:Xj./ ^ / / a.P r ; # o # * - o       X . # / $.c w.`.7Xb.`.;.Y g.d.7.R 4.L.$X9.:.6XnXW.L.N L oXf.K.9XU.P.M.9XmXwX9XP.R uXoX@XOXt X $ M I.sX,X;XoXoX;XmXsXM.@X:X@XP.g.9X$Xf.8.Y.wXzX9XL.p.K.$XqX9X0XcXhXpX#X9XwXdXMXdXwXpX#XW g.9X",
"L.D.l.l.l.l.l.L.K.P.@X$X:X0XiXsXgXgXhXgXaXpXwX9X0XuXpXiXiXsXiX>X>X:X$XI.I.S.y.t.t.t.>.,.,.y.).f.6XrX:XiXVXVX;XM.;X9XG.A V FXAXMXbXsXxX@X$XuXzXmXsXuXA.Y.GXvXsXP.sXAXW j.#XsXSX&XpXVXKXKXKXJXbX:XcX9XXXhX&Xj.:XpXzXHX<XCXhXuX#X=XY.tXG.K.! V.OX:XnX8XF.9 $ a tXeXbXqX0X;X5X0   2XJX2XT.$XFXvX%.2.@X=XDXMX7.6X=XoXi.' ` +XtXE.tXrXtXNXHXwX5Xm S S.&XK.$XY.j.Z.U.Q.tXf.p.9XVXVXmX=X0.>.e.NXrX$.<.p B { ,.v.H.2.2XxXLXKXJXJX$XzXmXrXf.f.wXzXwX9XzXpXvX*X;.2.zXs.C.-.E j.@XF.dXMX+XE u $XwX@XHXHXzXMXAXpX6X6XL.p.vXbXaXvX8.V vXGX5X5XqXgX+XD.gXGXtX*XvXJXhXl :.5.rX6XM.DXGXzXDXoX4.%.%XSXvXpXGXR 5.I.W.qXzXMXLXKXS.c rXLXKXsX$X).2   $.:.2.7XMX6X! 9XdXdX9XAXDXp.R hX:X/ P.u r o * q < 1.>XMXG.Q.T = j.P.+XSXKXKXKXKXKXFXMXDXAXGX=XQ 8XMX0XzXMX! ,XuX2.F.y.F tXnX-.@ 8 b v.7X6X8XJ.e., ;.rXzXcXSXfXdX6X6XS.8 M qX$X,X@Xp.6XU.~ rXKXN.@ e :XtXw.I.f.wX0XAXfX7 k @ D $XuXDXM.c.0XwXvX*X=XM 0 % 7 *.vXJXG.y.e.0XGXO.oXGXaXzXzXU.5.v e.Z T D.MXvXsX:XdX*XW.eXwXrX6Xe.9.G.Z.<XMXMXpXjXpXDXnXrX9XvXfXzXwXzXmX9XR.rX$Xl T M =.(.S.g.KXKXaXI.V =XdXwX=XtXL.H.wXAXSXSXFXVXJX3X) h.3X3XaX8Xe.D.DXDXVXAXsXHXvXsX0XbXzXcX2XxXvXvX<X<XcXLXKXVXpXeXrXmXT =.dXaX<XT.;.S.dXg.M.M.9XrXwX*XrX=XdXfXdX*XdX6XG.e.6XkXkXhX;X9XwX;XpXhXvXCXJXHXrX~.tXMXMXMXdX:X#X9X@XM.U.:XoX&XZ.3./ i.^ h G ,.y.R.$X:X,XwX*XP.V.XXK.W.R.9XrX=Xm < &.R.L.I.E.E.9XDXmX0XmXwXwX9XwXd.M.P.N W =.d.@XY.oXp.p.&XpXvX>XOX2X1XhX1X,XgXhX,Xg.P.uX,XY.d.! p.T.wX$XU.P.Y.9X#XfXsXvX0X9XL.<X@XU.9.T l.hXaXAXvX",
"D.d.7.p.p.g.l.l.k.G.I.E.$X*X9X9XqXqX9XqXuXuX1X1X>X>X>X,X,X0X9X:X$XQ.I.l.k.y.u.u.y.y.b.y._.6XQ.W.rXfXf.sXLXCXvXjXP.AXVXGXwXe.,  .dXSXKXaXjXcXcXcXcX@Xd 2.Y.XXcX+XoXZ.Y.@X=X0X>X6X>X%Xh.0 r 4XZX;XuXvXwX@Xm $.K.vXuXqXpXJX0XZ.cX#XvX>XsXAXVX%XsX;X,X9XE.;XaX,X:X=X6XY.@XNXzXzXj.jXFXiX0XY.C.fXL.0.Q.@XK.9XY.=X$Xh.) ^ _ ( .XCXzX} 8 eXKXKXKXKXJX).3.@X:XOXLXKX9XAXAXzXfXG.wXvXg.MXkXwXMXmXAXdXfX0XLXKXKXLXJXAX;XK.Q.rXI.7Xn tX@XHXdXf.k.qXfXcXfXk.Y U.Y.$XdXM.d.g.>XvXHXMXAXmXMXJXKXGXwX@XfXmX$XrXqXjX0XfX:X&XhXDXVXVXDXtXN @XrX$XhXvX9Xf.f.rXw.R uXJXLXAXvXY.qX#X0XaX0XU.mXdXwXnX4.vXKXSXNXx < 7 8 < B rXAXJX*XP.JXKXCXhXfXkXj.s.MXwX*XK.K.rX$XL.*XtX2.:XvXY.6XrXtXM.D.m.nXrXmXMX@Xg.g.l.V.MXJXcXGXKXSX,XFXLXJXE.W.0X1X>XsXHXGXT $ -.6Xf.0.7 G ~.R.J.lXv.>.(.(.b S F 7 B w.5.tXk.6 q.F.dXfXrXdXnXaX&X0XdX6XQ.L.0.I.#XwXP.m.N f.N h W l.W.f.$XqXnXmXpXrX7 @ @ , c O.'.8Xv.l.I.D.@XbX,X&XoX4.< B 6XrXQ.9.<.H.a 7 k.j.I.0.T f.F.9XMXAXAXAXAX0XT.eXc.rXnXzXaXuXhXhXHXDXdXzXzXwX0X#XfX@X=XT.9XVXAXpX@XR., $ ;.G.Q.nXrXp.=.Y =.-.Q.*X;XC z 5XdXiXAX$X!.W.AXFXGXmXmXDX|..X|.%X|./ P.NXzXMXmXrXrXwX9X,XeXrXmXfXvXrXzX9X*XD.9X>X|.HXwX@XsXqX$X2.&XhXGXFXiXGXpXvXSXHX>XR ! rX*XdX*X6X6XrX@XpXvXwXK.9X9X>XzXzXwXdXpXaXAXvXmXDXpX=X:XfXvXzXmXAXfXpXDXHXMXvXmXzXnXDXMXMXHXHXNXmXzXzXmXmXzXzXMX6X9X>X;XP.P.1XCXoXdXdXQ.6XwX*XL.dX$X0.9XmX:XzXdXjX9X9X9XY.g.#X0X,XvX:XuXuX9XeXtXf.g.g.,XvXcXVXVXGXGXvX:X9XwXmX<X@XdX$X~ U 3.d.P.$X#X0X$XpXoXpX9XoXZ.M.p.f.Q.k.oXuXgXvX2X",
"M.0.7.7.p.g.l.l.D.L.R.E.$X*X9X9X5X5X$X#X:X#X#X;X#X#X#X#X$X$X$X5X@XR.L.k.G.y.H.y.u.H.).(.y.).6X$XzXp.@ < 6XM.=.k r %X,XzXK.! R t m oXuX:XhXHX9XD.oXzX9XdXmXzXAXAXsX,XpX:XP.%XuX$X%XXXpX_   & 4X,X+XiXvXMXvXDXDXMX@XR Y MXMX@XAXd.K.#XaXFXGXGXJXDX0XwXD.:XHXmXzXwXqXqX4.y.5 mXqX$.6X*XwX$XR iXvX<X0X6X9XzXDXmXuXmXGXVXSXZXCXSXHXI.z + #XKXFXJX6Xv U mXtXwXJXJXrXY.E.L.fXM p.HXHXMXx @ D &XcXi.|.i.V.%XvXaXMXDXsXU.@XW.l F 7 9.W.vXnXL.;.0.0XcXcXjXtXMX*Xp.vXf.$XK.w.F.I.6XwXY.N.-XLXJXvXg.;X>X3.g.m U.DXcXwXT Y +XiXsXAXvX:XwX9X+XP.XX#Xf.d.zXDXmX9XzXvXbXJXJXMX9X4.g.M.#X#X=.K.*XD.E.@XM.v.{ < X.$ 0 h.Y.Z.>X7.V ;XfXC.cXfXqXVXAXSXvXK./ J d.2.F.9XwXwX$X#XpXzXwX#X=XdXzXnX6XtXDXMXDXwX=XvXpXtX$XqXGXqX5.qX>XT.@XD.f.M z 4.P.sXzXD.s.%X3.h X X @ 3 < x z , e.6XW.rXrXwXqXrX=XL.nXnXmX=X*Xd.K.V.OX#Xg.XXxX#X/ ^ >XxXxXxXVXDXcXjX;XE r l.qXrXE.@X@Xf.U.w.M.+XwXrXlX,.< W 0.|.pXtXrXrXdXJXJXDXzXJXzXkX0X9XqXR.w.Y.T.;XeXMXMXzXdX=XwXMXzX$X9XMXdX@X$ H.tX$XfXhXOX:XvXAXmXR.c.zXGX>XwXwX9XE.tXcXMXsXwXMX$X6XNXfXDXAXvXAXmXdX6X/ ! vXKXFXsXmXpXC.aXvX$Xf.pXpXcXwXqXP.%X1X>X0Xt $ , e.6X6XU.a.M.jX5XE.G.,.J.yXQ.j.1X3XVXg.XX|.h.,XgXSXAXHX>X>X>X>XgXhXXX1XsX>XsXzXM.Y.9XnXL.oX$XE.F.K.d.@X9XwXnXdX! 0 P.dXE.P.0XpXfXeX9XqXK.3.^ / g.dXHXaXwXwXwXMXHXHXDXpXhXiXOX;XzXdXmXmXzXDXdXtX=X6XnXqXqXY.M.R p.vXGXM.Y.D.e.W.zXM.m D.K.T V Y.=X@XY.9X$XY.wXmXwXpXP.p.#XY.9X:X9XwX$X2.K.9XpX1XiXiX+XOXa.V.XXpX;X:XT.$XmX9XY.qXdXAXvX0X@X*X0XmX9X0XoXg.=.F m F `.rXcX2XFXJXKX",
"f.4.4.7.3.7.d.f.k.L.I.R.R.W.$X$XE.E.E.W.$X$XQ.Q.I.I.R.Q.Q.Q.I.I.I.Q.Q.I.J.H.H.u.H.H.).).H.H.I.=XAXfX$Xd.$XuXaXOXA.AX@X5.l.&XJXvX:XY.W.eXpXdX9XN.P.OXXXg.Z.OXzXpXwXfXdXfXfXi.|.qX+X%X#Xh.I L .XsX2XSX:XDXuX0X9XH.D.vXZ.tX=.M wXwXMX*X1.dXzXcXAXGXHXzX9X0XdX:XfXzXqXqXtX).B %.jXrX6XdX7.P.0.s.HXHXaXsXcXiXDXMXaX0Xa.B.h.^ h.+X%XuXhX9XrXoXaXGXnXF.=X9Xm.M f ;XzXA H.w.MXHXDXfX;XP.l , % m vXjXAX8.;XqXP.$X=X:XeX=X:XM.V M 1.Y D.@X9X7.6X9X$XM.f.9X$XoXDXAXHX^ ;XAXmX6X:XjX9XP.*XGXuXa.1.1.g.g.pXzXwXY.JXJXcX*XeXzXfXuXVXSXcX1.d.wXfX*X0X+X8.P.|.B %.B 5.;.$XgXjXnX$XGXvXp.uX$X:X$XcXcXAXW.b.,.w.6X@XaXVXhXoXmX@X8.g.$X7.N @XfXhXvXhXMXsXAXAXhX#X9XzXDXCX9XeX;XSXAXzX9Xq.@XqX0.6 1 d.0XnX0.DXFXE.8.l OX>X$XmXMX0XGXaXoXqX>.D.P.OXJXfXLXKXJXuX>X;Xl g.R 4.$XY.MXDXwXrXwXHXNXrX9XK.mXtX*X:XMXHXDXcX@XqX0.cXKXJXiX~ 6.ZXxXSXaX0XqXL.:XuX0X5XzXnXnXzX@X7.M.sXgXAXzXW.`.T 5 %.B X X < z u < 2.0XvXAXFXzXzXzXeXpXzXrXbXVXCXAXHXCXcXzXsXeX$XfX6X*XwXK.f., 5.tXdXdXzXdXvXvXvXMX<.p 9.JXJXmXfX*X9XMXmXwXvXvXAXmXvXFXZXZXZXVXcXMXzXnX6X9 H.HXDXhXmXmXcXvXzX,XS.qXmXDX9X@XN R oXqX4.M g.5X6XrXbXg.Z.aXMXMXcXmX;X:XsXXXE CXKXKXGXM.*XdXJXJXKXJXGXOX@X;X#XzXsXhX,X:XoX4.K.S.m.U.E.P.R m -.K.W.@XW.=X!.6X=XM./ 0XxXwX@XmXaX,XL.=X0XfXdXdXwXoXwXGXvX:XdXW.zXzX9X9Xa.pXmXfXdX0XV.@XwX2.1.e y T &.y.5.d.wXzXoXP.wX#XM.=XK.9X9XnXrXwXwXfXoXP.zXzXY.U ( Y ! K.wXqX#XP.f.K.E.#XP.qXwX5X1.p.pXAXsXpXiXg.Z.K.oX#XcX1X;XXXoXqXE.Q E.fXpXg.! 7.P.oX#XXXT.g.K.M.-.k G m.wXvX2XvXAXCX",
"g.p.p.p.4.=.2.5.f.k.D.D.D.G.F.H.H.H.H.H.J.H.H.H.H.H.H.H.H.H.H.R.5X5X5XQ.).(.(._.).Q.tX6X5XqXjX*X#XGXeXaXVXgX.X3XvX#XM.m.vXsXmX9X0XsXDXfX$X,X1XaXVXJXsXaXSXDXmXeXmXzXdXm.W |.) W p.h.i.%XSX0XvXAXDXGXW.U.2 1 ;.{ 8 jXDXfXW.*XwX:X#XZ.T.wX4.p.d.$XpXAXMXMXzXfXfXzXjX0XzXrXDXvXgXB.-XGXJXJXc.< B k.9XwXfXT.fX>XaXAXgX%XuX@XR.iXiXcX|.=.AXAXvX2XdXMXHXoXdXtXR.K.sX%. .6 / eXHXzXV.MXJXGXJXD.G.O.!.0XdXHXfX;.MX6XdX+XhXmX6XmXvX0XHXDXjXd.tXdXMXkXtXzXoXR zXcXaXpXGXJXAXeXpXzXHXiXd.mXmXzX*X$XfXwXwXeXjXK.A.CXXXE.dXaXqX#XfXAXvX>X$Xg.p.$X0XGXDXHXAXj.uXuXfXfXaXFXDX6XB P.AXGXHXmX;X=XSXSXJXGXMXJXJX>X+X,XfXhX9XJXGXHX,XoX4.3.=X=XiXAXSXAXCXFXiXiXvX$X,XSXCX>XwXpXSXMXgXdX6XwXK.@XL.=.*XD.f.M L.mXJXJXJ.>X0XQ.nXpXxXGXVXgXvXW.9XiX/ =.oXvXbXGXDXAXGX_ JXJXAXAXHXHXsXAXDXpXwXE.=XeXdX:XmXwXfXvXAXsXJX9XnXR.zXMXDX6XJ.b.Q.8XNXqXl $ k 9XDXNXyXtXrXmXMXmXmXvXMXbXzXkXf.mXBXlXNXNXlX).nXmXDX9XdXMXhX$XmXvXAXmXfXqXwXNXHXDX9XqXMX>XqXjXmXfX9XwXwXqXwXeXmXMXDXwXvXvXzXwXwXdXcXrXo.{ A CXKXPXKXSXgXvXpX*XaXaXaX>X1XZX3XgXgXAXVX:XoXdXfX| 7 9XAXhXaXzXDXMXMXVXjX;X*XzXzX*X@ $ p.g.$ N 0XDXmXMXAXqXnXE.d.tXQ.NXMXNXDXDXmXGXJXFXHXHXnX6X6X0.2.6.fX6X&.0.y $.Y.DXAXJXJXV.7.@X7.d.P.hX:XoX6XR.qXfXzXzXU.T.OXpX0XhXhXfXZ.P.P.;X6XfXfXdXwXzXdXwX$X*X:X*XzX8.w.F.0.E.d.vXmXpX:X9X@XzXpXN * & h N 2.G.P.l.,XaXvX0X9X9X:XfXqXfXXX:XwXY.9X9XL.@X0XV./ U 3.7.d.f.qXzXdXpXqXm.G.K.p.#XzX$XZ.d.P.;XOX$XL.L.$X$X*X;XsXCXAXV.Z.$XS.f S.9XpX#X+XoX9XP.U 8.oX#XwXAXcX0XU d j.;X$XP.4.r ",
"g.p.p.p.4.R T 4.2.f.l.l.k.k.l.l.G.H.l.y.y.y.b.H.y.H.H.H.J.).).).).Q.).).).).)._.H.`.dXtX9XuXpXMXT.nXzXvXxXB.` ZXT.U hXvX,X#XfXiX,X+XiXAX9XvXSXKXxXcXSX3XZXAXmXcXxX+X0X4.+XKXKXD.P.GXSXDXhXW $ e a.K.I.k.3 f.Q.5XQ.6X9X6XmXmXdXmXAXvX@XmXdX9XfXAXbX;XpXMXvXHXGXGXMXvXvXeXdXsXcX;X>XvXiXvXMXnXg.W G.U.Q.0.qX#X;XDXDX;XzXI.R.zXsXfXdX9X$XmXGXMXzXDXD.2 OXJXGX7.V D.@ @ M T.0XoXE.nXmXN.zXsXtX7XNX7.= 8.#XN dXdXzXdXvXmX0.@XAXgXhXbXHXmXnXMXzXpXdXmXnXD.$XdX=XzXGXvXzXeXeX0XDXP.2 3 9.Q K.dXDXDXoXpXwXzXvXAXoXrX6X0X5.5 S MXJXDXwX! R 3.U XXiX9XGXKXJXzXN.xXFXGXGXy., r W vXvXzXT =.#XpX0XP.T Y.vXfX@Xn 5XjXD.D.g.1XeXMXGXHXmXmXzXfXzXxXFXSXFXGXGXAXFXFXGXAXmXzXdX9X<X;X=XHX0XrXfXNXHXtXY.0XtXG.$XmX5XP.4.@ , m pXMXmXGXgXC.R p.0XS -.f.m.6XM.~ P.@ q.9XzXcXdX,XM.dXwXd.D.e.f.F Q.hXzXbXKXKX1X2 q N ~ f Y R 4.! 2.7Xe.o.tXHXNXrXmX4.V 7.W.6XQ.tXdXGXAXCXDXk.k.(.8XDXnXtX).y...y.tXvXSXZ.DXDXP.X B qXbXwXmXdXR M p.hX6.< qXjXqXf.K.wXeXwXdXrXwXwXhXcXbXbXAXaXsXvXzXDXNXnX5.n f ) KXKXKXKXSXMXhXvXdXY.MXJXGXvXB.s.@ F.MXnXwXzXDXzXsXKXKXKXCX=XtX9XpXGX:X>XdXvXAXAXqXU.zXHX$XdXDXHXvXmXNX6XQ.I.:.y. . .H.7XrXv.=X9XtXK.~ wXM.T R.W.6XtXv.v.e.tXrX7XdXvXs.+X0X&X>XMXvXhXXX0XmXAXmX:XwXNXrX$XK.pXKXKXSXcX<XeXaX:XP.9X@X$X:XdXwXzX0X*XjX0X=X=XpX3 % 4.g.g.d 3.+X*XK.eXM.qX:XoXa.C.hXuX&X:X1X-X1X>XsXwXdXzX>XvXcXJXsX:XqXd.6XdXsX:XDXDXOX1.~ f m 7.W.wXdX$XW.q.0.XX+XxXVXvXHXGXvXsXXXs.V g.9XpXdX:XOX:XvX;X=X@XY.M.dXY.*XP.M.~ M.#XP.oX#X$XW.$Xj.j.* t L 2.r.U.@Xd.",
"g.p.7.2.=.T $.5.5.0.0.0.4.5.5.e.y.y.y.y.u.u.u.b.H.H.).).7X7X6X7X6XtX7X6X).J.J.J.!.=XwX$X9XvXCXvX#X6XW.9XfXvXC.vX#XfX-X2XvXC.<XvXpXMXpX0XoX;XVXKXKX>XAXKXKX+Xi.;XAXcXAXcXiX^ r L.3.JXGX0XMXDX9Xg.P.oXk.I.f.qXOXT.HX=X0XvXT.pXvX#X9XdXg./ g.#XAXJXsXqXjXvX>X+XP.p.g.>XhX&Xp.DXmXzX9XnX5XDXaXCXKXFXpXf.b.5.rXGXbX@X*XzX9X9XfXdXnXnX9XwXm.x ;.S q L.Y.#XhXVXvXmXaXmXXXfXmXdX$X6XL.:X0.5.P.1XgX%X@X6XwX0XvXMXwXfXwXW.pXd.8.,XFXFXJXxXeX9XeXdX@XtXrXwXfX6Xl.E.Y.qX*X3.D.dXfXfXfXkXMX9X7XT 1 3 7.*XM.~ ~ d.E.M.R 1.M.2.2.t.S.&.,XoXoXjXuX&XoXwXwXT B $XL.5.y.y.H.y.l.B N 4X.XhXR / zXMXQ.k.H.,.*.G.$XF.tXB S 6XT.D.MXGXvXhXpX=XZ.dX9X9XzX;X>XcXAXvXvXvXAXiX,XAXAXuX0XwXdXmX9XvXsXY.T.7.d.5XhXbX~.t.6 l.:XsXGXHXcXvX*XX.*.| *XzXpXp.HXzXMX5X8XF.D.zXMX! z 6XfXfXpXDXdX6XlX9X$XyX).p e.d.5 f rXR P.tXG g.jXrXNXhX0XDXAX$X&.@ l T.=XsXvXi.g.7.N Y.wX9XY.9XiX+XoX, , 7 @ 5 l X $ X 6 =XNXvXwX6X9X6XzXeXHX,X*XW.L.wXGXnX9XMXnXwXvXcXAXHXMXMXMXvXvXpXzXzXwXfXvX@XzXzXAXAX=.6XM.9.0.pXGXmXDXA.m d f.7X+XGXwX@ C >XhXHX9X5Xv r.6XdXvXaXvXdXA t.<.nXGXU V 2.V.KXGXpX,X0XdXMXMXAXNXMX~.tXrXF.<.t.v.$XR.<.8X`.Z -.JX-XXXm d.I.$.k.uXAXVX1XvXvXzX=Xm < < $ @ *.R.,XoXpXhXcXHXbXvXSXAXaXsXmX*Xq 3 M.4.P.:XZ.2X-X%XiXsXmXMXvXMXmXdXzXfXrXqX$X*XdXdX*XrX0XjX9XY.0X0X=XT.XXfXvXXX:X#X#XP.iX,XaX2X3XgXSXKXKXKXKXMXU.f.Y.W.#X;XaXC.oX$XdXmXM.8.8.Z.aX+Xg.N.m q e 0.E.*X2.K.tXqXpXVXJXxX;XuX1XiXgX;XZ.j.W p.;XzX9X@XP.K.Y.L.$X9XP.#Xg.#XP.#XM.K.*XP.h U R oX*X=X=XY.dX=XD.9.~.rXqX",
"g.d.0.2.4.4.;.5.f.0.5.4.=.=.4.5.5.y.y.u.u.u.b.b.(.(.(.).7X7XtX8XrXrXrX5X).J.J.).F.Q.jX6XqXaXvXFXFXpXg.aXVXVXGXGXzXDXaXcXAXOXR l.%.K.eX*XD.5XV N p.-.5 S.oX1XvX:X;XvXAXFXSXJXDX4.X A.iXXXVXKXJXGXcXcXsXAX:X:XfXoX*X=XDXmX9X9XdXK.rXrXwXcXSX>X*XAX>X0X0X0XwXnXoXp.;X9XwX#X^ 3XKXKXHXQ.7 O.f.M.AXvXvXdXeXaX>XpXT.W.wXHX=XwXzXW.zXvXT.=XwXwXmX9XtX=X,XvXwX=XF.@XJXKX,X$XtX$X*XwXwXvXwXbX9XjXpXpX=X@XtX6XW.E.f.E.f.*XDXW.9XKXKXJXMXpXcXMXwX=XD q.F.=X9XwX@XdXrX6XtXtXrXR.7.>XVXxXAXsXMXDXzXdXrXdXNXdX$XL.9XDX9X9X:XdXMXnX9XI.eXnX$X6X`.W.9X;. . .y.$X@X0XmX5XG.N * g P I E FXXX/ ;X:XCX<Xd.Q.L.@XnXY.;XAXvXvX#XR 9XqXT.*X$XtX@XzXMXAXcXvXaXsXvXaX;XaXSXCXCXvXvXvXzXvXfXY.D.,XA.oXSXHX*X5.9XhXAXVXxXaXD.P.iXMXHXFXLXAXvXL.f.U.mXdXvXhXsX$.0.0XdXdXzXDXzXzXfXqXL.0XmX6X*XxX1X$X5.6 wXKXGXM I.6XM.7.q p.$XkXE.0.#XAXMXzXG.J.S.W.9XwXMXmXvXzXfXzXK.zX=XM.R +XmX2.N t X R wX$XmXsXmXGXzXrXrXQ.6XW.9X0XAXsX:X9XwX+XzXzX,XcX>XcXVXcXvXcXvXvXqX9XDXAXAXHXHXfXaXR 0.wXDXDX8.R.6  .vXKXKXrXv.S l y k.)._ hX0X! Y.T -.G x tXyXnXeX;XzXtX@Xp.$ , , <.rX=XdXkXL.cXFXvXwX$XL.5X6XQ.Q.R.H.S.v.=X9XzXvXAXfX$XdXAXfXU.HXvXP.Y =X=X8.M.7.7.MXdXzXvXaXxXaXeX6X%.b 6XrXaX>XzXbXsXcXbXvXvXpX:XoX*X6X$XwXd.R dXHX2XcXaXiXsX0XcXaX:XwXwXK.0XdXrX=X=XfXzXwX,XeX@X*XBXS.tXmXMXzX>XGXKXvX>XGXDXgXgX-XCXVXgXZXFXLXLXGXGXaXP.P.*XM.:XpXAX=X*Xg.0XbXoX:XpX,X+X/ N.@Xd.Y q Q M.dX@X>XuXpX#XXXOX8.d.Y.p.p.XXa.g.oX#X#XdXzXdX9X9XoXoXoXM.P.g.p./ #XaXDXwXM.7.~ e ~ ! oXfXdXhXjX0X$XE.F.U.R.Q.",
"g.0.0.0.q.f.w.k.S.w.5.2.4.4.5.5.y.y.y.y.y.u.b./.(.).).).6X7XtXtXtXtX7X).).J.H.H.I.E.9X#X9XpXcXVXcXvXxXFXCXFXFXbXhXsXiX>XiXnX0.T 2 e 5XqXqXGXFXKXKXKXxXAXoX9XMXvX:XcX:XvXVX2X0X&XiXGXGXSXVXGXFXvX:XFXKXJXvXMXMXzXAX,X>X>X:XZ.sXV.l D.d.@XvX#XM.mX#XOX#XvX=XK.@XHXDXMXrXHXDXa.U p.;Xg.$XrXqXf.=.P.qX5.T P.p.qX).L.$XE.D.=XwXk.6XqXqXqXrXzXMXqXnXrX=XdX=XzXE.h .XKXFXFXCXaXvX0X*XrXfXpX9X4.g.MXAXDXV.U P.#X*X9XeXfXfXe.7 C p.E.tX6X9XnXzXDXDX=XdXvXP.@XwXsXmXvX9X=Xe.&.l M.#XiXAXvXpX#X:X0X:XoXzXpXpXwXd.=X@X6X*XdXfX9X=X6X9XkXnXrXyXfXmXeXqXwXMXSXFXAXAXAXeXXX1XgXZ.` ) #X>XK.K.2.W.MXAXmXnXnXMXzX9XMXHXGXKXGXdXzXzXgXCXGXsXcXVX:X|.iXp.K.vX,XwXjXcXDXAXvXfXwX>XpXMXzXnXDXDXMXGXmX$XM oX,XVXhX>X+XXXXX1X>XsXDXcXAXGXDXHXAXvXSXcX0XsXCXCXGXAXMXcXAX;XfXMXP.#XxXCXdXGXKXKXKXFXp.x R qX=XtXwX:XpXdXDX>XQ Y.fXvXvXmXdX#XP.E.9X$XY.@XY.P.zXdX! ! *XdX9Xf U ! $XMXJXzXrXzXzXDXmX0XsXaXhXsXoXL.mXAXcXcXcXDXvXdXP.9XdXdXvX0XdXqXrXrX6XR.$XzXzXgXAXMXzXwXAXJXzXS.6 l K.NXNX*.<.Q.wXrXrXlXNXHXMXzXzXeX9X6X6XGXHXHXrX| q.).rXfXwXfXtXU.f.5.y.e.R.J.6X6X6Xv.+.e.v.`.7XH.,.| | %.4.g.pXzXMXFXFXJXAX! < M =.6XF.~ f $.;.6XR.rX6X0.M.dXpXwXvXvXdXFXDX9XtXtXzXmXMXhXbXbXxXxXAXvXzXfXwX9XE.5XqXMXdXdXmXvXaXpXpXfXhXwXdXwXY.Y.vX:XsXzX6XG.R.fXfXqX0XVX,XT.U.p R.kXNX9XK.aXiXa.0.tX=X&XM.p.oX0X0X9XdX=XM.M.D.9.F.tXNXzXmX0XcXcXmXoXxXvX,X:X0XP.i.U 8.K.K.K.U.wXfXmX$XpXfXwXXXV.+XM.P.qXdXvXiX;X&X&X$X$X*X@X=X@XwXfXAXAXaXiX:X;Xs./ |.0XoXg.P.pX9X>XwXeXzXsXcXzXeX=X;X*X$X@X=X",
"g.0.0.e.f.G.H.F.I.H.k.k.k.k.y.y.y.y.y.y./././._.(._.).).).).).).Q.).).H.F.k.f.f.D.P.&X,XiXcXcXcXvXCXvXfXs.>XaXsXmXhX1XcX,XiXbXAXAX+X,XwX9XiXA.>XVXAXaXDX$XT V P.pX0XU >XcX#Xg.,XcX2X-XGXoXuXzX:X,XGXGXcX,X+X8.#XGX0XHX0XpXmXMXhXhXjXM.Z.:XwX*XGX,XOX1X;X*XwX8.vXzXp.~ P.vXJXAXdXmXpXfXfXdXqX$XM.6XE.qXAXC =.6X:XmXzX=X*X:XL.zXzXwXK.Y.9XdXrXrXtXeXmX0X0XmXzXwX9XiXJXGXcXhX9X$XG.wX:X,XL L R h.VXSXDXzXfXNX6XK.0XoXE.7XD.$XE.L.Y.=XeXdXmXdXY pXFXhXvXcXiX>XiXAXGXVXFXAXDXvXiX1XcXAXpX0XdXpX:XvXvXfXmXHXnXwXW.L.qXhXuXf.D.zX;X#Xg.aXmXMXMXeX-XcX:Xv.+.9 J.D.>XSXmX6XhXhX0X7.1 X . 7 5XmX&XI.H.rXrXP.Z.0.T.uXpXY.M.J.FXKXMXD.6XnXrXmXGX1.7.fX8.U.*X*X0X9XhXmXcXcXaXcXmXzXfXMXwXXXzX6X5.L.&.$.%.k.5XmXFXJXGXeXnXwXMXMXaXxXCX2X-XcXzXvXCXCXcXuXhXsXVXcXmXGXiXKXKXKX$.oXaXcXKXKXKXDXI.nXzXzXAXdXDXDXDXmX=XFXKXLX<XP.pXgXAX=XL.$XnXdXzXpXwXpXwXzX$XZ.wXdXmXnXmXDXmXY.tXzX9XzXfXaXaXvXcXiXsXdXmXpX<XvXMXbX,XY.E.tXpXpXN.p.wXD.Q.rXrXzXDXDXhXiX0XwXD.L.pXcXnX6XG.:.G I.nXQ.<.(.'.H.tXtX!.W.6X=.2.tXG.;.Q.).;.w.A <.`.rX7Xk.J.tXzXrXmXHXNX6XrXrXzXzXhXtXa F.Q.Q.rXzXeX*XmXMXAXCXFXaX:X;X9XAXJXvX5XI.| Q.1.x M 5XrXsXcXcXsX,X~ e iX;X#XpXwXMXDX2.=X6XbXAXvXvXvXmXdXwXAXmX6X;X0XfXY.@X@XwXpXwX#X0XfXzXdXqX9XQ.Q.R.D.9XGXeXdXzXM.e q <.G.<.~.vXvXaX7.< | S.Q.@XM.dX9XM.f.2.d.K.f.g.V.Z.C.M.@X*X*XwXL.=.R 0.9XwXsX;X,XsXvXiXCXSXpXoXfXfXsXpXzXmXwX@XY.9XvXzX$X9X#X9X>X,XzXqX$X$X$X+X;XaXmXdX@X$XY.=X=X=X*XZ.,XcXpXcXaXvXcX0XiX>X+XT.T.,XhXhXsX;X%X-X X|.>X;X-X@X$X=X9X",
"f.0.e.e.f.G.H.J.R.I.I.I.I.I.G.l.y.y.y.H._./././._._._._._._.).).(.(.J.H.H.k.k.L.D.P.1XvXcXsX0X;X2XVX;X#X>XVXmXhXaXvXAXCXvXvXiXHXJXCXAXAXuXvXrXJ.n @ $ 8 z / 8.d.wXGXKXJXbX9X:XAXAXpXmXGX=XCXJX0X0XiXcXaXsXwX#XpXvXR AXmX*XK.9XvXSXGXAXaXpXg.W #XsXcXsXsXHXHX! / ;XM.8.=.9XwXL.U.&XpXvX>XzXsXxXxXcXbXvXKXbXN.zX>XfXMXzXwXdXvXAXbXMXDXDXzX9X*X9X9X9XzXzXzXzXwXtXtXqXwXwXrXwXpXhX0XvXpXaXiXiXa.hXJXKXKXXXT.pX:XqXtX9XR :XfXfXsXdX$XHX*X*X,XT.d.9X,XcXFXAXAXAXAXvXDXxXgXvXSXFXxXgXAXCXFX:XM 0.*XeXpXMXMXzX6XtX8XkXMXMXAXDXNXfXAXGXFXKXiXM.0XhXAXmX0X=XtXL.9XK.K.vXeXv.9XvXpX$X! / g.9XaXDXAXvXT.Z tXMXpXwXfXpXfX@X:.a &.rXnXtXJ.~.=XwXvXMXwXAXpXwXdXwX*X$XC.0XpXiXCXzXzXdXpXmXmX%XaXT.wXDXJXGXAXGXmXK.cXSXGXaX9XM.dXvXVXVXcXAXcXHXvX,X>XvXfXjXjX;XvX=XnXzXC.3XKXKXC @ B z L.pXP.$Xk.dXvX=XvX#X0X0XvXwXW.0X,X7.7.oXvXfXvXzX9X*XwXwXeX9XK.7.Y.mXzX$XmXmXE.f.R Z.mXzXzXmXzXvXzXDXSXDXHXAXvXzXzX;XY.>X0XwXhX$XK.K.AXHX4.R mXD.*XfXhXAXJXrX9XzXzX=XZ Q.nXwX=XR.6X6X5Xy.H.L.J.<.J.R.6XyX).Q.e.< u lX8XQ.6X6XQ.y.G.tXrX*XI.F.6X6XwX$XR.6XzXfXfX9XeXvXAXzXnXzXvXzXfXsXT.7.eXdX*X9XwXq.d w l 4.C.XX$XtXI.fXE.G.Q.m.J.gXJXCX( ^ h.N M.*XvXmX:XoXwXx G.dX=XsXAXpX0X$XL.d.g.L.0.0X:X#XzXsX>XsX0XzXwXcXsXzXzX9X9X0X#X/ 2 / mXdXrXY.7.@ * n b.O.G.zXHXAXq.F f.M.W.jX$XmXpXf.E.f.P.f.$XsXsX1XsXxXcXxXaXvXpX3.+ @ T K.fXvXxXaXvXuXsX9Xg.W oXfXpXvXMXmXmX9XY.oXoX*XT.M.Y.:X>X,XpX-.3 g.P.@XK.0XwX9X5XdXqXwX=XE.$XP.;XT.P.XXOX>XaXvXGXcX0X#X+XP.uXpXOXV.) h.|.%X1XuXgX$XL.L.qX",
"=.$.*.5.e.G.H.R.).5X5X5X5X$XQ.I.I.H.H.b././.u.u.n.n.n.n.n.b./._./.u.y.k.I.D.G.L.f.7.g.>XaX%XXXOX1XLXxXhXFXFXvXCXfX;XcXvX:XwXoXP.VXcXcXhXuXvX,XW.E.l.l.tXmXAXMXMXmXsXvXHXMX0XsX>X6X9.y.6XY.+X>Xg.l.R #XGXGXGXgXmXGX$XwXzX*X2.m.D.OXAXiX:XhX;XuXZ.C.0Xj.XXAXvXoXpXvX0X=XK.Y.K.P.P.C.#XAX1X2XKXKXKXvX$X6 M.aXgXvXMXmXdXfXfXdX6X@XwXfXqX*XzXzXfXnXmX*XqXzXzXaXaXwXwXiXC.vXfXM.zXJXvXFX$X@XSXJXXX$XzX*XeXGXGXMXsXpXqXmXY.E.wXtX$XdX6XdX$X9X0XzXwX@X#XuXOX+XcXmXCXvXaXxXMXDXDXfXpXGXGXCXJXfXf.$.5.$XdXGXJXMXnXNX'.7XnXJXKXAX6X8 *.H.`.U.% N zXdXdXD.*XmXvXvXaX@Xi.>X9X$XiXmX9XdXmXDXHXMX>Xf.HXJXDX9XK.eXzXAXJXT.,XJX).,.e.$.E.fXvXfX9XsXxXvXcXSXAXpX9XvXmXqXeXzXAXaXvXvXzX$XT.aXDXLXGXzXaXvXcX>X>XDXvXdXvXAXCXJXHXq.rXmXvXvXMX9XfXHXSXMXMXDXHXvXAXMXMXf.T l.K.I.|.VXGX#XhXGX1.Q.Q.F.$XdXmX6X6X9XqX$XMXK.zXnX5Xe.F.*X@XG.rX6XE.wXfXzXK.dXzXDXwXP.&X>XuXsXl e U ~ =X$X*XmXpX@XU U.0X@XsXGXCXmXwXZ.9XzXzXfXfX@XN.N.vXFX+Xl D k H.R.6XtXNXtXr.W.NXdX9.F.6XD.~.c.F.=.f.E.5X$XrX@XzXW.w.Q.S.L.$.5 l.E.*X*X:XpX9XM 2.0XDXzXtXzXMXeXwXU.=X=X*XsXzXdX9XI.$Xd.hXMXzXdXzXzXU.D.R.5XH.I.L.pXcXDXDXhXAXHXnXMXaXmXnXmXdXE.S.@XzXqXL.0XfXmXzX>XvXdX*X! E.9XAXDX6XF.L.N.oXM.$XpX0XeXoX#X! / >XvX,XcX>XuXOXcXcXaXaXhXvXVXSXFXvXaX#X9X6XD.p.q 0 < c { $.jXcXaXdX6XL.3.+X0X+X0X0XM.eXcXcX,XcXcXiXvXcXaXsXdXmXdXwXf.5 6 w.$X*XvXAXSXAXDXmX*XN e P.#XoX#XfX#X9XK.*XaX0XwXY.D.Y.0X:XM.2.V 2 2.f.qX*XtXtXQ.;.$XfXfXwXwXpX0XXXXX,X#X#XOXZ.a.,XuXpXoXZ.T.,X:X,X$X0.7.oX;X1XgXVXL.q.D.9X",
"$.Z S $.5.k.I.).5X5X5X5X6X9X6X5X).).(.b././.n.@.u.u.u.u.u.u.u.u.u.u.y.k.G.S.L.5X#X:X0XsXbX1XsXvXAXFXvXbXxXvXaXaXvXCX#X0X0X>XiXuXVX2XxXcX>XcXcXsXHXJXJXGXHXHXBXMX<X#X0XMXCXhXjXM.@X$X| S %.#X0X9XmX=XU.6XdXAX;X,XpXpXuXuXAXdXzXzX$Xp.oXHXGX>XAXGXHXVXB.E g.p.7.0XmXAXJXJXFX<XoX:X>XoXzX;.2.zXJXJXGXuX7.aXxX+X1XvXvX&X:X=X9X+XXXaXzXsX:XwXzXeXwXwX=X5XzX9XoX;XY.g.#XP.9XkXS *XGXwXmX9XW.=XdXQ.m.R.U.vXKXZXsXAXHXmX9XmXfX9XvXmXmXfXtXkXqXzXdXzXdXcXDX;XN.K.Y.Y.wXI.~.rX5Xc , @ r.J 5 S.`.BXNXNXHXdX#Xk.| &.DX:XXXg.l @X@XD.v.M.f.I.).-.#XJXDXzX,.y.tXoX=X6X6XvXKXKXKXKXcXzXjXqXpX2XpX6X*.5.e.NXrX6 d 9X6Xd.e W 2XSXDXFXCXwXiXFXvXsXAXGXCXCXCXSXiXsXvXvXhXvX9XbXaXvXAXVXpX;XvXvXAXAXAXvXtXF.zXpX=XtXjXCXCX,X=XHX! VXLXuXI.(.o.r.qX9XhX<XcXcXxXFX$XrXDX$X2.7.nX$Xh nXJXzX@X6XrXHXAXrXqX$XdXdXmXmXvXzX@XfXdXY.$X9XW.K.D.$X0X+X#XzXMXd.$X@X9X9X9X9XMXHXmXx G 0.2.fXnXwX$Xg.=.* k.L.T Y qXmXfX8.R oXOXXXh.Z.g.Z.OXxXxXLXxX;XW.G.).F.!.6Xh 3 &.kXy.;.6XqX).rXtX6X=.2 B &XqXzXVXLXaXtXrXm.d.zXzX,XR.=X=XnXMXMX=XF w *XaX2XpXwX*XG.-.*XwXL.wXzX9X6XL.e.l f.hX9X#XE.6XE.0XsXgX0XnXNXGXHXHXSXVXMXDX$XP.hXwXzXVXfXfXdXdXdXfXzXzX@Xq.*Xm.6XdXMXdXpXiX,XK.*.9.G.tXfX0XzXvXmXpX:XjXg.P s.VXcXAX;X#X#XmX*XoX:XfXmXDXmXzXzXfX*XwXL.! _ gX3XZ.7.5X9X0X+XXX9X@XwX0X,X@X*XdXvXvXdXpXpXvXvXpX*X0X@X7.Q y.H.*.2.g.XXuXmXzXK.#XfXzXeXwX0XT 2 U / =.U R d.=.P.M.P.#X>XwX9X$Xg.K.K.K.m.@XP.pXfXdXeXzXwX$X$.p.pXzX>XY.*XpX:X;X0XhX1X%X,X-X|.g.3.! K.:X0XT.$X9X=XD.pXuXXX,X*XtXtXtXqX",
"y y M $.5.l.H.).Q.5X5XqXqXjXqXqX6X).).(._.n.n.u.u.u.n.u.u.u.u.u.,.>.y.G.I.R.$X9X=X9XcXvXgXsXsXvXSXCXSXAXhXAXmXnXpX:X/ T.wXdXaXVXcXAXSXSXSXJXHXvXzXwX9X$XK.sXvXpX=XvXvXjX-XsXwXfX,X>XzXHXzXbXbX1XvXAXdXwX#XpXaXhXbXzXtXH.!.A ,.rXwX6X9X*XM.wXfXY P.SXKXMXfXrX4.p.7.Y.<XaXvX,XpXAXFXKXAX1.=.7.@X&XvXvXsXJXJXAXvXmXvXcXvXeXbXAXGXSXMXvXHXdXp.p.oX0XbXzX@Xd.V.+XcX@XP.9XU.6Xq C.DXjX>XcX9XY.eX3.K.y.a R.vXqXh.R / P.M.wXqX0XSXvX9XqXY.d.XXuXiXoX>XVXAXrXHXKXJXVXvX9XeXdX*X~ @ y D.Q.K.zXNX).y.e.J.6XwXFXDXv.zXDXfX6XtXF.y.fXzXrXdXjX~.!.rXDXaXdX6X6XzXsXtX*XU.gXFXKXSX=XtXdXwX=XzXHXGXVXbXAXZ.U.6X9XzXnXvX@.@.'.lXlX'.8XyXnXrXrXzXtX~.R.Q.6X6XnXhX#X8XrXdXyX(.wXiXGXAXxXfXDXHXvXvXbXAXMXqX=.#XKXGXeXZ.>XxXzXH G d.SXJXMXG.R.nXtXpXuX2XU.fXvXDXfXm f.MXmXMXdXl.9XqXfX>X+X:XMXvXxXGXmXwXzXvXvX*XwXmXzXbXdXfXzXzXtXU.K.fXmXpXvXmXvXfX*XrXnXzXzX0X+X:X#X8.q 5 Z 1 ! P.N % l y @ 0.6XU.&X! GXMXY 1.N.8.K.~.~.N.=X=XrXcXSXCXCXGXD.7.D.6Xp.X X $ | G.$X9X6X6XQ.=XeX9XQ.I.$XU.@X0XGXfXU.9XD.r.D.NXnXm.1.* X w wXzX$Xl U.zXmXzXzXpXl.Y.C.:XmXM.$XD.@X$X9XdXqX~ T.dX:X9XXXj.gXJXOX$XE.p.Y M.AXAXgXg.2 N wXE.mXbXZ.Y.7.#X*XqXwXdXMXd.7.d V W.K.T.wX0XwXU.r.L.mXeXY.0X+XpXMXvXaXsX/ 0 P aXCXSXgX,X,XcXf.F.D.qXL.=XY.dX&XZ.M.L.$Xd.N.gXGXJXwXT.mXfX<XT.XXOXvXvXhX<XzXwXwXmX9XsXZ.8.Y.#XdXfXK.R q b >.(.kXmXVXVXAXzXP.p.oX*XdXwX:Xh e 3.uXhX,XpX0X:XpXwXeX:X#X:X:XL.d.K.W.qX$XoXXX0XvXvX:XK.2.d.L.Y.fXzX:XY.U.dX*X=XOXxXxXsXVXKXKXsX3.W W 3.,XY.M.s.L.@XvX>Xj./ m Q L.M.D.",
"y y M $.5.k.H.I.W.$X9X0X0X0XqXqXtX6X6X_._././.u.u.n.n.@.u.u.u.t.,.,.y.k.L.D.Y.iXzXvXVXSXSXAXgXsXcX>XgXhXfXdXm.!.fXvXGXmXc y 9.DXxXCXSXAXcXiX*X$XmX9X*XzX@X0XAXfXpX;X;XHXFXAXvXvXvXsX2XeXzXMXbXvXcXvXP.P.wXaXvXcXmXsX0X<XAXmXqXsXqXwXmXl.R 4.9Xm 3.pXfXvX9XmXD.6.w =.d.wXfX:XfXuXxXKXLXxXhXhXfXcXHXcXvXFXAXAXAXvXMXvXvXFXLXGXAXMXvXR M.K.7.=XY.$XaXvXhX#XP.GXJXhX#XY.6XMX1.f.VXSXGXAXB.gXJXXX8.e.a *.tXyX,XdX>XM.E.tXfXvXSXMXwXuXGXMXzXcXcXvXaXAXdX;.sXKXJXJXMXwXMXGXGXJXqXG.e.R.wXwXzXvXvXDXwX0X;XZXKXqXQ.Q.w.W.nX6Xf.$XD.tX$XzXzXE.5XzXwXdXtXL.@XfXwXK.M.9X*XzXqX0.=.U.zXdXzXR.f.qXtX7XyXrXfXdXjXoX%Xx.#.#.#.#.#.#.#.#.#.#.#.#.#.#.x.#.@.u.`.).b.#.x.x.@._.).9XsXdXq.6X,XD.$X:XAXpXdX$X! vXMXNXHXHXGXDXZ < f ~.zXJXGXrXGXmX;XHXAX6.f.wX@X6X6X9XDXsX0X0XL.@XpXwX0XOXcXDX;Xi.AXJXeXsXMXMXpXsX0XdX0X$XtXW.U.! E.D.!.BXrX*X9XDXHXwXdXfX0XvXzX0X>XV.~ oX:X@XN.9X$XM.A *.M 3 e K.sXJXsXsXOX~ V S &.w.rX~.9.c.9.r.T.AXJXxXvXwXd.1.DXAXE.f.0.S.9XvX6Xw.q.Q.nXMX9XL.wXtXU.).wXfXhX>X9XmX=Xk.G.R.N.p.h * U K.E.wX@XwXzXGXAXMXP.t U.W.8.@XT 0.G.$XW.@XwXwXU p.=X*XwX0X;XJXKX0X$X$.W 2.w Y.SX2X3.W $XNXfXHXzXC.9X9XvXfX@X9X9XvXN.$X9X$XmXqXdXdX0XMXmX9XdXsXoXV.C.e N.dXzX+X&X&XP - %XvXVXZXvXaXiXL.6XK.@X2.G.N.pXpX#X9XK.$X:X:X@XtXvXhXP.0X$X:X0X+X-XGXLXGXP.oX@XP.:Xj./ h N T.oX#X#XoX7.q | c *.6XpXiXaX>XeX:X=XdXzXzXY.M.p.oX0XdXhXvXAXDXcXaXiXiX+X#XwX9X*XE.9XpX:Xp.h L Z.0XcXwX*X$XY.6XoXdX0X0XwX$XwX9X9XaXAXSXxXsXVXLXvX>X:X0X:XfXwX@XN.m R P.oXg./ 7.d.$X*XqX",
"y l S 2.5.k.G.I.I.$X#X9X0XqXqX6XqX6X7X)._._././././.n.u.u.u.t.,.,.<.y.G.E.@X:XcXcXCXSXCXVXvXxXsXcXhXxXVXmX@XF G ;XDXcX$Xy. .f.vXxXvXzXpXcXvXsXY M.zXMXvXAXhXuX0XuX0X-XaXHXGXvXcXGXFXSXmXnXtXI.qXeXNX6XW.HXzXaXvXmXzXcXGXJXAX0X2X<XeXMXsXDXvXvXAXDXvX2XvX9XmXtX5XrXtXm.Y.mXtX6X:.T $XzX2XvXAXxXAXvXs.^ |.aXaXZ.d P.AXvXSXCXxXcXdXhXvXDXDXzXzX9XP.sXHXAX#X/ GX2X^ 2X9XE.DXfXqXjXJXSXvXE >XJXKXKXJXQ.8.! F.zXHXDX! f.M.Y w e qXMXJXGXzX:XcXbXvXiX,Xm.7 Y :XhXMXK.=.,XtXG.v.'.'.O.y.(.y.R.=XeXmXtXeX$XP.XXMXAX0X9XW.6XF.tXzXg.5X*X9XvX6X).R.6X9XzXwX9XzXfXNXmXH.y.`.tXfXmXmXvXvXoXu U m.9XW.tXNXfXoXfXvXiXI.$XG.e.<.*.>.5XNX(.X.X.>.<.'.8Xv.@.a c v.n.u.kXDXzX,X%X*XsXiXS.U.2Xu M.>XfX$Xg.:X/ DXfXZ.Y.*XdXGXW.@ 6 7X9.k.HXT e 5 5 R.Q.w.I.=.@ :.R.fXAXvXgXiXdXwXp.( R d.Y.E.F < c NXdXU.pXmXpXmXzXHX*X=.W.9XdX9XDXY.q.W.6XtXzXfXcXwXrX*XwXfXmXaXvXCXAXDXDXAX#XGXGXSXHXHXSXcXf.$XdX9X_ # h 8.S q 2 < e m d e $ + + U 9XOXsXHXdXrXY.cXnXrXrXzXMXAXmXwXnX$X9XzXzXMXdX6.C O.*.7.cXGXGXGXJXAXzX,X*XhX0XoX0X$XQ.9X#X1.K.xXiXcXvX9X0XdXMXwXeXdXnXrXU.dXvXiXjX#X$XR ,XMX,XcXuX0X=Xd.tXnXQ.W mXvXVXkXwX&.M Y.vXzX*X:XfXsX9XwXcX,XoX9XwXeXdX9XwX*XK.@X+XZ.;Xp.d.M.#Xp.Y.0XcX2XVXVX%Xg 1XCXCXLXLXSX:XM.:XpXeXf.R.U.eXmXpXC.V 7.g.M.K.M.#XvX#XwXd.N.>X1X2XLX3XVXg./ P.oXXX>XvXA.XXaXmXcX>X,XR @ 6 < 6 D.cXvXvXpX*X0X*X9X0XpX:XM.d.P.$XK.T.iXvXAXaXcXhXhX0X9XpX*XpXwXpXfX,X:XP.,X0X0X:XK.D.*Xd.0.7.9X*X*X=XK.9X6XvXSXJXJXFXFXcX2X1XAXAXhX0X:XmXvXvXR 4.g.P.9X#XwXY.9XY.U.",
"B M Z &.;.q.k.G.I.@X#X9X9X9X6X6X5X5X6X).'._._._._./.b.u.t.u.t.,.*.5.e.I.$XqX0XaXaXcXiX>XVXVXAXCXAXAXAXvXvXfX6X$.e 4.! T.MXmXGXDXxXsX+X@X9XwXzXK.wXfXvXsX;Xg.E E ) / h.Z.D.E.bX>XcX9XL.D.5XI.k.E.M.W.R.w.=XW.9XfX*XD.y.J.Q.J.J.tXtX6X0X,XaXiX,XmXaXzX9X$XW.zXtX@XE.$XE.D.9X$X`.{ 9 9 c M 5.wXaXpX;XJXFX,XhXpXuXp.oXmXzXdXcXzXzX=XY.@XvXmXHXDX=Xg.;XfXpXpXT.:XvXs.@XwX9XdX,XZ.3.,XU +XwXvXdXcXvXGXMX-X|.@XxXMXAX:X$X9XN.! 4.D.m.sXaXM.d.*XsXVXKXAXeXmXf.D.wXJXzX@X9XW.6.w.6X7Xo.} '.).H.u.u.O.+.8X~.J.6X=XdXcX9XtXzX6XpXSX,X9XMXmXMX9XE.Q.6X=X6X6X6X7XR.).5X(.J.).Q.*XzXqX0XfXwXmXHXGXJXvXP.dX@X/ vXDXHXFXPXLXGXFXMXZ 4 dXGXdXzXCXCXGXFXZX`.G.w.5XR.9.I.$XzXcXAXpXGXvXtXdXJXf.f g.XX1.% 2 X ;XfX_ XXeXK.Y 2 $ V ;X3.$ H.Q w l | Q.6XdXJXDX3.&.Q.nXHXGXKXJXMXzXoXwXZ.;XwX6X$XQ.K.$Xg.7.$Xf.U.mXwXGXDXwX:XMXwXfXoX* S 4.d.eX9Xg.0XmXzXwX$X*XvXmXzXzXAXbXvXpX;XaXaXcXmXzXaXzX6XQ.K.0.m 4 Y m.m.7.q < $ X + 1.6 h ~ S x 6 m mXMXwX9X9X=XR.6XD.*X0XpXrXrX6X@XwXwXzX1.e.<.v.,.D.HXSXPXFXGXSXaXvXdX$X$X9XwXdXnXMXzXD.wXzXwXfXfXzXfXkXmX0XzXnXrXrXR.dXDXcXDXDX$XX s.SXiXcXoX8.d 2.nXdXfXg.uXAXjX:XK.-.9.@X>XfXzXfXvXeX9XwXvXvXvXMXzX9X9X2.B $XY.Y.=Xp.T.U P.oX#XHXDX>X X1XLXKXKX` Z.sXVXKXKXKX0XZ.;XaXwXm.6XtXdXwXdXT.V.OXOXvXAX1X,X,Xg.XX=.8.l.gXSXZXI h.&X_ / i.) XXVX2X,X:XpX,X,XaXT.f R 2.e.=XcXxXvXAXmX:X3.g.XX&XP.g.4.K.dX#XV.OX0X>XP.oX0XpXpX+Xp.0 3.#X9X9X*X0XiXhX0XiX9Xg.4.C.Z.g.D.qX$Xg.1.7.9X6XzXDXJXFX2XvXiXXXXXuXaX9X*Xd.d.A.eXP.pXwX$X0XiXSX:X;X#X;X",
"$.F S $.$.5.f.k.L.E.$X$X$X5X5X5X5X5X7X'.'.'._._./././.n.,.t.t.*.*.<.w.F.I.qX9XiXcXvXvXaXvXvXvXpXoX3.0XmXcXcXvXAXvXjXhXhXhXiXSXVXvXAXcXdXmXdXpXpXMXMX9X/ +XVX) h.%X;X#Xf.e.G.nX6XtXtXR.9.R.W.K.*X0XqX$XL.U.6X6X6XQ.).).$X@XK.$XsXl. .H.6XmXmXfX0X6X6X5XG.Q.6XR.6X6XtXqX9XfXdX6XX.>.*.tXNX{  .8X8XE.oXaX+X+X+XpX$X:XzX*X7.d q ! 3 4 Y eX+XXXvXJXGXcXMXJXcXZ.E.fX,XcXwXl.$XmXAX9X6Xl.m.dXsX,XvXiXXXtXwXsXeXxXvXfXvXMXzXfX6XjXkX=XMXMXY.f.fXAXfXN.K.>XGXvXpX;X1X%XgXZXKXKXXXY Y.9XL.wXtXW.R.).).5XvXsX5X$X$XQ.tXwX0XvXmXJXKXLXAXsXwXwX:XdXnXrXdX6Xe.y.b.J.7XkXeXwXrXyXJ.J.v.<.y.8XU.s 7 9 /./.,.rXMXmX1XvXI.I.E.5.g.nXvXgXPXKXgXhXcXzXmXDXFXSXDXmXtXwXmXmXhXcXMXcXsXVXGXmX;XaXtXN.+XvX:Xh.E e U U   ( AXfXqX3.Z.SXKXKXg.`.DXGXAXzX6XL.g.uXmXKX9XBX$XM.pXvXAXfXU.sXAX;XSXCXxXFXGXCXiXsX,XMXvX0X+X3.oXY.8.0 ! M.,X;XK.wXeXpXHX*XwXvX<XN.=Xd./ M.9XwXfXDXzXzXwXdX9XG.).<.X.>.w.G.k.q.6X@Xd.2.D.D.fXMXnX6Xg.~ tX6XzXdX8X$.6 q U mXqX:XzXwX=X$XqXdX9XwX*X`.W.E.F.6XMX7.F e.n.O.p 9XVXdX=X*XE.jXDX*X9X$XtX=XR.G.9XMX$XqX9X*X*XwX*X=XfXwX@X:XU.Z ;.5XdX;XZ.j.9X!.f gXKXAXzXqX0X+ X 8.U.D.M.P.uXR Z.K.R.$XtX*XwXmXvXzXdX9XdXzXdXfX*X9XK.U.U.d.E.=.C P.sXzXM.*X=Xf.0XvXsXh.` PXKXKX1X^ Z.1.gXVX-XaXFXKXCXOX5.=.&.wXwX0XfXAXCXsXFXZX3X,X%Xj.p.N.N.g.+X3X.X' ' ' ` h./ E  XSXJXSXg.P.+X>XfXdXeXdX6X).6XiX%X+X*X;XP.oX&XZ.g.Z.wXE.K.@Xg./ a.:XdX:X0X9X:X:XoXp.+ % e R N.7.d.g.:X#XsX9XP.E.sXpXqX$X9XY.! m Y 0.d.P.iXSXxX-XsXwXOXZ.:X>XqX9X*XoX/ Y q 7.M.K.@XXXhX%X;X,XsX",
"$.$.%.$.$.2.f.l.G.I.E.I.I.).).).6X7X7X'.'.'._._./././.n.<.t.:.F A 5.f.R.$X*X0XvXvX>XsXsXzXfXcXcXsX,XpX0XaXcXpXvXmX0XvXvXaXvXAXbXM.wXmXdXwXwXdX:XiXSXSX X/ vX9XsXcXHXvX,XCXgXVXVXDXSXFX;XMXaXgXAXvXaX#XaXCXcXvXVXDXmXMXbXmXdXaXSXCX-XaXcXcX,XvXwXdXiX|.C.;Xg.sXvXzXfXeXeXbXAXCXsXhXSXZXKXcX,XvXxXwX*XzX#X0X0XfX+XOXzX9XM.4.1.Y.wXR Y.dXM.f.6XG.:.Q bXJX2X=X5X$XsXLXMXL.x 4.@X$X6X#X9XdXoXZ.GXjXD.5X$XtXrX*X#X:X0XmXHXdXrXnXrXtXwX0XkXP.f.~.t.n R.pXCX;XT.uXcXV.OX2XxXFXpX9XMXJXGXbXJXhX>XsXmXnX6XwXzXMXMXiX>X:XD.E.;.Z.CXmXqXD.L.pX:X0XM.G.y.H.>.tXLXLXSXvXaXzXAXmXvXMXvXwXf.AXKXGX@X>.a <.J.$XR.%.e.yXA 7 <.k.5.qXzXfXrXnX*XeXrX6X6XzXvXzXbXvX=X>X0XpXeX6XpXsX8XG.zXrXdX*XW.tXfXwXD.GXJXDX*X=XE.9XdX5XrXW.U.U.9XW.W j.vXGXAXcX0XwX=XwX7.dXc.f.6XQ.dX9X=.K.D.#X,XhXnX$XK.cXsXeX>XcXCXsXCXFXGXAXvXcXvXwX*XcXGXcXnXMXvXiXvX>X,XAXbXY.#XmXDXAXDXhXcXvX#XDXDXFXFXSXGXvXuXhXvXqX6X*XMXAXvXoX$XmXDXvXvX0XzX).H.y.nXmXdXL.@ M Z `.(.c.BXrX9XAX0XmXqXtXF p V 0.v.o.@XDXM.;.#X&XB u .._.).J.2.P.GXm.D.@X>XqXH.A U.cXfXY.,X0Xl E.Y.p.eX=X=X9XF.8 < | Q.$X%.4.L.4.5.$.f.2.p.C.g.@ @ q V T.CX-XOXT.>X>XcXsXXX@X9X*X9X@X9X@X$XdXwXf.5 0.tXwXzXzXzXsXzX#X9XdX7.#XDXfX#XY.OXa.V.xXAX0XgXLXKXa.=.&.c b 0.mXvXsX>X*Xf.L.*XT.oXAXCX<XvX:XXX6XwX@XqX=X=X$XXXh.) ` r L ^ :X9XoXg.;XJXKX1X1X;Xh.XX3.g.oXoXp.3.h.i.Z.L.0XK.*X9X9X0X9XdX*X9X9XZ.P U Z.:X;X>XP./ ! d.M.0.d.p.p.g.Z.@Xd.E.;XaXwX*X*XeXeX9X0X#XP.4.4.3.8.N.d.p.h. X+XiXpXpX,XsX+X#XP.9XfXT.C.8.U.M.L.oXZ.:XZ.>XvXCX",
"$.$.;.;.$.5.w.D.L.I.I.I.R.Q.5X6X7X7X'.'.'._._._././.u.u.,.,.$.V B 2.0.=.f.7.4.cXGXAXcXaXcXsXvXsXcXJXJXvXcX;XzXmXvXsXKXKX%Xh.1XVXi.C.#XfXwXfXnXD./ #XaXsXXXiXZ.C.%X1XDXjXCXDXpXoXOXJXJXmXmXDXGXGXvXdXeXdXbXeXcXuXuXAXvXbXDXP.g.AXMXsXvXmXcXpXhXXX=XnXfXDXJXhX0XmXwXjX9XtXrX$X,XiX0XJXFXLXJXJXAX0XrXwXfXMXDXvXvXdXwXpXfX:X,XmXwXwXW.wXHX;X7.K.2.=.A dXJXSXmXHXmX>XoXwXd.Y @X9XC.*XdX6XW.y.A =XrXpXwXfXmX9XP.0XvX0XM.Y.M.R.5XtXrXAXvXAXwXR.J.H.R.rXkXzXdX$XxXFXhXfXvXvXvXAXmXMXzXtX=XzXkXH.+.b.b.t.u.b.t.6XNXGXKXFXtXF.Z l ;.y.y.>.O.X.v.tXdXmXvXiXCXFXmXE.y.$XwXmXfXpXzX6XX.8 &.L.LXKXFXLXPXLXSXiXP.W W @   X w 0.rXwX;X:XfXzXzXR.F.).).8XlX6XpXvXmXmXFXCX2X2XhXdXD.U.L.6XnXzXmXdXqXE.9X9X$XDXmX0XzXvXqXfXvXMXzX6X9XN % U Z.;XfX6XjX6XjXg.L.d X 2.nXnXnX9XsXvXJXbXvXrXQ.H.rX6Xv.f.#XdX8.U ,XvXDXvXcXAXeXK.mXJXeXR.L i.h.iX0XXXsXVXvXSXVX>XXXmXmXdXpXM.#XzXcXFXHXpXvXFXCXSXMXzXwXfXmXHXmXzXMXMXAXDXAXzXbXvX*X6XeXfXwX2.=XnX:.y Y j.H.tXwX9XtXQ.tX~ h ! F v.,.M.cXY.m.ZX1X#XI., $ 8 ).K._ KXnXqXfXvX9Xk S 9XaXaXoXXXoX2 L.9XoXfX9XwXdXwX$XtX6X6XdXHXpXMX9X$XU.T.K.K.N.q.1.!.R.E.fXHXJXJXSXhX:XdXnXrXrXtXzXMX$XE.#X$X9X$XR Y D.*XwXdX9XdXvXmX,XzXMXwXdXDXMX+Xi.a.%XAXJXA.C K.OXhX0XuX#Xg.p.M.P.M.P./ Z.dXmXeXd.7.*XzXfXzX9XY.pXpX/ d.oXN.:XvXaXVX1X#XhXiXsXdXpXZ.V.;XFXvXzXAXV.j.N ! 0.6XK.K.9XqXzXpXpX:XoXwXnXzX9XwX=XwXpX;X/ s.XX#X;X#X*X#XK.Y.wXMXwXK.! U M.g.C V 3.#XeXwX:XM.T.pXVXVXvXsXhXvX0X;XE.M.3.a.Z.:XfXvX0XcX9XaXoX0X0X9X#XY.wX9XqX;XpXjX*XpXfXvX",
"$.*.5.y.y.G.G.H.H.H.H.F.I.Q.).7X7X'.).'._._././././.u.t.%.$.B Y T 0.M.Y.fXmXAX0XsXvXwXhXcXJXJX+X-XgXsX>XpXpXvXvX&X0XaXcX#X#XiXDXSXFXCXSX,XiXcXAXiX>XuXmXAXAXAXoX.X-XxXxX-XCXi.oXpXzXeXbXzXMXcX2X,XaXiXsXvXcXmXpXZ.,XaXaXcX3.N P.pXzXmXzX:XvXDXsXpX$X$.f.pXhXaXpX*XfXzXrX6XD.qXDX0.N a.vXgXcXcXwXtXE.wXpXiX,XzXwX9XmXmXDXaXiXzXdXwX,XcXMXfXwX$XI.*.7 d.vXGXSXpX9X;.mXAXP.pXAXOXXX:XK.9XDXzX9X9XeXzXpX#XZ.V 7.=XQ.wXzXwXdXnX5X&.Y.JXKXSXE.F.6X=Xk.S.<.X.(.tXc.,...t./.t.O...O.t.H.I.W.9XnX7XH.t.e.H.~.L.M.Z.#X:XW.@XtXkXkX7XG.y.J.b.(.J.!.T.:X>XsXMXwXG.k.y.).E.K.oXuXcXcXmXzXdXtXuXdXMXdXvXAXpXmXfXsX0X0XfXwXtXzXmXNX9XpXvXaXvXvXmX6X6Xv.F.6XMX:Xf.5XpXpXdXrXrXnXhXdXrXH.<.eXdX*XMXqX2.G w.mXxXP.XXsX0XaXcXpX*X/ T.h +   U ! D.9X6XE.*X0XqXY.9XL.6XrXR.Q.K.9XGXAX0X2XVX2XxXAXvXvXDXNXW.@XMX:X@Xp.g.AXJX=X$XwXdX6X/ / R h M.MXGXMXC.;XAXJX$XL.=.$Xg.:XvXvXaXGX#XR vXvX:XpXJXbXaXcXvXzXzXzX=XL.5XK.5XwXcXHXGXHXbXAXJXMXrXzX%.$ * @ 7 Q.9X$XD.5.P.gXZXaXG.v.k.U.:XK.5.gXxXLXKXmXI.H.).tX1.B.8.j.:XAX#X0.qXcXxXVXsXvXfXR M.*XC.aXvXcXjXiXvXmXE.0.R -XW.wXsXGXxX-XiXvXAXaXsX#X~ XX4.D.SXSXJX1XV.R.wXvX=X6.E.zXfXrX9XL.$XmXmX0X$XK.@XHX=XZ.dXmX$XrX9X6.W.9XwXT.p.sXaXGXGX^ / P.g.3.3.;XsXgXvXwX9X$X$X~ e g.9XL.l 7 z ,.G.5XQ.e.=.=.3 / oX! 7.OXaXJXvXM.dXfXzXsX>XvXGX9XoX$X$XvXAXGXfXeX#XfXfXfX9X@Xj.) oXhX&Xg.@XY.K.K.Y.$X@XfX>XsXiXvXvXfXpX#X$XP.3.;XqXqXP.T.P.Z.3.4.p.p.+X0XuXj.h.%XxXZXZXZX3XsXaXvXtXwXP.XX#X0X0XiXwXwXqXaX,X:XM.A.g.9XrX=X$XoX:X=X=X@XN.a.",
"$.5.k.k.k.k.l.H.k.y.S.I.Q.).7X7X(._.'.'._._._././.n.y.y.| $.T %.! p.Z.:X:X$XfXiX,XcXiXxX;XVXAX>XzX;X~ N 1.zXAX&X6 D.E.f.l.P.#XsXOXAXKXJXxXSXFXCXxXvXhX0X:XaXwXY.+X|. XFX1XCXsXpXzXMXrXeX>XmXmXvXMXAXMXhXwXaX9XqXMXMXvXAXAXAX$Xl.K.M.:XvX>XsXDX;XeXwX$XzXAXDXAX*XdXMX,XM.D.0.2.nXzX=.C :XvXvX;X0XwXM.oX;XdX>XfXpXE.+X@X;XcXSXvXzXvXvX9XwXdXdXfXqX`.Q.=X,XaXxXhX0X=.Y.zXpXAXAXzXMX:XsXbXfXAXcXpXdXvX:XoXhXcX$X6Xk.eXaX,X$XwXI.l.Q.W.eXJXSX#X9X6X9XrXrXtXAXKXFXaXL.J W.NXtX$XHX`.t.!.=X*X>X,XgXgXcXxXZXSXmXcXMXmXrX9XpXmXfXpXaX0XzX6X9XaXiX0Xm.$.G.`.lXy.w.$X@XqXdXzXAXVXSXLXSXFXAXzX6X6X6XwXrX*.).rXzXmXMXmXkX6X9XrXzX9XwXmXxXSXLXKXCXmXU.4.% / dXJ.e.<.Q.nXrXJ.qXvXtXrXR.$.@XtXjX=X~.W.R.6X9XvXGXHXMXgXcX=XT.pXP.Y.T.0Xa.p.d.4.#XnXzXMXCXxXbXAXFXMXrX$.rXnXwXoXP.:XdXzXzX$XD.y.d.*XMXd.D.9X6XU.P.XX+XaX0X*X0.d.$XfXuXY.3 1 6.e.R.q.4.q.W.Q , $ %.$XvXMX9Xg.fXP.%.wXwXD.p.wX,XaXaXwXpXE.5X$.6 $.z.;.;.l.D.uXwXzXAXbXwXU.=Xp.$ @ e $ 4 p.9X+XuXsXVX X/ D.=X$X~.DXdXN.zXxXLXKXSXmXW.c.K.@X#XdX#XaXKXdXL.fXVXCXLXgXjX,XXXaXAXvXJXKXLXFX2XOXuX$XP.P.cXU.V.;XKXKX2X%XgXaXZ.P E N g.-.f.dXCXKXDXT.M.#XNX=XQ =.Q D.wX0XoXg.cXGXY.Y.wX#Xj.N 2 f.fXD.0.k.B :.I.qX*X1.M.R P.uXZ.%X,XgXhXhXvXvXbXFXJX0Xg.D.oX~ / p.R 4 5 y l =.F.E.K.M.Y.9XmXHXDXzX;Xi.&XiXL.W.:X9XcXpXDXDX0XE.W.$X:X,XDXuX@X=XdXqXwXY.4.R R M.pX0X$X$X$X9X9X9XeXcXfX9XfXvXVXbXeXM.Z.#XZ.d =.N.Y.@X0X#XaXpXmX>XC.XX-XhXfXaX1XxXxXgX3XxXaXpXpX$X9X0X#XqXqXqX#XXXOX>X0X0X:XU.$X$X0XpX;X9X9X*X*X@X@XZ.d.",
"5.y.G.H.H.H.k.k.v.G.G.J.).(._._._._._._././.n.n.u.u.y.y.=.;.%.4.3.j.g.P./ d 3.OXcXcXsXvX>XXX:X7.0.S 6 c 5.qXzXOXY.zX,Xp.4.R P.dX:XpXOXT.m.E.tX9XzXAXMXvXhXiXpXjXvXxX-XaXcX1XAXAXcXvXvXvXVXvXMXhXnXzXw.l 4.;XpX0XaXsXaXcX1XcXvXDXdXU.wXMXvXfXfXzXwXwX@X>X,X;XfXaXvXAXdXU.7.d.R f.R.=.d U iXJXsXiXDXzXsX0XpXvXdXdXdXhXmXiXFXJXVXhXdXMXmXMXzXmXfXzXmXbXcXAXJXKXKXKXGXVXGXAXsXcXmXhXqXeXsXg.P.mX9X*XfXT.j.aXaX0X9XK.>X,XvXHXzXl , 4.oX=.D.fXGX1XaXvXvXfX7.m =XAXaXN.E ` -X%X%XFXpXV T.AXDXcX;XzXeXzXKXKXDX:.M Z.&X&XOXC.eXaXdXJXCXcXzXzXzXdX0X$Xd.p.K.*XZ.XXCXCXAXSXSXSXcXFXFXSXFXGXSXAXwXzXmXMX0XzXAXFXAXHXmXNXnXrX6XR.qXuXGXCXCXLXKXJX/ f f.R T.MXP.Y.T.1XxXzXtX6XnXdXzXzXwXrX6XrX$X6XtXW.=XD.wXwXKXSXVXCXVXhXVXsXmXSXDXmXL.0.1 e =XdX9XvXvXcXgXVXMXfXR.tXqXzXwX$X*X@X=XtXE.8 8 U.Y.dX=X$X$Xy.Y @XGXJXGXDXnXW.D.M.pXfX#Xj.4.D.l V K.aXfXzXK.< @ @ T pX0X;XC.M.$.w Y 7.$X0X$X$XdX9X0XzXwXtXT < , e W N p.! P.wXrXwX6.l 7 6 p.d Y $XK.3.E -X3XZX2XvX+X8.$XwX0XD.wX6Xd.=XpXpXuX,XeXwX9X@XcXAX*X@X7.s.M.4.oX1XgXSXSXmXaXsXVXCXbXLXGXSXKXJX#X#XpXY.@XrXrXwX;XKXKXxXK.0X*XoXM.m.E.9XvXAXFXKXKXJX#XN e f.W.-.D % % 8.fXvXOX+XvXV.M.wXwXP.@XR 2.wXzX6X4.M Z q.*XwX*X:X3./ p.&XgXCXVXLXLXFXKXJXJXKXaXP.$XdXsXpXOXY.W.9XwXoX=XzXdX*X9XqXmXDXvXvXnXMX+XXX,X$Xd.p.@XMX:XvXAXwX@X=XY.$XpXcX0X*XcXvX#X9X$XK.oX:XdXdXwXwXqXfXnXfXdX,XiXfXdXfXcXVXbX+Xh e g.a.R M.@XwX9X=XU.7./ g.1XgX2XXX#X#X#X;X0X>X;X;XiXcXvXcX0X;XaX>X0X;XZ.h.Z.+XOX,XaXsX#X&XM.oX#XOX$X@X@X9X6XqX@XD.",
"e.k.G.H.H.H.y.y.b.H.k.H.H.b.b.u.b./././.n.u.u.u.y.y.t.y.0.q.5.0.p.P.#X,XOX&X,XiXAXcXcXcXgXhXvX5 $ < < 6 A 2.dXHXgXxXVXSXFXGXAXcX9XcXsXN.f.R.v.H.7XwXzXHXhXbXdX$X#XsXgXgX$XsXMXzXpX9XrXMXDXbXW.$.e.6X| $ 1 h i.pXhXP.XXAXCXAXbX0X7.N 3.=XwXdXwXmXzXzXzXMXzXhXvXAXMXcXvXmXzXzXmXdXdX0XfX,X,XvX>XiXGXaXT.*XXXGXGXmXpXaXuX-X1X2XcXeX@X*XdX#XC.OXsXCXkX$X=.2.K.%X2XxXcX1XcXfX9XdXwXP.0.N.eXrXY.9XY.#X,X0XaXxX2X%X,XiXcX-X9X0XHXrX5.,XvXY.z 5.6XiXhX;X-XAXmXI.F.5X$XS.h E / e + V OXAXJXvX#XM.L.dXd./ Z.q.G 6 w iXDX;X<XCXzX9XN.AXAX0X*XdXdXmXAXmXAXCXLXFXFXLXFXCXcXaX>X:XZ.0XiXgXAXAXCXJXDXzXfXMXdXeXAXSXvXvXtXW.W.rXrXzXdXZ.aXvXAXSXxXGXvXpXfXwXP.nXqXfXGXFXCXHXOX/ E.:XGXKXAXqX6XpX7.e.Q.tX6X6XW.S.eXP.pXvXwXE.H.G.$XDXzX$X=XwX0X*X#XjX*X>XsXFXKXKXFXaX=X2.$X9X$XdXmXvXvXXX/ G 5.DXfXoXcXAX,XM f pXJXLXAXwXwXzXrXW.Y.wXpXfXVXMXMXSXGXAX:X@XzX$X#X@XP.Z.:XMXzXU.L.*XpXfXdXwXdXwXzXzXcXvXdXM.d.6Xf.p.4.P.fX9X9XrX6XL.$.5 $.M f.6XwXU.1X1X.XZXLXKXSXFXcX9X6XW.9XtXqXrXwXqX$X9X9XeXW.0XAX0X,X1XG F M.T.$X$XR N XX>XiX0XsXSXLXJXCXxXXX2.z.jX#X0XvX;XT.K.2.P.K.>XKXJXS.rXNXNXNXtXtX6XGXJXMXHXfXM.p.|.3./ E.L.D.M.XX,XxXbXpX,XvXZ.d.wXhX>XMXwX@X$XwXzXwXdXdX6X*X9X9XhX#X#X>XsXAXGXbXVXSXSXFXVXVXLXVXcXDXAXAXSXHXAXMXeXaX>X,XvXaXM.p.M.*XK.U Y 2.>X1XSXSXhXoXl.P.wXg.K.pXwX9X9X0XpXvXaXaXeXsX0XiXmXfXwX9X9XrXfXqXrXU.@X6X9XqXpXpX:XoX9XfXAXAXbXOXP.g.M.7.g.l.wX*XL.E.K.$X>XSXJXLXh.R =.! =.=.2.6.M.K.9XnXzX9XqXvX0X0X>X X|.#X>XuX>XuX,XoXwX9X9X+X>XwX9X#X9X9XwX@X7.",
"y.H.H.H.(.H.l.H.H.b.y.y.y.u.u.u.t.u.u.u.u.u.u.y.y.y.k.k.f.f.d.f.l.oX9X9XvXAXAXeXAXAXVXgX2XsX:Xm e L N h ~ W +XAX2XVXSXvXgXVXSXLXHXAXvX:XrXrXH.t.{ q q Y 3.U.M.j.+XhXSXVX0.^ / R ! 2.F 6.6XR.Q.6XI.5XtXqXGXGXcX>XsXXXV.vXCXFXAXmXfXdXmXmXwXK.1.f.Y.:XsXsX0X>XcXaXaX#X#XzXpXoXpXaXsXaX,XaXcXAXaX+X>XOXK.sX;X>X+XoXK.#XhXcXaXsXsXzX6X9X$XV * R V.-XB < z Q.@X%XhXhXhX:X0X=X6X*XK.@XY.D.wXAXmXdXmXDXmXiXcXCXSXxXaXvXvX>XfX,XiXDX9X9XpXdX7.$.*.L.fXhXxXFXJXLXJXKXJXDX%XXXoXg.=.M.0XvXvXOX9XqXE.9X*XhXDXmX*X#XoXxXmXi.0 OXMX$Xg.$XwXtX9X*XdXdXsXfXsXgXFXAXAXFXAXcXK.P.K.M.q.p.h.|.>XzXbXMXdXmXHXMXzXW.rXtX=X=XQ.Q.W.tXzXzXC.a.! ! p.OXwXsX1X X3.+X0XzXdX$XBXdXdXT.h R =.f -.FXKXJXGXHX9Xv.G.mXzXAXmXaX6X$.v 8 A b  .,.k K.sXfXvXLXKXJXfX#XP.aX>XxXKXJXVXhXfXU.E.K.Y.oX9XaXvXhX*XZ.Z.*XXXi.1XSXDXzXcXZ.aXJXvX9XU.tXNXzX9XmXFXGXGXxXvXAXaXaXdXdXMX9XzXDXjX*XpX:X#XoX#X@X9XwXdXdXpXwXmX:XzXzXnX6X@XrXtXzXY.M.Y.0XfXmXmXdXfX6X6XQ.).tXqX$X3XZXPXPXSXKXLXKXCXp.).9XrXnX5XwXcX0XP.p.m 6X$X*XSXAX$XT.Q.G.*X@X@XmXdX+XpX9XpX=XOXLXSXGXKXKXAX$.B k.K.+XmXvXp.~ M F >.&.MXJXr.} w.e.$XG.F.e.L.R.J.Q.5Xf.U.MXAXaXgXVXAXFXJXKXLXaXY.d.@X@X=XwX>X/ >X=XY.dXwX9XwXwXfXdX9XwXpXmX,X:X=XW.nXNXrX6XwXnXBX!.~.vXMXaXAXvXhXvXmXvXfXoX,X0X0XcXmX=XU.L.@XK.Z 4.&.U.aXGXVXpX0X:XU h 2 6.zXzXcX9XP.@XwX,XaXdXaXaXvXvX:X$X9XqX9X9X$XqX! V p.@X9X9X#X@XY.=XM.g.XXvXhX#XT.T.p.g.P.9XdXdX9XwXzXmXSXLXVX%X&XR d M :.9.o.q.f.I.8XyXoXg.g.g.l.XX&XuXzXpX@XM.:X@XY.U.@X+XoX$X9X@XoX$X*X=XY./ ",
"G.H.J.(.(.(.H.H.H.y.t.<.,.,.*.*.*.%.%.*.r.<.t.y.y.k.D.l.K.D.f.M.P.T.*X;XsXcXhXY L.vXSXAXAXAXAXwXwXcXVXCXGXFXAXVXsXaXfX0X0XcXcX>XoX4.% < o.<.>. .< @ D q.d.Y.M.h. X1XVXVXoXXX1XVXFXdXl q p.6X5X=XL.w.7.3.iXvXiXaXvXDXFXSXvXSXAXpXK.K.*X@X9XpX*X@X9XvX,X;XpXsXaXsXaX>X;XcXeXoXpXAXGXFXsX,XP.fXfX,X0XmXmXiX-XKXJX|.i.C.OX,XcX-XXXdXwX*X*X$XK.fXhXaX:X#XoX0X:X;XuXuX:X0XfXdX:X:XP.:XpXfX,XiXvX;Xg.#XhXiXcXVXiXOXiXaXAXAXSXKXZXxX2X$X@XfXcX0XwXtXwX>X$X0.2.7.Y.=X$XjXzXMX5X$XfXnXwXuXOX+XfXwXU.9XrXmXFXFXvX0XV.i.P.8.g U 0XpX>XuXdXrX9XzXzX:X:XsX*XM.;X9XpXsXAXvX+XZ.6X6X=X*XzXbXMXzXZ.K.m.E.dXpXDXmXrXrX).v.`.`.6XW.rXtX@Xp.+XcX8.4 R #XuX;Xf.K.;XSXLXa.o.6XE.1./ g.l @ < k.zXFXGXeXJ.b.k.sXgXCXFXZXwXL.,.0.vXGXmX@XE.vXCXvXCXFXFXMX=X/ R XX;XOX>X2XuXoXR 1.mX,XvXCX3X3XVXCXiX3XKXKXSXgXaXaXSXJXJXwXfXJXAXDXHX9XtXwX6XfXoX;XAX0XAXAXcXFXFXzXzXU g.fX$X*XzXY.#X0XMXAXmX9X$X*XzXpXwX0.Y.0.:.z k e.H.dX,X@XC.zXvX,XeX:X:X9XD.=.S.6X:X0XSXJXPXgXgXVXVXJXAXV.6XwXeX=X@XsXAXFX1XC.m D.F.C R M.L.5XqX#XnXmXY.@X9X=XnX9XM.~ N 1X1X;X,X2XCX9XfXHXGXmXmXdX=.T K p v 7 T wXf.k.k.4.I.6XI.H.yX).H.).6X:X>XAXGXGXLXKXKXJXFXxX;XoX8.M 0.D.L.K.K.R 7./ ! 9XwX=XwX6X6X9X8.V.pXzX6X0.+.+.u.J.v.>.o.x y 7 +.tX=X$XrXY.d.g.p.M.U q 4.@X9X@X9X*X*X*XeX9XR.rXrX9X&Xj./ / Z.oX- * t r.=X=X0XE.F.=XW.Y.rX6X*XsXcXdXK.Y.wX&XoX&XoX@XW 2 m =.L.$X#X#X+X9XK.p.V.,XiX+X+XT./ 7.M.#XpXoXR K.@XtX;X|.g W P.Y.f 6 S ;.=.;.&.2.=.e & # $ - t r u p.9XpXP.4.K.oX=XY.oX3.7.Y f.d.f.d.Y.P.&XZ.",
"y.H.H.H.(.H.H.H.l.t.O.} B B B B B A  . .>.t.y.y.S.k.D.L.Y.@XP.XXP.;X>XwXwX;XoXN 1 7.aXcXvXgXXXR 3.1XgXhXaX0X:XoXT.#X,XfX0XsX9XqXqX9X=XK.=.f.L.0.R U 6.!.L.p.3.^ h..X-XCXXX) ^ h.%X=X4.d.U #XP./ C.wXmXVXAXAXAXvXvX,X+XV.XX1XhX@XY.9XHXvX:XzXfXmXfXaX,X+X,X0XpXcXxXcXAXvXcXzXfXaXSXJXJXAX:XpXhXpX:XdXwXOXXXsXJXgX|.gX;XOXGXJXcXsX;XT.Y.=X*X9XpXAXHXGXAXaXP.g.:XoXoXP.3.N oXvXaXvXvXvXsX>XvXAXoXP.&X;XhXcX>XZ.XXsXcX#XV.uX0XAXJX$X! iXJXJXAXdXY./ ~ z 8 { k.H.e.P.zXqX;.5.D.U.=XMXDXDXfXdXU.tXrX$X*X<XzXnXL.g.$XwX0XpX#XpXAXP.7.L.M.9XzXmXmXpX:X$X>XzXfX;XhXmXfX0X9XwX@X=XzXHXmX9XN ! 5 M W.Z.sXMXL.H.J.n v.Q.NXBXtXF.S.U ;XGX1XZ.~ P.dX@XJ.w.S $XJXMXv.6XmXmXjX$X0.@ $ 7 t.<.w.T 5.).$.u e p.vXZX2XbXMXzXZXJXvX8.iXKXKXKXLXgXsXK.D.N.;XpX@XL.P.bX9XY.+XmXGXsXXXSXLX-XwX0X,XgXLXPXLXJXxX+X,XsX1X:X$XwXzXdXzXN.N.E.nXfXd.M.9XpXAX>Xi.aXAX0XdXg.g.p.U T.:XfXfXzXmXdXfX9X$X$XzXzXzXkXwXY y 6 y <.G.dXAXfXXX,X%Xs.( T.=X9X0XaXxXxX3XgXgXFXFXhX-X+XcXDXY.d.tXGXMX#X#XpXhXCXVXAXmX6XrX=XrXwX@X$XuXuX9XfX9X=XpXM.S.-.! ! h a.,X=XN.XXOX+X+X>XsX*X@Xf.w < % d 7.E.:XhXcXmXMXfX:X$X=.z e.,.v <.U.eXvXFXVXAXbXxXAXDXbX>XoX0X*XU.D.$X6XtX6X$X9XfXdXwXdXzXdXE.m.@XN.M.9X=XQ.Z 7 9 9 < @ @ 2 0 @ , b.nX5.5.I.F V 7.=.p.R e D.6X$XY.mX9XK.K.9XeX6XrXzX9X6XY.p.3.:XfXP.#X,X9XwX!.M.R ;.m.;.w w $.0.E.@X*X$XwX0X&XXX&XP.P.P.oX#X@XdX9X*X*X#X9X$Xd.M.#XcXfXdX$Xg.;XeX0XpX3.+ * m 6.0.4.e N g.9X3.m C 2.f.=.F V e # - r E j.g.P.g.j.3.g.p.=.K.9X9X9X*X*XpXY.$X$X9X$X*X#XpXpX",
"y.k.H.H.H.H.y.y.,.| B l w y x l z A  .O.,.y.y.f.L.I.oXoXoX#XoX;X$X#X;X*X6XpXDXGXxXVXcXaX-X,X#X/ - X $ $ @ l f.a.a.Z.>XsXC.>XzXdXwXhXAXSXvXVXCXVXVXAXpX<XzX#X0XXX^ r E V.Z.gXxXgX-XK.D.mX=XvXAX+XaXpXi.^ j.*XaXCXAXvXfXsXcX1XhX:XOXoXcXvXpXzX9XfXiX0XGXJX0X9XwXcXvXaX,X>XZ.N / P.#X>XcXAXaXhXzXpX;X0XpXT.p.sXHXcXZ.;XP.R 3 h.SXvXcXGXDXvXAXaXiXDX0XsXgXaX0XaXAXpXfXzX#XY.dX0XoXpXfX0XOXzXzXfX0XwX:XXX>X,XiXAXJXLXAXvXpXqXl.;.@XU.3.oXvX9X7./ Z.;XY.7.D.D.T.2XbXxX9XW.k.tXmX:X:XcXpXcX>X@XwXrXY.q $ X l `.6XQ.E.9XwXwXoXiXvXeXqXjXdXzX9X@XdXsXvXmXfXfXwXpXmXAXvXvXcXAXvX0Xg.Y.9X=X#XDXdXF.U.Q 6.tXQ.&.:.< < 7 2.F.w.R.=X-.pXGXJXJXMXAXNX=Xe.w.>.| 9.).F.=.7.l 6 4.fX9XD.S.<.<.(.tXwX4.| ,.$XoXXX,XhX:X5X6XP.DXFXe y M.XXOX$XD.5X$XD.dXmXmX9X$X#X*X! 8.=XY.*XoXE ,XKX+Xk.k.G.fXKXLXLXKXKXVX Xq.Y.rX).6.wXE.qXM.0.Q $XwX@XvXzX9XMXGXaX;X,X@XT N 9XdXjXmXMXDXvXHXMXfX>XY.Y.9XvXcXwXdXcXdXqXwXwX5X6XsXJXGXaX>XiXaXsXzXmXDXDXFXKXKXSX3XSXJXSXaXa./ j.j.< l $.:XmX:XfXV.%XSXiXp.:XwXnX*XwXcX0XsXuXpX9X9XoX9XsXpX@XK.V.oX#X=XzXmX$XdXvXvXpXM.T.Y.oX$X0X0X1XgXSXFXGXFXSXzXeX;Xa.g.d.M e.R.T 0.m.@X=X0X9XzX$X6.;.9.R.9X9XAXzXrX$XU.wXzXmXfX@X$XwX:X,XzX$XwX=XM.M.*X9X@X$Xp.f 4 4 * + M v.8XU.&.H.7XH.y.I.6XI.L.d.7.P.p.1.8.f.2.dXmXdXdXwX$X1.T 7.M.f.*XP.g.mXfXD.oX:XwXwX!.f.2.G.6XL.q @ B :.9.R V l 4.&X:X&XXX9XfX#X#X:X:X9X0XfXpXOXOXoXd.g.P.,X+X*X$XoX;X*XM.P.R d V d.*XdXfX:X:XpXDXfXwXW.K.0X9X$X$X;XZ.P.:XdXzX9XY.:XaXaX0X:XU.W.*X9XdXfXaX0X:X9X9X9X9XpX0XfXhX",
"y.y.l.u.u.u.,. .B u u u w l B B B $.7.p.f.k.L.oXoX$X$X$X#X;X$X9X5X#XoXD.I.Y.-XCXSXCXAXcXxXxXSXDXAXhXfX9X@XuXAXVXAXvXpX*XT.>XcXcXvXVXcXaXdX<X<XcXVXCXSXCX>XOXzXmXaX;XaXzXOX+XxXFXAXzX9X9X9XuXZXSXAXvXoX|.uXpXhXSXAXAXvXmXDXgXvXvXAXvX>X>XvXdXdX:XZ.g.cXAXT.D.$XaXvXaX>XhXhX:X9X0XpXhXcXcXxXvXvXvXcXuX0XK.7.K.=.=.$X0XK.5.k.Z.AXmXoXpXvXhXvXsXsXeXk.;XSXGXeXT.iXcXGXSXAXAXDXdX7.#XjXP.K.=X=XD.D.*XzXiX2X-XgXCXLXLXFXLXFXvXuX$X#X#X:X@X9X$X).6XdXAXDX;X+XbXbXCXKXKXJXcX:XhXvXbXsXDXvXvXDX9XD.tX$Xl.4.3.l.Q.tXpXbXeXpX:X%XFXJXbX;XvXDXvXeX*XdXvXAXhX#X:XoX>XAXGXAXVXFXJXJXvXuXjXfXvXVXVXvX=XU.9.e.G.F.G.9.G e.D.F y.tXrX9XY M.AXAXxXfX0XfXeXf.f.6X#X$X$XtXE.0.l 8 ! DXMXE.tX9X5.K.q.Q.q.=X:XJXLX1X1XDXFXCX;XT F.HX=XL.DXdXY.U.Y.Y.s.~ d.D.6X9XvXcXd.V d.wX9X$X9XM.T.AX<X3.2.p.h.CXJXKXLXKXKXJX(.} H.).R.5Xw 2 =.6X6XtXzX;XvXAXY.:XpXAXuXj.5.7 $ m f f.pXAXzXOXzX9XhXsX0XzXcXAXVXxXxXcXXXXXvXHXmX$Xj.|.hXAX,XuXsXfX9Xp.R f.M.DXFX>XvXJXJXVX1XXX0XpX9X$XdX6XT.MXfXpX+Xh.#XwX@X9XwX=XT.sXvXcXzXtXMXpX#XP.hXaXuXfXfX;XXX>X@XA.*Xg.l.q.=XjXI.wXvXmXpXcXcX9X5XwXzXmXxXzXwXY.g.3.-.0.T 4.K.=.L.M.U.6.T B p.oXQ.S.H ,.).=XzXpXfX9XW.M.=XdXwXK.K.qXT.+XfX7.K.P.1.D.=XK./ i.^ e 4 0 0 % 6 B H.`.y.:.J.`.Q.I.F.E.E.D.Y.>XsX+Xs.I.P.:XfXwXpX*XK.=.R 7.g.d.>X>XoXfX0XY.=X*X@X=Xm.q.k.R.6XU.=.T L.R.9.6.f.5.T g.XX&XP.oX:Xa.+X:X#X#X>XdXfX,X>X0X;XqX*XpX0XY.@XXXV.qX$XoXa.Z.C.sXaXhXvXaX2X2XsX0X:X&XoX:XT./ Z.jXrX9X:X:X:X0X+X,XgX2XiXpX9X9X9X9X9XuXiX,X:X9XoX@X=X:X,X>XuX",
"<.,.t.y.,.$.B y 2 5 y y M V R T =.2.f.D.K.U.oX&X:X#X:X9X>X:X,X0X;XM.f.f.5.0.oXfXbXcXMXvXwXaXcXMXvXcXxXCXxXSXLXCXvXCXZXVXSXHXAXSXGXGXAXvXzX$X#XfXdXsXcXvX0XaXVXAXvXOX|.>X#X;XcXbXaXsXfXvXMXsXeXsXfXcXGXGXSXAXaXfXzXpX>X>XvXaXvXzXvXvXwXV.>XMXaX#X,XAXAXvXwX@XY.T.8.C.oXgXCXsXgXvX2XcXAXAXhXmXcXhXsX:X:XaXvXvX;XXX+XVXFXJXJXvX,XcXsXsXpX9XdXmX9Xq $ < T uXGXFXGXvX*X=XY.$X0X#X- i.wXiXhXaXpX:X&X&X,X-X2XVXZXSXGXFXSXFXFX#XP.m.d.k.m.f.0X:XoXsXMX;XOXzX@XoX$X5.e.6XdXtX`.S.6XMXdXpXvXAXFXbXP.@XdXDXJXJXAXsXuX:XpXhX9X0XP.vXLXaXoX5X=X*XsXfXfX1XgXpXXXdXT.g.9X1X9X5XrXAXGXpXuXsXbXfXsXrXwX~ 4.f.6X`.t.v.Z.f.L.qXmXeXzXF.9.e.! 0.hXDXzX,XvXaX3X,X0XcXxXwXfX*XL.XX) 4.:X2XCXSXSXAXSXvXeX! k.| ).KXKXKXKXKXKXJXy.o.E.lXJ eXGXrXw.2.tXpXT.w.=.5.:.q.tXtXA.1XKXKX%X+Xd.l 6.! : # U Y A.LXKXLXLXKXKX7X0.nXc.p 6 , @ , I.zXm.-.D.E.oXK.I.R D 6XBXtXm.d.1.U Z.=X9XZ.z.a.W |.M @ % 2 5.5X5XjXmX:X$.$.P.$XS.R V pXAX#X6XvXMXoX6.5 2.9.2.D.cXGXMX*XK.U.;X:X#XL.E.7X$XB D.9X6X0X9X=X<XpXcXoXN R 9XAXFXLXeXmXqX&X<XKXKXOXm.oX#XVXJXGX<XoXP.a.k.@XeX@XiXcXxX2X%XP.C.+XXX#XfXzXfXhXdXK.9XMXAXuXY L.6X*XpX:XoX9XdXmXzXrXrXW.0.=X9X9XW.$X$XtX*X:XzXjX@XZ.9X:X9XmX7.8.m.! g.Z.R e 0 h q q Y ! R R Y =.9.9.;.6.$XwX@XP.M.oX9XfXwXdXpXOX;XT.:X@X=XwX*X*XdXfXfXhX:XzXmXdXwXW.$X9XjX0X&XP.2.E.g.4.=.p.T T 2.=.M.9XdXg.P.P.K.oX>XaXcX;XiX1XzXdX0XpX;X;XaX0X<XwX$X9X! 3.U p.K.N.C.OXwXwXdX*X=XpX$XL.9X:X*XpXY.9X9Xd.R ! $XtX9X9XW.@X$X#X9XqX*XY.*XI.qX$X;X:X0XCXbXsXsX;X;X:XoXZ.V.;X",
">.O.,.>.} z y 5 3 e y u B T 4.4.0.f.K.U.Y.#X:X,X,X:X:X0XuX0X>X,X>X;X;X1XaXsX1X,XiX1XvXcXiXcXaXsXgXxXsXcXvXCXSXCXvXAXCXvXAXGXHXAXHXGXGXJXGXDXHXHXMXwX6X~.~.9XdXzXvXvX:XoXoX#X>X,XOXXXOX0XzXcXwX#X:XvXAXAXvXhXfXzXwX9XwXhX>XP.9X:X;X>X:X&XuXcXcXaXvXCXiX;X0X0X0XiX;X;X*XcXFXAXSXSXVXcXcXvX,X0XcXaXzXvXfXvXcX,X,XpX2XgXVXFXGXSXaXiXvXvXsXpX0XoXT.U Y M.@XM.C.%XZ.*X$XL.g.Y V OXOX:XhX,XvXvX>XpXhXiXsXcX>XuXFXCXAXFXCXJXJX+X,XfX;X9X$XK.>X2X2XaXvXiX>XpXeXaXbXtXW.wXpXQ.q.! ,XDXY.l.oX&X+XH.f.o.c S P.FXGXAXXXY.*XfX#XT.V.w.gXAXdX0X*X=XsXdXE.*XsXsX0XaXXX*XAX0X@XR.@XgXpX,XiXhXzXmXxX#XP.4 4 C R.yX_.F.wXJXpX7.D.D.&.S 1.9XMXP.i.=XzX9XDXSXpX9XE.L.G.qXdXfXtXqX#X=XfXaXvXAXzX-X;X0XpXU.y.[ >.zXKXKXKXLXLXKXtXm u y.5.L.jX$XM.=.P.0X:XF.K.9XwXL.d.iXCXCXKXKXZX3XB.* 0 R g   d h r 1XKXKXLXgXxX9.$.KXDX>.V W U f.;XzXf.2.R.jXfX9XK.m y =.E.nXzXdXfXfXwXuXzXfXhXaXp.I.k.4.W u M.=X$XXX=XeXfXcXvXvXAXvX,XHXDX0X:XzXeXD.P.R P.rXg.W &XiX<XuX9X=X0XzXqX6XW.6XE.R 0.qXL.D.=X$XwXCXAXK.Y ;.@X$XY.fXOXwX9XK.+XGXKXpX0.1.N.SXKXKXvXoXg.V.0XvXJXZXhXgXxXgXcXjXaXvXiXOXvXGXcXOX:XC.;X>XaXAXY.7.$XdXzXd.0.9XAXxXvXVXvXDX9X@XfXwX$XwXY.*X=XU.wXtX$X@XwX$Xg.M.d.@XM.! N R ! 8.V.Z.C.oXpXmXvXsXdX6XR.6.D J S.6X*XpXsXfX9X#X@X#XeX>XP.oX*Xd.R Y.9XaXpX,X#X0X:X@X$X0XwX9X*X*XpX:Xg.~ M S w l T @XI.;.! d.Y.mXDXZ.M.p.g.C.>XiXfX0XfX;XpXpX0X0XXX#XiX9XT.#X0XpXg.g.e p.@X0XC./ g.:XqX,X;XpXoXU.D.M.M.#X$X0X:XZ.p.p.6XqXfXpX0X@X$XY.@X#X=XZ.P.f.*X:X#XK.@XMXvXCXSX0XoXP.Z.P.T.*X",
" . .|  .c y w w q N M T $.4.p.g.K.K.Y.#X*X,X,XuX0X0X0XuXiXuXuXiX>XxXxXxXVXVXxXxXxXxXVXgXsXVXVXCXSXCXvXaX>XaXvXVXcXvXcXgXAXDXHXMXAXGXJXJXGXDXwX*XhXdX9X=X=XM.D.U.Y.$X$X$XsX>XiX,X|.Z.XX,XoXP.9X9X9X,XfXzXpXzXmXzXfXmXAXDXvXiXhXpXhXhX0Xg.C.uXaXvXgXgXsX-X>XaXiXaXAXcXzXAXAXaXgXAXcX;XOX>XC.C.cXvXvXCXvXxXvXxXVXAXAXxXCXFXSXVXVXAXAXvXcXAXhX:XhXAXcXsX:Xa.j.V.p.M.I.Y.0XpX9XaXMXdX0X;XaXAXsX0X,X XXXZ.V V OX>X*XwXbXsXjXfXvXCXxX2XxX0XVXVXxXhXhXvXcXVXVXcXiXVX0XeXcXvXfXaXaXbXB./ oXqX;XF.f.y.U.F.M.%XpXSXcX:XpX9XpXbXAXdXC.>XmXvXdX#XeXdXU.P.wXaXbXGX>X=XvX2.c G.oXsXcXMXAXMX$XoXSXCXMX*XE.N.0.c.H.I.N 2XgX:XM.9.!  XOXsXGXzX=X=X$X9.g.C.4.B y B | 5XdX:Xf.g.h.Z.,XcXgX>XwXcXwXK.M.d.<...>.G.9XMXKXKXJXJX9X4.V $X6X!.Q.U.N.-.E.dXfXvXeXuX9X*XT.1XgX XsXiXPXKXGX>XcXMXfX:XJXGX_ # |.2XpX|.C.@X7.mXHXG.Q.wXpXHXHXbXdXrXrXE.dXMXwXfXfXqX6XrXrX*XY.#X7.i.$XzXHXmXwXnXMXJXLX9XAXrXM.7.eXeX>XxXDXvXgXDX=XiXdXV.qXNXnXzXMXiXoX>XaXuX1X,X,XhXAX>XdXeX5X>XR.>XhXzXwXrXd./ oXZ.>XKXKX2X+XL.d.q.U.!.U g.$XG.D.+X2XM.! q D sXGXJXGXMXAXMXvXzXJXiXY.#XuX2XsX&X+XcXCXVXxXVXsX1XsXuX>XiXiXvXzXY.p.T.;Xd.d.9XJXSXbXbXiXAXzX=XmXmXeXdXfX9X9XS.$X*X9X$X9XvXsXaXfXvXsX:X@XwXfXzXmXmXfX0XpXvXMXzXvXzXmXrXtX9X9XwX9X0XwXpX0X*X9X9XzX,X3.XXoXR U Z.XXOX#X;X:X9X0X9X:X@X>XfXvXvXfX:Xp.7.K.=XU.f.D.tXrX=X@XP.Z.pXmX,X,X#Xg.g.g.g.M.*XwXK.P.oXZ.#XoX#X:X9XZ.g.oX:Xg.Z.h ! p.:X,X#X#X;X;X&XoX9XoXL.k.I.#X1XgXcX,XXXP.:XpX0X:XwX*X@XT.g.P.#X9X$XoXC.>X,X@XD.f.Z.a.XX;X&XY.M.j.p.g.K.",
"c A A B l w e e N R $.5.f.f.P.P.&X&X#X>XuXuXuXiXiXuXsXaXgXiX2XiXuXaXaXhXVXVXVXAXSXVXVXvXgXVXCXVXxXvXxXaXsXiX;Xh.^ i.gXVXaX#XXXC.C.OX,X+XC.M.oX#X1XhXcXhXvX;XP.W.@XoXK.P.V.Z.+XXXoXXX+XC.W 7.fXvXhXfX=X@X*X9XaX>X:XpXiXaX,X/ / C.uXsXVXcX%X;XsXgXsXgXgXgXgXgXgXcXSXcXcXcXvX2XgXaXaXaXcXSXvXaXvXvX,X2XxX-XOXVXLXGXSXxXVXxXVXVXCXcXcXaXaXvXiXaX0X>XVXVXmXMXAXDXAXCXbXbXCXhXfXhXhX&X#XsXvXaXiXaX1X%XP.3.8.f.Y T Z y.E.G p.>XiX2XbXbXsXj.u R oX;X0XsXeXiXfXhX0XcXvXvXSXvXcXvXxXSXSXbXxXaX2X$X9X,XbXcX2XsX>X2XfX-XpXW.fXHXAX=XP.XXOXaXwXgXzXZ.V +XAXMXaXHXvXXXOXB M oXfXgX,XbXzX$X=.U -XsX2XP.oXdX:X9.e.=X8.,XSXJXAXsX0XvXAXDXKX4X=X6X$Xm.g.5XKX3X'.JXIXNXKXZXdXzXmXmXxXvX0XK.$XAXfXg.p.=.F A X.+.p [ VXJXCXvXbXGXsXiXzXwXeXuX@X>XzX:XU.pX8XKXJXHX9XU.$X$.w.-.) 0XU.Y Y.wX=X+XxXKXKXf.B W wXvXaXdX:XjX0X%.f.tX=X$XMX0XpXqXf.l Y.9Xq.#XmXqXK.Q.@X$XL.HXZXR.H.F.8X~.J.6X`.MXJXwXzXzX*X$XwXzX).7XkX0.Y $X0X,XOXR E.7XP.M.#XpX:XXX:XjXhXuX&X:XHXhXbXK.=.T.:XvXDXDXwXOXV U &X5XKXZXvXCXFXLXSXAXaX8.; ( :X8.d.$XuX7.Y R 3.OXiXT.A.C.oXy.*.:.W.P.oX%XXXsXZ.h U C.C.V.i.iXcXAXFXvXvX,XOXXXXX0XwXwX0XP.7.8.*X9X@X*X6X9X6X@X$XD.D.0XfXpXnX@X@XtXqXD.=XdXzXzXmXcX9X:X*XwXdX0XwXdXvXcXvXvXAXzXmX9XdXwX9XdX*X0XpX0X#XP.OXOXpXfXvXsX;X9XK.7.g.:XpXsX,X9X0X$X$X9X0XwXvXvXvXcX0X:X0XfXMXmXdXD.Q W.rX9XzXwXwXeXsXcXvXMXhX,XP.p.7.wX=X=X:X#XM.Y.Y.K.Y.*X#XP.&XT.C.XXXX#XoX#XXX0X0X,XuX,X&X#XoXL.k.4.oX1X3XSX;XZ.#XpXpXfX:XwX*X+Xp.~ R g.Y.$X*XiXvXxX>X*XqX>XXX+XZ.P.P.M.Z.Z.g.f.",
"M M M y w e e u V 4.=.0.f.M.P.oX#X#X;XuXiXiXiXiXiXiXiXsXiX1X2XaXsXaXaXvXVXVXAXAXvX,X|.+X2XCXZXxX1XgXVXCXVX>X Xi.g.C.CXSXgXXXC.;X1X2X,X%XiXaXvXAXVXxXsX1XaXxXgXcXaXaX,XOXa.Z.C.V.h.j.+X,XV.;XAXvXxXvXaXXXV.+XiXiXaXvXVXSXSXVXgXcXvXxXSXFXvXgXVXCXCXSXCXVXCXCXCXSXSXgX2XOXxXCXSXxXgXVXCXFXgXsXcXvXiXxXcXK.Y P.xXbXvXVXAXxXaXAXFXsXaXxXvXvXiXcXaXaXCXvXvXzX$X;XvXMXwX2XCXvX1X1XgXXX! C.>XXX>XGXGXvXfXsXvXcXdX9XL.K.fX9XqXeXbXmXHXKXKXKXgXl.T p.Z.).JX4XT.aXSXJXKXKXKXKXKXPXhXvXzXNXKXFXSXpXOXuXJXKXKXKXJXJXJXdXfXJXKXKXPXwX6XNXKXKXKXPXCXpXl.JXKXKXKXKXKXPXuXq.d.pXzXpX;XwXwXGXKXKXKXPX&Xp.f.:XK.=.7.dX<X_.JXKXKXKXKXgXFXJXLX{.(.vXnXqXmXGXIX> ].KX{.].UX> ].MXvXaXAXHX,XZ.k.nXMX9.G M n G ,.O.v 9 %XvX:XoXgXJXSXCXxXuX<Xy.HXKXKXKXKX3XmXKX{.lXzX*XpX,XiXfX0X6XQ.G 6.tX9XqX1XZXAX(.>.| ).DXJXMX9XxXzXtXR.E.dXP.U.R W.nXJX4XzXrX=.T oXwXaXdXrXwX_.PX{.[.lXk.wXeXM.e...I.rX).K.=XrXdXrX7Xb.w.9.% w _.JXZXpXeXwXd.- X $ Z.Q.T.M.3.g.g.oX0XGXvXvX#XA.*XdXzXMXmX#XW.7.T.zXzXLX{.*.2XSXPXCXiXaXMXeX*XeXC.@XcXzXP.M.+XZ.,X;Xh.B./ i.D.;.g.pXP.#XhXaXgXa.N.Q.$X@XZ.V.GXGXSXvXh.>XaX+X3.7.p.D.9XdXfXfXsXvXfX@X*XnX*X9X@XE.K.K.$XfX9X9XT.7.! $XK.wX*XZ.@XpX#Xd.@X=XwXdX0X9X9XwXfXaX0XzX0XpXY.f.Y.$XdX:XpXdX@XoX#XaX>XiX,X:X:X#XY.f.K.@X=X,X0XpX0XfXdXwXpXwXfXwXwXwXwX0X:XM.oXhXdX@X1.V m.@XE.dX=X=XpXsXcXvXvXAXsXK.Y.Y K.Y.=X=X9X@X=XK.0.K.L.#X:XdX0X#Xa.Z.,X0X#X#XaXiXuXcXaXcXcXsXdX@XT.>XvXSXJXvX,XpXzXdXzXcXaXsX>X#X,XP.P.:XwX9XsXGXJXaX,X0XcXsXuX+X&X&X#X>X#XU.2.",
"l l w q w l V R =.f.f.D.U.Y.#X:XuXuXiXaXgXsXiXuXsXiXiXiXsXgXsXuX2XaXgXxXxXgXxXxX2XiXVXCXxXVXCXSXcX-X2XgXVXVXVXSXGXLXSXZXLXFXSXxXVXCXSXFXFXGXSXSXSXCXvXxXCXGXFXSXFXSXFXFXDXAXAXAXDXvX0XsXvXvXvXVXxXxXAXAXAXaXvXAXvXcXcXxXxXVXAXFXFXVXCXCXCXSXFXGXSXCXCXCXCXCXVXSXCXgXvXxXCXFXAXvXCXSXCXVXgXgXVXVXvXVXcXMXzXvXCXVXxXCXFXvX,X1XSXGXCXvXCXAXCXSXFXCXAXDXdXM.q @ 7.zXjX,XCXFXVXCX1XY q i.mXaXoXoXpXaX,XxXCXCXmXMXmXvXgXOXD.K.T.NXPX> $ lXIXNXMXnXJXKXKX{.b.;XcX4X>     i HX{.#.lXJXKXKX{.'.dXk.GXPX>   [.IXeXGXtXJXUX      ..5XFX}.  $ lXIXtXhX3X>     i MX{.x.0X0XHXMXvXcXlXKXIX]     #.KXZXmXMXvXzXrXeXwX8XLX{.    ].PXh.fXLX{.t.#XqX5.5 D iXmXnXJX{.].FXvXzXjXiX>XcXvXT.5XK.) =X=.k c p 9 } H.:.M U m.4.h _ *X1XgXgXVXDXKXUX.     [.UXyXLX{.'.:XpXhX<XXX,XiXoXP.M.f.oXtXpXGXKXAX<.o.<.Q.pXvX=X4.Y.K.$XtX=.*XzXmXjXxXyXLX{.t.tX8XdXhXzXzXnXdXwXHXUX@ 0 t j gXKXJX6Xp O.@XY.M.K.5X`.rX6X2.C 3 2 h.yXLX{.].dXqXp.W E e oXW.m @ < , $ ;.qXwX+XfXDXVXmXpXM.pXdXd.7.T.#X,XnXLX{.(.P.%X:X=Xj.N.5XrXwXbXzXiXpX9XwXaXVX+XXX+XC.#X%X$XAXhX>XFXgXXX+XiXOXR g.yXrX6XdXpXXXXXiXzXi.0XGXHXfXzXXXM.Z.Z.d.K.#XcXvXK.9XDXT.K.M.-.p.=XE.oXY ~ h R 3.wX7.! M.=XY.9XK.f.wXwXfXfXfXzXzXfXMXDXvX:X! d.0XfXuXXXoXP.#XjX$X#XpXAXaXpX0X:X*XP.K.@X9X9X@X@XwXpX0XpXsX*XwXdX0X9X9X=XY.@X:XoXP.g.p.g.@X*X9XP.4.U.U.d.Z.#XsXcXcXcX+X8.d.R g.OXzXmXdXY.Y.D.M.K.L.oX$X$XoX,XP.OXhXmXpX:XiXaXiXgXaXiXsXZ.oX@X+XsXXXXX-X;X>XoX*XY.$X:X9XfX*XfXzXfXfXwX=XU.K.sX2X%X%X1X1XsX1X>XaX,X%X#X#XuX#X",
"l l l u M S $.2.5.f.D.L.@X$X,X:X0XiXsXsXgXgXgXaXsXsXiXuXiXgXgXsXiXiXgXxXVXVXgXgXxXVXSXSXVXVXxXVXVXVXVXVXxX2XxXCXFXSXZXCXSXFXSXVXCXAXCXVXCXCXvXVXvXxX2X2XxXSXAXCXSXSXCXvXsX1X,X>XaXcXhXcXvXAXCXcXvXvXvXxXVXgXaXVXvXaXcXxXxXxXVXAXVXxXVXCXSXCXSXvX2XsXCXCXCXZXVXSXCXsXVXCXAXvX@XR |.VXCXgXVXVXCXCXCXSXvXxXVXSXSXCXCXvXCXaX>X1XCXGXSXxXVXVXxXCXSXvXxXvX#X%.u u U ! =.=.#XvX;X;XhX6X$X#XDXfXp.4.,XcX:X>XaXxXfXiXpXvXmXzXmXrX7XJX}.[ CXMXPXz.9X#XUX[ PX{.n.;X9XU.,XmXvXHXPX] '.vXUXa PX{.^.cX9XJX}.+.zXnXPX] NXJXIX  ..d.V.N.8._ ] '.nXHXIXO.FXCXCXmXbXGXPX] ].+X|.DXAXxXrXLX}.i HXKXKXIX.XHXkXAXuXwXHXAXuX7XLX{.<.zXJXLX}.yXLX5XKXKXKXZX7.#.JXZXnXLX{.].KXSXnXJXSXKXKXKX.Xg.).LXpXKXKXKX` Z M.jXHXKXKXPXh.=.XXwX#X=XaX:XHXIX  /.xXhXoX] x.LX{./.;XHXKXKXKX4X$X_.LXDXKXKXIXlXKXKXKXf.v t.NXKXKXKX.X$X'.JXSXKXKXKXLXzXtXHXKXKXKXLXh.@XzXwX<XVX+Xu.HX{.@ & * m <XFXKXKXvXKXKXKXZXN.9.].KXKXKXKX}.R uXGXKXKXKXPXkXJX3XkXoX).LX}.[ LXqXKXKXgX>XNXKXKXKX4XwX_.KXSXKXKXKX3X%X7XLX{.yXbXbXbXsXoX~ ].KXKXKXLXiXzXkXJXKXKXKX1X*X'.JXJXKXKXIXNXKXKXIXoX@XZ.W V 5.E.6XfXmXZ.3.@X9X7.g.,XcXcXGXgX.X Xa.Q q.! 7.=XT K.mX$XD.D.S N P.#X#Xg.:X0X*X=XDXwXD.9XzXdXMXzXwXdXwXwXdXdXdXdXwXmXAXvX9Xp.M.#X#X;X|.&XXX#X0X&XP.#XvX:X:XwXwXdXwX=XdXzXdX9X*XdXfXfXvXMXzXpX$X$X9XwXdX@Xd.M.9XAXmX:X0X:XdXdXoXP.:X:XoXoX;XiXsX>X9X@X=X=XV.P.wXzXfXwX$X@XK.=.1.d.p.*X$XY.*X@XY.$X9X9XqXpXuXuXhXsX>XpXoXoX:XwXvX9X#XoXM.oXd.I.L.L.D.L.dXf.Z.:XaX:X#X=XM.=.Z.E s.XX,X2XcXcXaXuXXX X|.%XgX-X",
"M B F $.%.2.5.0.k.D.R.$X#X9X0X0XpXaXgXsXsXsXsXsXiXiXiXuXiXiXsXsXaXgXvXhXgXVXZXVXZXCXCXZX3XxXVXZXZXSXSXSXVXVXVXxXZXVXVXVXCXSXVXxXVXvXgXxXVXCXxXxXVXxXvXAXFXAXvXsXxXvXAXAXFXAXvXxXiXiXsX;XXX,XaXgXgXaXxXxXCXvXvXcXaXaXVXAXVXxXvXvXiXiXCXFXFXVXVXxXgXvXVXCXCXgXgXvXCXvXZXSXSX*XG , U sXFXSXxXxXVXVXxXVXSXCXxXgXcXCXCXCXFXvXiXsXgXgXVXVXSXSXSXSXCXaXK.wXvX:X:XoX2.z p 6 $.qX0X9XvXMXMXvXfXfX=XM.0XpX>XeXsXiXiXuX+X@XM.! ! $.@.LX{.@.~.yXLX{.].tXE.nXLX{.].VXfXU.N.Z.kXJX}.[ bXVXzXnXKX{.].DXvXDXIXl.vXHXIXi '.JXLXKXKXKXSXnXwX6X=X>XuXNXIX9 BXvX%XV.kXKX}.[ pXuX=XAXGXVXAXUXi GXIX> i IX,.aXIX].D.,.tXmXzXMXKX{.X.oXyXKX{.[.KXIX'   #.PXyXDXKX{.].LX{./.LX{.].KXIX'   /.IX=XBXKXIXI   /.IXE.XXGXLX{.  /.IX6XM.E.T.p.g._.PX{.+.,X-XpX9XvX(.LX{.t.NXPX]   [.IX8XNXJXUX: #.KXIX] #.PXW , ].IX]   [.IX8XNXKXIX'   #.PXl.R.'.PX{.    , ! mXwX0X:XU [.IXX O.0X*XD / |.kXKXIX&   #.PXl.D.h ]     [.PXh.XX(.LX{.  . #.LX{.lXDXDXLX{./.KXIX&   i NXLX{.  [.IX~.8XJXIXI   [.IXQ.nXKX{.].vXvXMXvXaXHXPX]     ^.] J.HXPX]   ].IXNXyXKXUXg #.KXIX}.#.PXz.+X#XY.d.S Y.0XfXAXvX9XZ.d.V 3.pXAXMXJXLX-X|.g.D.@Xi.^ p.l ! wXvXzXsX$XZ.qXfXsX;XpXfX9XwXwXL.D.L.L.9XzXzXzXiX$X2.S.W.*Xp.d.*XvXsX;XZ.~ 3.j.a.j.XX&XP.oX:XwXfXMX9XfXfXfXdXpXwXdXwX*X9X9XDXMXzXzXvXhXpXoXK.:XfXDXpXZ.Z.T.T.I.$XwXU.#X#X,X,XuXvXvXaX0X,X:XwXoX@XwX9Xg.P.*XK.P.P.:XqXwXoXK.K.g.#X$XY.L.M.L.R.$X6XwXwX0XiXcXMXAXvX;X#X,X9XzX0XoXP.*X>XOXdXdXwXE.K.E.4.d.P.@X@XqXzXwX=Xj.g  X:X0X,XsXiXiXiXXX2X1X;XsX;X",
"G F =.5.e.e.e.S.m.U.E.*X9X0XuXsXaXsXgXgXaXsXsXsXiX0X0X0XiXiXsXgXsXaXhXVXxXxXCXVXVXvXCXCXxXxXCXCXVXVXCXCXCXSXFXCXxXvXVXcXgX1X-X3XVXCXVXxXCXCXgX2XsXVXvXxXVX2X%X.X.XB._ ,XAXAXCXSXCXxXvXvXaXaXcXvXcXcXCXAXvXaXsX:XT.T.sXAXVX1XiXgX1X1XvXvXxXgXxXxXxXxXCXSXSXFXFXSXCXCXSXCXaX=.z 7 V >XSXvXVXvXVXAXCXVXCXCXxXsXgXaXxXvXSXVXxXCXVX2X2XsXvXAXSXSXFXCXW.D.wXdXzXzXnXrX`.).'.7XD.d.0XaX:X>X:X>X:XM.&Xg.8.P.#X#XFXJXmXfXrX9XdX5X/.LX{.u.~._.JX{.@.F S nXLX{.(.aXfXvXmXhXHXIX> n.-XaXaXMXLX{.n.;X2XmXJXKXKXKX{.x.DXJX}.O   [.PX%XvXvXfX:XNXKX{.[ pXzX>Xa.HXIX> (.2XXX( #XAXHXJX{.].PX] [.bXIXu tXPXz.o., c 6X0X'.LX{.b.zXHXPX] ].PX{.[ tXn.PX}.lXKX{.].LX{.].JX{.].LX{.#.<X7XLX` lXKX{.#.eXrXKX` '.KX}.#.JXzXPXI <.L.kXrXY.].PX] ].0Xp.C.6.,X'.LX{.].JX}.[ m.tXPXW NXKX{.@.8XPX{.[ /.LX{.x.LX{.9 zXMXPXW lXLX{.#.8.@.LX{.+.'.JX{.u.nXY.0.wX9XqX0XdXHXUX9 q.J.NXI.g.l.u.LX{.[ -XnXLX{.n.&X;XxXwXnXPX] lXNXLX{.n.rXlXLX{.b.T.lXKX{.].LX{.[ Q.rXKX}.#.bXkXPXL lXLX{.#.fX8XLX' '.LX{.(.aXsXxXsXrXKX}.7 o.2.J.I [.LX{.#.pX8XPXP.NXLX{.#.DXKX{.#.8XLX{.v.OXnXmXK.9X9X:XpXfXmXM.-.d.Z.cXSXAXSXSX2XhXfXzXiX,XuXuXK.Y.$X*XzXdXiXoXoXpXdX$X@XjXjX9Xf.m m R -.c.=XdX9XZ.M.2.=.6.L.R 1.M.zXzX9XP.P / Z.A.Y.fXzXpXpX9X*XzXvXwXtXtXwXwXwXrX0XoX2.=.T W.zX9X:X>XwXpXY.d.K.Y.:XoXXX>XwXL.m.D.f.t R XXaX%X,X2XsX>X0X0XoXwXY.K.Y.$X@X0XpX9X;XsXsXsXvXvXvXzXeX9XZ.d.D.D.R.f.-.m.Q.6X6XW.wXaXaXsX*XU.Y.V.C.XX+X,XsX0X>XpXdXdXU.2.! 2.L.E.f.S -.cXCXAX$X! #XXXg.P.P.P.oXP.;XAXCXvXgX2X",
"$.&.5.y.k.k.k.G.L.$X$X9X0XuXsXaXaXaXgXgXaXsXiXpXiX>X0X0XuXuXsXiXgXgXhXcX2XgXVXgXxXVXCXSXZXZXVXVXVXZXCXCXCXSXSXFXSXZXxX1X|.E L ^ -XSXSXSXSXCXvXgX>XxX2XgXvX XE r I ' ` %XxXVXVXVXCXCXSXVXxXcXVXSXAXxXxXvXxXxXgX1X-Xs.Z.1XvXxXgXgXAXCXAXVXvXvXvXxXxXCXSXZXFXCXCXAXCXCXSXxXXX=.=.T s.iXCXVXxXgXgXxXvXvXCXvXxXVXAXvXvXvXcXcXCXSXvXiX>XsXcXvXSXSXAXMXfXfXdX:X@XwXdXrXrXrX8X6X=X=XfXzXeXpX;XP.I.@X:X#X@X:XXXE V.cXvXzXwX#X=X*X'.LX{.b.rXyXLX{.@.2.=.lXLX{.(.sX0XwXfXlXKX{.[ 2X%X-X=XnXKX{.].vXMXJXIX.   [.PXpXNXKX{.].AXhXJX}./.vXvXlXKX}.i 8X+X7.l.'.LX{.9 XX-XOXd.P.sX5XIX] lXPXt r.gXDXfXfXLX{.v.5.f.q.R.8XJXKXKXKXPX] 9 lXJX{.+.&.x.PX{.[.LX{.].LX{.].LX{.[.LX{./.$X).FX{.[.LX{.].9X).FX{.x.JXKXKXKXKXKX}.<.D.K.T.5X8XLX{.8XwX$XnX9X6X'.LX{.].JXKXKXKXKXKX}.].LX{.].nXLX{./.8XLX{.].JXKXKXKXKXKX}.].KX{.].cX8XKX{.8 /.LX{.@.6XwXT.Y.9XfXfXkXJX{.@.q.| S u u =.u.LX{.lXFXnXLX{.O.5XJXKXKXKXPX] lXNXLX{.n.eX8XLX{.n.oX8XKX{.].LX{.].vXzXKXKXKXKXKXKX}.].KX{./.qX5XHX{./.LX{.(.vXvX;Xa.).PX] X.! Q r.S./.PX] ].fX6XLX{.].LX{.<.nXKX{.'.kXLX{.n.M.j.V.#XvXdX9XwXwXpX4.Y K.p.3.;XAXSXAXxX>XcXDXcXgXVXvXXXM.K.$XfXwXpXwXaXMXmX*XY.9XpXfXJ 6 m Y ! 6.m.$X9XK.p.Y D f.$X9X9XD.:XmXdX:Xh.XX;X*X:XmXMXdXwXY.K.eXzX9XY.w.D.E.Y.@X;XXXd.M.p.E.:X0X;X,XpXmXpX:X=X=XpXpXsXwXdX:X,XsXOXU ^  XxX2XgXgXxXcXhXfX#X9X9X#XoX$X+X@X*X*XsXvXvXbXbXbXcX0X=XM.N.Y.$X$XW.!.c.G.R.`.Q.R.6XzXfXpX9X:XdX@XP.&X#XiXcXaXoXM.Z.p.f.D.8.Y.:X*X@XT.p.iXVXvXwXM.9X9XT.N.7.K.wX0XfXfXaXvXAXSX",
",.<.y.H.H.H.G.I.$X9X0X0XiXsXaXaXaXgXgXgXaXsXiX0X>X>X:X:X,X>X>XiXgXhXgXsX2XVXCXVXVXZXSXZXZXVXVXCXVXZXZXCXFXFXZXZXZXSXSXLXLXFXCXVXVXxXvXVXVXxXVXVXxXgXxXCXSXxX%X|..X%X-X%X-XxXVXCXCXVXCXCXxXvXVXvXcXgXaXvXAXSXCXvXCXxXgXcXvXxXgX1X>X1XxXvXVXVXxX2XVXFXSXZXVXgX2XgXgXCXCXVXvXsXaXhXCXAXCXxXSXxX2XvXvXgXxXgXaXcXaX;XW.9XeX>XpXvXAXDXMXMXmX*X@X*XeX9X:X:X0X@Xp.Y.9XrXdXtX6XW.6X9X9XwXdXcX:XP.L.:X,X#X9XsXvXhX;X>X9X*XOXj./ / u.JX}.n.1XnXPX] ].HXvXmXKX{.].AXcXwXvXJXIXi ~.xXAXDXcXnXLX{.(.aXnXKX{.].FXFXPX{.'.JX}.(.sXqXJX}.@.aXNXKXUX$ /.6X$Xd.G.HXUXi `.1X:XjX>XOXfX6XIX] /.IXu w.1XAXAXpXLX}.lXmXzXtXI.'.LX{.      #.KXGXKX{.n.0./.FX{./.LX{.[.KX{.].LX{.[.LX{.O.=X_.LX{.#.PX{.n.7.@.LX{.#.PX]         $ _.vX*XL.;XkXJXUX].jXP.9XsX0X'.PX{.].PX]         $ x.LX{./.'.LX{.].nXLX{.].PX]         $ ].LX{./.2XrXKX{.y /.LX{.[ <.W.zXcXpXzXzXNXIXi ].J.B 2 , , ! (.LX{.].SXrXJX{./.JXPX{.  [ PX] ^.lXKX{.u.9XyXLX{.].sXyXLX{.].LX{.u.fXrXPX]         $ ].KX{./.aXNXKX{./.LX{.!.sXaX+XU /.LX{.r.l.t.n Z @.PX{.~.zX6XPX{.].LX{.].nXKX{.v.rXKX{.(.#X&XC.#XzX$X6.6.L.$XK.Y.fX9XXX&X#X,X0XbX-X<XJXLXLXKXKXvX#Xl.e.I.5XrX9XeXnXdX9X9XzX9XY.d f l w q Y -.S.=XMXmX9XW.rXmXzXfXf.g.$X9X9X/ ! j.3.3.9XdX@XeX*XE.P.0XmXY.L.L.U.oX9XmXDXvXmXfXzX0XaXpX>XoX#X9X#XT.K.U.oXT.K.OX;X1XVXCX3X1XxXVXVXiXcXaXuX,X0X>X>XuXiX>X9XwX;X@X@XK.:XpXeX9X9X9X$XY.=.m.W.U.=XW.R.J.J.`.`.`.`.H.W.9XrXpXzXzXwX0X:X;X#X:XoXp./ 3.W Z.mXzXdX0XP.~ M.:XcX1X:X$X6XNXHXnX6X*XwXdX$XK.K.Z.OXaXvX",
"y.y.H.H.I.I.L.E.#X9X0XwXsXsXsXsXaXgXgXgXaXsX0X0X,X,X;X:X#X,X>XsXgXvXvXxXvXSXSXSXxXVXCXCXVXxXxXVXxX2X2XxXFXFXVXCXCXZXCXSXFXFXSXSXCXxX%XgXVXxXxXgXgXgXCXCXCXFXFXCXSXGXLXSXVXSXLXLXFXVXCXxX-X>X1X+X/ P 3.eXvXFXSXxXCXvXxXvXvXxXsXsXVXgXxXxXcX1XXX;XVXFXFXZXSXCXgXgXxXCXCXCXLXFXSXVXSXVXCXxXCXCXVXVXxX2XuX2XbXVXvXpX9XzXvXvXCXAXAXhX1XaXfXp.U / p.h.P.,XDXAXiXeXzXvXsX:X$X$XwXdXeXwXjXfXsX*X$X0X:X0X0XsXaXvXiX>XsXsXzXzXcXzXhXHXUX/.fXGXIX, 8XxX>XnXLX{.].mX9XD.[.PX{.@.cXbXVXvXcXnXLX{.b.XXqXJXIX(.KXKXLX] ^.HXIX_.xXNXLX{./.HXLX}.i '.pXpX1X,XmXLX{.@.gXxXzXoX;XMXAXsXNX}.tXJX4XMXjXJXGXmXPX] '.*XwX0X@X'.LX{.O.zXvXHXKXJXKX{.].K.'.JX{.].PX{.#.PX{./.LX{./.LX{.t.6XHXIX> [.LX{.a I.GXIX> b.NXIXe.F.tXFXgXpXzXrX;XsXFXFXKXZXW.;.M ].IX/.LX{.n.NXIXy.f.F.HXVXkXLX{./.'.LX{.O.'.LX{.'.NXIX`.,X5XHXgX8XLX{.v.;XBXJX{.1 u.JX}.{ J q.rXdX9XwXkXHX}.[ wXQ.k.m.M.f.W.8XLX{./.@X/.LX{./.LX{.#.zXNXPX] ^.8XJX}.n.*XtXHX}.G f.NXKX{.].LX{.@.1XaXNXIX!.vXsXHX` _.LX{.].JXKXPX> [.LX{.,.kXKXPXoXC.NXIXyXvXrXBXh. .NXIX<.uXNXIX> ].LX{./.8XLX{.^.nXLX{.].fX:X2XAXmX$XD.-.f.@XwX@X9XdXpX0XpXaX;X:XM.Z.zXAXFXCXFXDX#Xk.$.| I.tX6X9XDXwXP.g.&X) L 2 d l q 1 m ;.0.L.dXwXqXY.9X*XwXrXL.I.$X$X9Xp.Y.&X4.R f.Y.m.@X9X$Xd.*XHX$X*XwXrXfXpXpX0XoX9X0XfXOXOX0X9XK.2.L.@X$X9XoX+X>X=X>X%X1XVXFXFXCXCXgX-X7.U.$X@XD.f.K.=X,X0X,X*X0X>X9X0XY.9XwXrXrXtX6XQ.G.Z 2.w.9.G.L.W.R.R.R.6X`.`.J.Q.6X9XdXsX;Xg.g.V.K.M.g.g.4.! f.=.h.vXFXmXeXwX$XwXzXDXMX@Xq.K.wXrXwX=XD.W.6X$XY.zXwX:XvXvX",
"H.H.I.R.Q.E.E.$X*X9XwXiXsXaXsXaXaXgXgXgXaXsX0X0X0X:X:XqX;X0XaXaXgXxXgXgX2XxXCXVXxXgXxXxXvXVXxXsXgXsXxXxXxXxXgXxXCXCXVXVXCXVXVXxXxXVXCXCXVXxXCXVXZXSXSXCXCXVXVXVXSXLXSXFXJXKXKXLXFXVXSXCXvXvXsXg.=.7.I.9X=X0X1XOXsXvXAXAXCXSXCXvXiXsXAXAXhXoX3.V.iXxXvXgXgXcXiXiXvXVXgX2XxXxXxXgXVXAXAXCXSXCXAXCXVXCXCXxXxXCXSXvXgXVXCXSXSXVXvXvXaXcXDXwXp./ W r Y &XvXAXAXvXvXvXvXcXvXzXsX0XiXpXcXbXvXvXzXbXcXhXcXvXfXiXaXvXvXcXxX:X9XiX>XqXNXKXKXPX{.s T.7XJXKXKXKXKX.Xs.7XHXUX$ c.uXCXxXmXKXKXKXKXKX4XZ.T.HXKXKXKXUXi BXSXDXKXKXKX}., (.JXKXKXKXKXKXIXK.tXJXIXi ~.VXgXsX) R vXzXpXnXPXnXPXKXKXKXIX..HXIXx.eXY.9X9X&X'.LX{.{ M.7.4.C.tXLX{./.eX'.LX{.[.LX{.[.LX{./.LX{.].JXKXKXKXPX{.#.NXJXKXKXKXIX] [ cXmXNXKXKXKXPX] `.pXzXcXsX1XsX;XJXKXKXKXPX{.x.LX{.n.,XlXKXKXKXPX] lXLX{././.LX{./.nXLX{.yXDXNXKXKXKXPX] [.LX{. .z u.LX{.8 ! lXKXKXLXuXeX9XR.G.8XPX] n.wXpXzXzX9X@XL._.LX{./.@X8XLX{./.8XKXKXKXLXPX] 8XwXNXKXKXLX-X'.KXKXKXVXPX{.].KX{.b B.%XuXlXKXKXKXPX# @.JXKXKXKXLX] s _.KX{.v.5XKX}...=.XXnXKXKXKXLX' v.Z.NXKXKXPX{.#.JXKX{.t _.LX{.b.kXLX{.n.P.oXT.,XfX#X*XW.=X$X9XY.m.wXzX9X$XpXwX0XL.D.2.1.wXzXzXwXM.f.5.B k.tXR.6.6.f.K.0 0 r ; 2 m W V C f.dXfX$X! =.L.d.@X9X@XR.9.| &.S.W.$XpXpX0X$XE.$X$X9XwX#XP.M.:X9X9XdX0X0X0XdX9X=X,XeXpX#X>XdXeXwX@X:XiXwXuX,X,X>XiXAXaXVXVXCXxX%X X( 0 1 C M 2 3 Y U.pXaXaX:X*X0X;X,X0XqXwXwXrXrX9X6X6XG.G ;.e.r.9.w.y.v.S.9.G.S.H.e.9.W.*X:X,X,Xj.V.B.K.Y.M.7.p.oXdXwX;XsXpX#XM.9X*XK.T.sXHXDX9X=X=X6X9X*XW.9X:X*X@XY.L.@XfXvX",
"I.Q.).Q.$X*X$X:X:X9XpXsXaXhXaXgXgXgXgXaXaXsX0X0X0X:X:XqX>XsXaXaXgXvXxXcXgXxXvXgXiXsXaXaXgXgX1X,X-X1XxXVXVXVXVXCXCXCXCXSXZXZXCXCXCXVXxXVXgXgXxXxXVXCXCXgXVXSXVXxXAXFXCXCXFXFXCXVXVXCXFXSXAXFXvXOXY.6XqXtX=X,X;XXX;XhXcXxXxXVXAXvXaXcXbXsX#X$X0XdXcXvXxXvXvXcXV.i.#X0X>XaXAXvX1XaXAXVXSXCXSXFXFXFXSXSXSXSXFXSXCXvXVXCXSXFXFXCXvXaXaXcXMXcXC./ W t % V &XmXmXvXVXVXaXcXHXvXsXvXvXvXVXvXbXbXAXvXvXcXiX1XaXcXxXAXGXAXvXzXdXpXpX>X3X]     9 9XiXjXUX.       $ D hX3X> [ @X;XsXhXxXUX.       , J.>XB.O     i `.%X2XJX}.    , ^.uX4X>     .   $ /.9X4X> 8 B.SXJXLXgXs.9X$Xp.q./.KXIXUXO   #.KXIX> ].mXfXaX0XE.W.UX> ].xXT.j.i.) I X :.mXnXUX> b.4X> ].UX> ].4X> ].KX{.      #.AXHXKX{.      7 P.fXzXzX{.      s jX0XzXvXVXdX6XM.'         9 G.` > (.gXmX{.      [ xXUX> ].=X` > ].AXUX> b.0XwX]       7 =.` > n.q.K.` X /.9XdX}.    7 !.M.2.t.NXIXu <XVXaXzXvXpXdXwX9XUX> /.Y.wXUX> ].wX}.      f i 8XzX=X}.    9 zXUX      ! > ].4X> o.E A.gXcX]       < u.LX{.      9 N.C.UX> (.@XUXO v d R 1.{.      9 eXY.+X]     , *XDXUX$ p S.B.> @.K.UX> /.U.Y.K.j.p.Z.9X9X@X@X9X:X9XdXwX*X@X9X@Xi.K.tXK.q / g.P.$X@X*XwXY.6XzXrX*XD.L.qXP.g.V.V.d.d.oX$XoX@XdXmXmXM.M.$XM.d.U.2.w.Q.H.A -.7.E.:XT.*X@XE.*XqX$X$X&XP.@X*XT.g.dX0XU.K.$XtXzXwXwXwX9XwX0XiXhXcXCXVXxXcXvXzX0X>X1X1X-X;X1X X( U - * R D.d.C R Z.>XcXgXcX#XK.oXP.Z.E.6XqX6X6X*X*XW.K.=.Z :.F M Z $.G 9.0.;.6.2.D.q.f.L.$X:X>XsX+X,XsX0XiX*X#X+X*XsXOXq.D.$X$XU.:XeX:XoX*X0X9X9XqXwXqXwXwX*X:X0XZ.7.R D 7.$X:X",
"I.).5X5X6X9X:X0X:X0XpXpXaXaXaXaXaXaXaXaXaXpX0XqX9X9X$X5XeXsXsXaXgXgXsXxXvXCXCXxXiXiXgXgXcXVXxXaXsXxXvXxXsXgXvXVXcX2XVXFXFXFXSXxXSXFXFXCXVXCXVXgXgXCXSXVXxXCXCXgX1XsXgXxXCXVXsX1X1XvXCXgX1XgXxXxXVXSXCXVXVXZXZXCXSXSXVXvXvXSXGXVXvXCXaXsX0X:X;XXX>XcX1XgXvXVXa.E g.Z.XXaXvXaXXXC.vXxX1XxXvXvXxXVXVXCXSXCXSXCXVXxXxXxXCXCXVXVXCXVXaXxXCXSXSXAXvX0X;X&X;X>XiXaXcXvXaXaXvX,XXXgXVXVXvXaXP.C.hXvXuX0XiX1X>X,X-X<X1X1XxXCXVXvXvXAXVXvXvXcXZXcXbXmXcXVXZXFXJXPX3XxXxXbXhXiXsXgXcXVXzX0XdX0X*XqXaXvXmXNXdX6XU.XX;X2XxXcXeXwXcXvXuX9X6XfXpX*XqXfX6XY.aXjX:X,XiX>XaXvXdXwXkXQ.9.l e lXKXKXKXPX'   @.G.@XwXcX=XE.vXvXiXfXcXvXhXXX+X0X;XXXgXvXvX;X=XgXsXxXzXsXvXAXMXnXLX{.^.xXsXfXgXDXKX{.b.i.R W U T.aXcX,X>X:X;X=XhXMXsXsXgXcX*X/ e h 4 2 p.hX>XdXAXmXvXvXvXCXAXSXvXbXvXMXAXwX$X*XdXVXCXsXg.! m M d f.&.< k 7.Q.Q.L.jXdXtXrXrXzXeXaXgXZ.*X9Xf._.LX{.@.CXFXVX1XcXvXnX#XE.+X0XdXp.Y.*XtXmXtXeX<XK.M.f.#X0X6X@X0XcXbXfXvXzX9XfX0XOX7.9XmXsXbX1X>XSXJXvX0XiX0X! @.LX{.n.$X9X*X9X0XaXaXcX0XrXmXg.q B T @X=X0X,X%XV.N 5 I.I.f y m.rXdX6X=X$X6X6X$XL.2.=XjXI.f.I.&X#XuXqXwXrXrX6X9XzXzXwX*XK.U.q.=.9.).tX=.D $.L.9X0X0XpXM.9XMXrXL.Y D.mXdXdXMXmXzXeXwXdXcXpX9X0X:X,XsXfX0X:XK.! M q.).H.L.m.U.g.~ p.0.D.K.9XY.:X0X*X*X:XZ./ oXoX8.R &.D.9XD.=X9XwXdXoX#X>XiXxXVXxXaXpX9XXX) E r o # ; + * * h ! L.qXdXoX$X9XpXAXSXAX:XM.9X0XT.f.U.U.L.E.U.p.~ ~ ! ;.9.2.T M T D 0.f.M.d.p.Y.W.0Xg.P.@X$XzX,XfXvX0XAXfX:XpXAXcX,XF.G.L.*XwX9XpXpXwX0XdX9XqXwXfXfXwXwXmXzXwX*X9Xg.M Y 9XwX",
"Q.).6X6X9X9X:X0X9XqX0X0XsXaXsXaXaXaXaXaXaXpX0XqX9X9X*X5X0XpXaXcXxXgXgXxXgXvXvX2X>X,XgXgXgXVXxXgX1XsXgXaXaXcXvXxXsXiXvXFXFXSXCXvXSXFXCXCXxXVXSXAXFXSXCXVXZXCXCXAXSXCXCXCXVXVXCXvXgXVXVX2X2X2XgXVXZXCXCXSXSXSXVXxXFXKXLXSXvXVXFXVXVXxX>XiXvXFXCXgXxXcXhXvXCXCXsX1XaXaXcXAXAXvX1X+XgXgX2X1X2X2XgXgXxXSXZXVXVXxXxXVXVXVXSXCXxXsXsXVXvXVXSXCXCXAXAXAXAXGXAXVXvXAXAXAXVXgX2XsXsXvXVXVXCXcXoXoXaXCXxXsXaXgXvXvXVXVXuX2XCXVXxXVXvXCXVXvXvXvXCXCXZXZXCXxXZXSXZXFXLXLXLXLXLXGXGXJXLXAX*X9.E.tX=XG.eXvXmXvXCXvXhXvXmXhXxXaX0X#XsXcXdXsXfXvXhXC.M.,X0XOXuXdXsXDXAX6X@X6X`.$X6XkXlX7X9.C.]       @ v.<.n 2.*XhXAXwXpX>XP.T.,X:X0X$X9XmXGXSXMXAXAXdXdXCXfXeXeXzXbXbXsXmXLX{.(.iXsX+XN.7XLX{.^.>XuXwX:XsXbXbXxXhXcXuX,X9XcXbXcXaXfX=XD.p.=XoXL.:XcX2XpXgXcXvXxXcXcX2XwXDXAXAXcXzX=XoXT.:XeXvXcX0Xf.* $ $ 5.0.S =.D.=X$XY.6X=X=X#Xg.$XrXdXqX$XMXJX0X=X.Xi BXFXFXSXFXJXGXAXFXAXzX0XMXeXrX<X;XpX;X0X:X#XY.L.zXfX=X$X;XfXsX;XiXiX$X#X#XK.&.f.$XXXbXvXuXhXAXzX#X:X#X_ #.PX{.G m.q.U N ! N.@XiXQ.W.oXU.0.g.P.dXdX0XzXgX-X3.2 5.G.3 5 0.6XrX6XQ.R.$XrXnXnX-.7.Y.p.! L.uX&XP.D.5X6X6XK.L.6XnXmXqXD.2.1.q.-.F.6X5XG.2.I.:XwXfXdX1.Y W.dXf.2 f =XwX9X0XvXvX=XM.Y.mXMXcXzXsXvXvXvXsXwXK.Y 6 T I.Q.E.W.W.! R P.M.L.f.D.Y.:XdXzXvX,Xg.j.&XoX3.4.G w.Y.0.L.M.Y.U.3.U Y P.,XiXpX9X@Xa.g # & X X X o * m U j.D.L.@X9X*XwXqXeXDXGXSXfX@XfXvX0XL.F.S.q.f.7.! Y &.0.@XY.$XW.m.M.V.:X0X9XoXOXzXMXmX3.4.I.9X9X:XpXhX@X9XoX#XoX$X=X$X9X*XE.6XtX@X*XpXdXpX9X6X$X@XwXeX*X$XzXvXzXmXDXpXE.$XwX0X",
"R.5X5X6X9X:X0X0X:X9X9X9XpXwX0X0X2XiXiXsXsXwX0X9X9X,X9X9XuXfXaXVXvXvXVXCXvXxXgXxX2XgX2XgXvXCXvXgXiXxXgX1XxXxXvXvXtX=XsXVXvXxXcXcX2X>XiXaXcXxXxXxXVXVXVXCXVXCXSXCXxXvXvXCXCXvXxXxXgXgXVXxXVXvXxXxXvXvXvXvXVXAXvXiX2X>X2XsX2XsXVXvXgX>Xh./  XVXSXVXxXgXgXsX2XxXAXCXCXVXVXVXCXSXSXSXVXsX-X2XcXiXXXXX1X2XVXxXxXgXcXVXvXCXvXcXxXsX1X2XgXgXvXvXcXaXvXbXvXvXvXvXbXcXvXfX;Xa.Z.>XsXxXVXAXCXvXvXCXCXCXCXxXxXxXvXCXCXSXSXFXSXSXSXSXSXSXCXVXxXxXxXZXZXZXZXVXVXxXCXSXFXLXLXFXPXPXPXLXJXvXK.o.e.Q.W.K.zXCXSXZXvXxXVXgXaXpXvXvXzX:XvXAXVXAXcXvXzXwX9X;X:XvXJXFXCXHXHXBX`.`.`.`.~.`.).`.).6XmXmXc.Y 6.6X6X`.tXMXxXbXzXsXsX9X0XhX<XY.@X*X,XgXvXhXzXzX;X9XvXDXmXhXdXwXA.U |.IX> ].>XeX9XtXtXUX> ].MXzXsX0X0XaXcXcXVXCXiX+X+X;XaXvXcXbXcXdXpXfXAXmXzXzXcXsXuXgXVXVXCXbXsXuXiXaXAXvXeXm.R ~ K.K.M.sXFXcX@XD.%.I.tXtX9X*XrXtX6XeXdXzXdX=XU.U.6XqXq.$XHXCX,Xj.oXaXxXxXgXgXSXVXxXFXGXSXpXpXdXzXwX@XpX9X<X>XaX9XP.uXvXrXtXdXaXaXmXAXsX:X@X=X=XU.W.Y.7.@X=X@X1.7.Y.*XfXhXpX<XUXX } q.l.C 4 e m D 0.D.d.0.6XrX>X0XAXAX>XcXHXHXcXR 2.$XV 4 e d.$X$X@X0.f.K.m.dXY.f.Y.g.N g.sX$X$XS.@X*XK.q < w V ~ 9.k.M.7.! m.W.K.D.2.;.y.8.=XmXAXk.&.Q.tXR.q.M.@XP.P.9XvXvXwXK.6.@X9XwX0XT.iX0XsX>X;Xa./ S =.D.9X6X$XE.f.V.;XC.P.g.0.3.g.M.oX;XOX/ W g.Y.f.E.9.L.G.r.G.L.=X*X$X#X$X9X*X#X$X$Xd.E - - r : - ; r / L.$XjX7XM.d.M.Y.Y.D.E.tXwXpX=X@XZ.P.9X5XQ.F.D.E.Y.f.r.9.0.*X:XwXpXcXhXXX<XzXwXT.C.eXMXMXd.2.E.qXW.D.D.6XwXwXL.P.P.P.Z.P.9XqX$X6XqX6XdXwX,X=X@XW.D.K.dXqXE.@XwXsX0X>XdX9X:X:X=XM.",
"Q.5X5X6X6X:X:X9X:X*X*X$X9X:X,X>X9X0X9XwXqX9X6X5X9X,X9X:XuXcXcXxXVXVXCXSXSXCXCXCXCXCXgXxXvXvXgXsXiXhXtX`.tXwXzXvXfXwX>XaXiXsXcXvXxX,XXX;XaX2X1XgXvXsX1XgXxXCXSXCXvXvXxXgXgXgXxXxXgX1XxXxXVXxXxXvXxXVXVXxXaX1XXXZ.2XcXcXxXxXgXvXVXxXcXcXgXgXCXSXvXxXgXgX2X1XgXvXvXCXZXVXcXxXVXVXCXCXCXCXVXAXAXvXsXgXVXZXSXVXcXgXvXvXvXxXaXxXxXVXSXCXVXVXvXvXcXvXcXxXcXcXcXaXcXaXP.8./ ^ i.a. XgXVXvX,X-XcXVXVXvXgXgXgXcXcXgXxXxXVXVXVXVXVXCXVXVXvXCXVXVXZXVXVXVXxXxX2X2XVXVXZXSXFXJXLXLXSXAX;X2.n o.0.0.K.vXFXFXSXAXaXcXvXaX,X>XsXsXhXVXAXAXzXW.=X*X*X:XzXDXJXJXSX@X@Xy.} >.w.S.Q.E.E.:.F :.G.Q.6X6X9XrXnXrXlXnXmXnXtX6X6X9XwX,XzXaX9X9XtXtXeX6XJ.~.tX6XJ.=X6X=XE.E./ j R B.VXCXAX9XL.$XzXiXaXiX0XaXpX0X>X0XaXcXcX*XeX*XE.$X*X*X=X@X9XpX9XwXcXCXbXCXFXCX>XP.C.rX9XvXMXzXaXaXaXAXDXvX9X$X;XwX>XY.a.pXpXmXGXMXmXzX9X6Xd.m.~.dXmXMXmXzXwXtX6X$XwX-.! jXvXmXaXpXsXpX0X:X9XdXfXwXpX9Xf.K.T.P.*X0X:XpX0X9XE.Q.G.<.G.6XwXzXmXcXcXAXDX,Xd.Y.*X*XeXwX9X9XzXZ.1.C d.*XwXsXuXsXxXxX$X:X#X*X6X0X:XW.2.L.mXE.=.Y.MXFXpXAXvXp.U.cXvXAX$Xf.f.6.~ V =.E.=XtXE.S.U.m.D.E.qXzX,X+Xg.C.p.E.F.f.! T e m N R ;.J.v.h r 4.L.f.Y N N d T D D.zXCXF.F !.7XG.q.f.wX*XwX>XpXvX9X7.7.K.W.9X,XP.$Xg.P.9XpX:XwXwXeX0X>XY.U.@X+XoX>X:XpX0X@XU.@XK.0XzXOXN 0 R Y.P.wXwXcX=X8.1.p.Z.$XqXpX0XeX0XuX%X|.E L W U 3.g.g.D.M.Y.@X=XwX*XY.$X$X$X@XK.L.D.qXwX@XoXP.P.0X9XjXwX6X8XrX=X0.0.q.=XwXpX0X#XP.U m $XL.V Y E.rXfXwX6X6X6X:XtX$X1.=XwXL.D.oX;X#XqXwXfXrXtXqX6XfXmXwX*XW.E.D.K.dXrX*X*X9XfXdXhXsX*X@X@X@XM.",
"$X5X5X6X6X$X;X:X#XoXoXU.oXoX+XOX:X9X9XqX9X*X*X$X=X9XwX9X>XhXcXxXVXxXxXVXCXVXVXCXSXFXCXCXCXCXcX,XOXsXrX7XtXwXaXxXcXcXiX0XeX>XsXsXcXvXiX>XaX>X XXX2X-X,XgXgX2XgXgXgXxXxXgXxXVXCXxXgX1XxXVXCXvXVXCXxXxXCXCXCXvXsX1XgXxXxXVXVXvXvXxXgXvXSXCXgXVXSXCXCXVXvXxXgXcXVXVXcXxXgX1X1X2XxXvXvXCXCXVXFXAX,XZ.h.CXFXLXVXAXAXCXVXVXxXxXgXgXxXVXVXxXaXaXcXcXvXhX,X,XsXaXaXhXfX:X#X#XOXiX%Xh.+XgX2X|.|.cXvXxXxXxXxXxXvXcXgXvXxXvXxXxXVXVXCXVXVXvXCXCXCXZXxXxXVXVXCXgXxXCXSXZXSXFXGXFXSXAXcXY.9.>.y.D.L.Y.zXxXCXAXcXiXuXaXsXaXcXvXvXCXaXvXGXvXD.q.=X9X$X*X0X>X2XiX9XrXQ.w.Q.9XsXAXhXdX$X6X).`.F.U.G.2.6.G.y.y.R.9XdXtXrX6X9XwX&X#XsXeX*XF.q.f.G.I.J.Q.k.G.9XdXtXD.V./ / &X1XaXiXsXpXoX2.Y.,X0X,XsXcXcXcXcXcXcXaX>X*XfXzXdXdXdXwXdXqX*XdX=X0X>XaXxX2XbXiX#X*X,XtXz =.eXzXeX:X>XxXvXaX9X#XpXzXdXzXsXfXvXzXvXvXMXwXM.=.4 d D.9X*X=X=XW.D.W.wXY.U.F.4.f.P.pXmXzXzXvXvXaX>X:XaXdX0XoXR p.T.T.9XpXwXvXmXzXY.R.J.y.G 7.$X$X0XiX0X>X;XP.K.sX0X@X:X9XpXwXfXY.Y.$XdXpXpX,XXXXX>XfX9XdXdXzXmXmXwX$X0.=.9X9XK.*XbXAX&XZ.#Xd.l.9XOX=X0XrXqXwXnXdX6XW.$X6XR.6XtXF.q.7.$XmXvXDXfXvXpXrXL.L.D.D.P.L.d.0.6.7X7XN 0 W qX9XK.p.g.d.9XI.=XvXCX$XQ F.).S.S.L.mXwXcXsXsX*X1.% d 4.U.dXaX:X$X7.7.f.Y.@X9X0XsXsX0X@XY.oXOX#X:X%X,X0X@X@X6XY.wXMX0Xj./ 7.$X0XsXpXaXW./ P R j.T.#X,XoXoX#XuX,X%XZ.h.>X,XdXwXrXrX9XrXqX$X0XqX9XdXzXdXwX6X@XD.$X6XU.@X#X:X0X*XwX6XtX6XW.$XI.$X6XzXzX0XcXmXhXp.h L.K.e m f.$X9X$XQ.I.$X9XzXnX4.M.E.0.4.oXuXoXP.P.$XW.F.0.-.D.*X:X@Xm.f.d.8.=XeX9XfXwXwXzXAXwXY.@X@X=XT."
};
