/* XPM */
static char *c890b0b736064187860a387efa5d80b2WgwlPr0eqhvZIumR[] = {
/* columns rows colors chars-per-pixel */
"768 432 256 2 ",
"   c #040101",
".  c #0B0401",
"X  c #0D0A06",
"o  c #150A04",
"O  c #1A1309",
"+  c #181514",
"@  c #271707",
"#  c #361A06",
"$  c #261B14",
"%  c #281006",
"&  c #392509",
"*  c #372817",
"=  c #2F2814",
"-  c #352F29",
";  c #1F201F",
":  c #472808",
">  c #58340B",
",  c #462B16",
"<  c #493519",
"1  c #583817",
"2  c #522E0C",
"3  c #663C16",
"4  c #67390E",
"5  c #483827",
"6  c #573B25",
"7  c #493830",
"8  c #663C25",
"9  c #431D06",
"0  c #564517",
"q  c #6A441A",
"w  c #76491B",
"e  c #79521D",
"r  c #6A4F14",
"t  c #594528",
"y  c #584936",
"u  c #504B32",
"i  c #684827",
"p  c #7B4D23",
"a  c #754B26",
"s  c #6A5429",
"d  c #7C5324",
"f  c #7C542B",
"g  c #785729",
"h  c #695538",
"j  c #795836",
"k  c #6C4B35",
"l  c #7A6438",
"z  c #746530",
"x  c #626626",
"c  c #565048",
"v  c #685847",
"b  c #775B44",
"n  c #6A5951",
"m  c #796548",
"M  c #786856",
"N  c #706F51",
"B  c #777068",
"V  c #5D6453",
"C  c #3C4033",
"Z  c #86521C",
"A  c #835424",
"S  c #83552B",
"D  c #845B2C",
"F  c #8B5B2C",
"G  c #895727",
"H  c #935C2B",
"J  c #845C33",
"K  c #8B5C33",
"L  c #865A38",
"P  c #935D34",
"I  c #824D26",
"U  c #88622C",
"Y  c #97632C",
"T  c #8C6234",
"R  c #8C643B",
"E  c #876639",
"W  c #946334",
"Q  c #9B6534",
"!  c #93643B",
"~  c #946B3C",
"^  c #9C6B3B",
"/  c #9A6837",
"(  c #99733C",
")  c #8B7439",
"_  c #A36B35",
"`  c #A36D3B",
"'  c #A76B37",
"]  c #A4723C",
"[  c #AC733C",
"{  c #A97538",
"}  c #B3773C",
"|  c #A5692D",
" . c #956322",
".. c #875C44",
"X. c #896846",
"o. c #946B43",
"O. c #9B6C43",
"+. c #966947",
"@. c #8B7447",
"#. c #9C7344",
"$. c #9C744B",
"%. c #977749",
"&. c #897558",
"*. c #997955",
"=. c #8C6B55",
"-. c #A46D44",
";. c #A47344",
":. c #AB7443",
">. c #AC7A44",
",. c #A3754B",
"<. c #A47B4C",
"1. c #AC7B4B",
"2. c #A77748",
"3. c #B47A44",
"4. c #BA7D45",
"5. c #B47C4B",
"6. c #BA7E4A",
"7. c #B27644",
"8. c #A47C53",
"9. c #AC7C53",
"0. c #A67A58",
"q. c #B47D53",
"w. c #AA6D4D",
"e. c #8E7968",
"r. c #A77C64",
"t. c #C27E48",
"y. c #788662",
"u. c #7F8032",
"i. c #B0843A",
"p. c #9A8458",
"a. c #93834F",
"s. c #A8834B",
"d. c #BC824C",
"f. c #B78349",
"g. c #AC8354",
"h. c #AC845B",
"j. c #A78759",
"k. c #B48354",
"l. c #BB8453",
"z. c #B4845B",
"x. c #BB865A",
"c. c #B48B5C",
"v. c #BD8A5C",
"b. c #BA8A55",
"n. c #B8925C",
"m. c #AE9257",
"M. c #998567",
"N. c #938A73",
"B. c #A98965",
"V. c #BC8C63",
"C. c #B58A66",
"Z. c #AB9368",
"A. c #B99568",
"S. c #A78B75",
"D. c #AA9477",
"F. c #B89875",
"G. c #B68C74",
"H. c #BBA478",
"J. c #B5A370",
"K. c #9EA376",
"L. c #C2844D",
"P. c #C7884B",
"I. c #C28653",
"U. c #C48A54",
"Y. c #CB8C54",
"T. c #C38C5C",
"R. c #CA8E5B",
"E. c #C38659",
"W. c #CC925C",
"Q. c #C89359",
"!. c #D3945C",
"~. c #DB9A5D",
"^. c #D59559",
"/. c #D08F53",
"(. c #E19D5E",
"). c #C38D62",
"_. c #C88D64",
"`. c #C49264",
"'. c #CC9463",
"]. c #C4946B",
"[. c #CB956A",
"{. c #CD9A6C",
"}. c #C79B68",
"|. c #D29662",
" X c #D59A64",
".X c #DB9C64",
"XX c #D49C6B",
"oX c #DA9E6A",
"OX c #D49668",
"+X c #C89A74",
"@X c #D49D73",
"#X c #C88E6E",
"$X c #E19E63",
"%X c #E39F72",
"&X c #C9A36B",
"*X c #DDA165",
"=X c #DDA26B",
"-X c #D5A46B",
";X c #C8A578",
":X c #D4A274",
">X c #DBA473",
",X c #DCAB7B",
"<X c #D7A879",
"1X c #DAB27B",
"2X c #CFB176",
"3X c #E3A265",
"4X c #E2A56B",
"5X c #E5A96D",
"6X c #EBAB6C",
"7X c #E9A667",
"8X c #E4AB73",
"9X c #EAAD73",
"0X c #E3AD7B",
"qX c #E4A875",
"wX c #EAB379",
"eX c #F3B678",
"rX c #EEB16D",
"tX c #DDA35D",
"yX c #F4C37B",
"uX c #C5883B",
"iX c #978F89",
"pX c #AF9988",
"aX c #B7A68E",
"sX c #B3ABA6",
"dX c #C8A886",
"fX c #D8AB84",
"gX c #D9B488",
"hX c #D9B996",
"jX c #CAB092",
"kX c #E4B383",
"lX c #E8B888",
"zX c #F3BC86",
"xX c #E6BB94",
"cX c #E8B288",
"vX c #D0B9A9",
"bX c #D0A78F",
"nX c #DBC299",
"mX c #F8C589",
"MX c #E9C399",
"NX c #F7C897",
"BX c #F6CE94",
"VX c #D9C5B0",
"CX c #E8C8A7",
"ZX c #F5CBA5",
"AX c #FAD6A8",
"SX c #F7D8B7",
"DX c #E9CFB5",
"FX c #FDE5B6",
"GX c #FCE399",
"HX c #EED8C8",
"JX c #FCE6C8",
"KX c #FCEDD5",
"LX c #FBF4EC",
"PX c #D8CBC8",
"IX c #C2BEBA",
"UX c #8A7D82",
/* pixels */
"O.9.9.9.9.9.9.9.1.1.9.9.9.1.<.<.<.9.9.9.9.9.9.9.z.g.9.k.g.9.z.z.z.z.z.C.C.z.z.V.z.z.V.V.V.V.V.V.C.V.V.V.V.z.z.z.V.V.V.z.z.z.c.V.C.V.V.V.V.V.V.V.V.V.V.V.V.V.V.V.V.V.x.x.z.z.z.z.z.z.z.x.V.V.x.x.V.V.V.v.V.V.V.V.v.V.v.v.v.V.V.V.V.V.V.V.).).).).V.V.V.V.v.x.v.V.v.V.v.V.V.V.V.V.V.v.).).).).).).).).V.).).).V.V.V.].].].].+X+X].+X+X].+X+X+X+X+X+X+X+X+X+X+X{.].+X+X@X@X+X@X@X+X+X].+X].].].+X].+X].A.A.A.A.A.V.A.G.G.V.A.A.A.+X+X+X].].+X+X+X+X@X@XfXfXfXfXfXfXgXgXfXfXgXgXgXgXgXgXfXfXfXfXfXfXgXgXfXgXgXgXfXfXfXfXfXgXgXgXgXgXgXcXlXgXgXgXgX1X1X1XgXfXfX1XgX1XgXgXgXgXgXkXgXlXxXxXxXxXhXhXhXhXhXhXgXgXgXgXgXgXfXgXgXgXdXdX2X1XfXgXgXgXgXgXgXgXgXhXhXhXnXnXnXhXnXhXhXhXhXnXnXnXhXhXhXgXjXjXjXdXdXdX2X2X2X2XdXdX2X;X;X;XdXdXdXdXdXjXdXdXdXdXdXdXjXjXdX2X2X2XdXdX;X;X;X;XF.F.F.F.F.F.F.F.A.A.F.Z.Z.Z.Z.c.c.c.C.A.n.n.m.g.g.c.c.Z.c.C.Z.A.A.Z.Z.Z.B.B.j.j.j.g.g.g.j.j.j.g.8.g.g.h.j.h.Z.Z.F.F.F.F.F.F.F.F.F.A.A.A.A.A.A.C.C.c.c.c.c.C.C.C.C.C.C.C.C.C.C.j.j.g.g.0.g.g.z.z.z.z.c.C.c.c.c.k.k.k.h.g.g.h.j.j.B.Z.F.A.H.H.F.F.H.H.H.H.J.F.D.F.Z.Z.Z.Z.j.j.p.p.$.$.$.s.<.<.s.s.j.c.C.A.Z.A.F.A.H.H.H.H.F.F.F.Z.B.B.p.p.a.a.*.*.*.$.<.1.1.q.9.9.z.z.z.z.g.0.8.*.*.%.*.*.*.*.*.*.%.%.%.*.%.%.%.%.*.*.*.p.p.%.*.s.s.s.s.g.g.c.V.V.C.C.C.B.h.g.h.8.<.,.$.$.,.,.,.,.<.8.8.8.$.$.$.*.$.$.<.<.<.<.<.<.2.2.,.;.2.;.-.-.-.O.O.O.$.$.o.! ~ #.2.s.g.j.*.o.E L E R R ~ O.%.8.8.8.j.8.<.<.<.<.<.$.%.o.o.#.o.X.X.X.o.X.X.X.X.X.R ) %.o.( ~ ~ / ~ ~ o.O.$.$.8.$.$.$.$.$.$.O.O.O.O.O.o.o.o.! ! ! o.o.o.o.! ! ! ! ! R R J J J T E R E E l l l j j j j j j j j j j j j j g U T T E l z z z z z z z z z z l l l l l l l l ",
"$.9.9.g.9.9.9.9.9.9.9.9.1.9.8.8.<.9.9.9.9.9.9.9.9.9.9.9.k.9.z.z.z.z.z.z.z.z.z.z.V.z.V.V.V.V.V.V.V.V.V.V.V.C.c.z.C.V.x.z.z.v.V.V.V.V.V.V.V.V.V.V.V.V.V.V.V.V.V.V.V.V.x.x.z.z.z.z.z.v.V.V.V.V.x.x.V.V.V.V.).V.V.V.v.V.V.v.V.V.V.V.V.V.V.).).).).).V.V.V.V.v.T.v.V.v.v.V.V.V.V.v.V.V.).T.).).).).).).).).).].].].].).].].].].[.].].+X+X+X+X+X+X+X+X+X+X+X+X+X+X{.{.].].+X+X+X@X@X+X+X+X+X+X].].].].].].A.].].A.A.A.A.F.F.F.].].].+XF.].+X+X+X+X;X;X<X<XfXfXfXfXfXgXgXgXgXgXgXxXxXhXgXgXgXfXgXgXgXgXgXgXgXgXgXgXgXfXgXgXgXgXgXgXlXlXcXlXlXlXlXkXkXgX,X,X,XfXgXgXgX,XgXgXgXgXgXlXlXxXxXxXxXxXhXhXhXhXgXgXgXgXgXgXgXgXgXgXgXgXgXfXfXgXfXgXgXgXgXhXgXgXhXhXnXMXnXnXnXhXnXnXnXnXCXCXnXnXhXhXhXhXgXjXgXgXdXdX2X2X2X2XdXdX2X2X;X;XdXdX;XdXdXdXdXdXdXdXdXdXjXgXgXfXfXfXgXgXdX;X;X;X;XF.F.F.F.F.F.A.A.F.A.Z.Z.Z.Z.Z.c.C.c.C.n.n.c.c.c.m.c.C.C.A.Z.A.A.A.Z.A.Z.Z.B.j.h.h.g.g.h.j.j.g.g.g.g.g.h.j.B.C.A.A.F.F.F.F.A.F.A.A.A.A.C.C.C.C.C.C.C.C.C.A.C.C.C.C.C.C.C.C.C.j.j.h.h.h.s.g.h.z.z.z.c.C.c.c.c.z.z.z.h.g.g.g.h.j.Z.Z.F.F.H.H.H.H.H.H.H.H.H.H.F.F.F.Z.Z.Z.B.j.p.p.s.s.$.$.$.s.<.j.j.c.Z.A.Z.F.F.F.H.H.H.H.H.F.D.Z.Z.M.M.p.a.a.*.*.*.%.,.2.1.1.9.9.q.z.z.z.g.g.g.8.*.*.*.*.*.*.8.8.*.*.*.%.%.%.%.%.%.*.%.%.*.*.*.*.s.s.s.g.z.c.A.A.A.A.C.c.C.h.h.9.<.<.<.<.%.2.,.<.8.s.j.j.8.*.*.$.$.$.<.<.,.<.8.9.9.9.1.2.2.;.;.O.-.;.#.#.$.$.^ ~ ( #.%.,.<.*.%.R E j J E R ~ O.%.8.0.g.j.g.<.<.<.8.<.$.$.%.%.#.@.o.X.X.R @.@.X.X.@.o.) %.o.o.^ ~ W ~ o.o.O.$.$.$.$.$.$.$.$.O.O.o.o.O.O.o.+.+.! ! o.+.o.+.o.! ! ! ! ! ! ! R K J J R R T E l j j j j j j j j j j j j j g g g D U U U z z z z z z z z z z z l l l z z j l j ",
"$.9.9.g.9.9.9.q.9.9.9.9.9.9.9.8.9.9.9.9.9.9.9.g.9.9.9.9.z.g.z.z.k.z.z.z.z.z.z.z.z.z.z.v.V.V.V.V.V.V.V.V.V.V.z.z.z.z.z.z.z.z.V.V.V.V.V.V.V.V.).V.V.].V.V.V.V.V.V.V.z.z.z.z.z.z.z.V.V.V.V.V.V.V.x.V.V.V.).).V.V.V.V.V.V.V.).V.V.V.V.V.V.V.V.v.V.).x.V.V.v.T.T.v.v.v.v.v.v.v.v.v.v.V.).T.T.).).V.V.).).).).).).].].].].].[.].].].].+X+X+X[.+X+X+X+X].[.+X+X{.{.{.+X].].+X+X+X+X+X+X+X+X+X].+X].].].].+X].+X+X].].A.F.].+X].].+X+X+X+X+X:X;XdXdXdXfX<XfXfXfXfXfXgXgXgXgXgXgXxXxXxXxXxXgXgXgXgXgXgXcXcXcXgXgXxXxXgXgXlXxXxXxXxXxXxXxXxXxXlXlXlXlXgXgXgX,X,X,XgXgXgX,XfXgXgXgXkXlXlXxXxXxXxXxXhXhXgXgXlXgXgXgXgXgXgXgXgXgXgXfXfXfXgXgXgXgXgXgXgXhXhXhXhXhXMXMXnXnXhXhXnXnXnXCXCXCXCXCXnXnXhXhXjXjXjXdXdXdX2X2XdX;XdXdX2X2X2X;XH.H.;XdXdXdXjXjXdXdXdXgXgXhXgXgXgXgXgXgXdXdX;X;X;X+XF.F.F.+XF.A.A.A.A.A.Z.C.Z.C.C.C.c.c.n.c.Z.Z.c.c.Z.C.C.A.Z.A.A.A.Z.A.Z.Z.B.h.j.h.h.j.h.j.j.g.0.g.g.g.h.h.j.B.C.Z.A.A.A.F.F.F.F.A.A.A.C.C.Z.C.C.C.C.C.C.C.A.A.A.A.A.A.C.C.C.c.j.h.h.g.s.g.h.z.z.c.c.C.c.c.c.z.z.z.h.g.h.h.j.Z.Z.F.F.J.H.H.H.H.H.H.H.H.H.H.F.F.F.Z.Z.Z.B.j.j.j.p.$.$.%.$.$.<.s.j.j.c.Z.Z.A.F.F.F.H.H.H.H.F.D.Z.Z.M.M.p.a.a.*.*.*.%.$.,.,.1.9.q.9.q.z.z.h.h.g.8.*.*.*.*.*.*.j.j.*.*.*.%.%.*.%.%.%.%.%.%.*.%.%.*.*.s.g.c.k.c.c.A.V.A.C.c.c.h.g.8.8.<.<.<.<.<.<.<.s.g.g.g.j.j.j.*.*.*.<.<.<.8.g.h.h.z.z.9.,.,.;.;.,.,.$.,.$.$.#.~ ( #.%.$.$.%.R E j g j j R o.#.$.0.h.h.j.g.s.<.<.<.<.<.$.$.$.%.%.%.X.X.X.@.o.@.@.@.o.) o.~ O.^ ! ! o.o.o.O.O.$.$.$.$.#.#.O.O.O.o.O.O.O.O.o.+.o.+.o.o.O.$.O.o.o.! ! ! ! ! ! T J J E R T J E j j j j j j j j j j g j g g g f g g g g g z z l z z l l l l l z l z g g g j j ",
"$.9.9.g.9.g.k.q.9.9.9.9.9.9.9.9.9.9.9.1.9.9.1.9.9.9.9.9.k.z.k.k.k.z.z.g.z.z.z.z.z.z.z.z.v.x.V.V.V.V.V.V.V.V.z.z.z.z.z.z.z.z.V.V.x.V.V.V.V.].].].V.].V.V.V.V.V.V.z.z.z.z.z.z.z.z.z.V.V.V.V.V.V.V.V.V.V.V.V.V.V.V.V.V.V.V.).V.V.V.V.V.V.V.v.x.V.).V.v.v.v.v.T.v.v.x.x.x.v.v.v.v.v.V.v.T.T.).).).V.).).).).).].).).].].].].].].].+X+X+X[.[.].].].].].].].[.].].+X+X+X{.+X+X@X+X+X+X].+X].].+X+X+X+X+X+X+X+X+X+X].].+X+X+X].].+X+X+XdX:X:X;XfXfXfXfXfXfXfXfXfXgXgXkXgXgXcXxXxXxXxXcXxXcXgXgXgXcXxXxXxXxXxXxXxXxXxXxXxXxXxXxXxXxXxXxXxXxXxXlXlXlXgXgXgXgXfX,X,X,XgXgXgXgXgXgXlXlXlXxXhXxXxXxXgXgXgXgXlXlXgXgXgXgXgXgXfXfX1X<X2XgXgXgXgXgXgXgXgXgXhXhXnXMXMXMXMXhXhXhXnXnXnXMXCXCXCXCXnXnXhXhXhXjXgXdXgXdX2X2X;XH.H.H.;X;X;X;XH.H.;X2X2XdXgXgXjXjXhXhXgXhXhXhXhXhXgXgXdX2X;X;X;X;X+X;XF.F.F.F.A.A.A.A.Z.Z.Z.A.C.A.C.C.n.C.Z.Z.Z.c.C.C.C.A.Z.Z.A.A.Z.C.B.B.j.h.j.j.j.j.j.j.8.8.8.g.h.h.h.h.h.B.Z.Z.Z.A.A.A.F.F.F.A.A.A.C.C.Z.Z.Z.C.C.C.C.C.A.A.A.A.A.G.A.A.A.c.c.c.h.h.g.g.g.h.z.c.c.c.x.c.c.z.k.z.c.c.c.c.C.C.A.F.F.H.H.H.H.H.H.H.H.H.aXaXH.H.F.F.Z.Z.B.j.j.j.p.p.s.%.$.$.p.s.j.j.c.c.Z.Z.F.F.F.H.H.F.H.F.D.Z.Z.M.M.p.a.*.*.*.*.$.$.,.#.,.1.q.q.q.z.k.z.z.h.0.8.8.j.j.j.j.j.*.*.*.*.$.%.%.%.%.%.%.%.%.*.%.*.*.*.s.g.c.k.c.c.C.C.A.V.c.c.h.g.8.8.<.<.8.s.s.8.8.8.s.j.j.j.j.j.j.j.j.j.*.j.j.g.h.C.z.z.9.<.,.,.,.<.,.,.<.<.$.#.#.#.#.#.$.%.o.E l j f f j R +.%.0.h.j.j.j.g.s.s.<.<.$.$.,.$.$.%.%.%.@.@.X.R @.@.@.o.o.) ) ~ ^ ~ ! R ! o.o.O.O.$.$.$.#.O.O.O.o.o.o.O.O.O.O.o.o.O.+.o.O.O.$.O.O.o.o.o.! ! ! ! R T T R R R R E E J L j j j j j j j j g g g f g f g g g g g z z z l l l l l l l l z g g g g j ",
"$.9.1.g.g.g.g.q.9.9.9.9.9.9.9.9.9.9.9.9.1.1.1.1.9.9.9.9.g.g.9.9.z.z.z.z.z.z.z.z.z.z.z.z.x.c.V.V.v.v.V.V.z.z.z.z.z.z.z.z.z.z.z.V.V.V.V.V.).).].].V.V.V.V.V.V.V.C.v.z.z.z.z.z.z.c.z.z.V.V.V.V.V.V.V.V.V.V.V.V.V.V.V.V.V.V.V.V.V.V.V.V.V.V.v.v.V.).x.V.v.v.v.v.x.x.x.v.v.v.v.v.v.v.V.T.T.T.).).).).`.).`._.].].].].].[.[.].[.+X+X[.+X[.].].].].].].+X].].].+X{.+X+X].{.{.+X@X@X+X+X+X+X+X+X+X+X+X+X+X+X+X+X+X+X+X+X+X+X+X+X+X+X:X;XfX<X:X<XfXfXfXfXgXgXfXgXgXgXcXcXxXxXxXxXxXxXxXcXxXxXgXgXcXxXxXxXxXxXxXxXxXxXxXxXMXxXMXMXMXxXxXxXMXxXxXlXlXcXgXgXkXgXgXfX,XgXkXkXgXgXgXlXlXlXlXxXhXxXxXlXgXgXgXgXgXgXgXfX1X1X1X1XfX1X1X1X1XgXgXgXgXgXgXgXhXhXhXxXMXMXhXhXhXhXhXMXhXnXnXnXCXCXCXCXnXnXnXhXhXhXgXdXdXdXdX;XH.H.H.H.;X;X;XH.H.H.;X;X2X;XdXdXjXgXgXgXgXhXhXhXhXhXgXgXgXdX2X;X;X;X;X;XF.F.F.F.F.A.A.A.Z.A.A.A.A.A.A.A.A.C.Z.Z.m.m.C.Z.C.C.C.C.Z.Z.C.Z.c.Z.c.j.c.j.j.j.j.j.j.j.8.g.h.h.h.h.B.Z.C.C.Z.Z.A.A.A.A.C.C.C.C.C.Z.C.B.B.C.C.C.C.A.A.A.A.A.G.G.A.C.C.B.c.c.h.h.g.h.h.g.h.z.c.c.z.z.z.z.z.x.c.c.C.C.C.A.A.A.F.H.H.H.H.H.H.aXH.H.H.aXH.H.H.F.F.Z.Z.B.j.j.s.s.s.$.*.*.*.j.h.j.j.c.Z.Z.F.F.F.F.H.F.H.F.D.Z.Z.M.M.p.a.*.*.%.%.%.$.,.#.,.,.1.1.q.z.q.k.z.z.9.g.h.h.B.j.j.j.*.8.*.%.$.%.%.%.%.%.$.$.%.%.%.%.*.<.s.s.g.c.c.C.A.A.C.C.C.c.g.g.g.s.s.j.g.s.s.s.s.s.s.j.j.j.j.j.j.j.j.j.j.j.j.j.h.B.B.h.9.9.<.<.<.8.s.s.s.s.<.2.#.#.#.#.%.%.) E l g g g j X.$.0.h.B.B.j.j.h.g.s.<.<.$.%.%.$.*.$.%.@.@.@.@.@.@.@.o.o.@.~ E W ~ ~ ! ! ! ! R o.o.O.O.#.#.#.#.o.~ R ! o.O.O.o.o.o.O.O.O.O.$.$.#.#.O.O.o.O.! ! ! ! ! ! ~ ~ R R R E J L L j j j j j j j g f f f g f g g g g g g z z z z l l l l l l z z g g g g ",
"#.9.1.g.g.g.z.q.g.9.9.g.9.9.9.9.1.9.9.9.1.1.9.9.9.9.9.9.9.9.9.9.9.9.9.z.z.z.z.z.z.z.z.z.z.z.x.z.v.v.x.z.z.z.z.v.z.z.z.z.z.z.z.v.V.V.V.V.V.V.V.V.V.V.V.V.V.V.V.x.v.v.z.z.z.z.z.V.v.v.V.V.V.V.V.V.V.V.V.V.V.V.V.V.V.V.V.V.V.V.V.V.x.v.v.V.V.V.V.).v.V.v.).T.).V.V.V.).v.v.v.v.v.v.).T.T.T.).).).).).`.`.).].].].].].].[.[.[.+X[.].+X[.[.[.[.[.].].].].`.].].[.+X].].{.{.{.@X+X+X+X@X+X+X+X@X+X+X+X+X;X+X:X+X+X;X+X+X+X+X;X;X;X;X<XfXfXfXfXgXgXgXfXgXgXgXgXxXxXxXxXxXxXxXxXxXxXxXlXxXxXgXhXcXxXxXxXxXxXxXxXxXxXMXCXCXCXMXCXCXMXMXMXMXxXxXlXlXcXgXgXkXgXgXgXkXkXkXgXgXgXlXlXlXxXxXxXlXxXxXlXlXlXlXgXgXgXfX1X<X<X<X,X,X<X1X1X1XgXgXgXgXgXgXgXxXhXhXxXMXMXMXhXhXhXhXMXhXnXnXnXnXnXnXnXnXnXnXnXhXhXgXgXgXdXdX2XH.H.H.H.H.H.H.H.H.H.;X;X;X;X;XdXdXjXgXgXgXhXhXhXhXhXhXgXgXgXdX;X;X;X;XF.+XF.F.F.F.A.A.A.A.A.A.A.A.A.A.A.A.A.C.Z.m.m.m.C.A.C.C.m.Z.C.C.C.B.Z.Z.Z.Z.c.j.j.s.s.s.j.j.g.j.h.h.h.B.B.C.Z.Z.C.A.Z.A.A.C.C.B.c.c.C.C.C.B.C.C.C.C.A.A.A.A.A.A.A.A.C.C.B.h.h.j.j.h.h.h.h.g.h.z.c.z.z.c.c.c.x.c.C.c.C.C.A.A.A.F.H.;XH.H.H.aXH.H.H.H.aXH.H.H.H.F.F.Z.B.B.j.j.s.s.s.%.*.j.g.j.h.B.Z.Z.Z.A.F.F.F.F.F.F.D.D.Z.Z.M.M.p.a.*.*.%.@.#.$.$.,.,.,.,.2.q.k.q.5.q.z.z.h.z.B.B.j.j.j.*.j.*.%.$.%.%.%.o.%.%.%.%.#.%.$.*.8.s.s.g.c.c.C.Z.C.C.B.c.c.h.j.j.s.s.g.j.s.j.g.g.j.j.g.j.j.g.s.j.j.p.p.j.j.j.j.h.h.h.h.9.1.9.9.<.<.g.c.g.s.s.<.2.,.#.#.%.o.R E z g g g j X.*.j.j.B.B.B.h.j.j.g.s.<.$.%.#.$.%.%.%.@.@.@.@.@.%.@.@.@.o.~ ~ W ! ! ! ! ~ ! ! o.o.o.O.O.O.#.#.o.~ E R ! o.O.O.o.o.O.+.$.$.$.$.$.#.O.o.o.^ ^ ~ ~ ! ! ! o.o.o.X.R R R R E L L E J J j j f f f g f g U g g g g z g z z z z l l l l l z z g g g g ",
"O.9.1.9.9.h.z.k.g.k.g.g.9.9.9.9.9.9.9.9.9.9.9.9.1.1.1.9.9.9.9.g.9.9.9.k.z.z.z.z.k.z.k.z.z.z.z.z.V.x.x.z.z.z.x.x.z.z.z.z.x.z.v.v.V.V.V.V.V.V.V.V.V.V.x.V.V.V.V.V.v.v.z.z.z.z.z.C.v.x.v.v.V.V.V.V.V.V.V.V.V.V.V.v.V.V.V.V.V.V.x.V.x.x.v.v.V.V.V.).V.).).).).).V.V.).).T.v.v.V.V.V.).).T.T.).).).).`.`.`.`.].].].].].].[.[.{.{.[.[.[.[.[.[.[.[.[.[.].].].].].].].].].+X{.].+X+X[.+X+X+X+X@X@X@X+X+X;X<X:X:X:X+X;X;X+X+X:X;XdXdXfX<X<XfXfXgXgXgXgXgXgXgXgXxXxXxXxXxXxXxXxXxXxXxXxXxXxXxXxXxXxXxXxXxXxXxXMXMXxXMXCXCXCXCXCXZXCXCXCXMXMXxXxXxXlXlXcXgXlXkXgXgXkXkXkXgXgXgXgXlXxXxXxXxXlXlXxXlXlXlXlXxXgXgXfX,X<X<X<X<X1X<X1X1XgXgXgXgXgXgXlXxXxXhXgXhXxXxXhXhXhXhXhXhXhXhXnXnXnXnXnXnXnXnXnXnXhXhXhXgXgXgXdX2X;XH.H.H.H.H.H.J.J.H.;X;X;X;X;X;XdXgXgXhXhXhXxXxXhXhXhXhXgXgXfX;X;X;X;X;X;XF.F.F.F.F.F.F.A.A.A.A.A.A.A.A.C.A.C.C.c.m.m.m.n.n.c.m.c.c.Z.Z.c.Z.Z.c.Z.c.j.j.j.j.g.j.j.g.h.h.h.c.c.c.c.c.B.C.B.C.C.A.C.C.c.h.c.c.c.c.B.C.C.C.C.A.A.A.A.C.C.C.C.C.C.h.h.h.h.c.c.z.h.h.h.h.z.c.v.c.C.C.V.V.V.C.c.V.A.A.A.F.H.;X;X;X;XdXdXdXH.aX;XdXdXaXH.H.F.F.Z.B.B.j.j.p.*.%.*.*.j.j.j.h.B.Z.Z.Z.Z.Z.F.F.F.F.F.D.Z.S.M.M.M.p.&.*.*.%.%.%.$.$.,.,.,.;.2.1.1.5.1.1.q.z.z.z.B.B.h.h.j.j.h.8.*.$.$.%.%.#.#.%.%.%.#.#.$.$.*.j.j.g.c.Z.C.C.C.C.c.j.j.h.j.j.j.s.j.j.j.j.j.g.g.g.j.g.j.j.*.*.%.*.p.p.j.j.j.j.h.h.g.9.1.1.9.1.g.h.j.j.j.s.<.<.,.#.#.#.o.R E z g a j l =.*.j.j.B.B.B.B.j.h.s.s.8.<.$.%.%.%.%.@.%.%.%.%.@.@.%.@.@.o.~ ~ ! ! ! o.o.O.o.~ O.O.o.o.o.o.o.o.o.~ E E ~ o.O.O.+.+.o.O.$.$.$.$.#.O.o.~ ~ O.^ ^ ! ! ! ! ~ O.o.o.! R R X.X.X.R E J j j j f f f f D D U g g z z z z z z z z z l l l l l z z z g g ",
"O.9.1.9.9.h.z.z.k.k.k.9.9.9.9.8.9.9.9.9.9.9.9.9.1.1.1.1.1.9.9.9.9.1.9.g.k.k.9.q.k.k.k.k.z.z.z.z.x.x.x.z.z.z.x.k.x.z.z.v.v.v.v.v.V.V.V.V.V.V.V.V.V.V.x.V.V.V.V.V.v.x.z.x.z.z.z.C.x.z.v.v.V.V.V.V.V.V.V.V.V.V.v.v.V.V.V.V.V.x.x.x.x.x.x.x.V.V.).).).).).v.x.).).).V.V.).v.v.).).).).).).).).`._.).].].].].].].[.`.].].[.{.{.[.[.[.].[.[.[.[.[.[.[.].].].].].].].].].+X{.].+X{.[.@X+X+X@X:X@X@X:X:X<X<X:X:X;X+X;X;X+X;X;X<XdXfXfX<XfXfXfXfXgXgXgXgXgXxXxXxXxXxXxXxXxXxXxXlXlXxXxXxXxXxXxXxXxXxXxXxXxXxXMXMXMXCXCXCXCXCXCXZXZXCXCXCXCXMXxXxXxXlXxXlXlXlXlXlXgXgXkXlXgXgXgXlXlXxXlXlXlXlXxXxXxXxXxXxXgXfX1X,X<X<X<X<X1X1X1XgXgXgXgXlXgXgXlXxXxXxXgXgXhXhXxXMXhXhXhXhXhXhXhXhXhXhXnXnXnXnXnXnXhXhXhXhXjXdXdX2X;XH.H.H.H.H.H.J.J.H.;X;X;X2X;X;XdXgXgXnXMXMXMXMXMXhXhXhXgXgXgXfXdX;X;X;X+XF.A.F.F.F.H.J.F.F.A.A.A.A.A.A.C.C.C.C.c.n.n.m.m.c.c.m.j.j.c.c.m.m.c.c.c.c.c.j.j.g.j.j.g.j.j.h.h.c.c.c.c.c.C.C.C.C.C.B.B.c.c.c.h.h.h.h.h.h.B.C.C.C.C.A.A.C.C.C.C.C.C.C.h.h.c.C.c.C.C.z.h.h.z.C.V.V.V.V.V.V.V.V.c.V.A.A.A.F.;X;X;XdXdXdXdX;X;X;X;XdXdXdXaXH.F.F.Z.B.B.j.p.p.%.%.%.*.j.j.j.j.B.Z.B.Z.Z.Z.F.D.D.F.D.D.S.M.M.M.p.p.p.*.*.%.%.#.#.#.;.,.,.#.,.2.2.1.1.1.q.k.z.h.h.B.B.B.h.j.j.8.*.*.*.$.$.%.( ( ~ ( ( #.$.$.*.*.j.j.j.c.c.c.C.C.c.j.j.j.j.j.j.j.j.j.j.j.j.j.g.g.g.j.j.p.*.$.%.%.a.a.j.j.j.j.j.8.8.<.2.2.2.s.g.g.j.Z.j.j.<.<.;.#.%.%.@.R E l g g j E =.*.B.j.B.B.B.j.j.j.s.<.8.8.$.%.%.%.@.@.@.%.%.@.@.%.%.%.@.o.~ O.~ ! o.o.O.O.O.O.#.O.o.o.o.o.o.o.~ R T E ~ o.o.o.o.o.o.O.$.$.$.#.#.O.~ ~ O.O.^ ! o.~ ^ ^ ^ ! o.o.R ! o.o.o.X.R L E J j j f f f f J T U U g z U l z g g g g g l l l l l l l l l l ",
"O.<.1.9.q.h.k.k.g.k.9.9.9.9.g.9.1.9.9.9.9.9.9.9.1.9.1.1.9.9.9.9.9.k.k.k.k.k.z.z.z.k.k.k.z.z.z.x.x.x.z.x.x.x.x.x.x.l.x.z.x.V.V.V.V.V.V.V.V.V.V.V.V.V.V.V.V.V.V.V.z.c.z.z.z.z.z.v.c.x.v.v.V.V.V.V.v.v.v.v.V.V.v.v.v.v.V.v.v.x.x.z.x.x.x.x.V.V.).V.v.).).).).).).).).).).v.V.).).).).).).).).].`.`.`.[.[.`.`.].[.[.].[.[.[.[.[.[.[.+X].{.{.{.[.[.+X+X].].[.].`.].+X].+X[.].[.+X+X[.+X+X+X+X+X@X+X:X:X:X<X<X;X;X;X;XfX<X<X<X<XfXfXfXfXfXgXfXgXgXgXxXxXxXxXxXxXxXxXxXxXxXxXxXxXxXxXxXxXxXxXxXxXxXxXxXxXMXMXMXMXCXCXCXCXZXZXZXZXZXZXCXMXMXxXxXxXxXxXxXlXlXxXlXlXkXkXlXlXcXcXlXxXxXlXgXxXxXxXcXcXxXlXgXgXgXfX1X,X,X1XfX,X1XgXgXgXgXgXlXgXgXgXlXlXlXxXxXlXxXhXgXgXgXgXgXhXhXhXnXnXnXnXnXnXhXhXnXnXnXhXjXjXjXdX2X;XH.J.J.H.J.J.J.H.H.;X;X;X;X;XdXgXgXhXhXCXCXCXCXMXMXxXhXhXhXgXdXdX;X;X;XF.F.A.A.A.A.A.F.H.J.F.F.F.A.A.A.A.A.A.A.A.n.n.m.n.n.c.j.j.c.c.j.m.m.j.j.c.Z.Z.Z.j.j.j.j.j.j.m.n.j.c.h.c.c.C.C.C.C.C.B.B.c.C.C.z.c.h.g.h.h.g.h.C.C.C.C.C.C.A.A.C.C.C.C.c.c.z.z.z.z.z.z.C.C.h.z.x.n.V.A.V.V.V.V.].A.A.A.A.A.F.+X;X;XdXdXdXdXdX;X;X;X;XdX;XH.H.F.F.Z.B.j.p.p.*.%.%.*.*.j.8.8.h.j.B.B.C.Z.Z.C.Z.D.D.D.S.S.M.M.p.p.p.%.%.%.@.@.@.#.#.#.;.;.2.2.,.,.#.,.1.1.5.9.g.g.h.B.B.B.h.*.*.*.*.$.$.%.%.#.( ( ( %.2.2.#.%.$.j.j.j.j.c.m.c.C.c.B.j.j.j.j.j.j.j.c.j.j.j.j.j.j.j.j.8.j.p.%.%.%.a.%.a.j.j.j.*.<.#.#.<.,.2.<.s.g.c.j.g.g.<.#.;.,.#.o.o.E E j j j X.=.*.p.B.B.B.Z.B.B.j.j.j.j.j.<.*.%.%.*.%.@.@.@.X.@.+.o.%.%.o.~ ~ ~ ~ ~ ~ %.$.%.%.%.%.%.o.o.) ) E ) R R T T E ~ ~ o.o.o.o.O.O.#.#.O.O.O.~ ~ ~ ~ ^ ^ ^ O.^ o.o.o.o.o.o.o.X.X.X.R ! K J J J j j f J J T F T T E T E E U z g g g g j E j l l E l l j j ",
"O.1.9.9.z.z.k.k.g.k.g.k.k.g.k.g.9.9.9.9.9.9.9.<.<.9.<.<.9.9.9.9.9.g.g.k.k.k.z.z.k.k.k.k.z.z.z.z.z.z.k.z.x.x.x.x.x.x.x.x.x.V.V.V.V.V.V.V.V.V.V.V.V.V.V.V.V.V.V.V.V.V.c.z.v.x.x.v.c.v.v.V.).V.V.V.v.V.V.V.V.V.v.v.v.v.x.v.v.x.x.V.x.x.x.x.v.V.V.V.).).).).`.`._.).).).V.).).V.V.).T.).`.`.].].`.`.`.[.[.[.[.[.[.[.[.{.{.{.{.{.{.[.+X].].{.@X@X+X+X].].[.{.].].].].].].{.[.{.+X@X+X+X@X+X+X+X+X:X:X;X:X<X<X<X;X<X;XfXfXfXfXfXfXfXfXfXfXfXgXgXgXgXxXgXxXxXxXxXxXxXxXxXxXxXxXxXxXxXxXxXxXxXxXxXxXxXxXxXxXxXMXMXCXZXCXCXZXZXZXZXZXZXCXCXMXMXxXxXxXMXxXxXxXxXxXlXlXlXlXlXlXlXxXxXxXxXxXxXxXxXxXxXlXgXgXgXgXgX1X,X,X1XgX1X1XgXgXgXgXlXlXxXhXgXlXlXlXxXxXMXxXgXgXgXgXgXgXgXgXhXhXhXhXnXnXnXnXnXnXnXnXhXhXjXjXdX2X;XH.J.J.J.J.J.J.H.;X;X;XdXdXdXdXgXhXhXMXCXCXCXCXCXMXMXxXhXgXgXfX2X;X;X;XF.A.A.A.A.A.A.J.H.F.F.F.F.A.A.A.n.n.n.A.A.n.C.n.A.A.C.n.n.n.m.c.m.j.j.c.c.c.Z.Z.c.Z.c.c.j.c.m.c.c.c.c.c.C.c.c.c.C.C.C.B.c.C.C.h.g.h.g.0.0.g.h.B.B.B.C.C.C.A.A.C.V.C.C.c.c.c.z.z.z.g.g.z.C.C.C.x.C.V.V.V.V.V.V.A.A.A.A.A.A.F.+X+XdXdXdXdXdXdXdXdXdX;X;XH.H.F.F.F.Z.B.j.j.p.*.%.%.%.%.*.8.8.j.j.j.B.Z.Z.B.Z.C.D.D.D.S.S.B.M.p.p.p.*.%.*.%.@.#.o.o.#.,.2.2.2.,.,.#.;.,.1.1.1.9.9.9.h.h.h.h.0.*.*.*.$.%.%.$.%.#.( #.%.<.%.#.#.%.p.j.h.j.c.c.c.c.c.c.j.j.j.p.j.j.j.c.j.j.j.j.g.j.j.p.j.p.p.s.a.%.a.%.%.p.j.j.<.<.%.#.%.$.<.<.s.g.j.j.g.g.<.2.#.#.#.~ o.~ T E j l X.=.*.B.B.B.B.B.B.B.c.j.j.j.j.j.j.%.%.@.@.@.@.@.X.@.+.o.%.%.%.~ ~ ~ ~ ~ ~ o.%.%.%.%.%.%.o.E E T E E E T E T E ~ o.o.o.! o.o.o.O.O.O.~ o.~ ~ ~ ^ ~ ~ O.O.o.~ o.o.o.o.o.o.R R R R ! R K T J J J J J K U T T T T T l l g g g g g g g j j l E E l l l l ",
"O.1.9.9.z.q.k.k.z.z.k.z.k.k.z.k.k.k.9.9.9.9.9.8.1.1.1.<.9.9.9.9.g.9.9.k.k.k.z.z.k.k.k.k.z.z.k.k.z.z.z.z.x.x.x.v.v.x.x.x.v.v.x.x.V.V.V.V.).).V.V.V.V.V.V.V.V.V.V.V.V.V.V.v.x.z.V.x.v.V.V.V.V.V.V.V.V.V.V.V.V.V.V.v.V.x.x.x.x.x.x.x.x.v.v.v.V.V.).).).).).).).).)._.).).).).T.).).T.`.`.`.].].`.`.`.[.[.[.[.[.{.[.+X{.{.{.+X+X{.[.+X{.+X+X@X@X@X@X+X+X+X{.[.].[.].].+X+X+X+X+X+X+X+X+X+X+X+X+X:X:X;X+X:X<X<X<X<X<X<X<XfXfXfXfXfXfXgXgXfXgXxXgXgXxXgXxXxXxXxXxXxXxXxXxXxXxXxXxXxXcXxXxXxXxXxXxXxXxXxXCXxXMXMXCXZXZXCXZXZXZXCXZXZXZXCXMXMXMXxXMXMXxXxXxXxXxXlXlXlXlXxXxXxXxXxXxXxXMXMXxXlXlXlXcXgXgXgXgXgX1X,X,X1XgXgXgXgXlXlXlXlXxXxXlXlXlXlXlXlXxXxXgXgXgXgXgXgXgXgXgXgXgXhXhXhXnXnXnXnXnXnXnXhXjXgXdX2X2XH.J.J.J.J.J.J.H.H.2X;XdXdXdXjXgXhXhXMXCXCXCXCXCXCXCXCXMXhXhXgXfX2X2X;X;XF.A.A.A.A.A.A.J.+XF.F.F.F.A.A.A.A.n.n.n.n.C.C.Z.n.n.n.m.m.m.c.m.m.m.c.c.c.c.c.c.c.Z.Z.c.c.c.c.c.m.m.c.c.C.C.c.c.C.C.C.C.c.z.z.h.g.g.9.8.8.9.g.h.j.j.B.C.C.C.C.C.C.C.C.C.C.z.h.g.9.g.g.h.z.C.V.C.V.V.V.V.V.V.V.A.A.A.A.A.F.+X;X;X;XdXdXdXdXdXdXdX;X;XH.F.F.F.F.F.B.B.j.j.p.*.%.%.%.%.%.%.*.j.g.j.B.B.B.B.B.Z.S.S.D.S.S.B.M.p.p.*.*.*.*.%.%.#.#.#.#.,.2.,.,.,.2.;.#.;.2.,.1.9.9.9.9.9.g.h.h.0.*.*.$.*.%.$.%.#.#.%.2.%.#.( %.%.%.p.j.j.j.j.j.j.B.Z.B.j.j.p.j.j.j.c.c.j.j.j.j.s.p.a.a.p.s.a.a.%.%.%.%.p.j.j.*.*.$.%.#.%.<.<.s.s.s.g.g.s.s.2.#.#.#.~ ~ R R T E E @.*.*.r.B.B.B.B.B.B.j.j.j.j.j.j.*.%.@.@.@.@.@.@.X.%.+.%.%.$.%.~ ~ E ~ W E o.%.%.%.%.#.) ) E E E l E E l z U E E ~ o.~ ! ! ! ! ~ ~ ! ! ~ ~ ~ ~ ~ ~ ~ ~ ~ ~ ! ! ~ ~ o.o.o.R R R R ! R K K J J J J J L T T T T T E l z z z z z g g g f j j l E l E E E ",
"O.1.9.9.q.9.z.k.z.z.z.z.k.k.z.k.z.g.9.9.9.9.9.<.1.1.1.,.1.9.9.9.g.9.9.k.k.k.z.z.k.k.k.k.z.k.k.k.x.x.x.x.x.z.x.x.x.x.x.x.V.v.x.x.v.v.v.v.V.).V.V.V.V.V.V.V.V.V.V.x.V.V.V.V.z.z.z.x.v.V.V.V.V.V.V.V.V.V.V.V.).V.V.V.V.x.x.x.x.x.x.x.x.x.x.v.V.).).).).).).).).).).)._.`.).).`.`.`.).`.`.[.[.[.].`.[.[.[.[.[.{.{.{.{.{.{.{.+X+X+X[.{.@X@X@X@X+X@X@X@X@X+X+X+X+X+X+X+X+X+X+X+X+X+X+X@X+X+X:X:X:X:X:X;X+X:X<X<X<X<X<X<X<XfXfXfXfXfXfXfXgXfXgXxXxXgXxXgXxXxXxXxXxXxXxXxXxXxXxXxXxXxXcXcXxXxXxXxXxXxXxXxXMXxXMXMXMXCXCXCXCXZXCXCXCXCXCXMXMXMXMXMXMXMXxXxXxXxXxXlXlXlXlXxXxXxXxXxXxXxXxXxXlXlXcXcXlXlXlXgX1X1X1X,X,X1XkXgXgXgXlXlXlXxXxXlXlXlXgXgXgXlXlXgXgXgXgXgXgXgXgXgXgXgXgXgXhXhXnXnXnXnXnXnXnXhXjXjXjX;XH.H.J.J.J.J.J.H.H.H.;XdXdXdXdXjXhXhXnXCXCXCXCXCXCXCXCXCXMXMXhXgXgXfXdX;X;XA.A.A.A.A.A.A.A.;XH.F.F.F.A.A.A.A.A.A.A.n.n.n.C.n.n.m.m.j.m.m.m.m.m.c.c.c.c.m.m.j.m.C.C.C.C.C.c.m.c.c.C.A.C.c.c.C.c.C.c.z.h.h.h.9.9.<.<.<.<.0.0.j.h.c.Z.C.C.C.C.C.C.C.C.C.z.h.g.9.g.9.g.h.z.C.C.C.V.V.V.`.].A.A.A.A.A.A.+X+X;XdX;X;XdX;X;X;X;X;X;X;XF.F.F.F.F.F.B.B.j.j.j.*.*.%.) %.%.%.$.*.j.j.j.B.B.B.B.S.S.S.S.S.B.M.M.p.*.*.p.*.*.%.%.$.#.#.#.,.<.2.,.2.2.2.,.#.;.;.,.1.9.9.9.9.9.g.h.h.0.*.*.*.*.*.%.%.%.2.%.#.( ( %.%.%.*.*.j.j.j.j.j.B.B.Z.j.j.p.p.j.j.j.j.j.j.j.g.s.p.a.a.a.p.a.a.%.%.%.%.%.$.*.$.$.%.$.$.%.%.( $.<.$.s.s.s.s.2.,.#.( ~ T E E T E R =.*.*.*.r.B.B.B.B.B.B.p.p.%.*.j.%.%.%.@.@.@.X.@.X.%.+.%.%.#.o.~ E E R T T ) ) ) ) ) ) ) ) E E E E E l z g g U E T E ~ ~ ! ! ! ! ! ! W ~ ! ! ~ ~ ~ O.O.o.~ ! ! ! ! ! ! o.! o.! ! ! R T T K J J J J R T ! T T U l l z j l z z g g g j j j j E E E X.X.",
"O.9.9.9.q.q.z.k.z.z.z.k.k.k.z.z.q.9.9.9.9.9.<.<.,.1.,.,.<.1.9.9.9.9.k.k.k.k.k.z.z.z.k.z.x.x.x.k.x.x.x.x.z.k.k.k.x.z.z.x.v.v.v.v.v.v.V.V.v.V.V.V.V.V.V.V.V.V.V.V.V.V.V.V.V.x.z.z.x.V.V.V.V.V.V.V.V.V.].].V.).V.V.V.V.V.x.x.x.x.v.v.v.v.v.v.).).).).).).).).).).).).`.`.`.`.`.`.`.`.[.[.[.[.[.[.[.[.[.[.{.{.{.@X{.+X+X+X+X@X@X@X{.@X@X:X:X@X@X@X:X:X@X@X@X@X+X+X@X@X+X+X@X@X@X@X@X@X:X:X:X:X:X:X:X;X+X<X<X<X<X<X<X<XfXfXfXfXfXfXfXfXgXgXgXgXgXgXxXcXxXxXxXxXxXxXxXxXxXxXxXcXxXlXcXcXlXlXxXxXxXxXxXxXxXxXxXxXxXCXMXCXZXZXZXCXCXCXMXMXMXMXMXMXMXMXMXMXxXxXxXlXlXlXxXxXMXMXMXxXxXxXxXlXlXlXgXlXlXlXgX1X1X1X,X,X,X1XgXgXgXkXlXlXxXxXxXlXlXlXlXlXgXlXgXgXgXgXgXfXfXdXdXgXgXgXgXhXhXhXnXnXnXnXhXnXnXhXjXgXgXdXH.J.J.J.J.J.J.H.;X2X2XdXdXjXjXhXhXhXCXCXCXCXCXCXCXCXCXCXCXMXhXhXgXgXdX;X;XA.A.A.A.A.A.A.F.;XF.A.A.A.A.A.A.A.A.A.A.A.n.n.n.n.n.c.m.m.m.c.c.c.c.m.c.c.m.c.m.n.n.n.A.A.n.c.c.C.A.A.A.C.A.C.V.C.c.c.z.h.g.h.g.9.<.2.<.<.<.8.0.h.h.j.c.C.C.C.C.C.C.B.C.h.h.g.9.z.9.<.9.z.c.C.C.C.V.V.V.A.A.A.A.V.A.A.].+X+X;XdX;X;X;X;X+X;X;X+XF.F.F.F.A.F.A.Z.B.B.j.j.j.*.*.%.) o.o.%.$.*.*.*.*.r.B.B.B.S.S.S.S.S.B.M.p.p.p.p.p.p.*.*.*.$.%.#.$.2.1.2.2.1.2.2.$.$.#.O.#.,.1.9.1.1.9.0.h.h.h.j.j.j.*.*.*.%.%.%.%.#.( ( %.%.*.*.*.p.j.j.B.B.B.B.B.B.j.p.p.j.j.j.j.j.j.g.j.p.p.a.a.a.a.p.a.a.*.%.%.%.%.%.#.%.%.%.$.%.) ) %.%.$.$.$.<.<.2.2.#.( ~ W ~ ~ E E X.%.*.*.*.r.B.B.B.p.p.p.p.j.*.a.j.a.%.@.X.@.X.X.X.X.@.X.X.o.@.o.( E E E T E E ) ) ) ) ) ) ) ) E l U U l z z g g U T E T T T R R E ~ ! W ! W / ^ ^ ^ #.O.O.~ ~ ! ! ! ! ! ~ ! o.! ! ! R T R K K R R R R ! R T E J g g j l l l j g g g j j j j l E E X.X.",
"O.9.g.k.z.z.z.k.z.z.k.z.k.k.z.z.q.9.9.9.1.1.<.,.,.1.1.,.1.1.1.9.1.9.k.k.k.k.z.z.z.k.z.z.x.x.x.x.x.x.x.x.x.z.k.k.x.z.z.x.x.v.v.v.v.v.V.V.V.V.V.V.V.V.V.V.V.V.V.V.V.V.V.x.v.x.c.V.v.V.V.V.V.V.V.V.`.].].].).).V.V.V.v.v.x.x.V.v.v.V.V.v.v.).).).).).).`.`.`.`.).).`.`.`.[.[.`.`.'.[.[.[.[.[.{.{.[.'.[.{.{.{.{.@X@X@X@X@X@X@X@X@X@X:X@X@X:X:X:X:X:X:X@X@X@X@X+X@X:X:X@X@X@X@X:X:X:X:X:X:X<X:X:X:X:X:X:X<X<X<X<X<X<XfXfXfXfXfXfXfXfXgXgXgXfXgXgXcXcXxXxXxXxXxXxXxXxXxXxXxXcXcXlXlXcXkXcXcXlXxXxXxXxXxXxXxXxXxXMXMXMXCXCXZXZXZXCXCXMXMXMXMXMXMXMXMXMXMXMXxXxXlXlXxXxXxXxXMXMXMXMXMXxXlXxXlXgXkXlXkXgX1X1X,X,X,X,XgXgX1X1XkXlXlXlXlXlXlXlXlXlXlXgXgXgXgXfXfX,X<X2X2XdXgXgXgXgXhXnXnXnXnXnXnXnXnXnXhXhXgXgXdXH.H.J.J.J.J.J.H.;X2X2XdXgXjXjXhXhXCXCXCXCXDXDXDXCXCXCXCXCXCXMXhXhXgXgX;X;XA.A.A.A.A.A.F.H.&XF.A.A.A.A.A.A.A.A.A.A.A.n.n.n.c.c.c.c.c.c.c.c.g.g.g.c.m.m.m.m.m.m.n.A.A.n.n.n.A.A.A.A.C.C.A.A.V.c.c.z.g.9.g.9.9.2.,.2.<.<.8.g.g.g.h.h.c.C.C.C.B.c.h.h.h.9.9.9.k.9.<.9.g.k.c.c.C.C.A.A.A.A.A.V.A.A.].+X+X;XdXdX;X;X+X+XF.F.F.F.A.F.F.A.A.A.A.A.B.h.j.j.j.*.*.#.o.o.o.#.$.$.*.*.*.*.0.r.M.B.B.Z.S.B.B.p.p.p.p.p.p.p.*.*.$.%.%.%.$.,.2.2.2.2.2.2.,.$.#.O.#.$.,.2.9.9.9.0.0.h.h.g.j.j.*.*.*.%.%.%.$.#.( ( %.%.%.%.p.p.p.j.B.B.B.M.B.j.j.p.p.j.s.j.j.j.j.j.p.p.a.a.p.a.a.a.a.a.*.%.%.%.%.( %.%.%.%.#.#.( ) ( #.%.%.( #.,.,.,.;.( ~ ~ ~ ( ~ ~ o.%.*.*.*.*.B.B.M.p.p.p.p.j.j.j.j.a.%.@.X.X.X.m X.X.@.R X.o.o.) ) E E E E E ) ) ) ) ) @.@.@.) ) E l z l z z g g g U T U U T E T T E R W ~ / ~ ( #.#.#.#.o.~ ~ ~ ! ! ! ~ o.! ! ! ! ! ! ! T E E R E E R ! T T T J j g f j j j g f g J l j j l l l l E E ",
"#.9.k.k.z.z.z.k.z.z.k.z.z.z.z.z.9.9.9.1.1.,.,.<.,.1.1.2.1.1.1.9.1.k.k.k.k.x.x.z.z.z.x.x.x.x.v.x.x.x.x.x.x.x.x.x.z.x.x.z.x.x.v.V.v.v.V.V.V.V.V.V.V.V.V.V.V.V.V.V.V.V.v.x.V.V.c.v.v.V.V.V.V.V.).`.`.`.].].`.).V.V.V.v.v.V.V.V.V.v.).).).).).`.].].].].`.`.`.[.[.[.[.`.`.{.{.[.'.{.{.{.{.{.{.XX@XXX{.XX{.@X@X@X@X@X:X@X@X@X@X@X@X:X:X:X@X:X<X<X:X:X:X:X:X:X:X:X:X<X<X<X:X:X:X<X<X<X:X:X<X<X<X<X<X<X<X:X<X,X<X<X<X<X,X,XfXfXfXfXfXfXfXfXgXfXgXkXlXlXxXxXlXlXlXxXxXxXxXxXxXxXlXkXkXkXkXkXkXlXlXxXxXxXxXxXxXxXxXxXMXMXCXCXMXMXZXZXCXMXMXMXMXMXCXMXCXMXMXxXxXxXxXlXxXxXxXMXMXMXMXMXMXxXxXxXlXlXkXlXgXgX1X1X1XfX,X,X,XgX1X1XgXkXlXlXlXlXlXlXlXlXlXkXgXgXgX1X1X<X<X<X2XgXgXgXgXgXhXnXnXhXnXnXnXnXnXnXhXhXjXgXdXH.H.H.H.J.H.H.;X;X2XdXdXgXjXhXhXnXCXCXCXCXDXDXDXDXDXDXCXCXCXMXMXhXgXgX;X;XF.A.A.A.A.A.A.F.J.A.A.A.A.A.A.A.A.A.A.A.A.A.A.n.c.c.c.c.c.n.c.c.c.c.c.m.m.m.m.m.m.n.n.A.A.A.A.A.A.A.A.A.C.C.A.A.V.c.c.z.g.9.1.1.1.2.,.,.2.<.<.s.8.s.g.g.h.c.B.c.B.B.h.h.g.g.9.g.1.9.9.g.g.g.x.C.C.A.A.C.A.A.A.A.].A.].+X;XdX;X;X+X+X+XF.F.F.A.A.A.F.F.A.A.A.A.C.B.h.j.j.0.*.%.o.o.) ~ ~ o.#.%.*.$.*.*.*.r.M.B.S.B.B.M.p.*.*.p.p.p.p.*.*.*.$.$.#.$.#.,.2.2.,.,.,.#.#.#.#.O.#.$.$.8.8.8.0.0.g.g.g.0.0.*.*.%.%.%.%.$.#.~ ( o.%.%.%.*.*.p.p.p.B.B.M.p.p.j.p.p.p.p.p.j.j.8.*.*.%.%.%.*.%.a.a.a.a.*.%.%.%.( ~ ( ( %.%.) %.#.( ) ) #.#.( ( ( #.;.;.;.( ^ ( ( ( o.#.%.*.*.*.*.p.p.p.p.p.p.p.p.p.p.p.a.%.@.E E l m X.X.X.R ) ) ) E T T E E E ) ) l l ) ) ) @.@.@.) ) ) z l U g g g g g U U U T T T E E R ~ ~ ~ ^ #.#.o.( ~ ~ ~ ~ ~ ! ! ! ~ o.! ! ! ! ! ! ~ ~ ~ ! ! ! T ! W T T T E J j f j j j j g j l l l l l l l l l E ",
"#.9.k.k.k.q.k.k.z.z.k.z.z.z.z.9.9.9.1.1.2.2.,.<.,.1.1.2.1.1.1.9.5.k.l.k.k.v.x.z.z.x.x.x.x.x.x.x.x.x.x.x.x.x.x.x.z.x.x.x.x.x.x.x.x.V.V.V.V.V.V.V.V.V.V.V.V.V.V.V.V.V.V.V.V.V.c.c.v.V.V.V.V.V.`.`.`.].].].`.`.).V.).).).).).).).T.).).).).).`.].].].].[.[.[.[.[.[.{.{.[.{.{.{.XXXXXXXXXXXXXX:X:XXX:X:X@X:X:X:X:X:X:X:X:X:X:X:X:X>X@X@X:X:X:X:X:X:X>X<X<X:X:X<X,X,X<X<X,X<X<X<X,X,X,X<X<X:X:X<X<X<X<X<X<XfXfXfXfXfXfXfXfXfXfXfXfX,XfXfXfXfXkXkXlXcXgXcXcXcXlXlXxXxXxXxXxXxXlXkXkXkXgXgXkXlXlXlXlXlXlXlXcXxXxXxXxXxXCXMXMXMXCXCXxXxXMXMXMXMXMXCXCXMXMXxXxXMXMXxXxXxXxXMXMXMXMXMXxXxXxXlXlXlXlXkXgXgX1XgXgXgX,X,X,X1X1X1XgXkXkXlXlXlXxXlXlXlXlXgXgX1X1X1X1X1X1X2XfXgXgXgXgXhXhXnXnXhXnXnXnXhXhXhXhXhXjXdXdX;XH.H.H.H.;X;X;X;X2XdXdXgXhXhXnXnXCXCXCXDXDXDXDXDXDXDXCXCXMXMXMXgXgXfX;X&XA.A.A.A.A.A.A.A.A.A.A.A.A.F.F.F.A.A.A.A.A.A.A.A.C.C.c.c.n.A.V.C.c.c.c.c.m.m.m.m.n.A.A.A.A.A.A.n.A.A.A.A.A.A.C.C.C.c.z.z.g.9.1.2.2.2.2.,.,.2.<.<.8.g.g.g.h.c.h.h.B.h.h.g.g.1.9.g.s.9.8.9.h.c.x.z.c.C.C.C.V.A.A.A.].].].+X;X;X+X+X+XF.F.F.F.F.A.F.F.F.F.A.A.A.C.B.B.h.j.h.j.*.%.%.o.R E ~ ~ ~ o.@.$.$.*.*.*.r.B.B.B.M.p.*.*.*.*.p.*.*.8.j.<.$.$.#.,.,.2.1.1.,.,.2.#.#.#.@.o.o.#.$.8.8.9.0.0.9.g.8.0.h.j.*.$.%.%.%.%.( ~ ~ ( %.%.%.*.*.p.p.p.p.p.p.p.p.p.%.*.%.%.*.%.%.%.$.$.%.%.%.&.@.@.@.%.%.%.%.%.o.( ) ( ) o.o.%.%.#.#.) ) #.( ( ( ( ^ ;.;.;.;.#.#.#.o.o.#.%.$.*.*.*.*.p.p.p.p.p.p.p.p.p.p.a.@.X.E l l l X.@.X.E R ) E E T E E E ) ) ) ) ) ) ) ) ) a.a.@.@.) ) l U z g e g g U U U U T T E ~ ~ ~ ~ ^ ^ #.( ( ( ~ ~ ~ ~ ~ ~ ~ ~ ~ o.! ^ ~ ! ~ ~ ~ ~ ~ ~ ! T T W W W T E K L J j j j j f f j l l l l l l z l l l ",
"#.9.q.k.k.k.k.k.z.z.x.x.x.z.z.q.9.1.1.1.1.<.<.1.1.1.9.9.1.1.9.z.k.k.z.x.l.b.l.x.x.v.x.V.V.v.v.v.V.v.x.x.x.x.x.x.V.V.V.x.x.x.x.x.V.V.V.V.V.V.V.V.V.V.].V.V.V.V.V.V.V.V.V.V.V.V.V.V.V.V.V.V.].].].].].[.].].].].].].].].].].].].].].].`.`.`.`.].].[.[.{.{.{.{.{.+X{.{.{.{.{.{.XX:X@XXXXX:X:X@X@X@X@X:X>X:X:X>X>X>X:X:X:X:X:X:X:X<X:X:X:X:X:X:X:X:X:X:X<XfX,X,X,XkX,X,XfXfXfX,X,X0XfX,X<X<X,X<X,XfX,X,XfXfXfXgXfXfX<XfXfX,XfXfXfX,X,XfXkXkXkXkXkXlXkXkXcXkXcXlXlXcXxXxXlXlXlXkXkXkXkXkXkXkXkXkXkXxXcXcXlXlXlXxXxXxXxXxXxXxXMXxXMXMXMXMXxXMXMXMXMXMXCXxXMXMXxXxXxXxXxXMXMXMXMXMXMXxXxXxXlXlXlXgXgXfXgXfX,X1X1X<X,XgXgXgXgXkXlXlXlXlXlXlXlXlXlXkXgXgX1X1X<X<X<X1XgXgXgXgXgXgXhXMXnXnXnXnXhXhXhXhXhXjXgXdX2X;X;XH.H.;X;X;X;X2XdXdXgXgXjXhXhXCXCXCXCXDXDXDXDXDXDXDXCXCXCXMXhXhXgXgX;X;XA.A.A.A.A.A.A.A.A.A.A.A.A.J.&XA.A.A.A.A.A.A.A.A.A.C.A.A.A.A.A.A.n.c.c.c.c.n.C.m.n.n.A.A.A.A.n.n.n.n.n.c.c.n.V.c.c.z.h.z.k.1.1.2.,.;.2.#.,.2.,.8.s.g.g.h.h.h.h.h.j.h.h.h.g.g.s.s.<.s.1.s.g.z.c.C.C.C.C.C.A.A.A.F.A.A.].+X+X+X+X+X+X+X].A.A.A.F.F.F.F.F.F.F.A.Z.B.h.h.j.h.8.$.$.#.o.E E T T E o.X.+.%.*.*.*.*.p.B.p.p.*.%.*.*.%.*.*.*.*.<.8.,.,.$.$.$.,.1.1.1.<.,.$.#.( #.X.@.X.@.$.<.8.8.9.g.h.h.0.8.*.*.*.%.%.%.@.%.o.) ~ o.@.@.%.*.p.p.p.p.p.p.p.p.*.%.@.%.%.%.%.#.%.%.%.%.%.%.%.@.@.@.@.@.%.%.%.) ) ) ) ) ) ) ) ) %.%.o.( ~ ) ( ( / ^ 2.2.;.2.;.2.#.#.( o.o.#.+.%.%.*.p.p.p.a.a.a.a.a.a.a.%.o.E E E E l E E E E E E E E E E E ) ) ) ) ) ) @.@.@.@.@.a.a.a.a.) ) E z g g g d U U U U T T ~ ~ o.~ ~ ( ( ( ~ ) ) E E ~ ~ ~ ~ ~ ~ ~ ~ ~ ~ ! ! ! ~ o.o.o.~ ! ~ ~ ! ! ! R R R E L J j L J j j j l l l l l E l z l E ",
";.9.k.k.k.k.k.k.z.x.x.x.x.z.k.q.9.9.1.1.1.1.1.1.2.1.1.1.1.1.9.z.k.z.x.x.l.x.v.v.v.v.v.V.V.V.v.v.).V.v.x.x.x.x.x.x.x.v.v.x.x.x.x.V.V.V.V.V.V.V.V.V.V.].V.V.V.V.V.V.V.V.V.V.V.V.V.V.V.V.V.].].].].].].[.[.[.[.[.[.[.].].].].].].].].].].[.`.].].].{.{.{.{.+X+X{.{.{.XX@X@XXXXX@X:X<X:X:X:X:X:X:X<X:X>X<X>X>X<X<X<X,X<X:X:X:X:X:X:X:X:X:X:X<X<X:X:X:X<X<XfXfX,X0XkX,XfXfXfXkX0X0XkXkXfX,X,X,X,X,X,X,X,XfXfXfXgX,XfXfXfXfX,X<X<XfXfX,XfXfXfXfXkXkXkXkXcXlXkXkXkXcXlXlXcXcXlXlXkXfXfXfXfXfXfXfXgXkXlXkXkXkXlXlXcXxXxXxXxXxXxXxXxXxXxXMXxXxXxXxXxXxXMXMXMXxXxXxXxXxXxXxXMXMXMXMXMXxXxXlXlXlXlXlXlXgXgXkX,X<X,X1X,X<X<X,XfXfXgXkXkXlXlXlXlXlXlXlXkXgX1X1X1X<X<X<X1XgXgXgXgXhXMXMXMXnXhXnXhXhXhXhXhXhXjXdXdXdXdX2X2X;XH.;X;X;X2XdXdXgXjXgXhXhXCXCXCXDXDXDXDXDXDXDXCXCXCXMXxXhXgXgXdX;X;XA.A.A.A.A.A.A.A.A.A.A.A.A.A.&XA.A.A.F.F.F.F.A.A.A.A.A.A.A.A.A.A.A.V.n.v.n.n.A.n.n.n.A.A.A.A.n.c.n.n.n.c.c.n.V.c.z.h.g.k.s.1.1.2.,.,.,.;.,.2.2.,.<.8.s.g.g.h.h.j.h.h.h.h.g.s.s.s.<.s.<.g.g.c.z.C.C.C.A.C.V.A.V.A.A.].].+X+X+X+X+X+X].A.V.A.A.A.F.A.A.F.F.F.A.A.C.B.h.h.j.8.$.$.#.o.R T E E T E R o.X.+.*.*.*.*.*.p.*.*.@.%.%.*.*.*.*.*.<.$.,.$.#.$.#.#.2.1.1.1.,.$.#.#.#.@.X.@.@.@.%.8.,.8.9.g.0.0.8.*.*.*.%.%.o.o.o.o.( o.) o.@.@.*.*.*.p.*.*.*.*.*.%.%.o.o.o.( o.o.o.o.o.o.@.@.@.@.@.@.@.@.%.%.%.o.o.) ) ) ) @.%.) @.%.( ~ ( ( / / / ^ ;.2.2.2.2.2.2.#.( ( ) o.%.%.%.*.p.p.a.a.a.a.a.a.a.a.%.o.E E E l E E E E E E E E E E E E ) ) ) ) ) @.@.@.@.%.@.a.a.a.a.a.@.) E l z g g D U U T T T W ~ o.~ ~ ~ ~ ) E T T R E ~ ~ ~ ~ ~ ~ ! ~ ~ ! ! ! ! ~ ~ o.o.o.o.~ ~ ! W ! R R R R L L L L L j j j j j g l l E E l l l ",
";.9.k.k.k.k.k.z.z.z.x.z.z.z.k.9.9.9.1.1.1.1.1.1.1.1.1.1.1.1.k.k.k.x.x.x.v.v.v.v.V.V.V.V.).).v.v.V.V.x.x.x.x.v.v.l.x.v.v.v.v.v.v.V.V.x.v.V.V.V.V.V.V.].V.V.V.V.V.V.V.V.V.V.V.V.V.).V.V.V.].].].].].[.+X{.+X{.+X+X[.[.[.[.].].].].].[.[.[.[.].[.+XXX{.{.+X@X@X{.{.XX@X@X:X:X:X:X:X<X:X:X:X:X:X<X<X>X>X,X<X<X<X<X<X0X<X<X<X:X:X@X@X@X@X:X:X>X>X<X<X>X<X<X,X,XfXkXkXfXkXkXkXkXkXkXkXkXkXkXkXkXkXkXgXfX,XfXfX,X,X,X,X<XfX,X<X:X:X<X<X,X,X,X,XfXfXfXkXkXgXkXkXgXgXkXkXkXkXkXkXgXfXfXfX<X<X<X<X,X,XfXfXkXkXkXkXkXkXcXxXxXxXxXxXxXxXlXlXxXxXxXxXxXxXxXxXxXxXxXxXxXxXxXMXxXMXMXMXMXMXxXxXlXlXlXlXgXgXgXfXgX,X<X<X<X<X<X<X<X,XfXgXgXgXkXkXlXlXlXlXlXkXgX,X1X<X<X<X<X1XgXgXgXgXhXhXMXMXnXhXnXhXhXhXhXhXhXgXgXgXgXdXdXdX2X;X;X;X;X;XdXdXdXjXjXhXhXhXCXCXCXDXDXDXDXDXCXCXCXMXMXxXxXgXgX2X&X&XA.A.A.A.A.A.A.A.A.A.A.A.A.A.J.F.A.J.&X;X+XF.+X].F.A.A.A.].].A.A.].`.`.V.n.V.A.A.n.n.n.A.A.A.A.n.c.c.c.c.c.c.c.c.g.g.g.g.s.2.2.2.2.;.2.;.,.2.,.,.<.<.s.s.g.j.h.j.j.h.h.h.h.g.8.g.<.<.<.s.g.c.c.C.C.V.A.C.C.C.V.V.A.A.].].+X+X+X+X].F.V.V.V.V.A.A.A.F.F.F.F.F.A.A.C.B.h.h.0.*.%.#.) R E T J E E E R X.X.@.%.*.*.*.*.*.%.@.%.%.*.*.*.*.$.<.$.$.#.#.#.O.#.,.,.2.<.,.,.#.#.%.%.X.@.@.X.@.%.%.$.8.8.9.0.8.8.*.8.*.%.( ( o.~ ) ) R ) @.@.@.*.*.*.*.*.*.%.$.%.) ~ E E E ~ o.o.~ ~ R @.@.@.@.@.@.@.@.%.%.%.@.@.o.R ) o.o.o.o.) ( ( ~ ( ( / / ^ ` ` 2.2.2.,.,.2.#.( ) ) @.@.@.%.%.*.a.a.a.a.a.a.a.a.a.%.) E E E E E E E E R E E E T E E E ) ) ) ) ) @.@.%.a.a.%.a.a.a.a.a.a.@.) E E z z U U T W W W ~ ( o.~ ~ ) ) E T E E E R R ~ E ~ ~ W ! ! ! ! ! ~ ^ ^ ~ O.O.O.O.o.~ ~ ~ ! R R R E E L L j j j j j j j g z l E E l l l ",
";.9.k.k.z.z.z.z.l.z.z.z.z.z.k.9.9.9.9.1.1.1.1.1.5.1.q.q.5.q.k.k.x.x.v.v.v.v.v.v.).).).).).).v.v.V.V.x.x.x.v.v.v.x.v.v.v.v.v.v.V.V.V.V.v.V.V.V.V.V.V.].).V.V.V.V.V.V.V.V.V.V.V.V.).).V.`.].].].[.[.+X+X@X@X+X+X+X{.{.{.[.].].].].+X[.[.[.[.[.{.+X@X@X+X@X@X@X@X@X@X@X@X:X:X:X:X:X<X:X:X<X<X>X>X>X>X>X,X<X>X<X<X,X<X<X<X:X:X:X@X@X:X@X@X@X@X:X>X<X>X,X,X,X0XkXkXcXkXkXkXkXlXlXcXcXkXkXlXkXkXkXkXkXkXkXkXgXfX,X,X,X,XfX,X<X:X:X:X<X<X<X,X,XfX,XfXkXfX,X,XfXgXfXfXkXfXfXfXfXfX<X:X:X:X:X<X<X<X<X<X,XfXfXfXfXgXgXkXkXlXlXcXcXcXlXcXcXlXlXlXlXxXxXxXxXxXxXxXxXxXxXxXxXxXMXMXMXxXxXxXxXlXlXcXgXgXgXfXfX,X,X,X<X<X:X:X<X<X<X1X1X1XgXgXkXgXgXgXgXgXkXgX,X1X<X<X<X1XgXgXgXgXgXhXhXhXhXhXnXnXhXhXhXhXgXgXgXgXgXdXdXdXdX2X;X;X;X;X;XdXdXjXgXgXjXhXhXhXCXCXDXCXCXCXCXCXCXMXMXxXxXxXgXfX2X&X&XA.A.A.A.A.A.A.A.A.A.A.A.A.A.F.A.F.&X;X;X;X+X+X;X+X+X+X+X+X}.].].].].`.`.V.`.A.A.n.n.A.A.A.A.n.n.c.c.c.c.c.c.c.c.g.g.g.s.1.2.<.2.2.;.;.,.2.2.2.2.<.<.s.g.j.j.j.j.j.j.j.j.j.j.*.j.<.%.%.<.s.h.c.z.c.C.V.C.C.C.V.A.V.A.].].].].].].].].].V.V.C.C.C.A.A.F.F.G.G.A.Z.Z.B.B.h.j.8.%.#.o.E E T E E E E E E X.X.X.@.%.*.*.*.%.@.%.@.%.*.8.*.*.8.$.%.#.#.o.o.#.#.#.,.<.<.2.#.%.%.%.@.@.@.@.@.@.*.*.$.<.g.g.8.8.s.s.s.$.#.%.%.o.E E R E @.E E @.*.*.*.*.@.%.%.) R R R E E E E ~ E R R X.X.X.@.@.@.@.@.%.%.%.@.o.o.R ) ) @.o.o.( ~ ( ( / ( / / ^ ] -.;.:.:.1.1.<.<.#.) ) @.@.@.%.%.*.*.@.%.a.a.a.%.@.@.@.) E E E E E E E E o.R E U U U U U ) ) ) ) %.%.%.%.%.a.%.a.%.@.a.a.a.@.) E E E E E T W ( ~ ~ ( ( ( ( ( ) E E E E E E E R R ~ ~ ~ ~ ! ! ! ! ! O.O.O.O.O.#.O.o.o.~ o.o.o.o.R R E L L j j j j J j f f g j l l E E E l ",
",.q.k.k.x.x.x.x.x.x.x.x.z.z.z.q.9.q.9.1.1.9.1.1.5.q.q.q.k.k.x.x.x.v.v.v.v.V.V.V.).).).).).).v.v.).V.v.v.v.x.x.v.V.V.V.V.V.V.V.V.V.V.V.V.V.).`.].V.).).`.`.V.V.V.).V.V.V.V.V.V.V.].].].].].].+X+X+X@X:X:X:X@X@X@X+X+X+X+X@X@X+X+X+X{.{.{.+X@X@X@X@X@X@X@X:X:X:X:X:X@X:X:X:X:X:X>X<X<X<X>X>X>X>X>X>X,X,X,X>X<X,X,X<X>X:X:X:X:X@X@X:X:X@X@X@X:X>X<X,X0X0XkXkXkXlXcXlXkXkXlXlXlXcXcXcXcXcXkXkXkXkXkXkXkXkXkXfXfXfXfX,X,X,X,X<X:X:X:X:X<X<X,X,X,X,XfXfX,X,XfXfXfXfXfXfXfX<X<X<X:X@X+X:X:X:X:X:X:X:X:X:X:X<X,X,X,X,X,XgXkXkXlXkXkXkXkXgXlXcXcXlXxXxXlXcXxXlXlXxXxXxXxXxXMXxXxXxXxXxXxXlXlXgXgXgXfXfX,X1X,X<X<X:X<X<X<X<X<X<X<X<X,X1XkXgXgXgXgXgX1X1X,X<X<X,X1X1XgXgXgXgXgXgXhXhXhXhXhXhXhXhXhXgXgXgXgXgXdXdXdXdXdX2X2XdXdXdXdXdXdXjXgXgXjXhXhXhXCXCXCXCXCXCXCXCXMXMXMXMXhXgXgXfX;X;X;XA.A.A.A.A.A.A.A.A.A.A.A.A.A.F.H.J.;X;X;X;X;X;X;X;X;X&X+X+X+X+X+X].].+X}.`.`.`.`.`.n.n.A.A.A.V.n.C.c.c.c.c.c.c.c.c.z.g.g.9.1.1.2.2.2.2.2.2.2.2.<.<.s.g.g.g.j.j.j.h.j.h.h.j.s.$.s.<.%.2.<.<.g.h.h.x.c.C.C.C.V.V.V.V.V.V.).).].].].].].].V.V.C.C.C.C.A.A.G.G.F.A.A.Z.Z.B.B.h.8.*.$.o.E R T E E J E j E R R X.X.%.*.*.*.%.%.%.@.@.*.*.*.*.<.*.%.$.#.~ ~ ~ O.#.,.,.$.2.2.,.$.%.%.@.@.@.@.@.%.%.*.*.8.g.g.h.g.g.j.<.$.%.%.%.%.o.) E E E E o.#.%.%.*.%.%.o.E E R R E R T R E E E E E X.X.X.@.@.@.@.@.@.@.o.@.) ) ) ) ) o.o.( ( ( ( ^ ^ / / ^ ;.;.2.1.5.q.q.g.s.%.#.@.@.@.%.%.%.*.*.a.a.a.%.a.%.@.) ) ) E E E E E R o.o.o.) ) E U U U U ) ) ) ) ) ) ) ) ) ) ) @.@.@.@.%.a.@.@.X.) E ) o.~ ~ ^ ^ ( ( ( ( ) E E E E E E E E R R R ~ ~ ~ ~ ! ! ! ! ^ O.O.$.#.#.O.O.o.o.o.o.o.! R R E E E E E j j J J J j j g j j j l l E l ",
";.q.z.z.x.x.x.x.x.x.x.x.x.x.z.k.k.k.9.9.1.9.9.1.q.q.q.k.k.z.x.v.x.v.v.v.V.V.).).).).).).V.).).V.).v.v.V.v.v.v.v.V.V.V.V.V.V.V.V.V.V.V.V.).).`.].`.].].].].V.V.`.V.V.V.`.`.].].].].].].].].+X+X+X@X:X:X:X:X:X:X@X:X:X:X:X:X:X:X:X@X+X+X@X:X:X@X@X:X:X@X@X:X:X:X:X:X:X>X<X<X<X:X>X,X,X>X>X<X>X>X8X,X0X0X,X,X,X,X,X<X<X<X>X:X@X@XXX@X@X@X:X:X:X>X<X,X,X0XkXkXkXkXlXlXcXlXcXlXlXcXcXcXcXlXcXkXkXkXkXkXkXkXfXfXfXkXkX,X,X,X,X<X<X:X:X:X:X<X<X<X<X<X,X<X<X<XfXfXfXfX<X<X<X:X:X:X@X{.[.+X+X+X+X{.@X@X@X@X@X:X<X,X,X,X<X,X,X,XfXfXfX,XfXfXgXkXkXcXlXlXcXlXlXlXlXlXlXlXxXxXxXxXxXxXxXcXkXgXfXfX,X,X,X<X<X<X<X<X:X:X:X<X<X<X<X<X,X<X1XgXkXgXgXgX1X1X1X1X,X<X<X<X,X1XgXgXgXgXgXgXgXgXhXhXnXhXhXhXgXgXgXgXgXdXdX2XgXgXdX2X2XdXdXgXjXjXjXjXgXgXhXhXhXhXxXCXCXCXCXCXCXCXMXxXxXhXhXgXfX2X;X;X;XA.A.A.A.A.A.A.A.A.A.A.A.A.A.J.;X&X;X;X;X;X;X;X;X;X;X;X:X:X&X+X+X+X+X+X+X+X}.}.}.`.`.A.A.A.A.n.n.c.c.c.c.c.c.c.c.c.z.g.g.g.1.1.,.2.2.2.2.2.,.<.<.<.<.s.g.j.j.j.c.B.B.j.j.j.s.$.$.$.%.#.#.;.,.9.9.z.z.z.c.c.C.C.C.V.V.V.).).).V.].].].V.V.c.c.C.C.c.C.A.G.G.F.A.A.Z.C.B.B.h.0.8.$.~ R R T E E J J j E T E R @.%.@.%.%.%.@.%.@.@.%.*.*.*.*.*.$.%.O.~ E ~ o.o.#.$.,.2.2.,.,.%.%.%.@.@.@.@.@.%.%.%.*.j.h.j.h.g.g.<.$.$.$.%.%.%.o.E E R E R o.@.%.%.%.o.~ E R E R E R R E T E E E E E E X.X.@.@.@.@.X.@.o.o.o.) ) ) ) ) o.( ( ( ^ ] ] ^ ^ ^ ;.2.2.1.1.k.k.g.s.s.%.@.@.@.%.%.%.*.*.a.p.a.%.%.%.) ) ) ) E E E E E ) o.o.%.( ) U U U U U ) ) ) ) ) ) ) ~ E ) ) E E ) @.@.%.%.%.@.@.@.%.@.#.#.( ( ( ( ~ ) E E E E l E E E E E E E E R ! ! ! ! ~ ^ O.O.O.$.$.$.$.O.O.o.o.o.! ! R E E E X.E ..j j j j j j j g g j j j j j j ",
";.k.k.z.x.x.x.x.x.x.x.x.x.x.z.k.k.k.k.9.9.9.9.q.k.k.k.z.k.l.x.x.v.v.v.v.V.V.V.).).).).).).).).).v.x.x.V.V.v.v.V.V.V.V.V.V.V.V.v.V.V.V.V.V.V.`.].].].].].].].].].).].].`.`.`.].].].].].].].+X+X@X:X:X<X<X<X<X<X<X<X<X<X,X<X<X<X:X:X@X@X:X:X:X:X:X:X:X:X:X:X:X<X<X<X>X>X<X<X<X<X<X>X>X<X>X,X,X8X8X0X0X0X,X,X<X<X<X>X<X>X:X@X@X@XXXXXXXXX@X:X:X>X<X<X,XkXkX0X0XkXlXlXlXlXlXlXcXlXcXkXcXkXlXkXkXkXkX,X,X,X,X,X,XfXfX,X,X,X,X<X:X:X:X:X:X<X:X:X>X>X>X<X<X<X<X,X,X<X<X:X:X@X@X@X+X[.[.[.+X+X+X[.{.{.{.+X@X@X:X:X<X<X:X<X:X<X<X<X<X<X,X,X,X,XkXkXkXkXkXlXlXcXcXcXcXcXcXkXlXkXlXlXkXgXfXfXfX,X,X,X,X<X<X<X<X,X<X:X:X;X<X<X<X,X,X1X1XgXkXgXgXgXgX1X1X,X<X,X<X,X,X1XgXgXgXlXlXlXgXgXgXhXMXMXxXhXhXgXgXgXgXdXdXdXgXdXdXdXdXgXgXgXgXjXjXjXjXgXhXhXhXxXMXMXMXCXCXCXCXMXxXxXhXhXgXgX2X;X;X;X;XA.A.A.A.A.A.A.n.A.A.A.A.A.A.J.;X;X&X;X;X;X;X;X;X:X<X<X<X<X<X;X:X+X+X+X+X&X&X{.}.`.}.`.`.A.A.A.n.c.c.c.c.c.c.c.c.g.g.g.s.1.1.1.2.2.2.2.2.2.2.1.<.<.<.s.g.j.h.j.B.j.j.j.j.p.p.*.%.%.#.( ( ( #.2.1.9.g.g.z.z.z.C.C.V.V.).).V.V.V.V.V.).V.V.c.z.z.C.c.C.C.A.A.A.A.Z.C.Z.B.B.h.0.8.$.o.E R T J E E E E E T T R o.%.@.%.%.%.%.%.%.%.%.*.*.*.$.$.%.#.#.~ ~ o.o.o.o.#.,.,.,.<.,.#.#.%.%.@.%.@.@.@.a.%.*.j.j.j.h.h.g.s.$.<.*.*.%.%.@.R ) E E T E ) o.o.o.) R E R R R R R R T E E E E E E E E E @.@.X.X.X.o.o.@.o.) ) ) E ) ( #.#.( ( ^ ] ] ] ] 2.>.<.1.1.g.g.g.g.s.a.%.@.@.%.%.*.*.p.p.p.p.%.%.%.%.) ) E E E E E E ) o.o.%.( ~ U U U U ) ) ) ) ) ) ) ) ) E E E E E E E E @.%.*.*.@.%.%.%.%.#.#.#.( ( ~ E E T E l l E E E E E E E R R R ~ ! ! ^ ^ ^ O.O.$.$.O.O.O.O.O.o.o.! ! R E E E ..j j j j f f f f f f f f j j j j J ",
";.k.z.l.x.x.x.x.x.x.l.l.x.x.x.x.z.z.k.k.k.k.k.k.k.k.x.x.l.l.x.x.v.v.T.v.v.V.V.)._.).).).).).v.V.).v.x.v.v.v.v.V.V.V.V.V.V.V.v.v.v.V.V.V.V.V.).].].].].].].`.].].].].].].`.V.].].].].].+X+X+X:X<X<X<X<X<X<X<X<X<X<X<X,XfX,X,X<X<X<X<X:X:X:X:X<X<X<X:X:X<X<X,X,X,X,X<X<X<X>X<X<X<X<X<X0X0X0X0X>X>X,X0X,X,X,X<X<X<X>X<X>X@X@X@X@XXXXXXXXXXX:X:X<X,X,XfXkXkX0X0XlXlXkXcXlXcXcXkXlXlXkXkXlXlXkXkX0X,X,X,X,X,X,X,X,X,X,X,X,X,X<X:X:X>X:X<X<X:X:X>X<X:X<X<X<X>X:X>X:X@X@X@X@X{.+X{.[.[.+X{.+X[.[.[.{.{.{.{.@X@X@X:X:X:X:X:X:X:X:X<X:X<X,X,X,X,XkXkXkXkXgXkXkXcXlXlXlXkXkXkXkXfXgXgX,X<X,X,X<X<X<X<X:X:X,X,X<X<X<X<X<X;X<X<X,X1X1XgXgXgXkXkXgXkXgX1X,X<X,X,X,X0XkXkXkXkXgXlXlXlXlXxXxXhXMXMXhXhXgXgXgXgXdXgXgXdXdXdXgXgXgXgXgXgXgXgXgXjXgXhXhXhXxXCXMXMXCXCXMXxXxXxXxXxXgXgXfX;X;X&X+X+XA.n.A.A.A.A.n.n.n.A.J.&X&X&X&X;X&X;X&X;X;X;X;X;X<X<X<X<X<X<X;X;X:X@X@X:X:X:X:X&X}.}.}.`.A.A.A.n.n.n.n.n.c.c.c.g.g.g.s.1.2.2.2.;.2.2.;.2.2.2.1.<.<.s.g.g.j.j.h.j.h.j.j.j.p.j.8.%.%.#.~ ~ ( ( ^ ;.1.9.9.g.g.z.z.C.z.x.).).v.x.x.V.V.V.V.V.c.z.c.C.c.c.C.C.A.A.C.C.B.B.B.B.0.8.8.$.%.~ E E T T T T E E T T E ) %.%.%.%.%.%.%.%.*.%.*.*.*.$.%.$.#.o.#.o.o.o.O.O.#.$.,.2.8.,.2.#.%.%.%.%.@.@.%.%.a.p.p.j.j.j.h.g.g.<.*.*.p.*.*.%.@.) E E E E o.o.R o.) T T R R R ~ R E T J J E E E E E E E R o.o.o.o.@.@.@.@.) ) o.) ) ( #.#.~ ( ( ' _ [ >.>.s.s.1.1.g.g.g.g.g.s.a.a.a.a.a.p.p.p.p.p.p.*.%.@.) ) ) ) E E E T T E o.o.%.( ) U U U ) ) U ) ) ) ~ ) ~ ) E E E E E E l E E X.*.*.*.a.%.%.%.#.#.#.#.#.~ ~ T T E E E E E E E E E E R R R ~ ! ! ! ^ ! ! o.O.O.O.o.o.+.O.o.o.! R R E L L L j j j j j f f f f j f f j j j j L ",
",.k.k.x.x.x.x.v.x.x.v.x.x.x.x.x.z.z.z.k.k.k.z.k.z.k.l.x.x.x.x.v.v.v.V.V.V.).).).).V.).).).).V.).V.V.v.v.v.v.v.v.v.v.v.).v.v.V.v.V.V.).).).).`.`.`.`.].].].].].`.`.`.`.`.V.V.].].A.].+X+X+X+X;X;XdXfXfXfXfXfXfXfXfXfXfXfXfXfXfXfXfXfX<X:X<X<X:X<X<X<X:X<X<X<X<X,X,X<X,X<X<X:X>X>X<X0X,X>X>X0X0X0X,X0X0X0X>X<X<X<X<X:X:X@X@X@X@XXXXXXX{.@X@X:X<X<X>X>X0XwX0X0XkXkXkXkXlXkXcXlXcXkXkXlXkXkXkXkXkXkXfXkXkX0X,X,X,X,X,X,X>X<X<X:X:X>X>X:X>X>X:X:X<X<X>X<X<X>X:X:X:X:X:X@X@X+X{.{.[.[.[.[.[.{.{.[.[.[.{.{.{.{.@X@X@X@X:X:X>X:X:X:X,X,X,X,X,X,X0XkX,XfXkXkXkXkXkXkXkXfXfXfX,X,X,X<X<X<X<X<X<X<X:X:X:X:X<XfX,X:X:X:X&X&X<X<X<X,XgXgXkXlXlXlXlXkXkXgXgX1XfXfXgXkXkXkXlXlXlXlXxXxXlXxXxXlXxXhXhXgXgXgXgXfXgXgXdXdX2XgXgXgXjXjXjXgXgXgXgXgXgXhXhXhXhXxXMXxXxXhXxXxXxXhXhXgXgXgX1X;X2X;X;XA.A.A.n.n.n.A.n.m.A.A.A.J.&X&X&X&X&X;X;X;X;X;X;X<X<X,XfXfXfX<X<X:X<X:X:X:X:X:X:X{.+X}.`.`.`.A.A.A.A.c.c.c.c.m.j.j.s.s.<.2.2.1.1.2.;.:.2.2.2.1.<.<.<.s.j.g.j.j.j.j.j.h.j.j.<.$.$.$.( ( ~ ~ ~ ^ ^ ^ ^ ;.2.1.q.k.k.k.z.x.x.x.k.k.l.l.v.v.v.V.C.C.z.c.z.C.C.C.C.C.Z.B.j.h.h.h.h.h.8.*.$.o.E E E E E T E E T E E ) o.%.%.%.%.%.%.%.*.*.*.*.*.*.%.%.$.$.$.$.%.#.#.#.$.$.,.,.2.<.2.%.#.#.%.%.%.%.%.a.a.p.p.p.j.j.j.g.s.j.s.8.j.j.%.*.@.@.o.R R E ~ o.@.R R E E R R R R R R E E R J J J J E E E E X.o.o.o.R o.o.) ( o.) ) #.( ~ ~ ~ / ^ _ ] [ >.5.k.s.s.k.s.g.k.h.h.j.p.a.a.a.p.a.p.j.p.p.*.*.%.o.~ ) ) ) T T T T R E ~ ( ~ ~ ~ T T E E ) T U T W ~ ~ ~ ) R E E E E E E T T E o.%.*.*.*.%.%.%.#.o.~ ~ ~ E E E E E E l l E E E E E E R R R R R ! ! ! ! o.o.O.o.o.o.X.o.o.R R R R E E E L j j j J J J j j f j f f f j j f J ",
",.k.k.x.x.x.x.x.x.x.v.v.x.x.x.x.v.v.x.z.k.k.k.k.x.z.x.x.x.x.x.v.v.v.v.V.).).).)._.).).).).).V.).v.v.v.v.V.v.v.v.V.v.v.V.V.V.V.V.V.V.).).V.V.).`.`.`.`.`.].].].`.].].`.`.V.A.].].+X+X+X+X+XdXfX<XdXfXdXfXfXfXfXfXfXfXfXfXfXfXfXfXfXfX,X<X,X<X<X<X<X<X<X,X,X,X,X,X,X,X,X<X<X:X>X>X<X,X>X,X>X0X,X,X>X>X,X<X>X>X>X:X:X:X@X@X@XXXXXXXXXXXXX@X@X:X<X<X>X,X0X0X0X0XkXkXkXkXkXlXlXkXkXcXkXkXkXkX0X0X0X0X,X,X0X0X0X,X,X,X,X,X,X>X>X<X:X>X<X>X>X>X>X<X<X<X>X<X>X>X:X:X:X:X:X@X@X{.+X+X{.[.[.[.[.[.[.[.{.{.{.[.[.{.@X@X:X:X:X:X:X:X<X<X,X<X,X<X<X<X,XkX,XfXkXkXkXkXkX0X,X,X,X,X<X<X<X<X<X:X<X:X:X:X:X:X:X:X<X,X<X<X:X:X&X:X:X<X<X,XgXgXkXlXlXlXlXlXkXgXgXgXgXkXlXlXlXlXlXlXlXlXxXxXxXxXxXxXxXxXxXgXgXgXgXfXgXgXdXdXdXdXgXgXjXgXjXdXdXgXgXgXgXhXhXhXhXhXhXhXhXgXhXxXgXgXgXgXgXfX,X;X;X&X&X}.A.A.n.n.m.m.m.n.n.A.J.J.&X&X&X&X&X;X;X;X;X;X<X1X1XfXfXgXfXfX,X,X<X<X:X<X:X&X:X&X}.}.}.`.`.A.A.A.A.n.c.c.m.c.j.j.s.s.<.2.2.1.1.2.;.>.2.2.1.1.1.1.<.s.g.g.g.h.j.j.j.j.8.<.$.%.#.#.( ^ ^ ~ ~ ! W W ^ ^ ;.2.1.9.9.9.z.z.q.k.k.l.l.l.x.x.x.v.c.z.h.c.h.h.B.B.B.C.Z.B.h.j.h.h.h.0.*.$.$.#.~ E E T R T ~ E E E ) ) ) ( %.%.#.%.%.%.*.*.%.*.*.*.%.%.*.*.%.$.%.%.#.#.#.$.,.,.<.<.<.<.%.#.%.%.%.%.%.a.a.p.p.j.j.g.s.s.s.s.<.8.j.j.*.*.@.@.R R R R R o.@.o.o.R R R R R R R R E J J J J J E J E E E E R R ~ R ~ o.o.@.%.%.%.%.o.~ ~ / / Q / ] [ 3.5.f.k.k.k.s.g.k.c.B.B.p.p.a.p.p.p.p.j.p.p.*.*.%.o.~ E ) ) ~ T T T T E R E W R T E U U E T T T T ~ ~ ~ E T E E E E E ) E E E E E o.%.*.*.*.%.#.#.~ ~ E R T E E E E E E l l E E X.X.E E R R R R R ! R R o.X.o.o.o.+.o.o.o.R R R R L E L L j j j J j j j j j j j j f j j f f ",
",.k.x.x.x.x.x.x.x.x.x.x.x.x.v.x.x.x.x.z.z.z.k.k.z.z.x.l.x.x.v.v.v.T.).).).).).).).).).).).).v.).v.v.v.V.V.v.v.v.V.).V.V.V.).).).).).).).).).).`.`.`.`.].].].`.).].V.].].V.A.].].+X+X+X+X+XdXfXfXfXfXfXfXfXfXfXfXfXfXfXfXfXkXfXfXfXkXfX,XfX,X,X,X<X<X,X,X,X,X,X,X0X,X,X<X<X>X>X>X<X>X<X8X8X0X>X,X,X>X>X>X>X<X:X:X:X@X@X{.XXXXXX{.{.{.XXXXXX:X:X:X<X>X,X8X0X0X0XkXkX0X0XkXkXkXkXkXkX0XkX0X0X8X8X8X,X,X,X0X,X,X,X,X<X,X,X<X,X>X>X>X<X<X>X<X>X<X<X<X<X<X>X:X:X:X:X:X:X@XXX@X{.+X{.{.[.[.[.[.[.[.{.{.{.{.{.XX@X:X:X:X>X<X:X<X>X,X<X<X<X<X<X<X,X,XfXfX0XkXkX,X,X,X<X<X<X<X:X:X:X:X:X:X:X:X:X:X:X:X:X<X,X<X<X<X:X:X:X:X:X<X,X1XgX1XkXkXlXlXlXlXkXkXkXkXkXlXlXlXlXlXlXlXxXxXlXxXxXxXxXlXxXlXgXgXgXgXgXgXfXgXdXdXdXgXgXgXgXgXgXgXdXgXgXgXgXgXgXgXgXgXgXgXgXgXgXgXgXgXgXgXgX1X<X:X&X&X}.}.A.A.A.n.m.m.m.n.n.A.J.&X&X&X&X&X&X;X;X;X;X;X<X,XgXgXgXgXgXfX,X,X<X<X<X<X:X&X:X&X}.}.}.}.}.A.A.A.A.A.n.c.g.g.j.j.s.<.<.2.2.2.>.>.:.>.2.2.>.1.s.s.<.s.g.g.g.g.g.j.8.8.*.%.#.#.O.~ ~ ~ ~ ~ ! ! W W W ^ ^ ;.,.1.9.9.k.q.q.q.k.l.l.l.x.x.x.x.c.c.c.g.g.h.B.B.B.B.B.B.B.h.h.0.8.*.*.%.$.#.o.~ ! ~ ~ ~ ~ ~ T ~ ~ ( ~ ) %.%.%.%.%.%.%.%.%.*.*.*.%.%.$.8.$.%.%.$.#.#.#.%.$.$.<.<.g.s.<.$.%.%.%.%.%.a.a.s.p.j.j.s.s.s.g.g.s.s.g.j.*.*.%.%.) R ) o.) o.@.o.o.X.R R R R R ! R E J J J J J E R R R R R R R R R ~ o.o.%.%.%.%.$.o.~ ~ / / Q Q _ >.3.3.f.k.k.f.s.g.g.c.C.Z.B.p.p.p.p.p.M.B.j.j.*.*.%.o.~ R E ~ ( T U D J E E T T T U U U U U U U T ~ ~ ~ W R E E E E E R ) ) R ) E R E ~ #.%.$.%.#.o.~ R T E T E E E E E E E l E E E E E E R R R K R R R L R X.X.X.X.X.X.X.X.R R X.E E L L j j L j J j j j J J J j j j j j f S ",
",.k.x.x.x.x.x.x.l.x.x.x.x.x.v.v.l.x.x.z.z.x.l.l.z.z.k.l.x.x.v.v.v.v.).).).).).).).).).).V.).v.).V.v.v.v.v.v.v.v.V.).V.V.V.).V.).).V.).).).).`.`.`.`.].].].].).V.V.V.V.V.V.].].+X].+X+X+X+X;XfXfXfXfXfXgXgXgXgXkXgXgXkXgXgXgXkXkXfXkXfXfXfXfXfXfX,X,X,X,X,X,X,X,X,X,X,X,X<X>X>X>X>X>X:X>X>XqX>X0X>X>X>X<X<X>X:XXX@X@XXX{.{.{.{.OX[.{.{.OXXXXXXX@X<X<X>X>X,X0X0X0X0X0X0X0X0XkX0X0X0X0X0X0X0X0X0X,X,X,X,X,X,X,X,X,X<X>X<X<X>X>X:X>X<X>X>X<X<X>X>X<X>X>X:X:X:X:X:X:X:X:XXX{.{.{.+X+X[.[.{.{.{.{.[.{.@XXXXX@X:X:X:X:X:X<X<X<X<X<X<X,X<X,X<X,X0X,X0X,X,X,X,X,X<X<X>X>X:X<X<X<X:X:X:X<X<X:X<X<X:X:X<X<X<X:X<X:X:X<X<X<X<X<X,X,X1X1XkXkXkXlXlXlXlXlXlXlXlXlXlXlXlXxXxXxXxXxXxXxXxXxXxXxXxXlXgXgXgXgXgXgXfXgXfXfXfXfXfXfXgXgXgXfXdXfXfXfXgXgXgXgXfXfXgXfXfXfXfXgXfXfXfXfXfX<X:X:X;X&X}.`.}.A.n.A.n.n.n.n.n.A.J.J.&X}.&X&X&X;X;X;X;X;X;X,XfXfXgXgXgXgXgX,X,X<X<X<X<X:X:X&X}.}.+X+X].A.A.A.A.A.n.c.g.g.j.g.s.<.<.2.;.2.2.] ;.2.2.2.>.>.1.1.1.1.g.g.s.s.8.g.8.<.#.#.( ( ( ~ ~ ~ ~ ! T W ! ! ~ O.O.O.;.,.2.1.1.1.1.5.q.k.l.l.x.k.l.z.z.k.g.g.g.h.h.h.h.h.h.0.h.h.0.8.*.*.$.$.$.#.#.o.~ ~ ~ / ( ) ~ ~ ~ ( ) ) %.%.#.#.%.%.%.%.%.%.%.%.%.$.$.$.$.$.$.$.$.#.#.%.$.$.s.s.g.g.s.<.p.%.%.%.%.%.%.a.p.j.j.s.s.s.s.g.s.s.h.g.j.*.$.%.%.o.o.o.o.o.o.@.o.X.R R R R R ! R R K J J J J E R ! R R R R R R ~ o.o.o.%.$.$.*.#.#.^ ^ ^ / / Q / [ 3.3.3.f.f.s.s.g.g.c.Z.A.Z.j.p.p.p.p.M.M.B.j.*.$.%.o.E R W ~ W T F D T T T U U U U D g g g U U T R ~ ~ ~ ~ R E E R R o.@.) ) ) ) E ! ~ ~ #.%.%.@.o.R E j j E E E E E E E E l E E E E E E E T J J K R L J L L L L X.X.X.X.X.R E R E E L L L j j j J j J J j j J J j j j j S J ",
",.k.x.x.x.x.z.x.l.l.l.x.x.x.v.v.x.x.x.x.x.x.l.l.x.x.l.l.l.l.x.x.v.v.).).).).).T.T.T.`.).V.V.v.).).).v.v.v.v.).).V.).V.V.V.V.V.V.V.v.V.V.).).).).).).).).).).V.v.v.v.V.V.].A.].+X].+X+XdXdXdXdXfXfXfXfXgXgXgXkXkXgXgXgXkXgXgXkXkXfXfXfXfXfXfX,XfXfXfX,X,X,X,X0X,X,X>X,X,X>X<X>X>X<X<X>X>X>X>X>X>X:X:X>X>X:X@XXXXXXXXX{.[.[.'.'.'.[.[.[.[.{.XXXX@X:X:X:X<X<X0X0X0X0X0X0X0X0X0X0X0X0X,X,X,X0X0X,X,X0X,X<X<X<X<X<X,X<X<X<X:X>X>X:X>X:X:X:X<X>X:X:X<X:X:X:X:X@X@X@X@X@XXXXX{.{.{.{.@X{.{.{.{.{.{.XX{.@X:X:X:X:X:X>X>X:X<X,X<X<X<X,X,X,X,X<X,X,X,X0X,X,X,X,X,X,X<X>X>X>X<X,X,X<X<X,X,X<X<X,X,X,X<X:X<X:X:X<X:X:X<X<X<X<X<X<X,X1X1XkXlX0XkXlXlXlXlXlXlXlXxXlXlXxXxXxXxXxXxXMXxXxXxXxXxXMXxXlXgXgXgXgXgXfXgXgXgXgXdXdXdXgXgXgXfXfXfXfXfXdXdXfXfXfX1X;X;X;X<X<X,X<X<X<X<X<X<X:X;X{.}.`.}.`.`.A.A.A.n.n.n.n.n.A.A.}.}.&X&X&X&X;X:X;X;X<X,X,XfX1XgXfX1X1X,X,X<X<X,X<X:X:X{.`.}.}.+X].}.A.A.A.A.n.m.g.c.j.s.s.s.<.<.;.;.] ] 2.2.2.2.2.2.<.>.1.1.g.g.s.s.8.8.<.,.%.#.( ~ ~ ~ ! ~ ~ ~ ! T R T o.O.O.O.O.;.;.;.;.;.2.1.5.k.l.l.l.l.l.k.z.g.g.g.g.g.g.j.h.h.h.0.h.0.0.8.8.8.$.$.#.o.o.o.~ ~ ~ ( / ( ( W ~ ~ ) ) #.#.( ( %.#.%.%.%.%.%.%.%.$.$.$.%.$.$.#.#.#.%.%.%.*.s.s.g.g.s.s.j.p.s.a.%.a.a.p.p.j.j.s.s.s.s.<.<.s.g.0.h.8.8.%.%.o.o.o.o.X.@.@.X.@.X.R R R R T T T K K K K K E T R R R R R R ! ~ o.#.#.%.%.$.$.#.#.( ( ^ ^ / / Q ] } 3.3.f.f.s.s.g.j.c.Z.A.Z.j.B.p.p.p.M.M.B.j.*.*.#.~ ~ ~ ~ ~ T T T T U F D D D D D d g g g g U E E ~ ! ~ ~ ! R R R R o.@.o.%.o.~ ~ ~ ~ ~ ~ o.o.o.X.E E j j E j l E E E E E l E l l E E E E J j j J L J j j j L L E X.X.X.R L E E E X.X.X.L j L j j j J j j j j J f j J J J J ",
"2.k.k.l.k.z.z.l.l.l.l.l.x.x.x.v.x.x.x.x.x.x.l.l.x.x.l.l.x.x.x.x.v.v.v.v.T.).T.T.T.).`.).V.V.v.v.T.).v.v.v.V.).).v.V.V.V.V.V.V.V.v.v.x.v.).).V.V.v.v.V.v.V.V.v.v.v.v.v.V.V.A.].+X+X+X+X;XdXdXfXfXfXfXfXgXgXgXgXkXcXgXgXcXkXgXgXkXfXfXfXfXkXfX,X,X,X,X,X,X,X,X0X0X0X<X>X>X<X<X>X<X>X:X:X-X>X-X:X:X:X:X:X:XoXXXXXXXOX{.[.[.'.'.'.'.'.[.[.[.[.XXXXXXXX@X:X>X>X<X>X>X0X,X,X0X0X,X<X0X>X,X,X,X0XkXkX,X<X<X<X<X<X>X>X>X<X<X:X:X>X>X:X>X:X>X>X>X:X:X>X>X>X:X:X@X@X@X{.{.[.{.{.{.{.{.{.{.XXXXXX{.XXXX@X:X:X>X<X<X<X<X<X>X<X<X<X<X0X,X,X,X,X,X<X<X<X<X,X,X,X<X<X<X<X<X<X<X<X<X<X<X,X,X,X,X,X,X,XfX,X,X,X,X,X:X<X,X<X<X<X,XfXfX,X1X1X1XkXgXkXkXlXlXlXlXlXlXxXxXMXxXxXxXxXMXxXxXxXxXxXxXxXMXMXxXxXxXxXgXgXgXgXgXgXgXgXgXgXfXfXdXfXfXfX2X1X2XdX;X2X2X;X;X;X;X;X;X;X<X<X:X:X:X;X;X:X:X{.}.`.`.}.}.}.}.}.n.Q.Q.n.n.n.A.}.}.&X&X&X:X2X<X<X<X<X,X,X,X1X1X1X1X,X,X,X,X,X,X<X:X:X}.}.}.}.}.}.A.A.A.A.A.n.c.c.g.j.s.s.s.<.<.2.;.;.;.2.2.2.2.2.2.2.<.2.<.s.s.s.s.8.8.<.<.$.%.#.( ^ ~ ~ ~ ~ ! ! R ! R o.+.O.O.$.$.#.,.2.;.;.2.5.k.k.l.d.d.d.l.z.k.g.k.g.g.g.g.h.g.9.0.0.9.0.8.8.<.,.$.%.o.~ ~ ( ( ( ( ( ( ( ~ ~ ~ ~ ( ( ( ( ( ( %.%.%.%.o.o.o.@.#.$.$.$.$.$.$.$.%.%.*.%.$.s.j.j.j.j.j.j.p.a.a.a.a.a.p.p.j.j.p.s.s.s.s.s.s.s.g.8.8.8.$.$.o.o.o.o.X.X.X.X.@.X.R R E K E K K K K K R T R R ! ! ! ! ! ! ! ~ #.#.$.$.$.$.$.#.#.( ( ( ^ ~ / Q ^ ] } >.>.s.g.s.s.j.c.Z.A.A.Z.B.p.p.p.p.j.j.j.*.%.o.~ ~ ~ ~ W T W W T F F D S d d d d p d g f J T R ~ ! ~ ! R ~ R R R @.@.%.%.%.o.~ ~ ~ ~ ! ~ R R E E E j j j j j E E E E E l E E E E E E L j j j J L j j j j j j L X.X.X.R L E E E E X.X.L j L j J j j j j j j j j j J J D J ",
";.k.k.k.k.k.k.l.x.x.l.x.v.v.v.v.v.x.x.x.x.x.x.v.x.x.l.x.x.v.v.v.v.v.v.v.v.T.v.v.v.v.).).V.).v.v.T.v.v.v.v.v.v.v.v.v.v.v.v.v.v.v.v.v.v.v.v.V.V.V.v.v.v.v.v.v.).T.v.v.V.V.].A.].+X+X+X+X;XdXdXdXfXfXfXfXfXgXfXgXcXgXgXgXkXkXkXgXgXfXfXfXfXgXfX,X,X,X,X,X,X,X,X,X,X<X>X:X>X:X:X:X>X@XXXXXXX-XXX@X@XXXXX@XXXXXXXXXOXOX[.'.'.[.[.'.'.[.'.'.[.[.OXOXOXXXXX@X@X:X:X:X>X>X>X>X>X>X>X>X<X>X<X,X,X,X,X,X,X>X>X<X<X<X>X:X:X:X:X@X@X>X>X>X>X:X>X>X:X:X>X<X>X:X:X@X@X+X+X{.{.[.[.[.[.{.{.{.{.XXXX@X@XXX@X>X<X<X<X<X<X<X<X,X,X,X<X<X,X,X,X,X<X,X,X,X<X:X<X>X<X<X<X<X<X<X<X<X<X<X<X:X<X,X,X,X0XgXgXgXkXkXkX0X0X0X,X,X,X1X,X,XgXgXkXgXkXkXgXlXlXlXlXlXlXlXlXlXlXxXMXMXMXMXMXMXMXxXxXxXxXxXxXxXMXxXxXxXMXxXhXgXgXgXgXgXgXgXgXgXfXfXdXdXdX2X;X;X;X;X;X;X;X;X;X;X;X&X&X;X;X;X:X:X:X;X&X+X+X{.}.`.`.&X&X&X&X}.Q.Q.Q.n.n.n.A.}.}.&X&X;X<X<X<X<X<X<X<X,X,X,X,X1X1X,X,X,X,X,X,X<X:X:X{.{.+X}.}.`.A.A.A.A.n.n.c.c.g.j.j.s.s.s.<.<.2.2.<.2.2.,.,.,.,.;.2.,.2.<.<.s.s.8.8.<.<.<.$.2.#.( ^ ~ ~ ~ ! R ! o.o.o.o.+.%.%.$.$.,.2.2.2.2.1.5.k.l.k.d.d.l.l.k.k.k.k.g.g.h.g.9.8.8.9.9.<.<.<.<.<.,.#.O.~ ~ ~ ( ( ( ( ( ( ( ( ( ( ( ( ( ( ( ( #.%.@.@.o.o.) o.o.#.#.$.$.$.$.$.%.%.*.%.%.*.j.j.j.j.s.p.p.s.a.a.a.a.p.p.p.p.p.s.s.s.s.g.g.s.g.8.$.<.$.%.%.@.X.X.@.@.X.X.@.R E E E K K K K K K K P ! ! ! ! ! ! ! ! W ~ o.O.#.$.$.$.#.#.#.#.( ( ( ~ ~ W / / / ] [ >.>.s.s.$.j.c.c.A.Z.A.B.j.j.j.j.j.j.j.j.$.%.o.o.~ ~ W ! ! W W W T D S d d p w a p g g f J E R ! ! W W ! R R R X.@.@.%.%.o.o.) E R R R R R E E E E J j j j J E E E E E l l E E E E J j j j j L j j j j j f L X.X.X.R L E X.X.X.E E E L L L L J j j j j j j j j J J D D ",
";.k.k.k.k.k.k.k.x.x.x.v.v.v.x.v.V.v.v.E.v.x.v.v.x.x.l.x.v.v.x.x.v.v.v.v.v.v.v.v.v.v.).V.).).v.v.T.v.v.v.v.v.v.x.v.x.v.).v.x.v.v.v.v.v.v.x.x.V.V.v.v.v.v.v.v.T.T.v.v.).].].].].+X+X+X+X+X+XdXdXfXdXdXfXfXfXfXfXcXgXgXgXgXfXfXfXfXfXfXfXfXfXfX,X,X,X,X,X,X,X<X<X,X>X>XXX:XXX:XXX@XXXXXXX'.XXOXXXXXXXXXXXXXXXOXOXOX|.'.`.`.).`.`.'.W.`.[.[.[.'.'.'.OXXXXX@X@X@X:X:X:X>X:X:X:X:X>X:XoX>X>X>X<X>X>X>X>X:X>X<X<X:X@X:X:X:XXX@X>X>X:X:X:X:XoX@X@X>X>X:XXXXX{.+X+X{.{.{.{.[.[.[.[.[.{.{.XX:X:X:X:X:X>X>X,X<X,X<X<X,X,X,X<X,X,X0X,X,X,X,X,X,X0X<X:X>X:X<X<X<X<X,X<X<X<X<X<X<X<X,X<X,X,XlXkXkXkXkXkXlXlXlXkXlXkX,X1X1X1X1XfXkXkXkXkXkXlXlXlXlXlXlXlXlXmXmXMXMXMXMXMXMXMXMXMXMXMXMXxXxXxXMXMXMXMXMXxXhXxXxXhXgXgXgXhXgXgXgX2XdX2XdX2X;X;X;X;X;X;X;X;X;X;X;X+X+X&X;X;X+X:X:X&X&X+X+X}.`.}.}.&X&X&X&X}.Q.Q.n.Q.Q.n.&X}.}.&X&X;X<X<X<X1X<X<X<X,X,X,X,X,X1X,X,X<X,X,X,X<X:X:X&X+X{.}.}.`.A.A.A.A.n.n.c.g.j.m.j.g.s.s.s.<.%.%.<.2.%.#.,.,.,.,.2.$.<.<.<.<.g.8.<.,.<.<.$.%.%.#.#.^ ^ ^ ~ ~ ! o.o.o.o.o.+.$.$.$.$.,.,.2.,.;.2.k.k.l.l.l.l.l.z.k.k.k.g.h.h.g.<.<.8.,.,.,.2.<.,.,.$.#.#.^ ^ ^ ( ( ( ( ( ( ( ( ( ( ( ( ( ( ( ( #.%.@.@.%.o.) ~ o.#.#.#.#.$.$.$.%.%.*.%.%.$.j.j.j.j.s.p.j.j.a.a.a.p.p.p.a.p.a.*.$.<.s.8.g.<.g.<.$.<.8.$.%.%.%.%.*.*.=.%.X.R E T K K K K K K K K K ! ! K ! ! R ! ! ! ^ O.#.$.$.$.%.o.( O.~ ( ( ( ~ ~ R ^ W W / ] ] ;.#.$.%.s.j.j.B.Z.Z.B.B.h.j.g.8.*.8.*.$.%.o.o.o.~ ~ ~ ~ ~ / W W D d d d p w w a a f f D K T ! W W W T E R o.X.X.o.) R R E E R R R R E R R E X.E E J J J J j j l E E l l E E E E L J j j j j j j j j f f J L X.X.E E E X.X.X.E E E E J L L L j j j j f j j j J D G G ",
";.5.q.k.k.k.k.l.l.l.x.v.v.l.v.T.v.v.v.v.v.v.v.v.x.v.x.x.x.v.v.v.E.E.l.v.v.x.T.v.V.v.v.).).v.v.v.V.v.v.v.v.v.v.v.x.v.x.x.x.v.v.v.x.v.x.x.v.v.v.v.x.x.x.v.v.v.V.v.V.).).V.A.F.].+X+X+X+X+XdXdXdXdXfXdXdXfXfXfXfXfXfXfXfXgXfXfXfXfX<XfXfXfX,X,XfXfXfX,X,X0X<X<X,X<X:X:X:X:XXXXXXXXXOXOXOXOXOXXXOXOXOXOXOXOXXX'.|.'.'.[.'.[.[.[._.'.`.'.'.'.'.[.|.'.'.'.'.OXXXXXXXXXXXXXXXXXXXXX@X:X@X@XXX@X:X:X>X>X@X>X>XoX@XXX@X@X@X@X@X@X:X:X>X>X:X:X<X>XXX@X:X@XXXXX{.{.{.'.[.[.[.[.[.[.[.[.[.+XXX:X:X@X:X<X<X<X<X,X,X,X,X,X,X,X,X,X,X,X,X,X,X:X>X>X<X<X>X>X:X:X>X:X<X<X,X,X,X,X0X,X,X0X0X,X0XlXcXcXlXlXlXlXlXlXlXlXkXlXkX0X0XkXlXlXlXlXlXlXlXlXMXMXxXxXxXxXMXMXMXMXMXMXMXMXMXMXMXMXMXMXMXMXMXMXMXMXMXMXMXMXxXxXxXhXhXgXgXgXgXgXgXgXfX1X2X;X;X;X<X;X:X;X;X;X;X&X&X+X+X+X+X;X&X{.&X+X}.}.{.{.}.{.&X&X&X&X&X}.n.Q.Q.Q.Q.}.Q.Q.&X&X&X:X<X<X1X1X1X1X<X1X1X,X,X1X1X,X,X,X<X<X<X:X:X&X&X&X&X}.+XA.A.n.V.A.n.n.m.m.m.m.s.s.s.s.s.<.%.<.2.#.#.%.2.2.2.%.$.<.%.%.<.s.s.s.<.<.<.<.2.#.#.#.^ ^ O.#.O.O.O.O.X.+.%.+.+.%.$.$.$.$.#.;.] ;.<.g.k.l.l.l.l.x.z.k.k.z.z.g.<.<.<.<.,.,.;.2.2.,.#.#.O.( ( ( ( ( ( ( ( ( ( ( ( ( ( ( ( ( ( ( ( #.#.#.%.o.%.%.o.~ o.o.o.%.$.$.$.%.%.%.%.%.%.p.j.j.j.j.j.j.p.p.p.p.a.p.p.p.a.%.%.%.<.<.s.g.g.8.<.<.<.<.$.$.%.@.%.*.*.%.%.X.X.~ R J J E K K K P P P P P P K K K W ! O.O.O.#.$.#.#.O.o.^ O.#.#.%.#.o.o.E ~ ~ W T W ( ( ( $.$.%.p.j.j.h.h.C.C.h.g.8.<.*.$.*.8.$.#.O.o.~ ~ ~ ~ ~ ! W T F D f d p p p a a g d D T T T W ~ ~ R E E E E E E X.E E E E E E E R X.R X.X.R R R R R T E T E E E l l E E E E E L j j j j j J j j j f j J E R X.X.E R R R R X.X.X.R E E E L J J j j f f j J S S D D ",
";.q.k.k.k.z.l.l.l.l.x.v.v.x.v.v.v.v.v.v.v.v.v.v.v.v.v.v.x.v.v.v.x.T.v.T.T.v.).v.v.v.v.T.T.v.v.v.v.v.v.v.v.v.v.v.v.v.x.x.x.x.v.v.x.v.x.x.x.v.v.v.x.x.x.v.v.v.v.v.v.v.V.V.V.A.].+X+X+X+X+X+XdXdXdXdXdXfXfXfXfXfXfXfXfXfXfXfXfXfX<XfXfX,X,X,XfXfXfX,X<X,X,X<X<X<X>X>X:X:X@XXXXXXX{.OXOX[.'.'.OXOXOXOXOX{.{.OX'.|.'.'.'.'.[.[.'.`.`.W.`.W.`.'.[.OX|.'.'.'.'.OXOXOXOXOXOXOXOXOXOXOXOXXXXXXXXXXXXXXXXX@X@X:X@XXXXXXX@X@X@X@XXX-X:X:X:X:X@X:X:XXXXXXXXXOX{.[.{.[.'.`.`.`.`.`.`.`.[.[.[.XX:X:X:X:X<X<X,X,X,X,X,X0X0X0X,X,X,X,X,X0X0X,X>X>X>X<X<X>X>X:X:XXX:X>X:X,X<X,X,X,X,X,X,X0X0XkXcXcXlXlXcXlXlXlXlXlXlXlXlXlXlXlXlXlXlXlXxXxXlXmXNXMXMXMXMXMXMXMXMXNXNXMXMXMXMXMXMXMXMXMXMXMXMXMXMXMXMXMXMXMXMXMXMXxXxXxXxXgXgXgXgXgXgXfXfX<X;X;X;X;X;X;X;X;X&X;X&X+X+X+X+X;X:X:X{.{.{.{.}.{.{.{.&X&X&X&X&X&X}.}.}.Q.Q.Q.Q.Q.Q.&X&X&X-X:X:X<X<X<X<X<X1X1X1X,X1XkX1X,X,X,X<X<X<X<X:X&X&X&X}.}.A.A.A.A.A.n.n.n.m.m.m.j.j.j.s.s.s.$.<.<.%.#.%.%.%.#.%.<.<.2.%.<.*.*.$.s.s.<.<.$.%.%.#.#.#.#.$.#.O.$.O.$.%.%.%.%.%.%.%.%.%.#.#.( ( 2.2.1.s.f.f.k.l.l.b.z.z.k.g.<.,.,.,.,.2.;.;.;.;.#.#.O.( ( ( ( #.( ( ( ( ( ( / ( ( ( ( ( ( ( ( #.#.%.%.%.%.%.o.o.o.#.#.%.$.$.<.$.%.%.%.%.%.%.p.j.j.j.j.j.s.p.p.p.p.p.p.a.a.%.#.%.%.$.<.8.8.8.<.<.<.,.$.$.*.*.*.*.*.@.%.o.o.~ R E K K K K K K P P P K K K K K W ! O.O.$.$.$.O.O.~ ~ ~ ~ O.o.#.#.#.o.~ ~ ~ ~ R R ~ ( ( %.%.%.%.p.j.h.h.B.B.h.g.8.<.2.,.$.$.$.#.#.o.! ~ ~ ~ ^ ~ W T F D f p a p p p g f D K T W W ~ ~ E T J J T L L E X.X.E E E E E R R X.X.X.X.X.X.o.! R R R R E E E E E E E E E E j j j j j L L j j j j j j L R R R R R R R X.R X.X.R R R R R L J j f f f f j f f S S ",
"] k.k.k.k.l.l.l.l.l.v.v.v.v.v.v.v.v.v.v.v.v.x.x.E.x.v.v.v.x.v.v.x.E.v.T.T.v.).).v.v.v.T.T.v.v.v.v.E.E.v.v.v.v.v.v.v.v.x.x.l.l.l.v.v.x.x.v.v.v.x.x.x.x.v.v.v.v.v.v.v.V.V.V.A.F.F.+X+X+X+X+X+X+X+X+X+X<X<X:X<XfXfX<XfXfXfX<X,XfXfX,X<X<X<X<X,X,X,X0X,X,X>X>X>X:X:X@XXXXXXXXX{.{.[.[.[.'.[.'.'.|.|.{.OX'.{.'.'.'.'.'.'.W.'.'.'.'.R.`.W.W.`.[.'.'.'.'.'.'.'.'.'.'.OX|.|.OX|.[.[.'.[.{.{.OXOXXXXXXXXXXX@XoXXXXXOXXX:XXXXXXX-X-XoXXXXXXXXXXXXXXXXXXXOX'.'.'.'.'.`.`.`.).).`.`.'.[.[.[.{.@X:X:X:X<X<X>X,X,X,X0X0X0X0X0X0X,X0X0X0X0X0X,X>X>X>X<X>X>X:X:X:X:X<X>X<X>X>X<X>X0X0X0X0XkXlXlXlXlXxXxXxXxXxXxXxXxXxXlXlXcXcXlXlXxXMXMXMXMXMXMXNXNXNXNXNXNXMXMXZXZXZXZXZXNXNXNXMXMXMXNXMXMXMXMXZXNXMXNXMXMXMXMXxXxXxXxXxXxXgXgXgXgXgXfX1X;X;X;X;X;X:X;X:X:X;X&X&X&X&X;X:X:X:X+X{.}.{.{.{.{.&X&X&X&X&X&XQ.Q.Q.n.n.Q.}.&X&X&X&X&X&X-X2X:X:X<X<X1X,X1X1X1X1XgXgXgX1X,X,X<X<X<X<X<X<X:X&X}.}.A.}.}.A.A.n.A.n.m.c.c.m.m.j.g.g.g.s.s.$.%.%.%.$.$.$.$.$.<.$.$.*.*.*.j.s.j.s.<.<.<.%.%.;.#.#.$.#.$.$.$.$.%.$.$.$.%.%.%.%.@.@.( ( ( ( #.;.>.f.f.f.f.l.b.z.x.z.s.1.1.2.;.2.2.2.;.;.` ` ^ ;.( ^ ( #.;.;.( ^ ( ( / ( / ( ( ( ( ( ( ( #.#.%.$.#.%.$.%.o.#.#.%.%.$.$.<.*.%.%.%.%.%.*.p.j.j.j.j.j.p.p.p.p.a.a.a.p.a.%.%.#.#.%.%.$.<.8.<.<.8.8.8.8.*.*.$.$.%.@.@.@.o.~ R R T K K K F K P P P K F F K P P ! O.O.$.$.$.$.o.~ T T ~ ~ #.#.#.$.%.o.o.o.o.) E E ) ( ( %.%.%.%.$.8.h.B.B.h.h.9.,.2.2.$.$.$.$.$.O.! ! ~ ^ ^ ^ ~ W T F f d p p p p f S K T W W W W T E T E T E E E E X.X.E E E E E R R ~ o.o.X.X.o.o.o.! R R R R E E E E E E E E E j j j j j L L j j j L j j L R E R X.R R X.X.X.X.X.X.X.X.R R L J D f j f f f f f S S ",
"] k.l.l.l.l.l.k.l.l.l.l.l.v.v.v.v.v.v.v.x.x.v.v.x.x.x.v.v.v.v.v.v.E.v.v.v.v.T.).v.).v.T.v.v.T.v.v.x.E.v.v.x.x.v.x.x.x.l.l.x.v.x.v.v.v.v.v.v.x.l.x.x.x.x.v.v.v.v.V.V.v.V.V.A.F.F.F.F.+X+X+X+X+X+X+X+X@X:X:X:X<X<X<X<X<X<X<X<X,X,X<X<X<X<X<X<X,X,X0X,X<X>X<X>X:XXXXXOX[.'.[.[.OX'.'.'.'.'.'.'.'.'.{.OX'.{.'.'.`.`.'.'.W.W.'.`.'._.`.W.W.`.`.`.'.'.'.'.'.'.'.'.|.OX'.'.|.|.OXOX'.'.'.'.'.'.[.[.OXOXOXXXXXXXXXXXXX:XXXXXoXoXoXXXXXXXXXOXOXXXOXOXOXOX'.'.'.].`.`.).).).`.`.'.'.'.[.{.XX@X:X:X:X:X<X<X,X,X,X0X0X0X0X0X0X,X0X0X0X0X0X8X0X0X>X>X-X-X>X:X-X>X>X>X>X>X>X>X0X0X0XkXkXkXlXlXlXlXlXxXxXxXxXxXxXxXxXxXxXlXlXxXMXMXMXMXMXNXNXNXNXZXZXZXZXZXZXZXZXZXZXZXZXZXZXNXNXNXNXNXMXNXZXZXZXZXNXNXMXMXMXMXMXxXxXxXxXxXxXxXxXgXgXgX1X<X;X;X;X;X;X<X<X:X:X&X:X:X;X;X+X:X:X&X{.{.XX:X:X:X&X&X-X&X&X&XQ.Q.}.Q.}.&X&X&X&X&X&X&X&X&X-X-X-X<X1XfX1X1XgXgXgX1X1XgX1X,X,X<X<X<X<X<X<X<X;X&X}.}.}.}.}.A.A.A.A.n.c.c.m.m.j.j.j.j.g.s.p.$.$.*.*.$.$.<.$.$.$.*.*.*.*.j.$.s.s.<.s.s.<.%.,.#.#.$.$.$.$.$.$.$.$.$.$.%.%.%.%.%.o.R ) ~ ( #.( 2.s.f.f.f.k.l.l.z.z.k.1.1.2.;.2.;.;.-.` ` ^ ^ ] ( ^ ( #.,.;.] ] ( ( ( ( ( ( ( ( ( ] ] ;.2.2.%.$.$.$.$.$.%.%.#.%.%.$.$.$.$.$.%.%.%.%.%.%.j.j.s.j.j.j.p.a.a.a.%.a.p.a.%.a.%.#.%.#.#.$.<.<.<.<.8.0.0.8.*.%.%.%.%.%.%.o.~ R R T K K K K K P P P F F F F F P W O.$.$.$.$.$.O.~ T T T ~ #.#.#.$.o.o.%.%.@.%.o.) o.( ( ( o.%.%.%.$.9.B.B.B.h.9.,.2.2.#.#.#.$.$.O.! ! ~ ~ ^ ^ ^ ^ W K D f f f f f J K R ! ! ! W W E E E E E E E E E X.X.E E E E E R R ~ o.o.o.+.+.o.o.^ ! ! ~ ~ R E E E E R R R E L L j j j L L J J L j j j j E R R R R R R X.X.X.o.o.o.o.o.R T J D S J f f f f f S S ",
";.k.k.l.l.k.k.l.l.l.l.l.l.v.v.v.v.v.v.v.v.v.E.E.x.v.x.x.v.v.T.v.T.T.T.T.v.T.).).v.).v.T.v.v.T.v.v.x.x.v.x.x.x.v.v.v.v.x.x.v.v.v.v.v.x.v.v.v.x.l.v.x.x.x.l.v.v.v.x.x.x.V.V.A.].].F.G.G.G.+X+X+X+X+X+X@X:X:X:X:X:X<X<X<X<X<X<X<X<X:X:X:X<X<X<X<X,X,X<X<X<X<X>X@X@XOX'.'.'.'.'.'.'.'.'.'.`.'.'.'.'.'.'.`.'.[.'.`.'.[.'.R.W.'.'.'._.T.R.R.`.`.`.`.W.W.W.'.'.'.'.'.'.'.'.'.'.'.'.'.'.'.'.[.[.'.'.'.'.'.OXOXOXOXOXOXXXXXXXXXXXXXXXXX@XOXOXOXOXXXXXOX'.'.'.'.'.`.`.).).).`.`.`.`.`.[.XXXX@X@X@X:X:X>X>X,X,X,X0X0X,X,X0X,X,X,X0X0X0X0X,X0X0X>X>X>X>X>X>X>X>X>X>X>X>X0X,X0X0XkXkXkXkXlXlXlXlXxXxXxXxXxXxXxXxXxXxXxXxXxXxXMXMXMXMXNXNXZXZXZXAXAXAXAXAXAXAXAXAXAXZXZXZXZXNXNXNXNXNXNXNXZXZXZXZXZXMXMXMXMXMXMXMXMXxXxXxXxXxXxXgXgXgXfX<X<X<X;X:X<X<X:X:X:X&X:X&X&X&X+X@X&X&X:X&X{.:X:X&X&X&X}.}.&X&XQ.Q.}.&X}.&X&X&X&X&X&X&X&X&X&X-X-X<X,XfX1X1XgXkXkXgX1X1X1X,X<X<X1X1X1X<X<X<X:X&X&X}.].].}.}.`.A.V.V.A.A.c.c.c.c.j.g.j.j.s.p.p.*.%.%.%.$.$.$.*.*.*.*.p.p.j.s.p.s.s.s.<.%.2.#.#.$.$.$.$.$.$.$.%.$.@.@.%.%.%.%.@.) E ) ~ ( ( #.<.s.f.f.d.l.l.l.k.k.k.1.2.;.;.-.-.` ` ` ^ ^ ^ ( ^ ^ ;.,.;.] ] ^ ( ( / W ( ( ( #.( ;.2.<.2.;.$.#.$.$.$.$.%.#.%.%.%.%.%.%.*.*.%.%.%.%.%.p.j.j.j.j.s.*.a.a.%.%.%.a.%.#.%.#.( %.%.$.<.<.<.,.$.8.9.g.g.j.*.$.%.$.%.@.o.~ R T T T K K K K P P K A A G I G F W o.#.%.$.$.O.o.R K K T ! #.#.#.$.o.o.%.%.%.%.%.%.%.%.#.#.%.#.( o.$.8.0.h.C.h.9.<.,.;.#.;.;.#.O.O.^ ! ! ~ ^ O.^ ^ ! W J S f f j J K ! O.~ ! ! ^ ( ~ E R E E E E E E E E E j E E E R R ~ o.o.+.=.+.+.o.O.^ ! ! ! R E E R R R ~ R R E E L j j L L J J L j L j j L R R R R R R E E X.X.o.X.o.o.R E J J J J f f f g d S S ",
";.k.k.l.l.l.k.l.l.l.l.l.l.v.x.l.v.v.E.v.v.v.v.x.v.v.x.x.v.T.T.v.v.v.T.T.T.T.v.v.v.T.v.v.v.v.v.v.v.x.v.v.v.x.v.x.v.v.v.v.x.v.v.v.v.v.x.v.v.v.l.l.v.v.x.x.l.l.l.x.x.x.x.x.V.C.G.F.F.G.].F.].+X+X+X+X+X@X@X@X:X:X@X:X:X<X<X:X:X:X:X:X:X:X:X<X<X<X:X<X<X:X:X>X@XXXXX'.'.'.'.'.'.'.'.Q.Q.W.W.W.`.[.[.'.'.`.'.[.`.'.'._.'.W.W.'.'.'.`.W.W.R.`.`.`.T.Q.W.W.`.`.`.`.`.W.'.'.'.'.'.`.W.W.'.'.'.`.'.'.'.'.'.'.'.'.OXOX{.OXOXOXXXXXOXOXXXXXOXOXOXOXXXOX'.'.[.[.'.`.`.T.).).T.).`.[.`.`.[.XXXX@XXXXX@X:X>X>X<X,X,X0X0X,X,X,X,X,X,X0X0X0X,X>X>X8X8X>X<X<X>X>X>X>X>X>X8X8X0X8X0X0XkXkXkXlXlXlXlXxXxXxXxXxXxXxXxXxXxXxXxXxXxXMXMXMXMXNXZXZXZXZXAXAXSXSXAXAXAXSXSXAXAXZXZXAXZXZXZXZXNXNXZXZXZXZXZXZXZXMXMXNXMXMXMXMXMXMXMXMXMXxXlXxXgXgX1X<X<X:X:X:X<X<X:X:X:X:X:X:X:X:X&X&X&X{.:X&X{.:X:X&X&X&X}.&X-X&X}.Q.&X&X&X&X&X&X&X&X&X&X&X&X-X-X:X<X1XgX1X1XkXkXkXgXgX1X0X1X,X,X<X<X<X:X;X;X:X;X&X&X+X+X`.}.}.A.V.A.A.A.A.A.C.C.j.j.j.j.j.j.p.a.%.%.%.$.s.$.%.*.%.p.j.j.p.p.p.p.s.s.s.$.,.$.$.$.$.$.$.#.+.$.%.%.@.%.%.%.@.@.%.@.E E ~ ~ ( #.2.<.1.f.k.l.l.b.l.l.k.k.1.2.] ` O.^ ` _ _ ^ ^ ` ] ( ] ;.;.;.] ] ^ / ( / ( ( ( ( ( #.2.2.2.2.,.$.#.#.#.%.%.%.%.%.#.#.%.$.*.*.%.%.%.%.%.%.*.<.j.s.<.$.*.%.%.%.%.a.%.#.%.#.) #.%.$.<.<.<.,.<.<.8.9.g.g.8.<.$.$.%.@.o.o.~ R E T K K K K K P F A I I I G F P ! O.$.#.O.~ ~ T T T T ! o.#.%.$.#.#.%.%.*.*.*.*.$.$.,.#.#.#.( ^ #.$.8.9.h.z.h.9.,.#.;.;.;.O.O.O.O.! ! ^ O.O.O.^ ~ ~ R E J J J J R ! ! ! ! ~ ~ ~ ~ E R E E E E E E E E j j j E E R R o.o.o.X.=.$.$.O.! O.! R R R E E R R R R R E E E E j j j L L L K J L L L L R R E R X.X.R R X.X.o.o.O.o.R R K K E J D f f d f S D ",
";.5.k.l.l.l.l.l.l.l.l.l.l.v.v.v.x.v.v.v.v.x.x.x.v.E.E.E.v.E.v.T.v.v.T.v.T.T.v.v.v.T.v.v.v.v.v.v.x.v.x.v.x.x.l.b.v.v.x.x.x.v.x.b.v.x.x.v.v.v.l.l.x.x.l.l.l.k.k.z.x.x.x.x.V.V.V.A.A.A.F.A.].].].+X+X+X+X@X+X@X@X@X:X:X:X:X:X:X:X:X:X@X@X:X<X<X<X:X:X:X@X@X@XXX{.{.'.[.[.[.`.[.'.'.`.`.`.T.R.W.`.`.'.`._.`.[.`.'.W.W.W.'.W.'.'.W.W.'.W.`.`.[.`.T.T.T.W.`.W.`.`.W.T.W.W.`.`.'.W.W.W.W.W.W.W.`.`.'.'.[.'.'.'.{.OX{.OXOXOXOX|.OXOXOXOX|.OX|.|.XX|.'.'._.`.`.`.).T.T.).T.T.).`.`.[.[.XXXXXXXXXX@X:X:X>X<X,X,X,X0X0X,X>X,X,X,X,X>X>X>X>X>X>X>X<X<X<X>X=X8X8X8X>X8X8X0X8X0X0XkXkXkXkXlXlXxXxXxXxXxXxXxXxXxXxXxXxXxXxXxXMXMXMXNXZXZXZXZXZXAXAXSXSXSXAXSXSXSXSXSXAXAXAXZXZXZXZXZXZXZXZXZXZXZXZXZXZXZXZXZXMXMXMXMXMXMXMXMXMXlXlXlXgX1X<X:X:X<X<X<X<X:X:X<X:X;X:X:X;X&X&X&X{.:X:X:X@X&X:X{.}.&X:X:X:X-X-X&X&X&X&X&X-X-X&X&X-X-X-X-X<X<X<X1X1X0XkXkXlXlXlXkXgXkX1X1X1X<X<X:X:X:X:X:X&X&X&X+X+X}.}.`.A.A.A.A.A.A.C.C.A.c.j.j.j.j.j.p.p.%.*.*.8.p.p.p.p.%.p.j.p.*.*.*.p.j.s.s.s.s.$.%.%.$.$.%.@.@.%.%.#.@.@.%.%.%.%.%.o.) ) ) ~ ( ( %.2.2.>.f.f.l.l.l.l.l.k.5.1.:.;.-.` ` _ ` ` ` ] ] ` ^ ;.2.;.] ] ] ^ ^ ^ ^ ( #.( ( #.2.2.2.2.,.,.#.#.#.#.2.#.%.#.#.#.%.$.$.*.$.%.%.%.%.%.$.s.*.8.<.$.$.%.%.%.%.%.%.%.%.#.%.%.%.%.$.$.,.2.<.8.<.<.8.s.9.8.$.$.%.%.o.o.R R R E K K K K K F A I I I I S D K ! O.o.#.o.~ ~ W W ! ! ! o.#.$.#.$.%.$.*.g.j.j.*.*.$.,.,.,.#.( ^ O.o.,.9.9.9.9.9.,.;.-.-.-.O.O.O.O.! ! O.O.O.O.O.O.O.~ ! T E K T ! ! ! ! ~ ~ ~ ~ ~ ~ R R E E E E E E E j j j L E E R o.X.+.X.X.=.$.O.O.$.o.! o.R R X.R R R R R R R R E E j j L K L L K R R L L R R E R X.X.X.R R R R o.O.o.R E E E R E J J D f D K K ",
"^ 5.k.k.k.l.l.l.l.l.l.v.v.v.v.v.v.v.v.v.v.x.x.x.x.x.v.E.v.v.v.v.v.x.v.v.v.).v.v.x.U.x.x.v.v.T.v.x.l.v.v.x.l.x.b.l.l.l.l.x.v.x.b.v.x.v.v.v.v.l.x.l.l.l.l.k.k.k.z.k.k.k.z.x.V.V.V.V.V.A.A.].].].[.[.[.+X+X+X@X@X@X@X@X:X:X@X@X@X@X:X:X:X:X:X:X:X:XXX@XXXXXXX{.'.'.[.[.[.`.).).`.`._.`.`.`.W.W.W.W.'.`._.).[.T.'.W.Q.Q.|.W.W.'.Q.Q.W.R.R.`.[.`.T.T.T.T.W.).T.T.T.T.T.T.W.`.W.W.W.W.'.W.'.'.'.'.'.'.[.'.'.'.'.'.[.[.OX'.|.|.OX X|.|.|.OX'.'.OX'.`.[.).).`.`.).T.).).T.T.).).`.].[.[.{.XXXXXXXXXXXX:X<X>X>X>X,X0X0X>X>X<X<X<X>X>X>X>X>X>X>X>X<X>X>X=X-X>X8X>X8X8X0X8X0X0XkXlXlX0XwXlXxXxXxXxXxXxXlXlXlXlXxXxXxXxXMXMXMXMXNXZXZXAXAXAXAXAXSXSXSXSXSXSXSXSXSXSXAXAXZXZXZXZXZXZXZXZXZXZXAXAXZXZXZXZXZXMXNXMXMXMXMXMXMXMXlXlXgXgX1X<X<X<X1X<X<X<X:X:X<X<X:X:X:X;X@X&X:X:X{.:X:X{.@X;X+X`.&X:X:X:X<X<X-X-X2X-X-X<X<X-X-X2X1X2X<X1X1X1X1X1XwXlXlXlXlXlXkXgXkXgXgX1X1X<X<X<X-X-X&X&X&X+X}.}.}.}.`.`.`.A.A.A.A.A.C.A.Z.Z.Z.j.j.j.j.j.p.%.%.8.p.p.j.p.%.%.*.%.&.=.*.p.j.j.j.j.s.*.*.*.*.*.%.%.@.@.@.#.o.o.@.%.%.%.%.%.o.( ) ) ) ~ o.#.;.>.f.f.k.l.l.l.l.l.k.k.3.>.2.-.` ] ] ;.;.] ] _ ` ;.2.2.:.] ] ^ ^ ] ( ( 2.#.( #.,.2.2.2.<.,.,.,.,.2.2.#.#.#.( #.%.2.$.%.%.%.%.%.%.%.%.*.*.<.<.<.p.a.%.a.a.%.%.%.%.#.%.%.*.$.%.%.#.#.,.<.<.<.8.g.9.8.8.*.+.%.+.o.o.~ R T T K K K K F A I p p p I S D P O.~ o.~ ~ ~ ~ W W ~ o.o.#.$.O.$.#.$.*.j.j.j.j.*.$.#.,.,.;.#.( ~ ! -.,.,.9.9.w.w.w.-.^ ^ O.^ O.O.! ! ! ^ ^ O.O.O.O.^ ! ! R R ! ! ^ O.^ ! ~ ~ ~ ~ ~ ~ R E E E E E E E j j j j L E R X.X.X.X.X.@.+.o.+.O.+.o.o.X.X.X.~ R R ! ! R R E E E X.j L L L L ! R R E L R ~ R R R X.X.X.R R R O.O.o.R E E E E R J E U D D T T ",
"] k.k.k.l.l.v.x.l.x.l.l.l.x.E.E.v.v.x.x.E.v.v.v.v.x.l.v.x.x.v.x.v.v.v.x.v.v.E.E.T.T.T.T.v.v.v.x.x.x.v.v.v.v.v.x.l.x.x.x.v.v.v.x.v.v.v.v.v.l.l.l.x.k.k.k.k.k.q.9.z.z.k.z.z.c.V.V.V.C.A.A.].].].+X{.{.{.{.{.{.@X@X@X@X@X:X:X:X{.{.@X@X@X@X@X@X@X@XXX@X@X{.[.[.[.[.[.`.W.T.T.T._.`.T.`.).`.`.T.'.[.T.T.W.`.`.`.`.W.Q.'.`.'.'.`.W.W.[.).T.T.T.W.R.T.T.`.W.T.`.`.`.'.W.W.W.W.'.'.'.'.W.W.`.`.`.`.`._.`.W.Q.Q.W.`.'.OX'.'.'.|.OXOX|.|.'.'.'.'.W.`.'.`.).T.T.T.T.T._.T.v.v.T.).`.[.[.[.'.[.[.OXOXOXXX@X{.XX:X:X>X,X>X=X<X:X:X:X:X=X:X>X-X>X>X@X:X-XXXXX:X>X>X>X>X>X8X8X0X0X0X0XkXkXlXlXlXlXzXlXlXxXxXxXlXlXlXlXxXxXxXMXMXMXMXZXZXZXZXAXAXAXAXAXAXSXSXSXSXSXSXSXSXAXAXZXAXZXZXZXZXZXZXAXAXAXAXAXAXZXZXZXZXZXCXMXMXMXxXxXlXlXkX0X1X1X<X<X1X1X1X<X<X<X1X1X:X:X&X&X&X&X:X:X{.@X+XA.A.A.].A.C.C.}.&X:X,X:X<X1X<X2X1X1X1X2X1X1X1X1X1X1X0X0X0XkXlXlXkXkXlXlXlXlXgXgXgX1X<X<X<X<X;X;X&X&X+X+X].A.}.].V.V.A.A.A.A.A.A.A.A.B.Z.c.c.j.M.p.p.p.*.a.*.j.a.%.p.p.m m m m %.j.j.j.j.j.j.p.*.%.*.*.*.%.%.%.@.@.@.X.o.X.o.%.%.%.%.%.( %.#.#.#.#.;.>.s.f.f.d.d.l.l.l.l.d.d.5.3.:.:.` :.;.:.` ] ] ] ] ;.2.2.] ] ] ] ] { { ;.;.#.,.,.,.,.<.*.$.$.$.,.<.<.<.$.#.#.#.2.<.,.#.#.#.o.#.#.o.%.#.$.$.<.s.<.%.*.j.%.%.$.%.%.$.<.<.%.%.%.%.%.$.$.<.8.8.<.<.8.0.8.$.@.%.%.o.o.o.~ R R R K K F A p p p I p p A D R R ! ~ o.~ ~ ~ ! ~ ~ o.o.O.O.#.#.#.$.8.j.j.j.j.j.0.<.$.#.( ( ;.^ T ! O.-.,.5.1.w.w.:.` ` ^ ^ ! ! ! R ! ~ ~ O.O.O.-.#.O.o.~ ~ o.O.o.O.O.^ ^ ^ #.o.~ R o.R E R E E J L j j j L L X.E ~ o.X.X.+.o.o.O.o.+.O.o.! R X.o.R R R ! ! R R R E E E L L L L o.X.o.R L R R R o.o.X.R R R R o.O.o.o.R R T K K T T E T D D F K T ",
"] k.l.l.l.l.v.v.x.v.v.l.x.x.E.E.T.T.E.x.E.v.b.v.v.l.l.x.l.l.l.x.v.v.v.v.T.T.E.v.T.T.T.T.T.v.v.v.x.x.v.x.v.x.l.l.l.x.x.x.x.v.v.v.v.v.v.v.v.l.l.l.x.k.k.k.k.k.q.q.q.q.k.k.z.z.C.V.V.V.A.].].[.].+X{.{.XXXXXX@X@X{.+X@X@X:X:X:X@X@X:X@X{.{.@X@X{.[.{.{.{.[.'.'.[.[._.T.T.T.T.T.).`.`.`.).).T.T.`.`.T.R.`.`.`.`.W.W.W.'.W.'.'.`.`.`._.).T.T.T.T.T.T.T.R.W.W.W.W.R.`.W.`.'.'.|.|.'.'.W.W.W.`.`.`.`.`.`.W.W.W.'.'.'.'.'.'.'.'.|.|.'.|.'.`.'.'.W.`.`.T.).T.T.T.v.v.T.E.v.T.T.T.T.).`.).`.[.[.'.'.'.OXXX{.XX@X@X@X>X:XoX:X:X@XXXoX-X-X:X-X:XoXXX-X=XXXXXXXoX>X>X>X>X8X8X8X8X0X0X0XkXkXlXlXlXlXlXlXlXxXxXlXlXlXlXxXxXxXlXxXxXMXMXZXZXZXZXAXAXAXAXAXSXSXSXSXSXSXSXSXAXAXZXAXAXAXAXZXZXZXZXAXAXAXAXAXZXZXZXZXZXZXMXMXMXxXxXlXkXkX0X1X1X1X1X1X1X1X<X<X<X<X<X<X:X&X&X&X&X&X:X@X+XV.C.B.h.$.B.r.=.B.F.+X+X:X1X<X1XgX1X1X1XkX1X1X1X1X1X0X0XlXlXlXlXlXkXkXlXkXkXlXgXgXgX1X<X<X<X<X<X;X;X&X+X+X].`.}.A.V.V.V.A.A.A.A.A.A.Z.Z.Z.B.j.B.B.j.p.%.s.*.j.*.*.*.&.h v v h m p.j.j.B.j.j.j.p.*.p.*.*.*.*.*.%.%.@.@.X.o.o.o.o.%.%.%.%.%.$.$.<.<.2.;.2.>.3.f.d.d.b.l.l.x.l.l.k.5.5.>.:.:.:.2.:.:.] ` ] :.;.2.] ] ] ] ] { { 2.;.,.2.<.<.,.$.*.*.$.<.<.<.<.2.<.<.,.2.2.2.,.#.#.#.o.o.o.o.%.%.$.$.<.<.<.$.j.j.j.p.p.p.$.<.<.$.$.$.*.*.$.*.*.8.0.g.9.8.<.8.8.*.$.%.@.X.X.X.R R R R R K K D p p w p w p d D T R T ~ ~ ~ ~ ~ ~ O.O.O.#.O.O.o.O.O.$.*.j.j.j.j.h.h.8.<.$.#.#.^ ^ ~ W ! -.-.w.1.w.w.:.-.` ^ ! ! ! ! P ! ~ O.O.O.-.-.#.#.#.O.O.$.$.$.O.O.O.^ ^ #.#.~ E ) R E R E E E E j j L L R X.R R R R X.X.X.o.O.O.O.O.! ! ! ! o.R R R ! ! ! ! ~ X.E E E L L L L X.o.L L R R R o.o.o.X.X.X.R o.O.+.o.R R E K K K T E E D D T T W ",
"] k.l.l.x.l.x.l.x.v.v.v.v.T.T.E.T.T.v.x.v.v.b.x.v.x.x.x.l.l.l.b.l.v.v.v.v.v.v.v.T.T.T.T.T.T.v.v.U.U.E.v.v.v.x.l.l.l.l.l.l.l.x.v.v.v.v.v.v.l.l.k.k.k.k.k.q.5.5.5.9.q.k.k.z.z.v.v.v.V.`.`.`.[.[.+X{.{.{.XXXX@X:X:X+X+X@X@X:X@X@X@X@X@X@X{.+X{.{.[.'.'.'.'.'.'.`.T.).T.T.T.T.T.T.T.`.).).T.T.R.R.`.W.W.`.`.`.`.R.R.W.'.W.`.`.`.`.`.)._.R.T.T.T.T.E.T.T.T.T.`.R.R.W.`.'.'.'.|.'.'.|.W.W.W.'.`.`.'.'.`.W.W.'.'.'.'.'.'.'.W.W.'.'.'.'.'.W.'.'.`.W.R.T.T.T.T.U.v.v.T.E.v.E.E.E.T.T.T.T.T.).`.`.`.`.'.[.'.'.{.[.[.OX'.[.XXXXXXOXOXOXXXXXXXXXXXOXOXOXOXOXXXXXoX-X-X-X>X0X8X8X8X8X0X0XwXwXlXlXlXlXlXzXxXxXlXxXlXlXlXlXlXxXxXxXMXMXMXNXZXZXAXAXAXAXSXSXSXSXSXSXSXSXAXAXZXAXZXZXAXAXAXZXAXAXAXAXAXAXZXZXZXZXZXZXZXMXMXMXxXxXlXlXkX0X1X1X1X1XgX1X1X<X<X<X<X<X<X:X:X:X:X&X&X&X+X+XA.B.=.X.k j b j j =.B.A.F.:XgX1X1XkX1X1XgXgX1X1XwXkXlXlXlXlXlXlXlXkXkXkXkXkXlXgXgXgX1X1X1X1X<X<X;X;X&X{.}.].A.A.A.n.n.V.A.A.A.A.A.Z.Z.Z.Z.Z.F.c.B.B.j.p.p.j.p.X.X.v 7 5 h t t X.j.B.Z.B.j.j.j.j.p.p.p.a.*.*.*.%.%.@.@.X.o.R ) ) ( %.%.$.s.s.s.s.s.s.<.2.>.>.k.f.b.b.x.v.E.E.v.v.l.k.5.1.:.2.2.:.2.] ] ] :.] ] ] ] ] ] ] { ] ;.;.;.2.<.<.$.$.*.$.$.$.<.<.s.s.<.<.<.2.;.#.#.#.#.#.( ( ( ~ o.%.$.#.$.<.<.$.j.j.j.p.p.p.s.s.*.$.%.%.*.*.*.*.*.8.0.g.g.9.<.<.8.8.$.#.o.X.o.o.X.X.R R R R K D p p w w w p d S E R T ~ ~ ~ ~ ~ ~ O.O.O.O.O.O.O.o.O.$.*.8.0.j.h.h.h.h.0.8.,.#.^ ~ ~ W W ^ -.-.w.9.w.:.-.` Q P ! P P P ! ~ O.O.O.O.O.$.#.#.$.%.$.$.$.#.#.#.#.#.#.#.~ E ~ E T E E E E E j j j E R R T R R X.R X.o.o.O.O.O.~ ! ! ~ o.! ! R K W ! ! o.o.o.X.R R R R R L L o.R E R ! ! ! o.o.o.X.X.X.o.O.O.o.R E E T E K T T D S D T T W ",
"] k.l.x.x.x.E.x.x.v.v.v.v.U.U.x.T.T.v.x.E.v.x.v.x.x.x.x.l.l.l.b.v.v.v.v.v.v.v.v.E.T.T.T.T.T.E.E.U.U.T.E.v.v.l.l.l.l.l.l.l.l.x.v.x.v.v.v.v.v.l.k.k.k.q.q.q.5.5.5.q.k.k.z.z.v.V.V.x.V.`.`.`.[.[.+X{.{.{.XXXX:X:X:X+X@X@X@X@XXXXX@X{.XX@X@X{.{.{.{.[.'.'.`.`.`.).T.).T.T.T.T.T.T.T.R.T.).T.R.W.T.`.`.W.W.W.W.W.W.W.W.'.W.`.`.`.`.`.T.`.`.T.T.T.T.T.T.T.T.T.W.W.R.W.`.'.'.'.'.'.'.'.'.W.W.W.W.W.'.'.'.W.W.'.'.'.'.'.[.'.W.W.'.'.'.'.|.W.'.'.'.`.R.T.T.T.E.E.E.E.T.T.l.U.U.U.v.v.T.T.E.T.).).).`.`.`.'.[.[.`.`.'.[.[.'.'.'.'.'.'.|.OXW.|.OX|.'.'.'.OXXXOXXXXXXXXX:X>X=X>X>X8X0X0X0X0XkXkXlXlXlXlXlXlXlXlXlXlXlXlXlXlXlXlXxXMXMXNXZXZXAXAXAXAXAXAXSXSXAXAXAXAXAXAXAXAXZXZXZXZXZXZXZXAXAXAXZXZXZXZXZXZXZXZXZXZXMXMXMXxXlXlXlXlXwX0X0X0XkX0X1X1X<X,X<X<X:X<X:X:X<X<X:X&XA.A.*.X.j @.B.Z.A.Z.p.*.*.*.*.j.C.;X1X0XlXlXgX1XkXkXkXlXlXlXlXlXlXlXkXkXlXkXkXkXgXgXgXgXgXgXgXfX<X<X;X;X&X+X}.].V.V.V.c.n.n.A.A.C.A.A.Z.Z.Z.Z.Z.B.Z.C.j.j.j.M.M.v i k j p.dXnXhXM.X.*.j.C.j.j.c.j.j.j.p.p.p.p.p.*.*.%.@.@.@.o.R ) ) ( %.$.s.s.s.s.s.s.s.s.s.s.s.k.k.b.b.x.v.T.v.T.T.v.x.k.5.5.1.1.2.:.:.] ] ] :.] ] 2.2.2.] ] ] >.] 2.<.<.<.$.%.$.%.%.*.8.8.g.g.s.s.s.<.<.;.;.2.2.#.( #.#.~ o.$.#.#.#.,.$.<.s.s.p.p.p.s.j.s.*.%.%.*.0.p.j.j.*.0.8.h.h.h.9.8.<.$.$.#.o.X.X.X.X.X.X.X.X.R R L f p w w p p f S K R ~ ~ ~ E ~ ~ ~ O.O.O.O.O.O.O.O.O.$.$.8.0.0.h.h.h.j.h.0.8.,.O.~ ~ ^ W / -.-.w.q.w.-.-.' Q P Q P P P ! ~ O.O.O.O.O.$.$.$.*.*.$.%.$.$.#.;.;.;.;.#.^ o.) R T T E E E E j j L L K R T R R X.o.X.o.o.O.O.O.~ ! ! o.o.o.! ! ! ! ! ! o.! o.X.R R R R R R R R R R ! ! ! ! ! o.o.X.R o.+.o.o.o.R E T ! R K T E f f D U T W ",
";.l.l.x.T.x.T.v.x.v.v.v.x.U.b.x.E.E.v.x.E.E.v.v.b.l.l.l.l.l.l.l.v.v.v.v.v.v.v.v.E.T.T.T.T.T.T.E.x.x.U.v.v.x.l.l.x.x.l.l.x.x.x.x.x.v.v.v.v.v.l.l.l.k.k.k.5.5.5.f.k.k.k.z.z.x.v.v.v.).`.`.`.[.[.[.XX{.OXXXXXXX:X@X@X:X@XXXXXXX{.{.{.{.{.{.XXXX{.'.[.'.[.`.`.).T.T.).T.T.T.T.T.T.T.T.E.R.T.T.W.T.`.W.R.T.T.W.W.W.W.W.'.W.`.`.W.`.`.W.W.W.T.T.T.T.T.T.T.T.T.W.W.W.W.'.'.'.'.'.'.'.'.'.`.W.'.W.W.'.'.`.W.W.'.'.'.'.'.'.'.W.W.|.'.|.|.|.|.W.'.|.`.W.W.T.R.R.E.E.E.T.E.l.I.x.U.U.E.v.E.v.v.v.T.T.T.T.T.T.T._.T.T.Q.T.).R.`.`.`.W.'.'.'.W.W.'.'.`.`.'.'.'.|.|.XXXXXXXXXXXXXX:X>XqX0X0X0X0X0XkXkXkXkXkXkXlXlXlXlXkXkXlXlXlXlXxXMXMXNXNXZXAXAXAXAXAXAXAXAXAXAXAXAXAXZXZXZXZXZXZXZXZXZXZXZXZXZXAXZXZXNXZXZXZXZXZXNXNXMXMXxXlXlXlXlXlXkXlXlXlXkX0X1X1X1X1X<X<X<X,X<X<X<X<X:XG.+.j *.dXhXgX<X1X;X1XMXMXMX;X%.X.$.;XgXlXlXgXkXlXlXlXlXlXlXlXlXlXlXkXlXlXkXkXkXgXkXlXlXgXgXgXfX<X;X;X;X;X}.}.].V.V.n.c.c.n.V.A.A.A.Z.Z.A.Z.Z.Z.Z.B.j.B.p.p.&.7 t M.nXAXFXAXCXAXSXM.*.B.B.Z.B.A.Z.j.j.j.j.j.p.p.*.*.%.@.@.o.) E ) ) ( #.%.s.s.s.s.s.s.g.g.g.s.s.k.k.b.b.b.x.v.v.T.T.v.v.x.k.k.5.1.1.2.2.2.] [ >.{ >.>.>.] ] ] { { >.<.<.<.,.$.$.*.*.*.8.j.s.s.s.g.s.s.s.s.<.<.<.2.,.#.#.#.O.o.#.$.#.#.,.,.<.s.s.p.j.j.j.j.j.*.%.%.*.j.j.j.j.j.j.j.B.B.c.h.g.8.$.$.$.%.X.X.X.X.X.X.X.X.X.R J f p a w p p S S T ! ~ ~ ~ ~ o.o.~ O.O.O.O.O.O.O.^ ! O.$.$.8.0.0.0.h.j.j.h.8.8.,.^ ~ ~ ! / ^ -.w.w.w.:.-.-.` ^ ^ ! P ! ! O.O.O.O.O.O.$.$.%.*.*.*.%.$.$.$.;.;.;.2.;.( o.o.E R E E E L L j j L L K R R R X.X.o.X.o.o.O.O.O.O.O.o.o.o.o.! ! P P ! ! ! o.R R R R R R R ! R R E E R ~ ! ! ! o.o.X.R o.o.o.! ! T K T ! R E E J D S S F W / ",
":.k.l.x.x.x.T.T.T.T.v.E.T.U.U.T.E.T.v.v.v.E.x.x.b.x.l.l.b.l.l.l.l.x.v.v.v.v.v.v.T.T.T.T.T.T.T.E.x.U.x.v.v.v.v.v.v.x.l.l.v.v.v.v.v.v.v.v.v.v.l.l.z.k.k.k.5.5.5.5.k.k.k.k.x.x.x.x.x.).).`.[.'.[.{.OX{.XXXXXXXX:X@X:X:X@XXXXXXX{.{.{.{.{.{.{.[.'.'.'.[._.).).).).T.).T.v.v.T.T.T.T.R.E.T.T.Q.Q.T._.'.`.W.R.W.W.W.W.'.'.W.W.W.R.T.T.`.W.T.T.T.).T.T.).`.T.R.W.W.W.'.'.'.'.'.'.'.'.'.[.`.`.W.W.R.W.W.W.W.W.'.'.'.'.W.'.'.W.W.|.|.|.|.|.|.W.'.'.'.`.`.).R.R.R.T.T.E.l.v.v.U.E.l.l.I.U.E.v.v.x.v.E.E.T.U.l.E.l.E.E.v.T.T.T.).).W.W.`.T.W.R.R.R.R.`.'.W.W.'.'.|.|.OXOXOXOXOXXXXXoX:X>X>X>X,X0X0X0X0X0X0XkXkX0X0X0X0XkXlXlXlXlXMXMXMXNXZXAXAXZXAXAXAXAXAXAXZXZXZXZXZXZXZXZXZXZXZXZXZXZXZXZXZXZXZXZXZXZXZXZXZXZXZXZXNXMXMXmXlXlXlXlXlXlXlXlXkX0X0X1X1X1X,X,X<X,X1X,X<X<X<XC.+.F.hX+X8.$.<.8.9.c.}.fXMXZXMX2X8.*.F.<XwX0XcXlXlXlXlXlXlXlXlXlXlXlXlXlXkXkXkXlXkXlXlXgXgXgXfX1X1X;X;X;X+XF.A.A.V.V.c.c.c.c.C.A.A.A.A.A.A.A.Z.n.B.Z.B.p.y 5 a.AXFXFXCXhXfX+X;XSXdX*.Z.j.C.Z.j.c.B.j.j.j.j.j.p.p.*.*.%.@.@.R E E E ~ %.#.$.s.g.s.s.g.g.g.k.k.k.k.k.b.b.b.x.x.v.T.T.v.v.v.l.k.k.5.k.1.2.>.>.>.>.s.s.s.s.>.>.>.>.{ >.s.s.<.,.$.$.%.$.*.j.g.g.s.<.s.s.s.s.s.s.1.1.1.2.,.#.,.#.O.#.$.,.2.2.<.8.g.s.s.j.j.j.j.j.*.%.%.*.j.j.B.B.j.B.B.B.B.B.h.h.0.<.$.*.%.%.%.@.X.X.X.X.X.X.E J f d p w p p S D T ! ~ ~ ~ o.#.#.o.o.O.O.O.O.O.O.! O.o.O.,.8.8.8.8.8.j.j.j.j.g.g.,.~ o.O.! ^ ;.w.:.w.w.w.-.-.` ^ ! ! ! ~ O.O.O.O.O.#.%.%.$.*.$.$.$.%.$.$.,.2.2.>.2.] ^ ~ ~ R E E E L J j j J L K R R R X.X.X.o.o.~ o.O.O.O.o.o.o.o.o.! ! P P W R ~ ~ X.R E R R R R ! R R E E E E E ~ ~ o.X.X.X.! ! R R R K K K ! ! R T J J D D F W W ",
">.b.x.E.T.E.T.T.T.E.v.v.U.U.T.T.E.E.E.v.v.x.x.x.x.x.x.x.x.b.l.l.l.x.l.v.v.v.v.v.T.T.T.T.T.T.T.T.T.E.v.E.v.v.v.v.l.v.v.v.v.T.).v.x.v.v.v.x.x.x.l.k.k.k.5.5.5.5.k.k.k.k.k.z.x.x.x.x.T.V.).`.`.{.{.OXOXXXXXXX@X:X:X@X:XXX{.{.{.{.{.[.{.{.{.'.[.'.'.`._.).).).T.T.T.T.v.v.E.T.T.T.T.E.E.E.T.Q.T.T.).'.'.W.W.`.`.W.W.'.'.W.'.W.R.R.R.`.T.T.T.T.T.T.`.`.`.W.W.W.W.W.'.'.'.|.W.'.'.'.`.[.`.`.`.R.R.W.W.W.W.'.|.'.'.'.W.'.'.'.'.OXOX|.!.'.|.W.W.'.'.`.`.R.T.R.R.T.T.T.E.E.E.E.U.l.l.l.U.E.v.x.x.l.U.U.U.l.l.U.U.I.E.E.T.T.T.).T.T.`.R.T.T.R.U.T.T.`.W.U.'.'.`.T._.'.'.'.|.'.|.|.OXOXXXXX-X:X:X>X<X<X>X8X0X0X0X0X0X0X0XkXkXlXlXzXMXMXNXZXZXZXZXZXZXZXZXAXZXZXZXZXZXZXNXNXMXNXNXNXNXNXNXZXZXZXZXZXZXZXZXZXZXZXZXZXNXNXMXMXMXmXmXlXlXlXlXlXlXlXwXwXwX0X1X,X,X,X,X,X,X<X:X+XF.dXF.$.#.9.9.,.8.9.h.h.z.h.g.`.lXZXgX0.j.<XlXlXlXlXlXlXlXlXlXlXlXlXlXlXlXkXkXkXlXkXlXlXgXgXfX1X1X1X;X;X;X;X].].A.V.A.C.C.C.C.c.C.A.A.A.A.A.F.Z.A.B.B.&.7 t 2XFXZXhXhXfXfXfX;X;XCXxXB.C.h.c.A.C.C.A.C.C.B.c.j.j.j.*.*.%.%.) R E E E E ( #.$.s.g.j.g.g.g.c.c.k.k.k.k.x.x.b.b.b.T.T.`.T.T.E.l.l.d.f.k.k.1.1.s.>.f.f.f.f.s.s.s.>.>.>.>.s.s.s.<.<.$.$.*.j.j.j.j.s.s.s.s.s.s.s.s.s.s.s.s.2.,.,.,.#.#.#.,.;.2.<.9.g.s.j.s.g.j.j.j.*.%.*.*.p.B.B.B.B.Z.B.S.B.B.B.B.h.8.8.*.*.$.*.*.%.%.X.X.X.X.X.E f f d p p d S K T ~ ~ ~ o.#.$.#.o.O.O.O.o.O.O.^ ! O.O.O.$.,.,.*.$.*.j.j.j.j.h.h.g.$.O.O.O.O.;.w.w.w.w.w.-.-.` Q ! Q ~ ~ O.O.O.o.O.$.%.%.$.$.%.$.$.$.$.$.;.2.:.>.>.:.^ ~ ~ ~ R E E E L j j L K K R R X.X.X.X.R ~ E ~ O.O.O.O.O.O.O.o.! ! ! P K T T E E E E E T T R R R R E E E E E E ~ R R R R R R K R R K K K R R R E J J J D U W W ",
">.b.x.v.T.v.T.v.E.E.v.x.x.U.T.T.l.v.v.x.x.x.l.l.U.l.l.l.x.l.l.l.v.x.v.v.v.T.T.E.T.T.T.T.T.T.T.v.T.E.v.v.v.v.v.v.x.T.T.v.v.v.v.x.x.v.v.x.l.x.l.k.k.k.k.5.5.5.q.k.k.k.k.k.l.x.x.x.E.).T.`.'.W.'.{.OXXX@X:XXXXX:XXX:X:XXXOX{.{.{.{.{.[.[.[.'.[.'.`._._.`.).T.E.E.T.v.v.T.T.T.T.T.T.T.T.E.T.Q.T.`.).'.`.R.`.'.'.`.`.`.'.W.W.W.Q.R.R.T.T.T.T.T.T.T.`.[.'.'.W.W.W.W.'.'.|.|.W.W.'.`.`.[._.`.W.T.R.W.'.W.'.'.'.'.'.'.W.!.|.'.|.OXOX|.|.'.|.'.R.|.|.'.'.W.W.W.W.R.R.W.T.T.v.v.E.U.l.b.U.l.x.x.x.l.l.d.d.l.d.d.d.k.l.l.U.E.T.T.T.T.R._.T.T.R.R.R.R.T.W.Q.R.`.R.T.T.`.`.T.W.W.W.'.'.'.|.|.XXOXXXXXXX@X-X=X:X>X>X>X>X>X0XwXkXkXlXlXlXxXMXNXZXZXZXZXZXZXZXZXZXZXNXNXNXNXNXNXNXNXMXMXMXMXMXNXZXZXZXZXZXZXZXZXAXAXZXZXMXNXNXNXMXNXNXmXlXlXlXlXlXlXwXwXwX0X0X0XfXkX,X<X,X,X+XC.C.C.#.<.9.h.A.C.c.c.z.0.h.9.O.2.n.gXBXMX;XC.<XlXlXlXlXlXlXlXlXlXlXlXlXlXkXlXlXcXlXgXgXlXgXgXfX,X,X<X;X;X;X;X+X+XA.A.V.V.A.C.C.c.C.A.C.C.A.Z.F.Z.Z.D.b < %.GXAXxX:XlXlXhXMXgXgX;XhXdXC.A.c.c.C.V.A.A.A.C.C.C.B.B.j.p.*.%.%.o.R R E E E ) ( $.s.s.g.j.g.g.c.c.c.c.s.k.k.z.l.b.b.U.`.`.`.T.T.l.l.l.l.d.k.k.k.1.>.k.k.f.f.s.s.s.>.{ >.>.>.1.1.<.<.8.$.8.j.j.j.h.h.g.g.j.s.s.<.<.<.<.<.s.<.2.2.,.#.( #.#.;.,.<.9.h.g.m.g.g.j.j.j.8.$.*.*.B.B.B.B.B.Z.S.S.Z.Z.Z.B.h.0.h.*.*.*.*.*.%.%.%.@.@.@.@.E J f S d S S F T W ~ ~ o.o.#.$.$.#.$.O.O.! O.O.^ ! ! o.o.O.$.$.$.$.$.*.*.j.p.*.h.g.8.$.#.#.O.-.1.w.w.w.w.-.-.` Q Q ~ O.O.~ O.! ~ O.$.%.*.*.$.$.$.$.%.%.$.#.;.:.>.>.>.] ^ ~ E T T T T J j j R R ! o.o.X.X.X.R R E E ~ ^ O.;.-.O.O.O.O.! ! ! K F D z l l L j j j f J T T T T E E E E E R R R R R R K K K K K K K K K T E J J J D D T T ",
"[ b.x.v.T.T.T.T.E.l.l.x.x.T.v.v.x.x.l.l.l.l.d.U.b.x.x.x.x.v.x.l.v.v.E.E.E.E.E.E.T.T.T.T.T.T.T.T.T.T.T.T.T.v.v.T.T.T.T.).).T.v.v.v.x.v.x.d.l.x.d.k.k.q.5.f.f.f.k.k.k.k.l.l.l.l.v.v.T.`.`.`.'.{.OXXXXXXX:X:X:X:X:X:XXXXXOX{.OX{.{.[.{.[.'.`.'.'.`.`.`.).T.T.E.T.).v.E.T.v.E.T.W.T.T.T.R.Q.T.Q.W.W.T.'.'.'.'.'.'.'.`.`.`.`.T.T.).T.).T.T.T.T.T.T.W.`.'.'.[.'.'.|.!.'.'.{.'.'.'.'.'.`.`.R.R.T.T.R.Q.'.W.W.'.|.OX'.'.|.|.'.|.|.|.|.|.'.'.'.'.'.'.'.'.'.'.'.'.'.R.T.T.T.T.T.E.v.v.v.x.x.l.l.l.l.l.l.L.d.k.k.l.d.d.l.E.l.E.E.E.T.T.).).T.T.T.T.T.Q.Q.Y.R.R.R.T.T.T.`.`.T.T._.).T.).`.`.'.`.'.|.OXOX{.XXXXXX@X@X@X:X>X:X0X0XkXlXxXxXxXMXZXZXZXMXZXZXNXNXNXNXNXNXNXMXMXMXNXNXNXNXNXMXMXMXNXMXMXNXZXZXZXZXZXZXZXNXZXZXZXNXMXNXmXmXlXxXxXlXlXlXlXkXwXwX0X8XkXkX1X1X,X,XA.0.].0.$.$.$.0.C.C.C.V.A.A.c.<.;.,.k.v.+XMXFXMXc.<XMXxXkXlXlXMXlXlXlXkXkXkXlXlXkXkXgXgXgXgXgXgXfXfXfXfX;X;X;X;X+X].].V.C.C.C.V.C.C.G.c.C.Z.Z.B.D.dXaXn 6 ;XFXMXfX<XMXMXhXnXhXnXhXhXhX+X+XA.C.V.V.V.A.A.A.A.G.A.C.B.j.j.*.%.%.%.o.@.) E E E ) %.s.s.j.j.j.c.c.c.x.c.c.c.c.b.b.v.v.v.'.'.'.Q.Q.T.v.x.v.x.l.l.l.k.f.k.k.k.k.f.f.f.s.{ >.f.f.s.1.<.<.$.8.0.h.h.j.j.j.j.g.g.g.g.s.<.<.<.<.<.<.<.<.<.2.( 2.2.2.<.<.s.c.c.g.j.g.s.j.j.*.*.*.*.j.B.B.Z.Z.Z.D.Z.Z.Z.B.B.B.j.j.p.0.j.j.*.&.*.&.&.*.%.%.X.J J J S S D F T ! o.o.o.O.#.,.,.,.$.O.O.O.o.+.+.+.+.o.! ! ! O.O.o.%.$.*.*.*.*.j.j.*.8.*.$.,.,.,.2.2.-.-.-.' ` Q Q -.O.O.O.O.o.o.O.O.O.%.$.$.*.$.*.$.%.$.,.2.2.>.>.>.] ^ ~ ~ E T T T J J K R R ! o.o.o.X.X.R E E ~ ~ ^ ( O.O.O.O.O.O.O.! T T S d g g g z g g f f g z E E z g z z g g l E E R R R E E K K K E E E T T T T T D D D U T ",
">.b.x.v.v.E.E.x.v.l.l.x.x.x.x.l.b.x.l.x.l.l.d.U.l.b.x.l.l.l.l.x.x.x.E.E.E.T.T.E.T.T.T.T.T.T.T.T.T.T.T.T.T.T.T.T.`.).T.T.v.v.v.v.v.x.v.x.l.l.x.l.k.k.q.5.5.5.f.f.k.k.k.l.l.l.l.v.v.v.`.`.'.'.OXXXXXXXXX:X:X:X:X:X:X:XXXXX{.{.{.'.{.[.[.'.`.`.T.T.T.T.T.T.E.E.T.T.T.T.T.T.T.T.T.T.R.R.W.Q.Q.W.W.T.T.W.'.'.'.'.'.[.'.'.'.`.T.T.).T.T.T.T.T.T.T.W.W.`.[.'.[.'.'.'.'.'.'.'.|.'.'.'.W.`.`.W.R.R.R.Q.W.'.W.W.'.'.'.'.'.|.|.|.|.'.'.!.!.|.|.'.'.'.'.|.|.'.'.W.W.'.'.W.U.T.T.T.E.E.v.v.v.l.l.l.l.l.l.d.d.f.d.6.d.d.d.d.l.l.I.U.U.E.E.E.E.R.E.T.T.T.T.T.T.R.T.T.T.).T.T.T.U.T.R.Q.T.Q.Q.U.T.T.R.R.`.`.'.'.'.OX{.{.OXXX@X:X:X<X0X0XkXcXcXlXxXMXMXMXMXNXMXNXNXNXNXNXNXMXMXMXNXNXNXNXlXlXNXxXNXMXMXMXNXNXZXZXNXNXNXMXMXNXNXNXMXNXmXmXMXxXlXmXlXlXwXwX0X8X8X8X,XkXkX,XkX:XA.+Xh.8.*.g.0.B.C.h.h.h.F.F.C.h.2.~ ;.k.s.A.gXAXgXc.:XxXlXlXmXlXlXlXlXkXkXlXlXcXkXkXlXgXgXgXgXgXfXfX1X<X;X;X;X;X;X+X].A.V.A.c.C.C.C.n.C.C.Z.A.H.hXVXn s 1XGXlX<X<XgXfXfXdXhXCXCXVXVXhX+XC.V.V.C.V.A.A.A.].].F.G.A.C.B.j.8.$.%.%.@.o.( ) ) ) ) %.$.s.j.j.j.c.c.m.c.c.c.c.k.b.b.v.v.T.T.'.'.'.'.Q.T.T.T.v.l.l.l.d.k.k.k.k.k.f.f.f.>.[ >.f.f.1.1.1.<.<.8.h.h.j.j.h.j.j.h.g.g.g.s.s.<.s.<.,.<.<.s.s.<.<.<.<.<.<.<.g.c.c.g.g.g.s.j.j.*.*.*.*.j.B.Z.Z.Z.Z.D.Z.Z.Z.Z.B.B.B.j.j.j.B.B.M.e.*.p.p.*.*.%.X.E T J S S D T ! ~ o.o.o.O.O.,.,.<.,.#.O.O.o.o.+.+.o.! R K K ! o.o.#.%.$.*.*.*.8.j.B.0.8.8.,.;.;.,.;.-.-.-.` _ Q ^ -.^ O.O.O.! O.#.#.$.$.$.%.*.*.*.*.$.$.#.;.;.:.[ } [ ] ^ ~ ~ E T E T T E R R ~ o.o.o.X.R R R R ~ ~ ^ ^ O.^ ^ ^ ^ ! ~ ! K D d d g g g g g g f g g g g g g g g g g g z g E E R T J J J J K E K E K T K T T D D D F T ",
">.v.v.v.v.E.x.b.x.v.x.x.x.l.l.x.b.b.x.l.l.l.l.b.l.x.x.l.l.l.l.x.v.v.v.x.v.v.T.T.T.T.T.T.T.T.T.T.T.T.T.T.T.T.T.`.`.`.T.T.v.v.v.T.v.x.v.x.l.l.l.l.k.k.k.5.5.5.5.f.q.k.k.l.l.l.l.v.v.T.`.`.'.'.OXOXXXXXXX:X:X:X:X:X:X@XXXXX{.{.{.[.[.'.'.[.'.T.T.T.T.T.T.U.T.T.T.T.T.E.E.T.T.T.T.T.R.R.W.W.W.W.`.R.R.W.'.'.'.'.'.[.'.`.'.'.W.W.T.T.T.`.`.T.T.W.W.W.`.'.'.'.'.'.|.|.|.|.'.'.|.|.'.`.R.W.W.W.Q.Q.W.W.W.W.'.'.'.'.|.|.|.|.|.|.|.|.|.|.'.|.|.|.|.|.|.|.|.|.W.W.|.|.W.W.R.T.E.E.E.v.v.v.U.l.l.l.l.l.l.d.f.f.f.d.d.f.f.d.d.l.l.l.l.l.l.l.U.U.E.E.E.T.T.T.E.E.T.T.T.T.E.T.R.R.R.T.R.R.R.E.E.R.R.T.T.T.T.T.W.'.'.'.'.'.OXXXOXXX:X>X,XkXkXkXcXlXxXxXxXxXxXNXxXlXzXzXzXlXlXxXzXlXlXlXlXlXlXlXMXxXxXNXMXMXMXNXMXMXMXMXMXMXNXNXMXMXmXmXNXmXNXmXlXlXwXwXwXwX8X8XkX,X0X<X,X&X+XB.o.h.F.bXpXG.C.A.C.h.C.+XfX<XC.s.z.k.k.x.`.<XAXmXc.:XxXkXkXmXlXlXlXlXlXlXcXcXgXgXgXgXfXfXfXfX1X,X<XfX<X;X<X;X:X+XA.A.A.C.V.C.C.A.c.C.p.dXJXHXjXv *.BXmX<X&X:X<X<XfXgXhXCXDXVXHXKXvXdXC.V.v.z.V.V.A.A.+X+X+X+XA.C.C.h.g.<.$.%.%.%.o.%.%.%.%.%.*.j.j.j.c.c.c.c.c.c.x.c.k.k.k.z.v.n.b.Q.Q.'.'.'.Q.'.`.T.T.v.x.l.l.l.l.l.d.f.f.3.3.>.3.3.f.1.1.1.8.s.8.g.h.h.h.h.j.j.g.j.g.j.s.s.s.s.,.,.<.<.<.1.1.8.<.<.g.s.<.g.g.g.g.j.s.s.j.*.*.*.*.*.j.B.B.Z.Z.Z.Z.D.D.D.D.Z.B.B.B.B.B.B.B.M.M.M.M.p.*.*.%.X.R E J S S J R ~ ~ ~ o.o.#.O.$.,.8.8.#.O.O.! ! ! ! ! ! K K K K ! ! o.#.%.%.$.*.*.j.j.0.h.0.8.,.-.,.-.-.-.` Q Q P P ! P ~ O.~ ! O.O.O.O.$.$.%.$.$.$.$.%.O.O.O.;.] [ [ [ _ / ~ E R R R T T T T R ~ o.o.o.R R R R T W ~ ~ ~ ! ! ! ! ! ! ! P F D d g g g g g f f f g g g g g g g g r r r g g U T T J J L J J J J J J K K K K F D S d D W ",
"1.x.v.v.x.x.x.b.b.l.x.x.x.l.l.U.d.b.b.l.l.l.l.l.l.x.x.l.l.l.l.l.x.v.v.x.v.v.T.T.E.T.T.T.T.T.T.T.).).).`.T.T.T.T.T.T.T.T.T.T.T.T.v.x.l.l.l.l.k.k.k.k.k.k.5.5.5.f.k.k.k.l.l.l.x.v.T.T.`.'.'.'.'.{.OXXXXXXXXXXXXX@XXXXXXXXX{.{.[.'.'.`.`.T.T.T.T.T.E.T.E.E.E.T.T.E.E.U.U.T.T.T.W.`.R.R.W.W.W.`.'.`.W.W.W.'.'.'.'.'.'.W.`.`.W.W.T.T.T.T.`.W.W.W.W.W.[.'.'.'.'.'.|.OX|.|.OX'.'.'.'.|.W.W.W.W.W.W.W.'.'.'.'.'.'.W.|.!.!.!.!.|.|.|.|.|.'.'.'.'.|.|.'.|.|.|.|.|.W.W.W.W.R.T.R.E.E.E.E.v.U.I.I.I.l.l.d.d.f.f.6.d.d.d.d.d.d.l.l.l.k.l.l.l.U.U.U.U.U.U.U.U.E.E.E.U.E.E.E.E.T.E.E.E.E.E.E.E.U.E.R.E.E.E.T.T.R.W.W.`.`.[.'.'.'.|.OXXX:X>X,X0XkXkXcXcXlXlXlXlXlXlXlXzXlXlXlXlXlXlXlXlXlXlXlXlXlXlXlXlXxXNXMXMXMXMXMXMXMXNXNXNXMXNXzXzXzXmXmXmXzXzXwXwXwXwX8X,X0X,X,X,X:X,XfX$.B.jXvXaXpXpXG.h.C.C.A.F.+XfX<X].c.k.z.k.b.v.:XAXxXV.:XNXkXlXlXwXkXkXlXlXlXlXkXgXfXfXfX,X,X1X,X,X<X<X;X;X:X+X+X+X].V.C.C.C.h.c.V.C.j.jXKXPXe.j 1XGXlX:X+X:XgXxXhXMXCXCXxXjXvXHXLXHXCXfX].z.V.V.A.].].+X+X+X].].A.C.c.g.<.,.#.%.%.%.%.%.*.*.*.p.j.j.j.j.j.c.c.c.c.c.b.b.b.z.z.x.v.T.T.Q.T.W.|.'.|.'.`.`.W.T.v.l.l.l.d.f.6.6.3.3.3.7.3.f.k.g.9.9.s.g.g.g.g.h.c.c.j.c.h.j.j.g.g.s.s.<.<.<.<.<.<.<.<.<.g.g.g.g.g.g.g.g.s.s.s.<.<.$.$.$.*.0.j.B.Z.Z.Z.D.D.D.D.D.Z.Z.B.B.B.B.B.B.B.M.M.p.M.*.*.%.~ ~ R D S S K ! ~ ~ ~ ~ o.#.O.$.$.8.8.#.#.O.! ! ! ! K K K K K F K K ~ ~ o.%.$.%.*.0.h.0.0.0.8.$.O.O.O.O.O.^ Q P P P P Q Q ^ O.~ O.O.O.O.O.$.$.%.%.+.$.%.o.o.^ ` ` ` [ [ _ Q W R R R ~ T R R R ~ ~ ~ o.o.X.X.R R R T W ~ ! ! ! ! ! ! ! P P K S d g f g g g g f g g g g g g g g s r r r r e g U g D J J J J J D S J J K D D D D f g D T ",
"1.b.x.x.l.b.b.b.l.l.l.l.l.l.l.l.d.d.l.l.l.l.l.l.k.l.l.x.l.l.l.l.x.v.v.v.v.T.T.T.T.E.T.T.T.T.T.T.T.T.T.T.).).T.T.T.T.T.).).T.T.T.v.v.l.l.l.l.l.k.k.k.k.k.5.5.5.5.k.k.l.l.l.l.x.E.T.T.`.'.'.OXXXXXOXOXOXXXXXXXXXXXXXXXXXXX{.{.'.[.'.`.T.T.T.E.T.T.T.T.T.E.E.T.T.v.T.E.E.T.T.T.T.W.R.W.W.W.W.'.'.'.|.'.'.'.'.'.'.'.'.'.'.W.W.W.W.T.T.T.T.W.W.W.`.`.'.'.'.'.'.'.|.OX|.OX|.'.'.'.'.'.'.'.'.W.W.W.W.W.'.W.'.'.'.|.!.!.W.'.|.'.'.|.|.'.|.|.|.|.|.|.|.|.|. X X|.|.W.W.W.R.T.T.R.E.E.E.E.U.I.I.I.l.k.d.d.d.d.6.d.d.l.l.d.k.k.k.l.l.l.l.l.b.U.U.U.U.U.I.b.U.U.U.l.x.U.U.U.U.U.I.U.I.I.I.I.l.l.l.I.I.I.I.E.T.T.R._._.`.`.).T.W.`.'.OXXX:X>X<X0X0X0X0X0X0XkXlXlXkXwXeXeXlXkXwX0XkXkXkXlXlXcXlXlXlXlXlXlXzXNXzXxXxXlXzXmXmXzXMXzXzXzXzXzXzXzXlXlXwXwXwX0X0X0X,X0X0X>X{.fX;XB.bXaXG.F.pXF.dXhXdX+XV.h.0.A.+X+XA.x.1.2.>.2.s.{.AXlX`.,XlXwXwXlXwXwXkXlXkXkXkX0X,XfX,X,X,X,X,X,X;X<X;X:X;X+X+XF.A.C.V.C.C.A.G.$.=.S.HXpXk ) BXAXgX+X}.}.cXfXhXCXCXCXxXhXbXvXHXHXVXDXxXV.x.`.A.].[.].[.+X+X].].A.C.z.g.9.<.2.%.%.%.$.*.*.*.*.*.p.j.j.c.c.c.c.c.c.c.x.x.b.b.z.v.v.T.Q.Q.Q.!.|.|.|.'.'.'.'.W.T.x.l.d.6.6.4.3.3.3.3.3.3.k.k.k.g.g.g.g.h.h.h.z.c.c.c.c.h.g.j.j.j.s.$.$.$.<.,.,.,.s.s.g.g.c.c.k.c.b.k.k.g.s.s.<.<.$.$.$.8.8.j.B.Z.Z.Z.D.D.D.D.D.Z.B.B.Z.Z.B.B.B.B.M.M.M.M.p.*.%.o.o.R J D D E ~ o.~ ~ ~ o.#.O.$.$.,.$.#.O.O.! ! P K K K K K K K F K R ~ o.O.o.o.%.8.h.h.0.8.$.O.O.O.O.O.O.O.Q Q P P Q Q Q ^ O.O.O.O.-.O.O.O.$.$.+.+.+.O.o.! ! / / / ` ] _ / W ! ~ o.o.~ ~ ~ ~ o.~ ~ o.o.o.o.! R R T T ! ! ! ! ! ! ! ! ! K K D D f f f g g g f g g g g g g g s s r r r r s g g g g f f f D J f S J J J D S S f g g D T ",
"2.l.l.l.l.b.d.d.b.l.l.d.d.l.l.l.d.d.l.l.l.l.l.l.l.l.l.l.l.d.l.l.l.l.x.v.v.v.v.E.T.T.T.T.T.T.T.`.T.T.T.T.T.`.`.`.`.`.`.`.).T.T.T.x.v.x.l.x.l.l.l.k.k.k.k.k.k.k.k.z.l.l.l.x.x.E.T.).).`.'.'.OXOXXXOXOXOXOXOXOXOXXXOXXXXXOX{.{.'.'.`.`.`.`.T.T.T.T.T.T.T.E.E.T.T.v.T.T.T.R.R.T.T.W.`.`.`.W.W.W.'.'.|.'.'.'.'.'.'.`.OX'.'.'.'.'.`.T.`.T.T.W.'.`.`.[.'.'.'.'.'.'.OXOXOXOX|.'.'.'.'.`.'.'.'.'.'.'.'.'.|.'.'.'.|.|.|.|.|.|.|.|.|.|.|.'.!.|.|.|.|.|.|.|. X|.!.!.|.|.W.R.R.R.T.T.R.T.E.E.U.l.l.l.l.d.d.d.k.d.f.6.6.k.l.d.l.l.l.l.l.l.l.l.x.x.x.l.l.l.l.l.d.l.l.l.l.x.x.l.I.l.I.I.I.l.x.l.l.l.l.I.I.I.l.I.E.E.T.T.).).T.T.T.T.T.`.'.'.OXXX:X>X<X<X>X>X>X0X0X0X0X0XwXwXwXwXwX0X0X0X0XkXlXcXlXlXlXlXlXzXzXlXzXlXlXlXlXzXzXzXlXzXzXzXzXzXzXzXlXlXkX0X0XwX0X0X0X0X0X:X+XfXB.B.pXbXdXdXdXdXdXdXpXF.+X+X+XA.G.+XA.z.`.z.1.;.;.k.}.AXMX&X<XwXwXlXwX0XkXkX0X1X1X1X,X,X,X,X<X,X,X,X<X<X<X:X;X+X+XA.C.c.z.V.C.r.M 5 m F.e.6 m.FXZX-XV.`.}.:XbXdX,XgXhXhXhXhXvXDXJXPXjXDXfXV.).`.].].[.[.[.+X+X+X].].V.c.z.9.<.,.$.$.$.$.*.*.*.*.p.p.j.j.c.c.c.c.c.c.c.c.b.b.b.x.v.n.T.`.'.'.|.'.Q.|.`.`.'.'.'.T.U.x.d.6.4.4.3.3.3.3.f.k.k.k.k.k.g.g.g.z.c.z.z.z.c.c.h.h.g.g.j.s.p.%.*.%.%.#.%.2.<.g.g.g.g.b.b.b.b.b.b.m.g.s.<.$.<.<.$.$.*.j.j.B.Z.S.Z.D.D.D.Z.Z.Z.B.Z.Z.B.B.B.B.M.M.M.M.p.p.*.#.o.~ T D J T ~ o.o.O.~ ~ #.O.#.#.,.$.$.O.O.! ! K K K K K D K K K K K T o.o.o.o.$.*.*.h.0.8.8.$.O.O.~ O.-.O.~ Q P P P Q ` ^ ^ ~ O.O.O.$.$.O.$.$.+.o.o.o.o.! ! ! W / / ` ` ^ ~ ! ~ ~ o.~ ~ ~ o.( ~ ~ ~ o.o.R R R R R R ! ! P P ! ! ! ! P K K K D S f f f f f f g a a d g g g s s r r r q q e e p g g g f f f f D D D S f f f f g g D T ",
"2.l.l.l.d.d.d.d.b.d.d.d.d.l.l.l.l.l.l.l.k.l.l.k.b.l.d.l.l.l.l.l.l.l.x.x.x.x.E.T.T.T.T.T.T.T.T.).`.`.T.).`.`.`.`.`.`.`.`.`.`.`.T.T.).v.x.x.l.l.l.l.l.l.l.l.l.l.l.b.v.v.v.E.T.T.T.`.`.`.W.W.'.'.'.[.[.|.'.{.OXOXOXOXOXOX{.{.OX'.|.`.'.'.`.T.T.T.T.`.T.T.T.E.T.T.T.T.T.T.R.R.R.R.W.`.`.`.`.W.W.W.W.'.|.OX{.'.|.'.W.OX'.'.'.'.'.'.'.`.`.W.W.'.'.'.'.'.'.'.'.|.|.|.|.OXOX|.|.|.|.'.W.'.`.`.`.'.'.'.'.OX|.|.OXOXOXOX XOXXXOX|.OXOX|.'.!.!.!.|.|.|.|.|.OX|.W.'.|.'.'.W.W.R.T.T.T.T.E.E.l.l.l.l.l.k.d.d.k.d.f.6.6.l.d.d.l.l.l.l.d.d.d.l.x.l.l.l.l.l.l.l.d.d.d.l.l.l.b.l.E.l.l.E.x.x.x.x.l.l.l.I.I.I.I.I.I.I.E.T.E.T.T.E.T.T.T.`._.[.[.'.OXXXXXXXXXXX-X>X>X8X0X0X0X0X0X0X8X>X8X0X8X0XkXkXkXlXlXlXlXlXlXlXlXlXlXlXlXlXlXlXlXlXlXlXlXlXlXlXlXlXkX0XwX0X0X0X0X0X8X:X<XfX0.0.dXdXpXdXdXF.dXjXbXdX;X;X+X+X+XV.V.+XV.v.s.2.( 2.1.&XAXBX;X<XlX0XwX0XkXkXkX1X,X,X,X,X<X<X<X<X<X<X<X<X:X;X+X+XA.V.A.A.C.S.=.5 $ - X.b r &XGXlX].+X}.+XfXfXdXfXdXdXhXhXhXhXVXHXKXPXDXDXdX`.`.).[.[.[.[.+X+X+X+X+X].V.c.z.g.9.<.<.$.$.$.*.*.*.*.8.s.g.g.c.c.c.c.c.c.c.c.k.k.k.b.v.A.`.].`.'.'.T.T.Q.W.R.W.W.Q.W.T.U.L.d.d.4.3.3.3.6.d.l.z.z.k.z.k.g.g.h.z.z.z.z.z.x.c.z.g.g.g.j.j.p.*.*.%.#.#.%.,.8.s.s.g.b.c.b.b.n.n.c.g.s.<.,.,.,.$.*.8.j.j.B.Z.Z.Z.D.D.D.Z.Z.Z.Z.Z.Z.B.B.B.B.M.M.M.M.p.*.*.$.o.~ T T T R ~ o.o.O.~ o.O.~ O.O.$.$.$.O.O.! ! K K J K K J K K K K K K R o.o.o.O.$.$.*.*.8.8.$.O.^ / -.-.-.^ Q P P P Q Q / / / O.O.O.,.$.$.$.$.O.o.o.o.o.o.! ! W Q / ^ ^ ^ ~ ~ ~ ! ! o.~ O.%.o.( o.o.o.~ R o.o.X.X.! ! R P P P P P P P K K K J J J D f f f f a p p p w g g s s s r r q r q r w d g g f f D D D D D g d d f g g g D K ",
":.l.l.d.d.d.d.d.d.d.d.d.d.l.l.l.l.l.l.k.l.l.b.l.d.d.l.b.x.l.l.l.v.x.T.U.U.T.T.T.T.T.).T.T.`.`.T.T.`.`.`.'.'.'.`.`.`.`.`.`.`.`.T.T.).T.v.v.v.b.l.l.l.l.l.l.x.x.x.v.T.T.T.T.`.`.`.[.`.`.T.W.W.'.'.'.'.'.'.'.{.OXXXXXXXOX{.'.'.'.'.`.'.`.T.T.`.W.T.`.T.E.E.T.T.T.T.T.`.`.`.R.R.W.W.`.[.'.[.`.W.W.!.'.OXOX'.'.|.|.W.OX'.'.'.'.'.'.'.`.`.'.`.`.'.'.'.W.'.'.OXOXOXOX|.'.|.'.'.'.'.'.'.`.`.'.'.'.'.'.'.OX|.|.OXOXOX XXXOXXXXXOX|.OX|.'.|.|.|.|.|.|.|.|.|.|.|.'.'.'.'.'.W.W.T.T.T.T.E.T.x.l.l.l.l.d.d.d.k.d.d.f.d.l.d.f.d.d.d.d.d.d.d.L.b.l.d.L.L.d.d.d.L.L.l.d.l.x.x.x.I.l.l.l.l.l.v.E.x.E.E.I.I.I.U.I.I.E.E.E.U.U.E.E.E.E.R.T._._.[.'.'.'.'.[.OXOXXXoX-X>X:X<X>X>X>X>X>X<X>X>X>X>X0X,XkXkXkXkXkXlXlXcX0XwXkXlXlXlXlXlXlXlXlXlXlXzXlXzXwXwXwX0XwX0X0XwX0X0X0X,XgX+X$.0.G.G.G.S.G.S.dXdXG.F.+XF.F.G.C.v.h.9.A.V.A.v.z.( 1.2.2XFXMX<X0XcXkXkXkXkXgX,X,XfX,X<X<X;X;X;X<X;X;X;X:X+X+X+X].A.].C.m y - $ $ * < i 2XGX0X'.n.A.+X:XdXhXhXhXhXgXhXCXVXDXDXHXHXHXDXdXF.].V.].+X[.[.{.{.+X[.{.{.].V.V.z.g.9.8.<.<.<.<.*.*.*.*.<.s.s.g.c.c.c.n.n.c.V.c.k.g.k.b.n.`.].].`.T.T.T.T.T.T.T.T.R.Q.Q.U.U.U.U.d.4.4.3.f.f.l.x.b.z.k.z.g.9.9.g.h.z.v.v.x.b.z.z.g.g.g.j.j.*.%.%.*.%.$.$.2.<.s.1.g.b.c.b.n.n.A.n.c.g.s.<.,.%.$.*.j.j.j.B.B.Z.Z.D.D.D.Z.Z.Z.Z.Z.Z.B.B.B.B.B.M.M.p.*.*.$.$.#.o.! T T R ~ o.o.O.~ ~ ^ ! ~ O.$.$.#.O.~ ! ! K K J L L J K K F K K K K o.o.~ ~ #.$.*.*.*.<.$.#.;.O.O.-.-.-.^ ^ Q P Q Q / ` ^ O.O.O.O.O.$.$.$.O.o.! o.o.o.! P P ! ! ^ ^ O.o.~ ~ ~ ! ~ ! o.#.) ) o.o.) ~ o.o.o.o.o.o.o.o.o.! P P P P K K K K K R E J f f f a a a a a e a r s g s r r r q q r w w a g f S D J J D U U D D D D g g D D ",
"[ f.l.l.k.d.f.d.d.f.d.f.f.d.d.d.l.l.d.d.d.l.l.l.l.l.U.U.l.l.x.l.l.x.x.x.x.x.T.T.T.T.).`.`.).).).`.`.].].'.'.`.`.`.`.`.`._._.`.`.`.).T.T.v.v.v.v.).v.v.v.v.v.v.v.T.T.).).).).`.T._.`.T.`.`.`.'.`.'.'.'.'.'.|.XX|.XX{.{.OXOX'.'.OX'.`.W.W.`.W.R.W.`.T.T.T.T.T.T.T.R.W.`.`.W.W.T.`.'.`.'.'.`.'.|.W.|.OXOXOXXXOX'.|.'.OX{.{.'.`.'.'.W.Q.W.W.'.'.'.'.'.'.'.|.|.{.{.{.'.|.{.'.W.'.[.'.`.'.'.'.'.'.'.'.OX|.OXXX X XXXOXOXOXOXOX|.|.|.'.|.|.|.|.OXXXOXOX X|.|.|.'.W.`.'.W.W.`.'.`.T.T.R.U.U.U.l.d.d.d.d.d.d.d.l.l.l.l.d.d.d.l.l.I.I.I.I.x.I.L.l.l.l.l.d.I.d.l.l.l.x.E.l.l.l.l.x.U.U.U.U.l.I.I.l.I.U.I.I.U.U.U.U.E.E.I.I.R.R.T.`.T.T.T.`.`.`.`.'.`.`.'.OXOXOXXXXXXXXXXXXXXXXX-X-X-X:X>X<X>X>X0X0X0X0X0X0X0X0X0XwXwXkXkXkXkXkXlXlXkXkXkXkX0X0X0X0X0X8X0X>X0X0X8X,XhXC.+.,.0.+.X.+.=.e.*.+.+.0.B.r.B.r.0.c.A.].C.9.z.A.c.v.k.^ 7.zXFXMX:X,XkX1X0X0X,XkX<X:X:X:X:X:X:X:X:X<X+X:X+X+X+X+XF.B.e.y - $ $ @ $ = e 1XmX:Xb.1.k.c.V.V.+X+XdXjXbXvXCXDXVXPXVXSXCXvXhX+X+X).V.].+X+X[.[.[.[.[.[.[.#XV.V.x.z.9.8.<.<.s.8.<.$.<.$.<.<.s.g.c.c.c.c.n.n.n.x.g.g.g.c.n.n.].`.`.T.).T.E.l.I.U.U.Q.Q.U.Q.T.U.U.d.f.f.f.f.d.b.v.x.v.V.c.k.g.g.1.k.c.z.z.v.z.z.z.g.9.9.s.g.j.j.*.%.%.%.$.<.<.s.g.k.x.x.v.n.`.n.V.n.x.g.<.2.#.*.*.*.p.j.B.B.B.Z.Z.B.Z.Z.B.Z.Z.Z.Z.Z.Z.Z.B.B.B.M.p.*.*.$.$.O.~ W W ! ~ ~ ~ o.#.! ! ~ O.! ! O.$.O.O.! ! P K K K L K K K D K P P ! W W ! W ~ #.#.,.<.8.0.$.#.#.#.O.-.O.-.O.~ ! P Q / ^ O.O.O.O.o.O.O.O.O.O.o.O.o.o.! ! ! ! P ! W ! o.+.+.o.X.X.o.R ~ ~ ~ R R @.@.o.R o.@.o.R X.R L L L X.! P K F D K K K T K K J S p p p w q q q w w p a s s r r q i a a w w e s g g E U U U U U G U U g g D D S ",
"] f.d.l.d.d.f.f.d.d.d.d.d.d.d.d.l.l.l.d.l.l.l.l.l.U.U.U.v.v.E.v.x.x.v.v.v.v.T.T.T.).).`.`._.`.`.`.`.].`.'.'.`.`.`.`.`.`.`.`.).`.`.`.).).T.T.T.).).).).V.T.v.T.T.E.T.).).`.`.`.`.`.[.`.`.`.T.`.`.'.'.'.'.'.OXOX|.XXOXOXOX[.'.|.OX[.'.'.'.'.'.'.'.`.`.`.).T.T.T.W.W.'.`.T.R.R.T.`.W.W.'.'.'.|.OX|.OXOXOXOX XOX'.|.|.|.|.OX{.'.'.`.`.'.'.'.'.'.'.'.'.'.'.OXXXOX{.{.'.|.'.'.W.W.[.`.`.'.'.`.'.'.'.'.{.|.OXXX XXXXXOXOXOXOXOXOX|.'.'.W.|.|.'.|.OX|.|.|.'.'.'.'.W.'.'.W.W.`.'.`.T.T.R.T.x.l.l.l.d.d.d.d.d.l.l.l.l.d.d.d.d.l.l.l.I.I.I.E.I.I.l.I.l.l.d.I.d.l.I.l.l.I.l.l.l.l.x.U.U.I.I.x.R.R.E.U.U.U.I.U.U.T.R.R.U.I.E.U.E.E.T.T.T.T.T.T.T.)._.).`.`.`.'.'.'.'.'.OXOXXXOXOXXXXXXXXX@XoX:X:X>X<X>X>X>X>X0X0X0X0X0X0XkXkXwX0XwXkXkXwXwXwX0X0X0XwX0X8X8X8X>X,X=XkXMXC.$.o.K D K X.X.X.X.+.B.B.r.B.*.B.C.B.G.+XB.h.C.C.V.k.2.^ ^ x.lXFXgX{.cX<X1X,X,X,X:X:X:X:X:X,X+X:X+X+X{.&X{.}.{.+XM.h 5 * $ $ % @ @ e yXwX&Xb.z.z.F.+X;X<XfXdX+XdXdXG.pXvXvXvXHXHXDXVXCXfX+X].].[.[.[.[.[.[.[.[.[.].].V.V.V.z.9.8.<.<.9.8.<.<.<.<.<.9.<.g.k.b.x.v.v.n.c.c.s.s.g.m.n.A.A.A.`.T.T.E.x.d.d.U.U.Q.Q.Q.Q.Q.U.U.d.d.d.d.d.d.l.v.v.v.V.c.z.g.k.k.k.z.z.z.c.v.c.c.z.g.9.8.8.*.s.*.%.%.#.%.$.,.2.1.k.b.b.v.n.`.`.`.A.x.g.<.,.,.$.$.*.*.p.j.B.B.S.Z.B.Z.Z.M.Z.Z.Z.Z.Z.Z.Z.B.B.B.p.p.*.*.%.#.#.o.~ ! ~ ~ ~ ~ ~ o.o.! ! ~ ! O.$.$.#.O.! ! ! K K K K L K K K K ! ! ! W W ! W ~ #.#.,.8.0.0.8.<.#.,.O.;.-.O.-.O./ W W / ^ O.O.O.O.o.O.O.O.O.O.o.o.X.X.! ! T K K ! ! R o.o.+.o.o.o.X.E R R R R E ) @.%.o.o.o.X.R R K L L L ..L K K F D K K K K K K K f p p w q 3 q q q q w a s s s r a w a a w e e g g l E T T U U U U U U U U U D D ",
"] f.d.d.f.f.5.k.d.f.d.d.d.l.d.l.d.d.l.l.l.l.d.d.l.x.U.U.v.v.E.v.x.x.v.v.v.v.T.T.T.).`.`.`.].`.'.'.`.].`.`.].`.].`.`.`.].`.`.`.`.`.`.`.`.`.`.`.`._.).).).).).).).).).`.`.`.`.].].`.`.`.`.`.`.`.[.'.[.[.'.{.{.{.OXOXXX{.{.[.{.OXOXOX'.{.{.{.OX'.'.'.'.'.[.`.`.'.'.'.'.).T.W.`.`.'.W.W.W.W.W.|.OXOXOXOXOXOXXXOX|.OX|.|.'.OX{.'.'.W.[.[.'.'.'.|.'.[.'.'.{.OXOX{.{.{.'.|.|.'.Q.W.[.W.`.'.`.W.W.`.`.`.'.'.OXXXOXOXOXOX'.'.'.OX|.|.|.|.W.'.'.'.|.|.'.|.'.'.|.W.W.'.'.W.W.W.'.'.W.R.T.T.T.x.l.U.U.I.l.U.l.l.l.l.l.k.l.d.l.l.l.l.l.U.U.U.I.I.l.l.I.l.l.l.l.l.l.l.l.l.b.d.I.l.l.x.E.U.R.E.U.T.T.E.U.U.U.E.U.U.R.R.R.R.U.U.R.E.E.E.T.T.T.E.).).T.T.T.R.R.R.T.T._._.[.'.'.'.'.OXOXXXXXOXOXOX{.OXXXXXXXoX:X-X>X<X0X0X0X0X0X0X0XwX0X0X0X0XwX0XwX8X8XwX8X8X=X=X>X,X>XkXCXF.,.! T $.L j j i ..F.S.S.B.r.C.*.=.B.G.B.G.+XF.A.z.<.2.( / #.v.MXFX<X@XkX:X<X<X,X<X<X<X:X&X<X@X@X@X@X+X+X@X].A.*.t - = $ @ O $ # g mXmX`.k.z.x.v.&X1XdXdXgXhXjXdXbXjXvXvXvXDXHXHXDXCXbX+XV.V.`.`.[.[.[.[.[.[.[.].].].V.V.V.x.9.9.9.8.9.8.8.<.8.<.<.g.1.g.k.x.v.v.v.c.c.g.s.s.s.g.n.A.A.A.A.n.x.l.k.f.f.d.d.U.U.U.Q.U.U.U.d.d.b.b.x.b.x.v.v.v.v.v.c.z.k.k.k.k.k.z.z.v.v.v.x.z.g.9.8.<.*.<.<.$.#.%.$.,.;.>.s.f.b.n.n.A.`.}.}.V.z.9.,.#.$.$.$.*.*.p.M.M.M.M.M.M.Z.M.M.M.M.B.Z.B.Z.Z.B.B.j.j.p.*.$.#.O.O.~ ~ ~ ~ R R ! ~ o.! R R ! o.O.O.$.O.! ! P K K K K K R R K ! ! ! ! ! ! ! W ~ #.#.,.0.0.g.h.8.<.<.,.,.;.-.-.O./ W P Q ^ O.O.O.o.o.O.o.O.O.$.O.o.o.R R R R K K K R ! o.+.+.o.o.X.X.E R R E E E o.@.%.o.@.X.X.R R R K K K K K K K K D K K K J K J J f p a w 3 3 3 3 r q q w a a s s e w d g g a e g z l E ) W Y U U U U T U z z g g ",
";.k.f.f.3.6.5.k.f.f.f.k.k.k.k.l.d.d.l.l.l.x.b.d.b.x.x.x.x.v.v.v.x.x.v.v.v.T.T.).T.`.`.`.].].].`.[.[.].`.`.`.`.[.`.`.`.`.`.`.`.`.`.`.`.].].].].`.`.).).).).`.`.`.`.`.].`.].`.].'.`.`.`.`.`.`.`.'.'.{.{.'.{.{.{.{.{.{.{.{.{.OXOXOX{.OXXXXXOX{.OX'.[.[.'.'.'.'.'.'.'.`.`.`.`.'.'.'.'.'.|.|.W.|.OX|.XXXXXXXXXX|.|.|.|.|.|.OXOX{.'.Q.[.[.'.'.'.|.'.'.|.'.'.[.'.{.|.|.{.|.OX|.W.W.'.Q.'.'.`.`.`.`.`.`.'.'.[.{.'.'.'.[.'.'.'.'.'.|.|.|.W.'.'.'.|.|.|.|.'.'.'.W.W.!.!.W.'.W.'.'.W.Q.R.T.T.E.v.T.T.U.U.U.I.I.I.I.l.l.l.l.l.l.I.U.U.U.U.U.I.I.l.l.l.l.l.l.l.l.l.l.l.l.U.L.I.l.l.x.E.E.R.T.U.E.T.E.U.U.R.E.R.U.U.U.E.T.U.Y.R.T.T.E.v.T.T.x.v.T.E.E.I.R.T.T.T.T.T.R._.R.W.W.'.'.'.[.[.[.'.'.'.'.|.OXOXXXXXXX@X>X>XqX>X>X8X0X8X0X0X0X0X8X8X8X8X>X>X8X=X=X=X=X,X1X0XfXAX+X$.! +...f a 1 8 B.S.S.r.r.F.S.*.F.C.Z.C.+XG.C.A.h.z.h.2.1.~ 2.b.BXAX;X,X:X<X>X,X<X,X<X:X:X:X{.{.:XXX@X+X+XF.A.@.t h < @ @ @ % g BXMXb.s.1.g.V.+X;X;XF.G.F.dXbXbXhXjXVXCXCXDXKXHXvXhX+XF.V.V.].].[.{.[.]._._._.).].).V.V.V.z.9.9.9.9.9.9.9.9.9.9.1.1.9.k.k.z.v.v.c.c.k.s.<.s.s.g.m.A.A.A.n.v.z.k.>.>.3.5.d.d.U.U.Q.U.U.U.b.b.b.x.v.x.v.v.v.v.v.c.z.z.k.z.s.s.g.g.z.c.x.x.x.x.k.g.9.<.,.<.<.$.$.$.,.,.;.2.s.s.f.b.n.n.A.}.].V.x.g.2.#.$.$.$.*.*.p.p.M.M.M.M.M.M.M.M.p.M.B.Z.B.Z.Z.B.B.j.j.j.*.$.#.O.O.o.~ R R R R R o.o.o.! R R ! o.o.O.! P P P K K K L L R ! ! ! ! ! ~ ! ! ! ~ ~ #.#.<.8.0.h.h.g.<.<.,.,.#.#.O.O./ Q P Q ~ O.O.O.O.O.O.O.O.O.$.#.o.X.R R R R R K L R o.+.+.$.%.%.X.E E T T E E E ) o.%.@.@.X.R R R R K K K K L J J K J J K J J J J f d p w q 3 4 4 4 4 3 q q a a a a a w a g g g g g l E @.) ~ Y U U T T U U U g g g ",
"] 5.f.f.3.4.6.d.f.f.f.k.d.f.d.d.d.d.l.l.l.x.b.b.x.x.x.x.x.l.l.v.x.x.x.v.T.T.`.`.v.).].`.].].].].].].].].].`.`.].`.`.).).`.`.`.`.`.`.`.].[.[.[.`.`.`.`.`.].[.[.].].`.`.`.].].`.`.].].`.`.`.`.`.`.'.{.'.'.{.{.'.{.OX{.OXXXXXOX{.OXXXXXXXXXXXXXOXOX[.[.'.'.'.'.'.'.'.'.`.`.'.W.T.`.'.|.|.|.|.|.OXOXXXXXXXXXXXXX|.|.OXOXOXOXOXOX'.'.'.'.'.'.|.'.'.'.{.|.'.{.'.'.OXOXOX|.OXOX!.'.'.W.'.'.'.'.'.'.'.'.'.'.[.[.'.'.'.'.'.'.'.'.'.'.'.|.'.'.W.W.|.|.'.'.'.'.'.'.'.W.W.W.W.W.`.'.W.W.R.T.T.T.T.E.T.T.U.b.E.I.I.l.l.l.I.U.U.U.U.E.U.U.x.x.I.I.I.l.l.l.l.l.l.x.x.l.I.l.l.l.d.l.l.x.E.E.R.E.U.E.E.E.R.T.R.R.Y.R.T.E.U.U.U.U.E.T.T.E.E.E.E.l.x.E.U.l.l.U.R.T.T.T.T.R.R.T.R.W.W.W.[.[.[.[.`.W.[.`.`.`.'.'.OXOX@X@X:X-X-X:X>XqX>X8X8X8X8X>X>X>X=X=X>X=X-X-X=X-X>X<X,XfXSXdX0.O.K I S a a =.pXpXD.F.pXe.+.B.B.C.r.C.0.0.C.h.,.#.! W ^ O.~ / Q.AXCX{.@X:X>X:X:X,X:X:X<X:X:X@X:X{.{.+X;XhXhX2XA.n.t @ @ % q BXMXb.s.s.s.`.+X+XF.F.G.G.G.B.r.G.pXbXbXhXCXDXKXHXjX+XA.V.v.v.].).].].].).).).).).).V.V.C.z.q.9.9.9.1.1.9.9.9.9.9.1.1.k.k.k.z.b.b.c.g.s.s.<.s.g.j.c.Z.n.A.c.c.s.2.>.[ >.>.5.k.l.U.U.Q.U.U.b.b.x.x.x.v.v.V.n.v.v.c.z.z.z.b.s.s.s.g.g.x.x.z.z.z.z.z.9.9.,.,.,.$.#.$.,.2.2.<.>.s.s.k.b.T.A.`.A.V.c.g.<.,.#.#.,.$.*.p.p.B.M.M.M.M.M.B.M.B.M.B.Z.B.B.B.B.B.j.j.8.8.$.#.O.O.~ ~ R R T R R ! o.o.o.R R R ! O.! K K K K K K R R R ! o.o.! ! ~ ~ ~ ! ~ ^ O.#.#.,.,.8.g.h.9.8.2.$.$.#.#.O.O./ Q P W ~ O.O.O.O.O.+.o.O.O.O.$.+.o.X.R R E E R X.+.+.$.$.$.$.@.X.E J J D T E E ~ o.%.%.%.o.o.R R R K K K L K J J J D J T T T T J f p p w 3 4 4 4 > 4 4 q q a a g g g a g g l g g j E E R o.( ( W U R U U U U g g e ",
"] 5.f.f.3.4.5.5.f.f.f.d.d.f.d.d.d.d.l.b.x.x.b.b.x.x.x.x.x.l.x.v.x.x.x.v.T.T.`.`.n.V.].A.].].].].].].].].].`.V.].`.`.).`.`.`.`.`.`.`.].[.[.{.[.[.'.'.].].[.{.}.].].].].[.[.].].].].].].`.`.`.`.`.[.[.[.'.'.{.{.{.XX{.XX@X:XXXXXXX:X:X:XXX@X@XXXXX{.[.'.'.'.'.'.[.'.'.'.'.'.'.'.{.{.OXOXOXOXXXXXXXXXXXXXoX=XXXXXXXXXOXXXOXOXOX'.|.'.'.'.|.|.|.'.'.'.'.{.{.OXOX'.OXOX|.OX'.|.'.'.W.'.'.'.'.'.'.'.'.Q.'.[.'.[.'.'.[.'.`.'.'.'.'.'.'.'.'.W.!.|.|.'.'.'.'.'.|.|.W.W.R.W.W.`.'.R.Q.R.T.E.T.T.E.T.T.T.U.R.U.I.I.l.l.U.U.E.U.I.U.U.U.U.E.I.I.I.I.l.d.l.l.l.l.l.l.l.l.l.l.d.I.E.T.E.R.E.E.U.E.E.T.T.T.T.R.U.T.T.T.T.R.U.U.T.T.T.E.E.E.E.U.x.U.U.U.U.R.T.T.T.T.T.R.R.R.T.T.T.T.)._._._.T.T.).).W.T.W.`.'.'.[.OXXXXXXXXX@XoX-X-X=X=X>X>X>X>X=X=X>X-X-X-X-X-X>X<X>XkXCXdXC.w.P I f +.S.pXaXpXpXe.b =.B.B.*.r.B.C.0.B.h.*.9.<.-.~ ~ Q G F ^ <XFXxX[.:X:X>X:X<X:X<X:X:X{.+X{.&XgXMXCXFXAXBXmX}.j i & t BXmXc.s.9.z.z.C.z.C.+X+X+X+XdXdXF.G.G.dXdXdXjXHXKXDXhXfXA.V.v.V.].V.).[.).).).).).).V.V.C.z.q.q.9.1.1.2.1.1.9.9.9.g.9.9.z.k.k.z.z.b.s.s.s.<.<.s.s.j.c.Z.n.c.c.g.s.>.] ] :.:.3.5.d.l.x.Q.U.T.T.T.v.v.v.v.V.V.V.v.V.c.z.h.k.k.g.g.g.g.g.z.k.k.k.k.z.z.z.9.1.<.2.$.#.,.,.2.2.<.>.>.>.f.b.v.v.n.A.n.v.k.1.,.#.#.#.,.$.*.j.j.p.p.B.M.M.B.B.B.B.B.B.B.B.B.j.j.8.8.<.,.$.$.O.o.~ ! R R R R R R o.R R L K R ! ! W K K K K K K ! R o.o.o.o.o.! ~ ~ ^ ! ~ #.#.#.#.$.#.<.0.9.8.8.,.$.$.$.$.#.O./ W P W ! O.O.o.o.O.+.+.O.O.$.$.+.o.o.X.R E R X.o.+.%.$.*.*.$.@.X.E E J f T T ~ o.%.o.%.%.@.o.o.R ! K K K K K K K K J J T E T T J f p p w 3 4 4 4 4 4 3 q q a a f g f a g j l l g j R R o.%.( ( W Y T U D g g g d e ",
"` f.f.f.3.6.5.5.f.d.d.k.d.d.d.f.l.l.l.b.l.l.l.l.U.U.U.U.l.l.x.E.x.x.v.v.v.v.V.V.V.V.A.V.V.].].].].A.A.A.].`.V.].V.].`.`.`.`.`.`.`.].].[.{.{.{.[.[.[.[.{.{.{.{.].{.{.[.{.{.{.[.].].].`.].`.`.].].[.[.[.[.'.'.OXOXXXXXXX@X:X:X:X:X:X:X:X:X:X@X@XXX{.{.{.{.{.[.[.'.'.'.'.{.OXOXOXXXXXXXXXOXXXXXXXXXoXoX=XoX-X-XXXXXXXXXXXXXOXXX|.OXOXOX|.|.|.OXOXOX[.'.|.|.|.|.|.OXOX|.{.{.|.{.'.W.'.`.'.'.'.'.'.'.'.[.'.'.[.'.Q.[.`.W.`.'.'.'.'.'.'.'.W.!.|.'.'.'.|.'.'.|.|.'.W.W.W.R.R.R.R.R.R.T.U.U.R.T.T.T.T.T.R.U.U.U.U.U.U.E.E.E.U.U.U.U.E.T.P.U.I.I.U.b.l.l.l.l.l.l.l.l.l.U.U.U.T.T.T.T.T.T.T.T.T.T.R.R.R.Y.R.T.U.T.).).T.U.T.T.T.E.E.E.v.v.l.l.l.l.l.U.v.T.x.E.T.R.E.E.E.T.T.T.T.T.T.T.E.E.T.T.T.T.T.T.T.W.).[.'.OXOXOXOXOXXXXXoX=X=X>X>X>X=X=X=X-X-X-X:X:X:X>X>XkXhXF.A.z.P P +XG.r.S.S.iXe.b M.S.S.r.G.dXdXZ.C.B.h.C.C.9.0.B.$.^ ^ D W l.BXFX<X@X:X,X,X:X:X>X&X&X;X;XgXhXJXKXKXFXMXNXkXb.#.2.j 1XBXz.d.g.z.V.+X:X;X;XdXjXbXdXjXhXCXCXjXdXhXCXCXDXHXCXfX<X].v.V.V.V.V.v.T.).V.V.).).V.V.x.C.z.q.9.1.1.1.2.2.1.1.q.q.q.k.q.k.k.k.k.k.k.s.<.2.%.%.$.j.j.c.Z.n.c.c.g.1.;.] ] :.;.>.:.3.5.d.U.U.T.T.T.T.T.v.v.n.V.V.V.V.V.z.k.9.g.g.c.h.g.g.c.g.g.s.g.k.z.z.k.s.9.1.2.,.,.2.2.2.2.>.2.<.s.f.d.b.v.n.A.n.x.g.1.;.;.;.,.,.<.j.j.p.p.B.B.B.B.j.j.B.B.B.B.B.B.j.j.<.<.,.,.$.#.O.o.~ o.o.o.~ o.! R R R J J K K K K K K K K K K K K R o.o.o.O.o.! O.^ ^ ~ ~ #.,.#.,.#.#.,.8.<.,.$.,.#.#.,.<.<.;.^ Q W P ! ^ O.O.O.O.+.O.O.$.-.$.$.O.o.X.o.o.o.o.+.+.*.*.*.*.$.o.R E J j f D T T ~ #.~ o.o.@.%.+.o.o.! K K K K K J J J J T T T J f f p p w 3 4 4 > 4 4 q q q w a f g g g g j l E j T E o.%.%.( W W W T F f f g g e r ",
"_ 5.k.5.5.d.f.f.5.k.k.k.k.d.d.f.l.l.b.d.d.l.l.l.U.U.U.U.l.l.l.v.x.x.v.v.x.v.V.V.V.V.A.V.A.F.A.A.A.A.A.A.A.).V.].V.V.).`.).).).).).].[.'.{.{.{.{.].[.{.{.{.+X+X+X{.{.{.[.].[.+X+X].].].].).).`.`.`.`.[.[.[.'.XXOXOXXXXXXX:X:X:X:X>X<X<X:X:X:X@XXX{.{.{.{.{.[.[.[.'.{.{.OXOXOXOXXXXX:X:XXX:XXXXX=X=X-X-X=X=X-X-X-X>X=X=XXXXXXX|.XXOXOX|.|.|.OXOX{.XXOX|.|.|.|.OXXXOX{.{.{.{.XX{.W.OX'.'.'.'.'.'.'.Q.[.'.'.[.'.Q.[.`.W.W.'.`.`.`.`.'.'.W.W.W.W.W.'.W.W.W.`.'.'.W.W.W.T.R.Q.U.R.T.T.Q.U.U.T.T.R.U.T.U.U.U.T.U.E.U.E.T.E.R.R.R.U.E.T.P.U.I.I.U.U.U.l.U.U.U.l.U.l.l.U.U.R.T.T.T.T.T.T.Q.W.`.`.W.W.R.R.U.R.T.T.T.T.T.T.T.T.E.E.x.x.x.v.T.E.l.U.E.v.V.).T.T.T.E.l.l.E.T.T.T.E.E.l.l.E.E.x.x.x.U.U.E.E.E.T.).`.`.`.'.[.XXOXOX XXX:X-X:X>X=X-X-X:X-X:X-X:XXX-X=X<XxX+Xq.q.z.+XG...=.*.S.e.&.pXS.pXaXjXjXdXaXF.+XF.Z.B.C.+X;XC.O.T D p F >.:XFXAX+X:X:X:X:X,X<X<XfXCXCXDXKXLXLXKXSXAXBX&Xn.'.A.}.BX`.f.f.f.k.V.<X;XfX;XF.dXdXdXjXvXvXVXDXSXCXDXHXKXHXhXjXfX+Xz.V.V.V.V.T.T.).V.V.V.V.V.V.z.C.z.q.w.2.2.1.1.1.1.5.q.q.k.k.k.q.k.k.k.s.1.2.;.#.#.#.$.s.j.c.A.n.c.h.g.<.] ] ] ] ] :.:.:.5.5.k.b.v.v.V.T.T.T.`.n.A.V.].].V.x.z.g.g.g.c.g.8.g.c.g.g.s.g.k.k.g.9.1.s.9.9.1.1.,.;.:.>.>.>.>.s.f.f.d.b.n.n.n.c.k.s.1.2.;.;.,.<.j.j.p.j.B.B.j.B.j.j.B.B.B.B.Z.Z.h.g.2.,.,.,.#.#.#.@.o.o.o.o.o.o.! R R ! K J J J K K K K K K F K K K R o.o.o.O.O.! O.^ O.O.^ #.,.$.,.#.$.,.,.,.O.^ O.O.O.,.8.9.2.-.^ Q P ! O.$.$.O.O.$.$.O.$.,.,.$.%.%.%.+.o.o.o.%.$.*.*.r.*.$.o.X.E J j f D U T ~ #.~ ( o.#.$.$.o.O.O.! K K K K J J f g J T T J f f p p w 3 4 4 > 4 q q q q a a f j g g g l l E E R E ) o.o.~ W T T T D A g g a w e ",
"] 3.f.d.d.l.d.d.f.f.d.l.k.k.d.d.d.l.d.d.d.b.b.l.d.U.U.b.l.x.l.l.x.x.v.z.z.z.c.C.C.V.V.G.A.A.A.A.G.G.V.V.V.V.V.V.V.V.V.V.V.V.].].`.`.'.'.{.{.{.+X{.+X+X+X{.{.@X@X{.{.+X+X[.+X+X].+X].].].].).V.].[.[.`.`.[.XXXX{.{.XX@X:X:X<X<X<X<X<X<X:X:X:X:X:XXXXX{.'.{.{.{.'.'.{.OX{.{.'.XX:X-XXXoXoXXXXXoX-XoX-X-X=X>X>X=X=X>X-X-X-X-XoXoXoXXXXXOXXXXXOXOXXXXXOX|.XXXXOXOXOXOXOXOXOXOX{.XXXX|.'.'.'.OX|.W.Q.'.'.`.T.T.`.`.`.[.).T.W.Q.Q.W.W.W.W.'.W.W.W.'.`.|.'.'.`.W.W.W.W.Q.T.T.Q.R.R.R.U.W.T.R.R.R.R.T.R.R.T.T.T.T.T.T.T.Y.T.R.T.T.T.R.T.R.U.U.U.U.U.U.I.v.E.v.v.U.U.U.I.E.E.E.T.T.W.W.Y.W.W.W.'.'.W.W.W.W.R.R.R.'.'.R.U.U.R.R.T.R.E.U.E.x.v.E.U.U.U.E.).E.T.E.E.E.E.E.E.v.x.l.l.l.l.l.l.x.x.l.l.x.x.E.U.E.E.R.T.R.`.'.[.'.'.OXXX:XXXXX@X:X:X-X{.{.{.-XXX-X-X:X}.xXjXG.+Xw.L L +.B.G.r.pXjXjXvXVXVXvXvXvXhXpXS.*.0.A.F.C.<.,.8.#.F F A / x.lXFXcX[.<X:X@X:XgXSXDXHXDXDXHXJXFXFXAXBXmX!.&X-X&XMX<Xd.f.k.x.V.].A.+XfXgXdXF.G.F.G.G.dXbXhXCXHXHXHXJXDXvXjX+X+XA.V.V.v.x.v.x.v.V.V.x.x.x.x.x.z.q.q.9.9.9.9.9.1.9.q.q.f.5.q.9.q.q.5.5.1.>.[ ] ( 2.%.<.s.g.n.A.c.c.g.g.,.( ^ ^ _ ` ` -.:.2.2.>.5.k.x.v.T.T.T.`.A.V.V.].].V.V.v.c.c.h.g.h.h.c.c.c.g.g.s.s.s.1.1.1.1.k.5.1.1.2.1.>.>.>.>.>.s.s.f.f.m.n.n.b.b.b.k.s.2.2.2.( #.<.%.*.8.j.j.j.j.j.j.j.c.Z.Z.C.c.h.g.<.<.<.$.$.$.%.%.o.%.%.$.+.o.o.R ! R K K K L L K F F K K L F K K ! ! o.O.O.O.O.O.;.^ ^ ^ #.,.2.,.$.$.#.#.#.^ ~ ~ ~ O.$.8.8.9.8.$.` W W ^ O.$.,.$.+.O.$.,.,.8.8.$.*.$.#.o.o.+.*.$.*.0.0.*.*.+.E L J J D D F W ^ ( #.o.$.$.$.8.*.X.R E L L K K K J J J E T T D f f p w q q 4 > 4 4 q w a w q a f j g g z l E E ~ ~ ~ ~ R ) ~ ~ U T K G A d e w r q ",
"] 3.3.f.f.k.d.d.f.f.d.l.k.d.d.d.d.d.d.d.d.b.b.d.d.U.U.b.l.x.l.x.z.z.z.z.z.z.C.C.C.C.C.C.C.C.C.C.C.C.C.C.C.C.C.V.V.V.V.V.V.V.).V.).`.].'.[.{.{.{.{.+X+X@XXX{.@X@X+X+X+X+X].].+X].].].].].].V.V.].`.`.[.[.'.[.{.{.{.XX@X@X:X:X:X<X<X,X<X<X:X:X:X:XXXXXXX{.{.OXXX{.{.{.{.OXOXOXXX:X:X:X:X>X-XoXoX-X-X-X-X>X>X>X-X=X>X-X-X-X-X-XoXoX-X-XXXXXXXOXOXOXXXXXXXXXoXXXXXXXXXXXXXXXOXOX{.{.'.'.{.'.'.'.'.Q.'.'.`.T.T.W.`.`.[.`.`.`.W.W.'.'.'.'.'.W.W.'.|.'.'.'.'.'.W.'.W.Q.Q.R.T.U.U.R.R.U.T.T.T.T.R.U.T.T.R.T.T.T.T.R.R.R.Y.U.R.T.T.R.T.R.R.R.E.U.U.I.I.U.E.E.v.l.x.U.U.U.U.U.E.T.R.W.W.W.W.|.|.'.'.W.W.W.W.W.'.W.'.'.W.R.Q.R.T._.T.R.T.R.T.T.U.U.U.E.x.v.I.E.x.E.U.l.l.l.x.x.l.l.l.l.l.l.k.k.k.l.l.x.I.U.U.E.U.R.R.R.`.[.'.'.OXXXXXXXXXXXXX:XXX{.|.{.XXXX{.{.[.:XgXdXC.V.O.O.G.bXvXjXvXvXvXVXDXVXvXjXjXjXpXS.S.dXhXbXF.B.g.h.8.#.~ W F ` } W.AXAX>X:X&XfXMXDXKXHXHXvXjXCXAXSXSXNXBXlX-X1X1XmXlXk.f.f.k.x.C.V.+XdXF.dXhXhXhXbXdXdXdXbXjXvXDXVXHXHXHXHXDXhXxX:XV.V.z.x.x.x.x.x.x.x.x.x.z.z.z.q.q.9.9.9.9.9.q.q.q.q.5.5.5.q.5.q.k.5.>.>.[ ] ;.2.#.<.s.g.n.A.c.c.s.<.#.( ^ / ^ ` ` ` :.2.2.1.5.q.z.v.v.T.).`.`.`.V.`.V.V.v.v.c.c.c.c.h.c.c.c.c.g.g.s.s.1.1.1.2.1.1.1.>.>.>.1.>.>.>.>.{ s.s.s.s.m.m.m.c.c.b.k.k.k.1.2.;.2.%.$.*.8.j.j.j.j.h.j.h.c.c.c.C.c.z.g.1.1.8.8.<.*.%.%.*.*.%.%.$.O.~ R L K K K J L D D D L F F F F K P ! ! o.+.O.O.O.O.$.#.^ ^ #.,.,.,.#.#.#.( ~ ~ ~ ~ ~ ~ #.8.9.9.9.8.;.^ ^ O.O.$.$.#.%.$.$.8.8.8.8.0.*.*.$.$.$.*.*.*.B.B.j.*.$.+.R J E D D D F / ^ ( ,.#.#.#.$.*.$.o.J J J K K K K J J J j J D D d d d e q q 4 4 4 4 w p p a a a f j f g j l E E E ~ ~ R R E ~ ~ W W T D A d e w r q ",
"] 3.3.f.f.d.f.d.d.d.l.l.k.d.d.d.d.d.d.d.d.d.d.d.b.U.x.x.l.l.x.x.z.z.z.C.h.h.h.h.h.B.B.B.B.B.B.B.B.B.C.C.z.z.z.c.c.c.v.v.V.V.V.V.`.`.].[.[.[.{.{.{.{.{.+X{.{.{.{.{.+X+X].].].].].].A.A.].].V.`.].`.`.`.'.'.'.[.{.{.XXXX@X:X:X:X:X<X<X<X:X:X:X:X:X:XXXXX{.{.{.{.OXXXOX{.XXXXXXXX-X@XoX-X-X-X-X-X-X-X:X-X>X>X:X:X-XqX>X>X>X>X>X>X>X-X-XXX-X:X-XXX-XXXXXXXXXXXXXXXOXXXXXXXXXOXOX{.{.'.'.{.|.'.`.'.'.'.'.`.T.`.`.`.).`.`.'.`.`.'.'.'.'.'.'.W.W.|.|.'.'.'.'.'.W.W.W.Q.Q.R.R.U.T.T.T.R.R.T.U.U.U.R.R.T.T.T.T.T.R.W.W.R.R.R.R.R.T.T.R.R.R.R.R.U.U.l.l.I.E.U.l.l.l.U.U.U.U.T.T.T.R.W.W.W.'.|.|.|.|.|.|.|.W.W.W.W.'.'.'.'.W.T.).).T.T.T.W.T.T.T.E.b.b.l.x.I.U.l.E.U.l.E.x.l.l.l.k.l.k.k.k.k.k.d.d.l.l.I.I.x.E.U.R.T.R.`.'.'.'.'.|.XXXXOX{.{.XXXX{.'.'.{.{.@X].+XA.fXdXB.].G.F.bXvXaXaXjXvXvXVXvXjXjXjXdXpXpXjXdXG.B.B.F.dXjXdXdXC.#.F A / _ f.eXFXxX&X<XgXHXLXLXKXHXjXB.C.MXSXAXBXmX>X,X1XgXMX1Xs.f.3.k.g.h.G.F.F.F.F.pXdXhXvXDXDXCXDXDXVXvXVXHXVXvXvXCXhXfX].V.v.v.v.v.x.x.x.x.z.z.z.q.q.q.q.9.9.9.9.9.9.k.q.9.q.5.5.5.5.5.5.5.5.>.>.[ [ ;.2.#.<.j.j.C.c.c.c.s.<.2.;.( / ^ ^ ` ` -.2.2.q.q.q.z.z.x.v.V.V.].].A.`.V.V.v.v.v.V.v.c.c.c.c.c.c.g.g.s.<.<.<.1.2.2.2.2.:.>.>.>.>.s.s.s.i.i.s.s.s.s.m.m.n.n.v.c.b.b.s.1.1.2.#.$.$.<.g.j.j.j.g.j.g.h.h.z.z.z.z.g.s.g.g.g.g.j.p.p.*.*.$.$.%.#.o.! L R T K L J S G D D F F F K K ! ! ! ! o.O.O.O.O.,.,.#.#.,.,.,.,.#.#.#.~ ~ W W ! ~ ! O.,.9.9.h.9.1.;.] ;.,.8.0.8.8.$.,.8.8.8.0.0.*.0.*.8.*.*.0.j.B.B.B.h.0.%.o.R T K F F W ^ ;.;.,.,.%.$.*.%.E T E J K K K K J J f j j g f d d d d e q q 4 4 4 4 a p f f a a g f g g j E E o.o.( ~ R T T E ~ ~ ~ T D d d e w w q ",
"] 3.f.f.d.d.d.d.d.l.l.l.l.d.d.d.f.d.d.d.d.d.l.d.x.x.v.v.x.x.z.z.z.z.h.h.0.0.0.0.0.0.0.r.h.0.h.h.h.B.B.B.h.h.h.z.z.z.z.v.v.v.V.V.V.`.].].].].].].{.{.+X+X{.{.{.+X].+X+X].+X].].].A.A.V.V.V.V.).`.).`.`.'.'.`.'.[.{.{.XX@X:X:X:X:X:X:X:X:X:X:X:X:X:X@XXXXX{.{.{.OX@XXXOXXX-XXX-X-X:X:XoXoX=X-XXX:X:X-X:X>X>X>X>X>X>X>X-X-X=X=X=X=X=X-X=X-X>X-XXXoX-X-XXXXXXXXXXXOXXXXXXXXXXXOXOXOX'.'.'.'.'.'.[.[.'.'.W.`.`.`.`.`.`.`.'.`.'.'.'.'.'.'.|.'.'.|.'.'.'.'.'.'.R.W.W.Q.Q.`._.T.T.T._.R.R.U.U.U.U.U.E.T.R.T.T.T.R.R.R.R.R.R.W.Q.Q.Q.R.R.T.T.R.E.U.I.I.U.l.l.l.U.U.U.U.U.Q.Q.W.`.`.'.|.|.OX|.|.!.!.|.|.|.W.W.W.W.'.'.'.'.W.T.T.T.T.T.T.T.T.T.E.x.b.d.l.x.l.l.l.l.l.l.E.x.l.l.l.l.l.k.k.k.l.l.l.k.l.l.l.I.x.U.E.U.R.R.T._._._.`.'.'.{.'.'.'.'.{.'.`.'.'.{.{.{.].V.hXjXB.,.r.G.pXB.G.jXvXvXvXaXpXaXaXaXjXaXF.S.e.*.C.+XjXhXvXhXbXdXA.1.;.F ] f.U.AXSX;XjXKXLXLXLXLXJXhX=.j A.ZXAXBXwX-X<XwXxXBX&Xf.} ] 2.k.V.+X;X;X+XdXdXhXvXvXvXCXCXDXvXvXVXHXDXhX;X].+XfX].V.z.x.b.x.v.V.x.v.x.z.z.z.q.q.9.9.9.q.q.q.q.9.q.9.9.q.5.5.5.5.3.5.5.3.>.>.>.[ 2.2.2.s.g.c.C.C.C.C.g.<.2.;.] ^ ^ ` ` ` ] ;.2.q.q.q.z.z.z.z.V.A.A.A.A.V.V.V.V.v.v.v.n.v.c.c.c.c.h.g.g.g.s.<.<.<.2.2.2.:.:.[ :.>.>.s.s.i.s.s.s.s.s.s.m.m.c.n.n.x.b.v.k.s.g.1.,.,.$.<.s.j.j.j.s.s.g.g.h.h.h.k.g.g.k.k.k.g.j.j.j.j.*.p.*.*.%.O.O.~ R R T J J S S S S D K K F K K ! ! ! ! o.O.O.O.;.,.<.,.#.,.,.#.,.,.#.o.o.~ E E E ~ ~ O.,.9.9.z.h.g.2.2.2.9.9.h.h.h.8.8.8.0.h.h.h.j.h.0.8.0.*.j.B.B.B.B.h.8.$.o.T T T T W W ` ;.;.#.#.$.%.%.R J E ~ ! R W K D D J j j g f d p e e e w w w q 4 4 q w p J J g a a e d f J T ) %.#.#.~ E T T T R ~ ~ ! K S p w w w q ",
"] f.f.d.d.d.d.d.d.l.l.l.l.d.d.d.f.d.d.d.l.b.x.l.x.v.v.x.x.z.z.k.k.9.9.8.8.*.*.*.*.*.*.*.*.*.*.*.0.0.0.B.0.0.9.9.g.g.z.z.z.c.V.V.V.V.V.].].].].].{.+X].+X+X].+X+X].+X+X].+X].A.A.A.V.V.V.V.V.`.`.`.`.`.`.`.`.`.[.[.{.{.XX@X@X@X:X:X:X:X:X:X:X:X:X:X@XXXXXXXXXXXXXXXXXXX:X:X-X:X:X<X:XoXoX=X=XXX@X:X-X-X:X>X>X>X>X>X>X:X=X=X=X=X=X=X=X-X-X>X-XoX-X=X-X=X=X=X=X-X-X-XXXXXXXOX'.'.|.'.'.'.'.'.'.'.[.'.'.'.`.`.[.`.`.`.'.'.'.`.'.'.`.'.'.'.|.'.'.'.'.'.W.W.W.W.`.`.T.Y.R._.T.T.T.).T.Q.U.Y.Y.T.R.E.T.U.R.R.R.R.R.R.T.R.R.R.Q.Q.W.R.R.W.T.T.R.U.U.U.E.U.U.U.R.R.R.T.U.R.W.`.'.|.|.OXXXXXXX X|.!.!.|.|.'.'.|.|.'.'.`.R.W.T.T.T.T.W.T.T._.E.U.l.l.x.l.l.l.l.l.l.l.l.l.x.x.l.l.l.l.l.k.k.x.l.l.l.l.l.x.U.T.T.T.T.R.R.T.)._.`.'.'.'.'.'.'.`.`.`.`.`.].].].`.{.`.`.dXjXG.k.r.G.S.F.hXvXpXr.e.S.pXaXjXdXpXpXS.r.S.dXdXG.G.F.G.B.B.$.! ! / W ^ ] s.eXFXhXpXvXLXLXKXKXSXdXB.i E gXBXlX8X8X&XlXMXBX&Xf.Y ] g.g.V.+X;XdXdXfXdXdXdXdXdXdXdXvXvXCXVXHXCXhX<X].V.#XV.v.x.b.b.b.v.V.v.v.x.z.z.k.k.z.9.9.9.q.q.q.q.q.9.9.9.q.5.5.5.7.3.3.5.5.5.3.>.:.;.2.2.g.z.c.C.C.C.A.c.s.2.2.;.^ ^ ;.] ] ] ` 2.9.9.g.h.h.q.z.C.C.C.V.V.V.v.V.v.v.x.x.x.v.v.c.c.c.c.h.g.g.g.<.,.,.2.2.2.:.[ [ [ [ ] >.i.s.i.s.s.s.s.s.s.m.m.n.c.c.x.x.b.k.g.g.<.<.<.<.s.s.g.g.s.<.<.<.9.g.g.s.s.s.k.k.g.g.j.h.j.j.p.p.*.*.$.#.O.o.T T K D S S S S S S K K F K K ! ! ! ! ! O.O.,.,.<.1.2.#.2.,.#.,.$.#.o.o.o.R R R ! ~ O.,.8.h.C.h.g.g.1.1.9.h.B.B.B.h.j.0.0.h.B.h.h.j.j.h.j.0.B.B.B.B.B.B.g.$.^ W W T T W / ` :.;.,.,.$.$.@.L L X.R ! ! P K D J J E J j f p w w w w e e w q q q w w d L J j a w e d f J R ~ %.#.( ~ W T E U U R ~ ~ T D d w w q q ",
"] f.f.d.d.d.d.d.k.l.l.l.l.l.d.d.d.d.d.l.l.x.x.x.v.v.v.x.x.z.k.1.1.9.8.*.%.%.$.$.*.*.*.*.*.*.*.*.*.*.*.0.0.0.8.8.9.9.z.z.z.z.v.V.v.V.V.V.V.).`.`.].].].].].].].].].].].].].].A.V.A.V.V.V.V.).].`.).).).`.`.`.`.`.'.{.{.{.@X@X@X@X:X:X:X:X:X:X:X:X:X:X:X:XXXXXXXXXXXoX:X:X:X:X-X>X>X:XoX=XoX=XXXXX:X-X-X:X:X:X-X-X>X>X>X>X8X>X>X>X=X=X=X-X>X>X-X>X>X=X-X=X-X=X=X=X-X-XXXOX|.'.|.|.'.'.{.'.'.`.`.'.'.'.`.`.`.`.`.`.W.'.'.`.'.'.'.'.'.'.|.|.|.'.'.'.'.W.W.W.W.W.W.T.R.T.R.Y.T.T.).R.Q.R.T.R.T.T.T.T.Y.R.W.W.R.W.W.W.W.W.R.T.Q.W.'.'.W.R.R.T.R.R.T.T.U.U.U.R.R.T.T.T.`.'.'.|.|.OXOXOXXXXX X X X|.|.|.|.|.|.|.|.'.`.R.W.T.T.T.T.T.T.T.T.E.x.x.l.l.l.l.l.l.l.x.I.l.I.l.l.l.l.l.l.l.x.x.x.l.x.x.x.x.E.E.T.T.R.R.R.T.`.`._.`.'.`.`.T.T.T.v.T.v.V.`.`.`.`.`.v.`.A.;XjX+X9.+.X.r.pXpXG.*.G.aXpXpXpXaXpXe.&.=.=.=.X.b =.*.=.R #.O.#.T w p K Y ~ f.tXGXJXvXe.iXHXJXDXCX;XZ.b 1 8.-X<XXX-X2XkXgXNX-Xf._ ;.g.c.C.C.C.G.B.F.F.G.pXdXdXdXdXhXvXCXVXHXDXCXxXfX].V.v.b.b.v.v.x.x.v.v.x.x.z.z.z.g.k.9.9.9.9.9.9.q.q.9.9.9.9.5.5.5.7.>.>.3.5.5.5.5.>.2.2.9.g.z.c.C.C.C.A.c.g.2.,.2.] ] ;.:.;.] ;.2.9.1.9.h.h.q.q.B.B.z.C.C.C.c.v.v.v.v.x.z.v.v.x.x.c.c.c.g.g.s.<.,.,.2.2.2.;.] ] ] ] ] ] ] s.i.s.s.a.s.s.s.s.s.g.c.c.x.x.x.x.g.g.g.s.<.<.<.j.j.g.s.$.2.2.<.s.s.s.s.s.c.g.g.g.j.j.j.B.j.j.*.*.*.$.O.o.W T K D S S S S I D K K K K K P ! ! ! O.O.O.,.<.8.g.<.2.<.,.,.2.#.#.#.o.o.o.~ R T ! ^ O.<.9.C.C.h.h.g.g.h.C.B.B.B.B.B.h.8.0.h.B.h.B.h.B.j.h.B.B.B.C.C.B.j.<.#.( ^ W T W ^ ;.2.;.2.<.8.$.X.j j j J R ! K F J J E R E f g a w q w w p e e w q q w p d J J g g w w d d D T ~ #.( ~ W T U g g U T ~ T T D d p w q q ",
"] f.f.d.d.l.d.d.l.l.l.l.d.d.d.d.d.d.d.l.l.x.v.v.v.v.v.x.z.k.9.1.<.,.$.+.+.X.X.X.=.=.=.=.=.=.=.=.$.$.$.*.*.,.,.8.<.9.9.k.k.z.z.z.v.v.v.v.V.V.V.).A.].].].].`.].].].].].].V.V.A.V.V.V.].V.V.V.V.V.v.T.T.T.`.`.`.`.`.].[.[.{.{.{.{.XX@X@X@X@XXX@XXXXX:X:XXXXXXXXXXXoX>X>X:X:X>X=X-X-X-X-XoXoXoXXXXXoXoXoXoX:XoX=X=X-X-X-X=X=X=X=X:X=X>X=X:X>X-X=X-X>X>X:X-X-X-X-X=XXXXXXXOX|.'.|.'.'.'.'.'.'.`.'.'.T.T.`.`.`.`.`.`.W.W.W.W.'.'.'.|.W.!.|.OX|.'.'.'.'.W.W.W.Q.W.`.R.Q.R.T.R.Q.R.W.Q.W.R.T.R.R.R.R.R.R.W.W.W.W.W.W.W.W.W.W.R.`.`.'.W.W.R.R.R.R.T.T.T.U.U.R.T.T.T.T.T.'.'.'.|.|.|.|.|.|. X X X X X|.|.|.|.|.|.'.'.R.R.T.T.T.T.T.R.T.T.U.E.V.x.l.d.l.x.k.l.k.l.l.l.l.l.x.l.l.l.x.x.x.x.x.v.v.v.x.E.T.T.T.T.T.T.R.`.`.`.).`.`.T.T.T.v.v.v.x.x.v.v.n.v.n.V.`.].A.;Xr.C.;.S ! 0.S.S.S.dXaXS.S.G.S.e.e.e.&.*.=.X.=.E g J L ~ o.#.,.,.W e d G d _ f.<XFXKXaXe.aXDXhXgXMX;XX.# i A.<XU.-XmX1XgX1X}.f.^ #.g.c.G.G.r.*.r.B.r.S.S.*.r.G.dXhXvXDXHXHXhXdX+X+X].V.v.v.x.x.v.x.x.v.x.x.z.z.z.z.k.z.z.h.h.q.9.9.q.q.q.9.w.9.1.:.:.:.:.:.>.1.5.5.5.1.1.1.9.9.z.c.c.C.C.A.c.g.<.2.2.2.;.2.2.;.;.2.:.q.9.9.9.h.z.9.0.0.9.9.g.h.z.z.c.c.z.z.b.x.x.b.x.x.c.c.g.g.s.<.<.<.;.;.;.] ] ] ] ;.] ] ( s.i.s.s.a.s.s.s.s.s.s.g.c.z.c.c.c.z.g.g.s.s.<.s.s.s.j.j.$.%.%.%.,.<.<.s.g.j.g.g.g.c.B.B.B.B.B.j.*.*.#.o.! W K K K G S I I I S F K K K K K P ! ! O.O.,.,.8.g.g.g.g.1.8.,.,.$.%.%.@.@.#.o.E T ! ~ O.O.8.h.B.h.h.g.z.C.C.C.A.Z.Z.B.h.0.h.B.B.j.B.h.j.j.h.B.B.B.C.Z.h.h.<.#.#.#.^ W W ^ ;.2.;.#.,.$.R j k j a J K K F F T T E E T D d w w w w w p d e e w w w p f D j g g a a p d f E ~ ~ ~ ~ W U D g g D U T W T T S d w 3 3 ",
"] f.f.d.d.d.f.d.l.l.k.d.d.k.k.k.d.d.d.l.l.x.v.v.v.v.x.l.k.1.1.,.#.O.o.X.X.X.X.X.X.X.X.X.X.X.X.=.X.X.+.%.#.#.$.,.2.1.1.1.9.k.k.k.z.z.z.z.x.x.V.V.V.V.V.V.V.v.V.V.].V.V.V.V.V.V.V.C.V.V.V.V.V.V.V.v.v.T.T.T.T.v.v.T.`.`.`.].'.'.'.'.{.XXXX{.XX@XXX{.:X:XXXXXXX:X:XoX>X>XoX:X>X=XoX-X-X-X:XoXoXXX=XXXXXXXoXoXoX=X=X-X=X=X=X=X=X>X:X=X=X-X-X>X-X-X=XoX>X>X-X-X=X-XoXXXXXXXOX'.'.'.'.|.[.].].'.'.W.Q.T.T.).).`.`.[.'.'.'.W.W.`.W.Q.'.!.|.|.|.|.'.'.'.|.W.W.W.T.T.`.'.Q.T.R.Y.R.R.R.Q.T.T.T.R.W.R.Q.Q.W.W.R.R.R.R.W.R.Q.W.'.`.`.`.R.R.R.R.R.R.R.T.T.T.U.T.R._.R.R.T.T.W.W.W.|.|.|.OXOX X X X|.|.|.|.|.|.|.|.|.'.R.R.T.R.T.T.T.E.E.E.E.x.x.l.x.l.l.l.I.x.v.l.l.l.l.x.v.x.x.x.v.v.v.T.T.T.T.U.x.E.E.E.T.[.`.R.R.W.`.`.T.T.`.`.T.T.v.v.l.b.b.b.b.v.v.v.v.V.`.V.n.dX*.0.,.,.0.r.*.*.e.e.=.S.r.X.b m =.e.e.e.&.=.=.=.*.8.0.B.G.C.0.#.,.T e a e _ >.`.SXKXJXhXjXaXaXjXdXgXs.5 1 ;X2X!.zXmX&X2X:XQ.d./ #.$.,.8.$.X.*.*.B.G.G.S.e.S.G.dXhXVXDXKXJXgXV.].#X_.E.v.v.V.V.V.v.x.v.v.c.z.z.z.z.z.c.C.C.z.h.9.9.q.q.9.w.w.w.1.1.2.:.:.:.2.1.1.1.1.1.1.1.1.9.9.z.c.c.C.C.h.g.<.2.2.2.2.2.2.,.w.1.1.9.q.9.0.0.9.9.9.8.8.8.0.h.h.h.z.c.z.z.z.z.z.b.k.k.c.g.g.g.g.<.<.2.2.2.;.] ( ;.2.2.s.s.] { s.s.a.a.%.( ( $.2.,.s.g.h.z.c.C.c.c.g.s.s.g.s.j.s.s.j.*.%.#.#.#.#.%.<.g.g.g.g.j.c.B.B.B.B.B.h.8.$.o.~ ! K K K K G A I I I A F F K K K K P ! ! O.-.,.8.8.h.h.h.h.g.0.,.$.$.%.$.%.%.%.O.o.~ ~ ~ O.O.8.0.B.h.h.h.z.C.C.Z.F.F.Z.B.B.h.h.B.B.h.B.B.h.g.h.c.B.B.A.C.h.g.$.#.#.2.#.( ~ ^ ` 2.,.O.<.#.g i j X.o.R ! K F T T E R ) R T f p w w w w p e e e w w w p d f j g g s a e d f U T W W W W T U g g D U T U T T D d w q q ",
"] k.d.l.d.d.f.d.l.d.d.d.d.l.d.k.k.k.d.l.l.x.z.x.x.x.x.k.9.<.,.#.%.o.X.E L j j m l l l X.X.X.X.X.X.X.X.o.o.#.$.$.,.9.1.1.1.1.1.q.q.k.k.k.k.z.z.z.z.z.x.x.v.V.V.V.V.V.V.V.v.x.x.v.V.V.V.v.v.x.x.x.v.v.v.T.E.v.v.E.T.T.T.).).[.'.[.].`.[.{.{.{.{.XX{.XXOXXX{.XXXX:X:X>X:X-X-X>X>X-X=XXX=XoXoXoXXXXX=XXXXXoX=X=X=X=X-X-X-X=X=X=X=X-X=X-X=X=X=X=X=X=X=X>X>X-X-X=X-XXXoXXXXXXXOX'.'.'.'.'.'.Q.`.`.'.'.T.T.T.`.`.T.'.'.W.W.W.W.W.'.|.'.|.|.|.|.OX'.'.'.`.`.W.W.Q.W.W.R.U.U.U.U.T.T.T.Q.U.T.T.R.R.Q.Q.W.R.Q.Q.W.W.R.W.!.Q.Q.Q.W.W.W.W.W.Q.Q.Q.R.R.R.T.T.T.R.T.T.T.W.R.R.W.W.|.|.OXOXOXOXXXOXXXXX X|.|. XOX'.|.|.'.R.T.T._.).T.T.T.x.x.v.T.x.l.l.x.l.l.E.U.b.l.x.v.x.x.v.l.v.v.v.T.v.v.v.v.v.T.T.E.T.T.).R.'.'.`.T.T.).T.).).).T.v.x.x.l.k.k.k.z.x.c.c.c.V.n.v.V.nXr.k ,.B.C.h.$.X.=.r.S.e.b h m h h h v b X.X.j ..=.*.B.S.r.=.8.8.J D e w G W ^ b.kXSXVXSXHXaXN.N.B.+Xh.g i A.:XT.rX-XT.:X,X}.b.2.#.~ $.h.B.A.S.B.S.S.S.D.pXpXaXaXjXdXbXDXKXhX].].V.V.v.v.v.v.x.v.v.v.v.V.c.c.v.v.c.z.c.c.z.z.z.z.q.9.9.1.1.w.w.w.w.2.2.:.:.:.1.:.:.2.w.1.9.1.9.q.z.C.C.C.c.z.9.<.,.2.2.2.1.2.:.:.2.1.9.z.z.z.h.9.0.9.0.0.8.*.$.<.0.h.h.9.9.k.k.k.k.k.k.z.k.k.g.g.s.<.2.2.<.;.#.( ( ( ] s.s.s.s.s.a.a.( ( ( ( ;.2.2.2.s.g.c.C.C.c.c.c.g.s.s.g.g.g.g.s.$.#.( ~ ~ ( #.%.a.s.j.j.h.c.c.j.B.j.h.h.0.$.O.~ ! P L K K F p p I S p S K K K K K K ! ! O.$.0.0.9.g.h.h.g.0.8.*.%.*.$.*.%.%.%.$.%.o.o.^ ^ O.,.8.g.h.C.h.z.C.C.G.G.F.F.Z.Z.B.j.B.B.B.B.B.h.s.g.g.h.Z.Z.j.8.<.#.o.@.%.%.#.( ^ ^ ;.,.,.<.%.j i R $.O.W T F F W ^ o.#.%.o.~ T A p e w p p p p p p p w p p f g g g s s w d d A F T T ~ T T U g g g D J T T T f d p q q ",
"] 5.d.l.d.l.d.d.l.d.d.d.l.d.k.k.k.l.l.l.l.z.z.z.z.x.k.q.1.,.O.~ X.R L j j j j j j j j j j j j X.E X.X.o.o.O.#.#.,.,.,.2.2.1.1.1.9.1.q.5.1.5.q.q.k.z.z.x.x.v.v.v.v.v.v.x.z.z.z.x.z.z.z.x.l.l.k.l.x.x.x.v.x.l.l.l.x.v.v.v.T.).).).`.`.`.[.[.'.'.{.{.XXOXXXXXXXXX-X-X-X-X-X-X-X-X-X=X=X-XoXoXoXXXXXXXXXXXXXXXXXoXoXXX-X-X-X-X=X-X-X:X-X=X-X=X>X=X=X=X-X:X-X=X=XXXOXXX XOXOXOX[.{.{.'.|.'.'.'.'.'.'.'.'.'.'.'.'.'.{.'.'.'.'.'.|.|.|.OX|.|.OXOX|.'.'.`.W.W.Q.W.W.W.R.R.Q.Q.T.T.T.T.T.T.T.T.R.Q.Q.W.W.W.Q.W.W.W.W.W.W.Q.Q.W.W.W.W.R.R.Q.Q.R.T.T.T.T.R.T.R.R.R.R.W.R.`.'.W.|.|.|.OXOXOX|.|.|.|.|.|.|.|.|.'.|.|.'.'.`.W.).T.T.E.v.v.v.v.T.x.l.l.l.l.l.E.U.E.v.E.v.v.x.x.v.v.v.v.v.v.T.).v.v.T.T.T.).`.`.'.'.`.`.`.T.T.`.T.T.v.v.x.x.x.z.k.k.g.g.g.c.c.c.c.n.x.C.ZX=.2 A.gX+XC.0.B.=.b t k b M &.&.=.b v k h h j i i ....j j L R J p q q w G W ~ <.A.SXjXpXSXvXM.e.h X.@.@.E A.:Xb.>X-Xn.<X&X&Xn.2.2.,.h.C.A.B.B.B.B.B.S.pXr.S.G.pXpXjXvXVXJXhX`.T.v.v.v.v.v.v.v.v.v.n.`.V.V.v.v.V.V.C.C.c.C.V.C.z.q.9.9.9.1.w.w.-.-.;.;.:.:.:.2.2.2.2.2.:.1.1.1.9.z.z.z.c.z.g.9.<.,.2.,.1.2.2.:.2.:.1.q.z.z.z.h.9.0.9.9.0.8.8.8.8.8.8.8.9.9.k.k.k.k.k.1.k.k.k.k.k.g.s.<.2.<.<.;.] ( ( s.s.s.s.s.s.s.%.( ( ( ( ;.2.2.,.<.9.h.C.C.C.c.z.g.g.g.g.j.j.g.*.%.#.( ~ ( ~ ( %.%.p.j.j.j.h.c.B.h.h.h.0.<.#.O.! R K K K K D S I I I p S J J K K K ! ! ! O.,.0.0.h.g.h.h.h.h.0.0.*.*.*.$.*.*.*.*.*.$.$.#.#.#.#.,.9.0.h.h.z.C.B.G.G.F.F.S.Z.Z.B.B.B.B.B.B.h.s.g.h.h.h.j.h.<.,.#.o.@.%.%.( ( ( ( O.$.8.8.o.j j o.%.o.T T F W ^ #.%.$.<.$.#.W D d p e p a w p p p p p p p d f g g a w q w e d S D F T U U z g g f S D J T E f d p w w ",
"] 5.d.k.d.l.d.d.d.d.d.d.d.k.k.k.k.k.k.k.k.z.k.k.k.k.q.1.<.#.o.! E L j j j k k k j j j j j j j E L L X.X.R ~ o.O.#.,.2.2.2.2.2.2.2.2.1.2.2.1.1.1.1.1.k.k.k.z.z.z.x.k.k.k.z.z.z.z.k.k.k.k.k.k.k.k.l.k.k.l.l.k.d.k.l.l.x.l.v.v.v.x.T.).).`.`.[.[.'.W.'.'.OXOXXXXX-X=X=X=X=X=X=X-X>X=X=XoXoXXX XXXXX XXXXXXXXXXXoX-XoXoX-X-X-X=X=X=X:X-X-X-X=X=X=X=X=X-XoX-X=XoXXXOXXXOX'.`.'.[.'.'.`.'.'.'.'.{.{.'.OXOX'.'.{.{.{.{.|.OX|.|.OXOXOXOXOXOXOXOXOXOX|.'.'.'.`.`.W.W.W.R.T.T.T.T.T.T.T.T.U.T.T.T.R.Q.W.W.R.W.W.W.W.W.'.W.W.W.W.W.W.W.R.R.R.Q.Q.T.T.T.R.W.R.W.R.R.W.W.W.`.'.|.|.|.|.OXOXOX X|.|.|.|.|.|.|.|.'.|.|.'.`.`.W.).`.).E.v.v.v.v.v.x.x.x.x.x.E.T.T.).).T.v.v.x.v.v.v.V.v.v.T.).).v.).T.).`.[.'.'.{.[.`.`.[.`.`.`.R.T.T.T.x.v.b.k.k.g.s.s.s.s.k.k.x.n.c.A.FXb 3 hXMX+X0.+.X...h t 6 t k v n M e.S.pXS.S.G.B.=.X.X.E j J a 3 3 > 4 w F / 2.^ s.MXjXS.pXhXjXM.v y h X.X.E s.Q.-X&Xn.}.&X&XQ.k.z.g.C.G.B.B.B.S.S.S.S.e.S.S.dXaXvXvXVXDXKXxX{.].`.V.T.`.V.V.n.n.n.`.`.V.A.V.v.V.V.V.V.V.A.V.C.z.z.9.9.9.1.w.w.-.-.-.;.-.` -.;.-.;.;.;.2.:.1.1.9.9.h.z.z.g.g.9.<.,.<.<.1.2.2.2.2.1.1.q.z.z.z.z.9.9.0.9.8.8.0.8.*.,.,.,.,.,.1.9.k.k.1.1.s.s.k.k.k.g.g.g.<.<.>.s.s.s.s.s.s.s.s.s.s.s.a.s.s.#.( ;.2.,.2.<.8.g.z.C.C.C.c.z.c.g.j.j.j.g.*.%.#.( ~ W R ) %.%.*.a.p.p.j.B.B.0.g.g.8.,.;.O.~ ! K K K K D A I I p p S L J K K K o.o.O.,.0.0.0.0.9.9.h.B.h.0.*.0.*.*.*.*.*.*.0.0.*.*.8.$.#.$.,.8.9.0.9.h.C.C.F.F.F.F.D.S.D.B.B.j.h.B.h.h.g.g.h.h.h.h.8.<.<.#.O.o.%.p.%.( ( ( ^ ,.0.0.X.j X.#.~ ! T T W ! O.,.<.8.s.<.#.~ T G d e a w w a p p p p p p d a g g a q w w w e d A D D D g z g g f f D D J D f d p e w ",
"] k.5.d.k.l.d.k.d.d.d.d.d.k.k.k.k.q.5.5.q.q.q.g.g.g.9.1.,.#.o.R L j f j s s i i s a s j j j j j j L L E E R ~ ~ ^ #.;.;.;.;.` -.-.;.;.;.;.;.2.2.2.1.1.9.9.9.1.k.k.5.1.5.9.9.9.9.9.9.5.5.k.k.k.k.k.k.d.d.d.f.f.f.d.d.l.l.l.l.x.x.v.v.T.).).).T.W.W.W.W.'.|.OXXX=X-XoX=X=X=X=X=X=XXX=X XXX X|. XOXOXOXXXXXXXXXoX-XoXoXoXoXoXXX=X=XXXoX-X-X:XXX-X=X=X=XoX=X-XoXXXXXOX|.'.W.`.'.'.W.`.'.'.'.{.{.XXOX XOXOXOXOXOXOXOXOXOXXXXXXXXXXXXXOXXXXXOXOXOX'.'.'.'.`.`.'.W.R.T.T.T.T.T.v.T.T.T.T.T.T.T.R.Q.W.W.`.W.W.Q.W.'.'.'.W.W.W.W.W.W.R.R.R.Q.W.W.W.W.W.W.Q.W.`.`.W.W.W.'.|.|. X|.|. X X X X X|. X|.|.'.'.|.'.|.|.W.`.`.T.W.`.`.T.v.T.E.l.l.x.v.E.v.v.E.T.T.T.).v.v.v.v.v.v.V.V.v.v.T.).).).).`.`.`.[.'.'.'.'.'.`.'.'.`.T.T.E.v.v.b.l.k.g.1.1.1.s.s.s.s.k.x.c.c.+XSXb %.DXF.X.L $...j t 5 t h M e.e.e.e.=.m =.e.S.S.B.*.8.g.#.#.o.f > 4 a d A ( k.^ s.xXhXjXdXD.aXdXM.&.5 , j *.m.T.v.Q.d.b.`.&X1X}.b.s.h.C.C.+XdXdXF.F.D.dXjXvXvXvXvXpXbXDXKXhX].`.).V.`.`.V.V.`.`.`.`.`.V.`.V.V.V.`.V.V.A.A.V.V.C.z.9.q.9.9.2.w.;.-.-.;.-.-.` -.` ` -.-.2.2.:.1.9.9.9.g.h.g.9.9.8.<.<.<.1.2.2.2.2.2.:.q.q.z.z.z.h.h.h.g.0.0.0.0.,.,.,.,.O.O.,.1.9.9.1.9.1.s.k.k.k.k.g.g.s.s.s.s.s.s.s.s.s.s.s.m.m.j.j.g.s.s.$.2.2.2.<.s.8.9.h.B.B.c.c.c.c.c.c.m.c.j.j.*.<.#.~ T T E o.%.*.%.a.p.p.j.h.0.<.8.8.,.;.` / W K K K K K S p p p p S S L L K K o.O.$.8.9.0.0.0.9.0.h.B.h.j.*.0.j.j.0.0.0.0.0.B.*.*.8.,.#.$.$.,.,.9.9.h.C.C.F.F.F.F.D.D.D.B.B.B.j.h.8.0.g.g.h.h.h.j.%.$.%.o.R E %.*.*.%.) ( ~ #.$.*...j X.~ T T T W ! O.,.<.8.0.s.<.,.^ W F A p a w w w w w p p a p p p p p p w e e e e e d S d g g U z g f f S S J f f d e e w ",
"` 3.5.5.k.k.d.l.l.l.l.d.k.k.k.k.1.1.1.1.1.1.9.1.9.9.<.,.$.o.R J j f a a i i i i i i a a g f f j j j J J E T ! ! ! ^ ^ ^ ] ` ^ ^ ^ ^ ^ ^ ^ ` ` -.;.2.,.1.1.1.1.1.1.1.1.1.1.1.1.1.1.1.1.1.5.5.5.5.5.5.d.d.d.f.6.6.f.f.f.5.d.d.k.k.l.x.v.T.T.T.T.Q.W.'.'.'.|.|.OX=XoXoXoXoXoXoXoXoXoXoXXXoX X|. X X X XXXXXXXXXXXXXXXXXXXXXXXXXXXXXXXXXoX-XXXXXXX=X-X=X-X-XXXXXXXXX'.'.W.`.'.'.'.'.`.`.`.'.{.{.{.XX X XXXXXXXXXXXXXXXXXXXXXXXXXXXXXXXXXXXOXOX X|.'.|.'.`.`.'.'.T.T.T.T.T.T.T.T.T.T.T.T.T.T.T.Q.W.W.'.W.W.W.W.W.`.[.W.W.R.W.W.W.R.W.R.R.Q.W.'.'.W.W.Q.W.W.W.'.W.W.|.|. XXX X|. X X X X X X X|.|.'.OX|.'.|.|.'.W.`.R.T.T.).).T.T.E.l.l.x.E.T.T.T.T.).T.T.v.v.x.x.l.b.v.V.V.V.v.v.v.V.)._.`.`.`.`.'.'.[.[.'.'.[.[.T.v.U.l.x.b.l.k.k.s.1.1.1.s.g.g.g.k.x.c.h.;XSXM ;XCX=.a K S p 1 , # , 5 y M e.pXaXaXaXjXaXF.F.A.A.B.,.<.,.$.R i a J p W ( ( <.b.MXCXjXhXdXD.dXgXaXe.t 0 X.m.n.T.P.f.n.c.&XwX-Xb.b.h.C.A.+X;XdXjXhXvXCXvXjXpXvXsXpXdXDXJXgX`.`.`.V.T.`.`.`.`.].`.`.`.A.`.V.V.`.].].].].V.V.V.V.z.z.z.9.9.<.2.2.;.-.-.-.-.` ` ` ` -.-.2.w.1.9.9.9.9.9.9.9.9.9.9.<.<.2.2.;.2.:.:.:.2.1.q.z.z.z.h.h.h.h.9.8.8.8.8.,.,.$.#.;.,.<.1.1.9.9.9.k.k.b.b.k.g.g.s.s.s.i.s.s.s.a.s.j.m.m.C.Z.Z.Z.m.j.s.<.<.<.s.g.g.8.g.h.j.B.c.C.c.C.C.c.c.c.j.s.s.%.~ T T E ( %.*.*.a.a.*.*.*.,.,.8.,.-.-.` Q P P K K P K D I p p p p S L L R L +.O.,.9.9.h.B.h.h.h.B.C.B.B.B.B.B.B.B.B.B.B.B.B.*.0.8.$.$.#.O.O.-.,.9.9.h.C.C.F.F.F.D.S.S.B.j.j.0.0.,.<.9.9.h.g.j.p.%.@.@.R j f X.X.X.@.) ) ( ~ %.$...J R R T T ! ! / -.2.9.8.8.<.<.,.#.! K S p p w w q q w w a a w w p d p e e e e d d e e d g g J E E U D D S S J f f d e p w ",
"^ 1.5.k.f.k.k.k.l.l.d.k.k.5.5.1.1.1.1.2.1.1.1.1.8.<.,.$.O.! E J f s a i i q q q i i a a g g g f j J J J E T T ! ! ^ ^ ^ ^ ^ / ^ ^ ^ ^ ^ / ^ ^ ^ ] ;.;.;.2.2.2.2.:.2.2.2.2.:.:.>.2.2.2.1.>.5.5.5.3.3.6.d.d.5.4.4.3.3.3.5.5.6.f.f.k.l.l.U.U.U.T.R.R.W.'.'. X|. X XoXoXoXoXoXoXoX X XoX X.X X X X X|. X X|.|.OXOXOXOXOXOXOXOXOXXXXXoXXXXXXXXXXXoXXXoXXX-X-XXXOX|.|.'.`.W.'.'.'.'.'.`.T.T.'.'.'.'.OX XXXXXXXXXXXoX-X-XXXXX|.|.XXXXXXOXXXXXXXXXXXOX|.|.'.'.'.'.'.W.T.T.T.T.Q.T.T.T.T.T.T.T.T.T.Q.W.W.`.R.W.W.W.W.R.`.W.R.R.W.W.W.W.'.W.W.W.W.'.'.W.W.W.W.'.'.|.W.|.|. X X X X X X X X X X XXX XOX|.OXOX'.'.'.W.W.`.`.T.T.).).T.T.E.l.l.x.v.v.x.E.T.).T.T.v.v.x.x.v.x.v.v.V.V.v.T.v.V.v.).`.`.).`.'.{.{.'.'.'.[.T.T.T.v.l.x.l.k.k.k.1.1.1.2.<.s.g.h.c.x.C.z.:XSX=.F.dX*.a a w a q , % , 5 , 5 n e.pXjXjXdXdXgXgX;X+XA.n.g.T q > 1 3 i q U ( ~ 1.b.MXAXaXjX;X;XF.F.MXF.m s s X.s.s.f.f.b.v.:XwX=X}.Q.A.A.].+X].G.F.dXdXjXvXvXPXPXjXB.F.nXJXfX).`.`.`.].A.`.}.}.}.`.`.`.`.].`.].].].].+X].].A.V.V.V.C.C.z.9.9.1.<.,.-.O.-.` ` ` ` ` ` -.-.w.w.w.9.9.9.9.9.9.9.9.9.1.2.2.;.;.;.:.:.] 2.:.9.q.q.z.q.z.h.h.9.8.8.<.<.<.,.#.$.,.<.<.<.1.9.9.9.g.k.k.b.b.s.s.s.s.s.s.s.s.a.a.j.m.m.m.Z.Z.Z.Z.Z.m.j.g.s.s.s.s.g.s.g.h.j.j.j.c.c.C.C.C.C.C.j.s.g.$.( E R ~ o.%.*.%.%.%.*.$.$.,.,.,.-.O.^ ^ / Q P P P K K K S p p p p S L L R o.$.,.9.9.h.C.C.C.C.B.C.Z.C.C.C.Z.B.B.B.B.B.B.B.B.*.8.8.$.#.O.~ ! ! O.,.1.9.h.h.B.Z.Z.Z.B.B.B.0.8.0.<.,.<.g.g.h.h.j.j.*.%.@.E f j j j l @.) E ~ ) %.$.E R W ! ! W / ~ ^ -.<.9.8.8.8.<.,.#.~ K D p w q q 3 3 q w w w w w p p e e d e e d e e d d g g E E E E D D S S D D f d p p w ",
"^ 5.5.k.f.k.k.k.l.k.k.k.5.1.1.2.,.2.2.2.2.,.2.2.,.,.$.O.o.R J j g a i q 1 3 q q i i a a g g f f f j J J K K K T W ! ! ! / / W W W / ^ W W W ! ! ^ ^ ^ ` ;.;.;.;.2.2.;.;.;.] ;.:.:.2.2.:.>.3.3.3.7.3.5.6.6.6.3.3.3.3.4.6.6.5.5.5.6.k.d.d.I.U.U.R.R.R.W.W.|.|. X|. X X.X X X.X.X X X|. X|.|.|.!.|.!.!.!.!.|.|.|.'.|.|.OXOX|.|.|.OXOXXXXXXXXXoXXXXXXXXX-XXXXXOX|.W.'.`.W.W.W.`.T.T.`.T.T.Q.W.|.|.XX XXXXXXXXXXXXXXX-XXXXXXXXXXXXXXXOXOXOXXXXXOXOX|.|.|.|.'.'.'.`.T.).T.T.T.`.).T.T.T.T.T.T.T.Q.Q.W.R.R.W.'.W.W.R.W.W.W.R.W.W.W.W.'.W.W.W.'.W.|.|.W.W.W.'.|.|.!.|. X|.|. X X X X X X.X X XXXoX X X X|.|.'.'.W.R.R.R._.).T.T.T.E.l.l.x.v.E.v.x.v.T.).E.T.T.x.l.v.v.v.T.V.v.V.v.T.T.V.v.T.).).).`.'.'.'.'.[.'.`.T.T.T.v.x.z.k.k.5.1.1.1.1.2.2.1.s.k.c.c.C.z.+XCX&.F.B.%.a : 3 3 2 # # , k n M iXpXpXpXS.S.G.pXpX+XA.A.z.^ p a i 1 > a i d W s.g.1.:XFXdXB.;X;XA.F.dXgX&.m j j *.] ] { b.`.:XwXwX-XQ.A.A.].:X;XF.+XhXhXCXHXHXvXpXr.*.A.DXJXbX].].].A.`.`.`.}.}.}.}.}.}.}.{.}.{.{.{.}.{.].].].V.V.V.V.C.g.9.9.9.<.,.-.^ ^ ^ ^ ` ` ` ` ` :.:.w.w.w.9.1.9.9.9.9.9.9.1.1.2.;.;.] ] ] ] :.2.1.9.q.q.9.9.9.9.9.8.<.2.,.,.,.,.$.,.<.<.<.9.g.9.k.5.s.k.f.k.k.k.f.s.s.s.a.s.a.a.j.m.m.n.Z.A.Z.Z.Z.Z.B.j.j.g.g.s.h.j.j.j.j.j.h.j.c.C.C.C.A.A.c.j.g.s.#.o.~ o.%.%.%.%.%.*.$.*.$.$.$.O.+.! Q Q Q Q P P P K K K D I p p f S L L o.O.,.8.9.9.C.C.C.C.C.B.C.Z.F.F.F.F.F.F.A.C.Z.Z.B.h.8.*.$.$.O.^ W W P P ^ -.,.9.8.g.B.B.B.j.p.j.*.$.<.#.,.2.g.h.h.h.B.j.*.%.o.E J J R L E X.@.o.) ) %.$.X.T ^ ^ ~ ! ~ ^ ^ -.w.<.<.8.8.,.%.#.! K S p w q 4 3 3 q w a w w p p e e e p w e e e p d f f j E T E U U D S S D D d p d p e ",
";.5.5.f.f.f.k.d.k.k.k.5.1.1.2.2.;.;.;.;.;.,.,.,.$.$.O.o.R J j g a a q 1 1 3 q i i i a a a g f j f f f f J D J T T W W W / ^ W W W W W W W W W W ! W / ^ ` ] ` ` ;.;.;.;.] ] ] ;.;.[ :.:.>.>.7.>.7.7.3.5.6.3.3.3.3.3.3.3.3.3.5.f.q.6.d.d.L.U.U.R.T.R.W.R.!.|.|.|.!.!. X!. X X X!. X|. X!.Q.!.W.W.!.!.W.W.W.W.W.W.'.|.OX|.'.W.'.'.W.OXXXXX X XoX.XOXXXXXXXOXOX|.W.`.`.W.T.T.`.T.T.T.T.T.Q.W.'.OXOXXXXXXXXXXXXXXXXXoXoXoXoXoX-XXXXXXXOXXXXXXXOX|.|.|.|.|.'.'.`.`.`._.).`.`.`.`.R.R.T.`.`.R.Q.W.W.W.W.W.'.W.R.R.W.Q.R.R.W.W.W.Q.W.W.W.W.W.W.W.W.W.W.!.|.|.|.|.W.!.OX|.W.|. X XOX X XoXXX X X.X X X!. X|.'.'.R.R.R.R._.T.T.T.E.v.U.I.x.E.E.E.E.T.T.).x.v.v.x.x.v.T.).T.v.V.V.v.T.T.V.T.T.T.T.T.`.'.'.'.'.'.[.`.T.T.x.v.x.z.z.k.k.k.1.1.2.2.<.s.s.k.c.v.C.z.:XMXS.hX@.T o.1 9 : # # % # 6 M e.e.M &.e.D.pXB.*.B.C.B.+.K J d g a 2 3 J f S ( <.;.s.A.ZXMX*.r.dXF.F.B.hXdXh X.b p.s.( { s.`.:X9X8X9X0X+XC.F.+X;XdXdXdXaXpXS.&.k 6 k X.+XZXJXdXV.`.V.A.`.`.}.{.{.}.&X{.{.{.}.}.{.{.{.{.{.+X].].].A.V.C.V.g.g.9.9.8.,.-.O.^ / ^ ^ / ` ` ` [ :.-.w.1.1.2.1.9.9.9.9.1.1.2.2.;.;.] ] ] ] ] -.2.1.9.9.9.9.9.1.8.8.<.,.,.,.,.,.$.<.8.<.8.g.g.9.k.k.1.f.f.b.b.k.f.s.s.s.s.a.a.a.g.m.m.m.A.F.Z.Z.D.Z.Z.B.j.j.j.g.g.j.j.B.j.j.j.j.C.C.C.A.A.C.Z.c.j.g.<.$.%.%.%.%.%.%.%.%.*.*.$.$.+.+.+.! P P Q P P P P P P K D S p p f f L K ! $.,.8.z.z.V.V.G.C.C.C.C.A.F.H.aXH.H.H.F.Z.C.Z.B.h.0.$.$.#.O.~ W W P P / ^ -.<.,.8.8.*.j.*.*.*.$.%.#.^ ;.2.9.h.h.j.B.B.*.%.o.T K K o.$.%.X.X.X.o.) @.*.X.R ^ ^ ~ ^ / ^ -.-.,.<.<.8.<.#.#.~ ! K S p w 3 4 4 3 q a p w w p e w e e e w e e w p d f f J E E T T U U D K D D d p d p w ",
"^ 1.3.3.f.k.k.k.k.k.5.5.1.1.2.( ;.;.#.#.#.$.$.#.O.O.o.R E J f g a i q 3 3 q q q q w a a a g f f j f D D S S D D T T W ! W W W W W W W W W F K W T W W W / ^ ` ` ` ` ` ` ] ] ] ` ] :.:.[ [ 7.7.7.7.7.4.3.4.4.3.3.4.4.4.3.4.4.4.4.4.4.d.d.d.I.I.I.R.R.R.R.R.W.!.|.!.!.|.|. X X|.|.|.|.|.|.!.W.W.W.R.|.!.W.W.W.W.Q.W.W.!.W.W.W.W.!.!.|.|.|.|. X X XXX XOXOXOX|.|.|.W.W.T.T.).`.T.T.T.T.T.Q.'.`.'.XX XOXOXXXXXXX.X=XXX-X>XoX=XXX=XoXXXXXoX X XXXOX|. X X|.'.'.'.'.Q.'.'.W.W.'.`.'.R.W.W.T.U.W.W.R.|.W.!.W.R.W.W.R.W.Q.R._.'.W.Q.W.R.R.R.W.W.W.W.|.|.!.!.!.'.W.W.|.|.|. X X X X X X X X X X X XXXXXXX|.|.'.'.W.Q.W.`.T.T.T.T.).T.x.E.x.E.E.E.T.T.T.T.T.T.T.v.v.v.v.T.T.T.v.v.T.T.T.).`.`.)._.).T.T.'.'.'.{.{.`.T.v.v.v.b.l.k.k.k.5.5.9.<.1.s.s.g.b.x.v.x.V.+XxX+XMXB.f g.a # : # # < y M B n v M S.pXe.=.&.e.=.X...L o.%.E a 3 1 i a j U ( ( ( f.f.>XFXnX%.B.aXS.&.M.hX&., h ) g.,.{ ] k.Q.5X5XwXwX&XA.A.F.G.F.F.B.&.X.h i 1 1 3 J +XDXSX+X`.].`.V.].`.}.+X+X{.&X:X:X&X&X{.+X+X:X:X+X+X].A.A.A.A.V.V.z.z.9.9.1.,.-.` ^ / Q / / ` / / ` ` -.2.2.,.2.1.1.1.9.9.9.1.9.1.2.2.-.:.` ` ` ;.;.w.1.1.1.1.1.2.<.<.1.1.2.2.,.,.,.,.<.8.0.h.h.g.g.9.1.5.k.k.b.b.b.b.m.m.j.j.j.j.m.m.Z.Z.A.J.J.F.Z.F.F.Z.c.c.j.g.h.h.j.j.j.j.j.j.C.Z.Z.C.A.A.C.C.h.h.s.<.<.$.*.*.%.*.%.%.*.O.o.o.o.o.P ! P P P H P P P P P P F D I p p S K ! ! O.<.9.q.q.z.C.C.C.C.Z.Z.Z.H.dXaXdXdXdXdXH.A.Z.B.0.8.$.O.O.O.! W W W F P ! O.<.2.2.<.<.<.*.%.%.O.^ ^ ^ #.<.9.h.h.g.j.j.0.%.o.R E K ~ ,.<.#.X.X.=.o.@.%.R ^ ! O.^ -./ / ^ -.-.,.2.2.#.( ~ W T D J f w 3 4 3 3 w a a w w p p p d d e e e e e p p d f l E E T D D K T K K D d e e w w ",
"^ 1.5.5.5.k.k.k.5.5.1.1.1.2.;.^ ^ ^ O.O.O.O.O.O.~ o.! R J f f a i q q 3 3 q q q a p a f f f f f j f D D S S S D D T W W W W W W W W W W H F H W W W W W / / / ^ / ` ` ` _ ^ ` ] ] ] :.:.:.:.:.5.7.7.4.3.3.4.3.3.3.4.4.4.4.4.4.4.4.4.d.d.d.I.I.I.I.U.Y.Y.Y.Y.W.!.!.!.|.|.|. X|.|.!.!.!.!.!.W.W.W.R.!.!.W.W.W.W.W.W.W.!.!.W.W.W.W.!.!.|.'.|.|.|.|.XXXXXXXXOX|.|.|.W.W.T.T.).T.T.T.T.T.T.Q.W.'.'.OXXXOXOXXXXXXXXXoXXX-X-XXXoXXXoXXXXX XXX XXXXXOXOX X|.|.|.'.'.'.'.`.'.Q.'.'.'.'.W.W.W.R.R.W.W.R.W.W.!.W.W.W.W.Q.W.R.R.R.R.W.W.W.W.W.W.W.W.W.W.W.'.!.|.|.'.'.'.|.|.|.|. X X X|. XoX X.X.XoXoXoXXXXX|.|.'.'.W.Q.R.T.).T.T.).`.T.E.T.T.T.T.E.T.).T.T.).T.T.T.T.T.T.T.T.T.T.T.).).).).T.`.`.`.).`.'.{.'.'.{.{.'.`.`.T.v.v.x.z.k.k.k.k.g.9.s.k.k.k.b.x.v.`.V.A.<X;XhXdX+.$.L : > 6 h b v y y M &.M e.e.=.=.M b b *.Z.C.h.E X.a a a 3 a j T #.s.f.<.k.=XAXFXgX=.=.Z.F.r.*.H.t < j %.s.s.{ k.Q.5XwXeXyX&Xo.*.r.F.F.G.S.=.b k i i q q R V.DXCXA.V.V.V.V.`.}.+X+X&X&X:X<X:X:X:X&X&X;X;X:X;X+X+X].].].A.A.V.v.z.9.9.<.,.;.` ^ / / / / Q Q / ` ` ` 2.2.w.2.1.2.,.<.<.<.9.9.1.2.2.:.:.] ` ` ` ` :.2.:.2.2.2.;.;.,.2.1.,.,.,.,.$.,.8.8.9.h.h.h.g.9.1.1.k.k.k.b.b.b.m.m.j.j.j.j.m.Z.Z.A.J.H.H.J.D.D.F.Z.Z.c.j.j.h.j.h.j.j.j.j.j.Z.Z.A.A.A.c.c.B.h.h.s.8.*.*.*.*.*.*.%.%.+.o.o.o.+.! K K P P P P H P P P P P P K A S p S K ! o.,.1.9.q.z.z.c.C.C.C.Z.Z.F.H.jXjXjXdXdXdXH.F.Z.B.j.0.$.O.^ O.O.W W W W W ! O.,.<.9.0.8.,.#.#.~ ~ / ^ ^ #.,.1.g.g.h.j.j.$.#.o.R K K ~ $.%.%.%.X.E E @.=.E ^ ^ ^ ^ ^ / / / ^ O.#.,.,.~ ~ T T T J J f w 3 4 4 3 w a w p p p p p p d e w e d d p p d f E T E T U U T T P K D e w w w w ",
"^ 1.5.5.5.5.k.k.1.1.2.2.2.;.( ^ ^ ~ ^ ~ ~ ! ! ! R R R J f f g a q q q q q q q q p a a f f d d f f f f S S S S S D K T K W W W W W W W P H H W W W W W W W W W / / / ` ` / / _ ` ] ` ] ] :.:.:.5.7.3.4.4.4.4.3.4.4.4.4.4.4.6.6.4.4.d.L.L.L.d.L.I.U.U.Y.Y.Y.Y.R.!.W.!.!.!.!.!.!.|.!.!.W.W.W.W.W.W.W.!.W.W.W.W.W.!.W.W.W.W.W.W.W.W.W.W.W.W.|.|.!.!. X XXX XOX|.|.|.W.W.R.T.T.T.T.T.T.T.T.W.'.|.|.OXXXOXXXXXXXXXXXoXXX-X-XXXoXXXoXoXoX XXXXX X X|. X X|.|.OXOX'.'.'.`.'.W.'.'.'.'.'.W.|.W.W.|.W.R.W.R.W.W.W.W.W.R.Q.R.R.R.W.'.'.W.!.W.W.W.W.W.W.W.W.|.|.|.|.'.|.|.|. X|.|. X X|. XoX XoXoXoXoXoX X X X|.OX'.'.W.Q._.`.T.T.T.W.T.T.T.R.T.T.T.T.T.T.T.T.T.T.T.).`.).).T.T.).).).).).).T.`.`.T.T.'.{.{.{.[.{.{.'.'.].`.T.T.v.l.z.k.k.k.q.k.k.k.k.k.z.v.v.A.`.+X}.+XgXdXr.o.j 1 q i k < , y e.e.n v e.S.M.&.M.G.aXpXr.*.L X.X.E X.j a a g <.,.g.n.k.k.1XBXAXSXpXt *.H.Z.X.;X;Xi h j <.s._ f.-XwXwXwXlX&Xs.<.*.j.B.B.r.m h 1 1 i a a R c.CXgXV.`.}.}.`.}.A.}.+X{.&X:X:X:X<X:X:X:X;X:X:X:X+X+X].].+X].].A.V.C.z.9.1.2.;.` / / / / / Q Q / / / ` 2.2.w.2.2.<.,.,.<.<.9.9.1.;.2.2.:.] ` ` / ` ` ` ` -.-.;.-.;.;.2.2.2.,.,.,.,.8.8.8.9.g.g.z.h.g.1.5.1.1.s.k.k.s.g.s.s.g.g.g.m.Z.A.J.J.H.aXpXH.D.D.Z.Z.C.c.c.c.g.j.c.B.j.j.j.B.B.Z.A.C.c.c.h.g.g.g.0.8.*.*.*.*.*.$.+.o.X.o.o.o.L L F F K P H G G H H P W ! P K D S S J P O.,.9.9.q.z.z.z.z.B.B.Z.Z.F.aXjXjXjXjXjXjXdXH.F.Z.j.8.$.O.O.#.#.~ ~ W W ~ ~ #.<.8.g.g.<.,.#.~ W W ^ ( ^ #.,.2.g.g.s.8.*.$.~ R K D D T %.j.*.%.( E j X.=.X.~ ^ ^ ` ^ / Q Q ~ ~ ^ O.O.~ E T T T J D d w q 4 3 3 q w w p w p p p d d d e d d d p p p f J E E T U U T W W H F d w w q q ",
"/ 1.1.5.q.1.1.1.1.2.2.,.;.#.^ ^ ! ! ! ! R R R K J J J j f f g a q q q q q q q a p p a f f d d f f f f S S S S A F F K K K W F T W W W W H W W W W / W W W W W / / ^ ^ _ _ _ / / ] ] ] [ [ [ :.5.7.3.6.4.4.4.4.4.6.d.6.4.4.6.d.6.6.d.d.L.L.L.L.U.U.U.P.P.P.U.Y.Y.R.!.!.!.!.!.!.!.!.!.W.W.W.W.W.W.!.!.W.W.W.R.W.!.W.W.|.!.W.W.W.W.'.W.!.!.|.|.|.!. X X X XOX|.|.|.W.W.Q.T.R.T.T.T.T.`.W.W.{.OX|.OXOXOX X X X XXXXXXXoXoXoXXXXXoXoXoXXXXXXX X XOX X X|.OXOXOX{.'.'.'.|.'.'.'.'.'.'.|.|.W.W.|.|.W.W.W.W.W.W.W.W.W.R.R.W.W.W.'.'.W.Q.W.W.W.W.!.!.!.W.|.|.|.|.|.|.|.|. X|.|. X X X XoX XoX X XoX X X X X|.|.|.'.W.W.`.W.T.T.T.T.T.T.T.T.R.T.T.T.T.T.T.).).T.T.T.T.).).T.T.T.v.T.).).).).`.`.T.`.'.{.{.{.{.{.{.{.{.'.`.`.`.v.v.l.l.l.k.k.z.z.z.x.z.z.v.`.V.`.}.`.C.gXdX0.E i 1 1 1 8 , # , 7 - 7 v pXbXpXS.e.e.e.=.=.@.*.B.*.*.+.f f j R s.#.O.T ( s.Q.wXBXAXnX*.l S.Z.S.;XgXF.*.&.c.}.] b.1X0XwXwXlX1X<Xg.A.A.A.G.S.e.b 1 : > 3 q T A.ZX;XV.}.}.].}.A.A.].+X{.;X:X<X<X<X:X:X;X:X<X;X:X+X+X+X+X+X+X+X].V.V.c.k.9.2.;.^ / / ^ ^ / Q Q / Q Q ` -.2.w.w.,.w.,.,.<.<.1.9.1.2.1.2.:.-.] ` / ` ^ / ^ / / ^ ^ ^ ` ;.;.;.;.;.;.,.8.<.,.9.9.9.g.h.k.g.g.1.1.>.s.s.g.s.s.s.g.j.j.m.A.A.J.J.aXaXaXH.D.D.Z.Z.Z.c.c.m.j.j.c.c.c.c.j.B.B.B.Z.Z.c.h.h.g.g.g.h.h.*.*.*.*.*.+.o.o.o.R R X.K L L S S F G G G G F H P ! ! P F D S J K ~ ,.q.q.q.q.k.h.h.h.j.Z.Z.F.aXdXjXjXjXjXdXaXpXF.Z.Z.8.$.$.$.$.,.$.#.^ ^ #.#.$.8.8.h.8.<.#.( ~ W / ^ #.#.#.#.,.<.g.s.<.$.o.R K D G G F ( s.p.#.( R j j b R W / / ` ` / P P ! ! ! ! ~ E E T T J J D d p w q q 3 q w w p w p p d d d d d d f d p a p f g E T T U D T W W W F A e w q 4 ",
"^ 2.1.1.1.1.1.2.<.,.,.;.#.^ ~ ~ R E J J L J J J J j j f f f a i q q q q q q a p p p d f f S S S f S S S D D D D D F F K W W W W W W / W W W W W W / Q W / Q Q / / / / ` ` _ _ _ [ [ [ [ [ [ 7.7.3.4.f.d.f.4.6.6.d.d.d.4.6.d.d.6.d.d.d.L.d.d.L.U.U.I.I.I.I.U.Y.Y.Y.W.!.W.W.W.W.W.!.!.!.W.W.!.!.!.!.!.W.W.W.W.W.!.W.!.!.!.!.!.W.W.'.W.R.!.|.|.|.!. X X X X X X|.'.W.W.Q.R.R.T.T.`.T.`.'.'.'.|.'.|.OXOXOX X XXXXXXXXXXXoXoXXXXXXXoXXXXXXXOXOXXXOX XOXOXOXOXOX{.{.{.'.OX|.|.'.'.OX|.!.!.!.!.|.!.W.!.|.!.!.W.W.W.W.W.W.R.W.|.W.W.W.W.!.W.W.W.!.|.|.|.|.|.|.|.|.|.|. X X X X X X X.X XoXoX X XoXoX XoX X|.|.|.'.W.'.W.W.Q.T.R.W.R.R.`.Q.W.`._._.R.`.`.`.`.).).T.T.T.T.).T.).v.T.).).`.`.).`.'.'.'.[.{.{.OX{.{.{.{.{.'.`.`.).v.v.v.v.b.x.x.x.l.v.v.v.v.V.`.`.].{.c.xX;Xo.D i i i 1 8 2 # * , y e.aXVXdXe.=.e.B.S.B.B.A.D.*.B.*.s a j f @.n.%.,.W U s.Q.1XBXAXNXMXF.B.S.M.j.;XF.S.X.*.:Xk.b.wXwXlXmXBXmXlX;X;XF.dXdXD.e.h 6 1 2 > q E <XAX].V.].V.A.}.`.].].+X+X&X:X;X:X:X<X:X;X;X;X:X+X+X+X+X+X+X].].].V.V.v.k.1.2.-.^ ^ ^ ^ ^ / / Q Q P Q ` -.-.-.;.;.w.,.,.,.;.,.1.1.2.1.2.:.:.:.:.` / / / Q Q W W W ! ~ ` ` ` ` ;.;.,.1.<.,.9.9.<.1.9.9.9.9.1.1.s.s.s.s.s.s.s.j.m.m.j.A.J.J.H.aXaXpXH.D.F.Z.Z.Z.c.c.m.j.g.h.c.c.c.j.j.j.j.j.j.h.h.h.g.g.g.h.h.0.*.*.*.$.+.+.o.o.R K L L J S S S A I G G G F H W ! ~ P K K D K ! ~ w.9.k.k.k.z.z.g.g.j.Z.A.F.aXdXjXdXaXdXaXaXaXH.D.Z.Z.h.8.8.8.g.8.<.,.#.$.$.8.*.*.h.j.8.,.^ W W ~ #.%.#.,.;.;.<.s.s.<.%.~ T F G A F W U %.s.2.( ~ l f i E U W W / ` W H K P ! W T T T T J E T J D d p w q q q 3 w w p p p d d d d d d S f f d p p d f T R E D S F W W W F A e q q q ",
"~ 2.1.1.1.1.1.,.,.;.#.#.^ ~ ! ! T J f j j j f f f f f f f f a i i q i q q w p p p d d f S S S S D D D D D D D D F F F K W W W Q W W / Q Q Q Q Q Y Q Q Q / / / / Q / ` _ ` _ _ ] { [ [ [ [ } 3.3.3.4.f.d.d.6.d.d.d.d.d.d.d.d.d.6.L.L.L.L.L.d.L.U.U.U.U.U.Y.Y.Y.Y.Y.W.W.W.W.W.W.W.W.W.W.W.!.!.!.!.!.!.R.W.!.!.!.!.W.W.!.!.!.!.W.W.W.W.!.!.|.|.|. X X X X X X X|.'.W.W.Q.Q.Q.R.R.`.W.'.'.'.'.'.'.|.'.|. X X X XXXXXoXoXoX-XXXXXXXoXOXOXXXOX|.XXXX X|.OXOX{.'.OXOX'.'.OX|.OXOXOXOX|.|.!.!.!.|.|.|.|.|.!.!.W.W.W.!.W.R.W.|.|.Q.Q.W.'.!.!.!.!.!.|. X X!.|.|.|.|.|.|.OX|. X X|.|. X X X X.X.X XoXoXoXoXXX X X|.|.'.'.W.'.'.W.W.W.W.W.'.Q.W.'.'.'.'.'.W.`.`.[.`.`.T.T.T.T.T.v.V.T.).T.).`.`.`.'.'.[.[.{.'.{.{.{.XXXX{.{.'.'.`.`.`.`.T.v.).v.v.v.v.T.T.`.).].].:X@Xv.xXA.R e 1 i 1 1 6 1 k v M N.e.pXaXD.F.aXjXdXF.S.G.r.*.B.=.s 1 1 a X.$.;XA.Q.tXk.2.`.wXBXGXmXMXF.M.&.j %.<XF.&.p.j 0.n.f.1XwXwXBXBXmXxXgXgXC.0.G.S.M.j i i 3 3 q o.MXMXV.V.V.V.A.].].A.].].}.+X&X:X:X:X;X:X:X;X:X;X+X:X:X:X@X+X].].+XA.V.V.k.1.2.;.^ / / Q Q / Q Q Q P Q ` -.-.-.;.;.-.-.;.-.O.-.<.<.1.1.w.2.:.:.:.` / / Q Q Q W P H P Q / ^ ^ ` ] ] 2.2.,.,.1.1.<.1.1.1.1.1.1.1.s.s.g.s.s.s.s.j.m.m.n.A.J.J.H.aXaXpXH.F.F.F.Z.Z.c.g.m.g.j.c.g.c.m.j.j.j.j.j.j.j.g.g.9.g.g.0.h.0.*.*.*.$.$.+.X.R R K K J L S S S S I A A G F F W ! ^ ! P K K K ! ~ ,.1.q.k.g.z.h.9.9.h.Z.Z.F.H.;XdXaXH.aXaXaXaXH.D.Z.A.B.h.g.h.g.g.9.<.$.$.8.g.j.0.B.j.g.<.#.~ ~ o.$.%.%.2.;.;.2.<.s.2.#.W F F A A F F U ( ( ( W U T T L o.U T ! W ! ! K F K K K K D J T J E E J D D S p w w q 3 w w p d d d d d d d f f j f f p p d D T E E D S F W W W F A e q q q ",
"~ ,.2.2.2.2.,.;.O.O.O.^ ~ W T K D f f f f f f f f f f f d a a a i i a a w p p p d d S f S D D D F F K F F F F K F F F K W W W Q / Q Q / / / Q / Q Q / Q / / / ` _ _ ` ] [ [ [ [ [ } 7.7.} } 4.4.} d.d.L.L.d.L.L.L.L.L.L.L.L.L.L.I.I.I.L.L.L.I.I.U.P.L.I.I.U.U.U.Y.W.W.W.W.W.W.W.W.W.W.W.W.W.W.W.W.!.R.W.W.!.!.!.!.!.!.!.!.!.!.!.!.!.!.!.!.|. X X X.X X X X XOX|.|.|.W.W.W.W.W.W.'.|.|.|.|.|.|.OX|. X X X X XXX X.X.XoX-XXX=XXXXX XOXOXOXOXXXXXXX'.'.'.'.'.'.'.'.'.OX|.|.OX|. X!. X!.!.|.|.!.|.|.!.!.!.!.W.!.!.!.!.!.!.!.!.!.!.!.!.!.!.!.|.|.|.|.|.|.|.|.|.|.|.|.|. X X X X X X X X.X X XoXoX XoXoX X X X|.|.|.W.|.|.|.'.'.W.W.'.R.W.'.'.'.W.W.R.W.W.`.[.`.`.).).T.v.v.V.).T.).`.`.`.[.'.'.'.'.OX'.{.{.XXXXXX{.XXXX{.{.{.[.[.].`.].`.`.`.).`.].].{.{.{.@X{.v.gXA.J q 2 1 : < 6 t n B B B B aXDXDXVXaXS.&.S.D.B.=.b b k 1 : 2 1 i E s.V.Q. Xv.^ >.5XmXBXBX1XdXX.m &.X.F.gXX.M.p.%.+X&X-X-XrXmXMXBXmXlXgX+XA.B.@.p.B.a 1 3 3 g c.AXfXC.V.V.V.A.A.A.].].+X+X+X&X&X&X&X&X+X+X+X+X+X+X:X:X@X@X+X+X].+X].A.V.z.q.2.;.^ Q W W W Q Q Q Q Q Q / ` -.-.;.;.-.-.O.O.O.;.<.9.9.9.1.1.5.5.:.:.` / W W W P H F P W Q / ^ ` ` ;.2.2.1.1.1.,.,.2.2.,.,.,.<.9.s.s.s.s.s.<.s.g.m.c.n.A.J.H.H.H.H.H.F.F.F.Z.Z.Z.j.g.g.g.g.c.j.j.g.g.h.c.j.j.j.j.s.<.8.8.8.8.8.*.*.*.*.$.$.o.R R K L J J L J f p I p p A A F F W ^ O.~ ! P P P ! ! -.1.q.g.k.z.h.9.g.g.h.Z.Z.H.H.H.aXH.H.aXaXaXH.J.D.Z.B.C.h.0.g.h.h.9.,.,.<.8.8.8.j.h.g.<.,.#.#.$.$.%.%.#.;.;.;.<.<.#.( W F G A G Y Y ] s.( ( E E W E X.o.U g E T K W K F F D S S S T E T T T J J J K A p p w w w w p p d d d d d D f J J J f p p d S S D D f f D K W W K D p w 4 4 ",
"R #.,.;.;.;.#.O.O.O.~ ! W K J J f f p g f g f f f f f f a a a a a a a a a p p p d S S S D K K D F K K K F F F K F W W K W W W Q / / / ` ` / / / / _ _ / ` ` _ ` [ ] ' [ [ 7.} [ 7.7.7.3.4.4.4.6.f.L.d.L.U.L.I.I.L.L.L.L.L.L.I.I.I.I.I.L.L.L.I.L.P.P.P.P.Y.Y.Y.Y.Y.Y.Y.R.R.W.W.R.W.W.W.W.W.W.W.W.W.!.R.R.W.W.W.Q.!.!.!.!.!.!.!.!.!. X X X X.X X X X X.X X X XXXOXXXXX|.'.|.|.'.'.!.!.W.'.OX|.OXXX X X X X X XXX X X X XXXXXoX X XoXOXOXOXXXXXOXOXOX{.OXOXOX'.|.|.OXOXW.|.|.!.|.!. X!.|.|.!.!.!.!.!.!.!.|.W.!.!.!.'.W.!.!.|.|.!.!.|.!.!.|.|.|.!.!.|.|.|.|. X X X|.|. X XXX X X X XXX.X X X X XXXoX X X X X X X|.|.|.|.|.|.|.|.'.|.!.|.'.'.R.W.W.'.Q.Q.W.`.`.`.`.`.T.T.T.V.).).`.'.Q.'.'.[.{.OXOXXX{.OX{.XX:XXXXX:XXXXXXXXX{.{.{.{.{.[.[.{.[.].[.'.{.{.@X@X:XV.:XA...q 2 & & & , 6 n e.pXvXPXVXvXaX*.X.=.S.jXS.v 6 6 k i 1 1 i 1 2 a U ~ #.1.;.Y f.wXlXAXAXgXA.E j.jXS.A.lXj.k Z.nX;X&X-X*XeXBXBXBXMXMXfX+X+XC.A.F.0.a 2 2 1 X.fXZX+Xg.c.v.n.}.A.+X+X+X+X+X{.{.&X&X&X@X@X+X+X+X+X:X+X+X+X+X+X+X+X].].V.V.z.q.2.-.^ / Q W P P Q P P P Q / ` ` -.-.` ;.^ ^ ^ O.,.9.9.9.q.9.q.5.1.7.:.` / P H H H F F F H W Q ^ ` -.-.;.;.2.2.;.;.,.#.;.;.;.;.<.9.g.s.g.s.<.<.1.s.m.c.n.A.&X;XH.H.J.J.F.F.F.Z.Z.Z.j.s.s.g.j.c.j.j.g.g.g.g.m.g.j.j.s.<.8.8.<.<.$.*.$.*.*.+.o.o.R R L J J J L J p p p p d d A F W / ^ #.^ ! ! P ! ! ! O.9.k.k.k.z.h.g.c.g.g.B.Z.J.H.J.H.J.H.H.H.aXaXH.J.Z.B.c.g.s.g.g.g.<.#.#.#.%.$.*.8.s.2.,.,.<.<.$.<.%.%.#.;.] ] ;.2.#.~ W F F G Y Y m.m.m.g.#.~ #./ U R g g z J T T K K F G A d A d T E T E T J J K K D d p p w w w a d d d d d f D J E J j f p p d A d d d g d S F W W W K A w 4 4 ",
"! $.;.;.;.O.^ ~ ^ ~ ! W K J J J f a a p a p p d d d d a a a a a p p p p a d d a f S D D F K K F T K K F H W W H W W W W W / ^ ^ _ _ ` ` ` ` ` ` ] ] ] ` ] [ [ [ [ } } } [ 7.3.7.3.3.3.3.6.d.d.d.d.I.I.L.L.L.L.I.U.U.U.I.L.I.I.L.P.I.I.I.P.P.U.I.P.P.U.Y.U.Y.Y.Y.Y.R.R.W.W.!.W.W.!.W.W.W.!.!.!.!.!.!.R.R.!.W.W.W.!.R.Y.^.!.^.!.!. X X.X.X X X X XoX.X X X.XoXoX XXXXXXXXXXXOX|.|.|.|.!.|. X|.|.|.|.!.|. X XXX X XXXXXXXXXXXXXXX XOXOXOXXXOXOX'.'.OX{.'.'.'.'.|.OXOXOX'.|.OX|.|.|. X X X|.|. X|.!.|.|.!.!.!.|.!.!.|.!.!.!.!.!.!.!. X|.|.|.|. X X XOX X X X X XXXXX X|. X.X X XXX X X.X.X X X X XoX X XOXoX XOX|.OX|.|.OXOX|.W.'.'.!.|.OX|.|.W.W.W.R.W.W.W.'.'.`.`._._.`.`.`.[.'.'.'.[.{.OXXX{. XXXXX:X:X-X-X:X:X@X:X:X@X:X:XXXXX:X:X:X:X:XXX{.{.{.XX:X:X-X:XV.+X2XO.q 1 2 2 & @ - B e.e.e.M r.G.*.*.M.pXS.b t , < k < < i E J D q i q U T D s.<.f.!.wXBXAX1Xj.B.;XhXH.B.G.g.X.m F.F.n.BXAXNXmXNXNXNXNXwXn.n.+XhXjXj.i 2 1 f 2.gXhXk.x.x.c.c.V.].].}.].+X+X+X].+X+X{.+X+X:X+X+X@X+X+X+X+X+X@X+X].].].V.C.z.9.1.;.` ^ / W W W P P W P W Q / ^ ` -.O.O.;.;.#.;.<.9.C.C.C.q.q.q.q.:.2.` / W P K K F F G F H Q ^ ` -.-.;.;.;.;.;.` O.O.^ ^ ;.,.<.9.8.9.<.s.s.s.s.g.k.s.k.n.A.J.;XH.H.D.F.F.F.A.Z.m.j.g.s.s.s.j.m.g.g.k.g.m.c.g.g.g.g.,.<.<.<.$.$.$.%.$.$.+.o.X.R K L J J J L S A p p p p A F W ~ O.^ ( ^ / W W / ^ ^ 1.k.z.z.z.z.z.z.c.c.j.j.Z.F.A.J.J.H.H.H.H.aXaXH.J.D.Z.B.j.g.8.8.g.<.;.] #.#.#.%.%.#.,.;.;.<.<.s.%.#.#.,.;.] #.#.( 2.W W W / Q Y Q s.i.m.m.s.~ ( U f X.b g g E J J J D f f f f f J U T E R R R T T T F G S p q q w w w p d d d f S J R T J S d p I d d d d f d f S K ! ! K S p q 4 ",
"T O.#.O.^ / ! ~ ~ ! W T J J S f f a a a p p p p d d a a a a p p p p d d f f f d D D F F K P W W W W W W W W W W W W / Q / / ^ ^ _ ] [ [ ] ] ] :.>.>.>.[ :.:.7.7.7.7.3.3.3.3.4.4.4.4.f.d.d.d.d.d.d.L.L.L.L.L.I.I.U.U.U.I.I.U.Y.Y.Y.Y.Y.U.L.L.L.I.P.P.Y.Y.U.Y.Y.Y.Y.W.W.W.W.!.!.W.!.!.!.!.!.!.!.!.|.!.W.!.!.W.W.!.!.!.!.!.!.!. X X X X X X X X.X.XoX.XoXoX.XoX@XXXXXXXXXXXXX XXXXXXX|.|.|.|.|. X X X|. XXXXXXX X XoX X XXXoX X X XOXOXOXOXOXOXOX|.OX'.'.'.'.|.|.|.|.|.|.OXXX X XOX X XXX X X X X|. X X X|.|. X|.!.|.|.!.!.!.!.!.!.|.|.|. X X X X X XOX X X X|.|. X X X X.X X.XoX X X.X.X X X X X X X X X X X|.|.|. X|. XXX X XOX|.|.|.|.|.!.!.!.|.'.W.W.'.'.[.`.T.[.[.[.'.'.{.{.OXOXOXXXXXXXXXXX:X:X:X:X:X-X>X<X:X<X:X:X<X<X>X>X>X<X<X<X<X:X:X:X:X:X:X:X-X,X].].&XO.q 1 2 2 : * * , , 5 m =.*.B.*.&.e.=.k 1 k 6 i i 1 < g E j O.T i d W U U %.2.s.T.wXBXBXBXgXdXj.;XF.A.0.m.C.*.%.*.%.;XMXlXNXZXMXAXAXmX1X<X;XgXnXH.j 1 g R c.xXF.g.k.c.k.c.V.V.V.A.V.A.].].].+X+X+X+X+X+X+X+X+X].].].+X+X+X].].].A.V.c.z.k.1.2.` ^ ^ / W W P P P P P W / / ^ ` ;.#.;.2.,.,.8.9.C.C.C.C.z.z.q.1.2.` / / P G G G F G G F H / ^ ` -.` ` ;.;.` ^ ^ ^ ^ ^ ;.;.,.<.8.9.g.g.g.g.s.s.s.s.b.n.A.J.&X;XH.H.F.H.F.F.Z.n.j.s.s.g.g.g.j.j.g.g.m.m.g.s.g.g.g.s.<.<.,.$.$.$.$.%.$.o.R R K K L J J J J S S p p p d G F W ^ O.;.] ^ ^ / / ^ ^ ;.9.z.z.z.z.z.c.c.C.C.C.Z.Z.F.A.A.A.J.H.H.H.aXaXH.F.Z.B.h.g.s.<.2.1.<.;.( ( #.O.o.~ O.,.,.,.<.0.8.g.*.$.%.,.<.( ;.;.( ( ^ W / ` ^ / a.a.U ) s.~ #.( E j j E ( E D S D D f f f d f D T R E ~ ~ E T T W K F S p w w w w e p d d d d S J J J J S p p p p e d d S f S D K P ! K D p w q ",
"E O.O.~ ~ ~ W W ! R T K J f f f a a a a a p p p f g g a p a a d d d d f S S S D K F T W W W W W W W W W W W W W / / / _ _ ` ] ] ] :.>.>.>.>.3.5.3.3.3.3.3.5.5.5.f.5.f.d.d.6.6.d.6.d.L.L.d.d.d.d.I.L.L.L.L.L.L.L.I.U.Y.Y.Y.Y.Y.Y.Y.Y.Y.Y.U.P.L.U.P.P.Y.Y.Y.Y.Y.Y.R.W.W.|.|.|.!.|.!.!.!.|.|.|.!.!.!.!.!.W.!.!.!.!.|.|.!.!.!. X X X.X.X X X.X.X.X.XXX*X=XoX.XoXoXoXoX-X=XoXXXXXoXoXXXXXOX|.|.|. X X X X XXXXX X X XoX X X XoX X X X|.|.|.|.|.|.'.'.'.'.'.'.|.OXOX|. X X X XXXoXXXXX X.X.X.X X X X X X X X|.|. X|.!. X|.|.|. X X X X|.|. X X X X X XoXOX X X X!.!. X X X X X.XoXoX X.XoXoXoXoXoX X X X X|. X X|.|.|. X|.OX X X X|.'.|. X X X|.!.|.|.|.|.|.'.'.'.'.'.'.[.OX{.OXXXXXXX@X-X:X:X-X:X:X-X>X>X:X-X>X<X>X>X,X,X<X<X<X,X,X,X,X,X,X,X,X>X>X<X>X,X<X>X,X].V.:X,.q 1 : 9 # % % , 6 i i j X.B.B.X.X.X.i 0 i 1 < s 1 1 k E f L D E T ~ U ~ g T s.'.-XmXBXBXBXNX;XC.C.fXA.m.A.+XC.Z.X.E <.c.fXxXlXBXBXmXmX<X&XgXMXgX*.1 E #.<XfXg.1.g.g.g.g.c.C.V.V.A.V.A.].].].].{.+X+X@X:X:X+X].].].].].].].A.A.V.z.z.z.k.1.1.;.-.^ / / W W W P P P W Q / ^ ] ;.;.,.<.<.<.9.h.C.C.C.C.C.C.z.q.9.2.` / W G G G F G G G H W / ^ ` ` ` ` ^ ^ ^ ^ ^ ^ ^ #.;.;.2.<.9.g.h.z.g.g.s.k.b.n.n.A.&X&X&XH.H.H.J.F.A.A.A.m.s.s.g.g.s.j.j.m.j.m.m.m.g.m.m.g.g.g.<.,.$.$.O.O.o.O.o.K J J L L L J J L S S d p p S D T ~ ^ #.#.#.] ^ / / ^ O.;.1.z.z.z.z.c.c.V.V.G.G.C.A.F.F.F.Z.A.A.F.H.aXaXH.D.Z.j.j.8.<.%.,.,.2.] ^ ^ ( O.~ ~ ~ #.g.g.n.h.8.,.%.%.#.j.c.#.] -.( ( ^ Q / ` ;.2.s.) ) ) %.$.,.~ E E X.*.s.T f d D D J g f d f f U R ~ ~ o.~ T T W T K S w w w w w p d d d d d S J J J J S p p w p p d S D D S D F K P P F S p w ",
"R o.~ ~ ! ! W T ! R R J J f f a p p a w a a w p p a a a a d d d f f f S D D K W W T W W / W W Q / / / / / Q / / ^ ` _ ' ] [ >.>.2.>.1.1.1.5.5.k.k.d.d.d.l.l.l.k.l.l.l.d.d.d.d.L.l.I.I.I.I.d.L.I.U.L.L.L.L.L.L.I.U.Y.Y.Y.R.R.Y.Y.Y.Y.Y.Y.Y.Y.Y.Y.Y.Y.Y.Y.R.W.W.W.!.!.|. X X|.|. X X X|.|.|.|.!.!.!.!.W.W.!.!.!.!.|.|.|.!.!. X X X.X.X.X.X=XoX X XXX=X-X:XoXoXoX-X-X-X>X=X=X-X=X.XXXXXXXXXXXXXXX.XoX XXXXXXX X.X XoX X X X X X|. XW.W.W.|.|.|.|.W.'.|.|.|.|.XX XOX X X X|. XoXoX.XXXoX.X.X X X X X X X X X|. X X|.OXOX X X X X X X X X X X X X X X XOX X X X X X.X X X X X.XoX=X.XoXoXoXoXoXoXoX XXXXX X X X|.|. X X XXXXXoXXXXXOX X X X X|.!.|.|.|.|.|.|.OXXXOXOXOXOXXXXXXXXX:X:X:X-X>X:X:X:X:X:X>X:X:X>X>X>X>X>X,X,X,X,X,X,X0X0X0X0X0X0X0X0X0X0X>X,X,X,X<X+XV.1Xs.i 0 : # # % 6 6 i j j k j X.=.j i a i 3 1 t i i 2 6 i a 1 a d e ~ U D #.f J s.<.s.:XBX-XlXgXC.X.,XMXA.%.#.s.C.A.B.%.l j.].`.:XMXBXmXmXlX1XgXMXMXj.E *.g.c.h.g.1.s.g.9.g.g.c.c.V.V.V.A.].].].].+X+X+X@X:X:X+X+X].].A.A.V.V.V.C.z.z.k.k.k.9.1.,.;.^ ^ W W W W W P W W / ^ ^ ;.;.,.<.<.<.8.0.h.B.C.C.C.C.C.C.z.9.5.2.` / P K G G F G G F H W / ^ ` ` ^ ^ ^ ^ ^ ^ O.O.#.;.;.,.,.8.g.z.c.z.g.k.c.n.A.A.}.&X&XJ.;XH.;XH.H.J.A.A.n.s.s.s.j.j.j.j.j.j.m.m.m.m.m.m.m.s.g.<.,.$.O.o.o.R R L K K J J J L J J L S S p p A S F W ~ ^ #.;.( ;.;.^ ^ O.O.<.9.z.c.C.c.c.C.V.V.G.A.A.F.F.H.F.Z.Z.Z.A.J.H.H.F.Z.B.p.*.%.#.#.( ( ] ^ ^ ^ ^ ^ ~ W ( s.m.s.m.) %.$.( ( ) s.s.#.^ Q ~ O.^ ^ Q ! O.#.*.$.%.E E <.~ ~ R X.X.X.E f g f D j E g g f f f U E ~ ~ o.~ T J K K K S p w w w w p p d p p d S J J J S f p p p p A D K K J D G G G F K F G d e ",
"J ~ ~ ~ R T T T R R L J f f f f p a a a w a a a p p p a f f f f D S S D K T W W / W / ^ ^ / / ^ ^ / / ^ / / ` ` ` ] ] [ [ [ :.3.1.1.1.5.5.5.k.k.x.x.v.v.v.E.U.l.U.E.U.I.U.U.U.U.I.I.U.U.U.I.I.I.I.L.L.L.L.I.U.U.W.Y.Y.Y.Y.W.R.R.!.R.R.R.R.R.Y.Y.Y.Y.Y.R.!.!.!.|. X XXXoXXXXX X XoX X X X|.|.|.W.'.W.W.W.W.W.!.!.!.!.!. X X X X.X.X.X.X.X=X=X.X.XoX=X-X:X-X:X>X-X-X=X>X=X>X=X=XoX-X-X-X-X=XoX=X=XoXoXoXoXoXoX.X X.XoX.X X X|.|.|.!.!.!.!.|.|.|.|.'.|.OX|.|. X X XoXoXoX X X.X.X.XoXoXoXoX X X X X X X X XOX X XOXOXOX X X X X X X X X X X X X X X|. X X|. X XXX X X X X X.XoXoXoXoXoXoXoXoXoXoX XXXXXXXXX X|. XXX X XXXXXoXoXoXXXXXXXXX X X X|.|. X XOXOXXXXXXXXXXXXX-X:X:X-X-X-X-X>X-X=X<X:X=X>X>X>X:X>X>X>X,X>X,X0X0X0X0X0XkXkXwXwX0X0X0X0X0X0X0X,X,X0X,X:XV.;X}.f i 1 # % # X.=.j X.X.j a i i U a g L s j j j g 1 1 j k 3 E g U ] A T ( R d R s.g.`.}.:XfX;XC.Z.gXF.B.X.J U *.c.*.p.Z.Z.A.n.:X<XmXmXmXBXmX1XMXMXZ.L %.j.g.,.2.2.2.<.<.9.g.h.z.z.C.V.V.`.].].].].{.+X@X+X+X+X+X].].F.A.V.V.V.z.k.k.q.g.g.9.1.<.;.;.^ ^ W W W P P W Q / ^ ` ;.;.2.1.<.8.g.h.0.B.B.G.C.G.C.C.C.z.9.1.-./ P P K G F F F F H W Q / ` ^ / ^ ^ ^ ^ ^ O.^ O.( ;.,.,.1.g.h.c.c.c.V.A.}.}.}.&X;X&X&X;X;XJ.H.;XH.A.n.n.g.s.s.s.j.j.j.j.j.j.m.m.m.m.m.k.k.g.<.<.$.o.o.R K K K K K J L L L S L S f A p d A D T W ~ ( ;.,.#.2.2.,.;.#.,.8.h.h.C.V.V.V.V.V.].A.F.F.F.H.H.H.A.Z.Z.Z.Z.F.F.Z.B.j.*.%.#.#.#.( ( ] ^ / Q Q W W T U { ( U s.U #.1.] ~ ~ ) ( ~ ~ W W O.^ Q / ^ R J f L R R J f ! ! o.o.R J g f g d g g l g g f D g U E ~ ( ( ~ T D K K K D A e w w p p p e e p d A S D D S d p p d A G F T T K D S A G F F G S d d ",
"D R R R E E J J E J J j f f f d d p a a w w a p e e p a f f S J J D K W W W / / ^ ^ ^ ` ` ^ _ ` _ ` ` ` ` ` ] ;.] :.:.7.>.>.>.1.5.1.1.5.5.k.l.x.V.V.V.).).).T.T.U.T.T.T.T.T.T.U.R.R.U.U.U.U.U.U.U.U.I.I.U.U.U.U.R.Y.Y.Y.Y.W.!.W.W.W.!.W.Y.Y.R.W.W.W.W.W.|. X X XoXoXoXoXoXoXoXoX=X=XXX X X|.|.|.'.W.W.W.W.!.!.!.!.!.|. X.X X.X=X.X.X.X.XoXoXoXoXoX=X-X:X=X>X>X=X=X=X>X>X>XqX=X=X=X>X>X=X=X=X=X=X=XoXoXoXoXoX.X XoXoXoX X|.|.|.|.!.!.!.!.|.|.|.|.|.OXOX X|. X X.XoXoXoXoX.X.X.X~.oXoX.X X X X X X X X X X X X X X X X X X X X X X X X X X X X X X|. X X|.|. XXX|. X.X X X.X.X.XoXoXoXoX.XoXoX.X XXXXXXX X X X XoX X XXXXX X XoXoXoXoXoXXX X X XOXXXXX XXXXXoXoXoX-X-X>X>X>X>X>X>X=X>X=X=X>X>X=X>X8X>X>X>X<X<X0X0X0X0X0X0X0XkXkXlXkXwXkX0X0X0XkXkX,X,X,X0X,X<XA.C.`.o.a q # % & X.j m *.X.=.j j j p j j j j j E E X.6 i X.k g #.R D b.s.T d W W T f R E #.V.A.;X*.A.gXX.p.h i U X.A.j i Z.C.A.}.&X:X0XmXBXBXmX1XlXgXgX*.B.A.A.8.;.2.2.2.<.9.g.g.g.h.c.V.V.V.`.].].].+X+X+X+X].].].A.A.A.A.V.V.z.z.9.q.g.g.g.g.9.9.,.,.;.O.^ / W P H W / ^ ^ #.;.2.<.1.9.g.h.B.B.B.B.C.G.G.C.C.C.C.0.w.;.^ P P P F F F F H H P Q / / / ` ` ` ` ^ ^ O.^ O.O.#.,.,.<.9.g.z.c.A.F.+X;X;X;X;X;X&X&X;X;X;X;X;XJ.A.A.n.m.g.j.j.j.j.j.j.j.j.m.m.m.m.m.k.k.g.g.g.8.#.~ R J K K J J J J L S D D D S S d A D F T ! ~ ( ;.,.,.,.;.,.,.#.,.8.9.h.C.V.A.V.V.A.].A.+XF.H.H.H.H.F.F.A.A.Z.Z.Z.Z.j.*.%.#.#.( ( ^ ( ] ^ ^ Q W W T W W U / T ~ $.h.x.s.( ( W ! ^ ^ W ( ^ ^ W W ~ X.E 8 f L L ! p p O.K K R J g p d g g l l l g D g g D T ) ~ ~ W T D K K K D S I p e A p e e e e d d p S S S p p p S S J K T E K D S A A A A A d d d ",
"D T K E E R J J J j j j f f f d d d p e w w p p p p d f S D J K K W W W ^ ^ ^ ^ ` ` ` ] ] ] ] ` ] ] ] ] ] [ :.:.:.7.3.3.5.5.5.5.1.1.5.5.k.z.x.v.V.T.).`.[.'.'.W.T.W.W.W.W.R.R.R.R.T.R.U.U.U.R.R.R.R.U.I.I.U.U.U.Y.Y.Y.Y.R.!.!.W.R.W.!.W.W.Y.W.!.!.!.!.|. XXXXXoX=X=XoX-X>X>X=X=X=X=X-XoXoXXX X|.|.|.!.!.!.!.!.!.!.|. X XXX.X=X=X=XoXoXoXoXoXoX.XoX=X-X:X-X>X>X=X=X>X>X>X>X8X8X5X8X8XqX=X=X=X4X4X4X=X=XoXoXoX.XXXoXoX X X X|.|.|.W.W.!.!.!.'.|.|.|.OX X X X X XoXoXoXoXoXoX.X.X.XoXoX.X X X X X X X X X X X X X X X.X X X X X.X.X X X X X X X X X X X X|. X X X X X.X.X X.X.X X.XoXoXoXoXoXoX.X.XXXXX X X X XoXoX.XoX=XoXoX.XoXoXoXoXoXoXoX X X XXXoX.XoXoXoX-X=X=X>XqX8X>X>X>X>X8X8X8X>X>X>X>X>X=X=X>X<X<X<X0X0X0X0X0X0X0XkXkXkXwXkXkXkXkXkXkXkX0XkXkX0X:X+XF.B.c.g.T a : % # s m =.*.=.E a q f f j j i i i j E X.i 1 i i E ;.#.;.f.<.T U ( #.( ( o.D g.g.s.s.j.gXc.6 j.h t @.j j.@.< i @.c.c.s.:X&X1XBXAXNXlX:XgXMXF.Z.dXh.,.2.2.2.,.2.1.g.g.k.z.C.V.V.V.V.A.A.{.+X+X+X+X{.].].V.V.V.V.V.z.k.9.9.z.h.g.z.h.g.g.<.<.,.;.^ ^ W H W / ^ ` ` ;.,.2.1.9.9.h.B.B.B.B.B.B.C.C.C.C.C.C.q.9.9.-./ W P P G F K H P P Q / / ` ;.;.;.;.-.^ ^ ^ O.O.,.,.,.<.9.g.h.C.A.;X;X;X;X;X;X;X&X&XH.H.;X;XJ.J.J.A.A.c.m.m.j.j.j.j.j.j.p.j.m.m.m.k.k.k.c.g.g.g.<.o.R J J L S S D D S S D G G S S S G F F W ! ^ ( ( ;.,.,.,.,.,.,.<.9.9.h.z.C.V.V.V.A.A.F.+XH.H.;XH.H.F.F.F.Z.Z.B.B.j.j.%.#.~ ~ ~ ~ ~ ( ^ ^ ^ Q Q W W Y F F 1.8.o.0.8.O.%.<.#.o.$.<.1.O.#.( ^ ! W ! o.*.j a f I F K S L K K ~ o.J d ~ T g l E E U g g g D T T ~ ~ T T K W K K F D G A A G A p w w w e p p d d p p p d D J K K K K J S A d p p p e d d e ",
"f K J J J J j j j j j j j f f d d d d e w e e d d f f D J K T T ! ! ^ ^ ^ ] ;.;.-.;.:.] [ } :.;.[ [ :.:.:.:.7.3.7.3.5.5.5.5.5.5.1.1.5.k.k.z.x.v.`.`.`.'.[.OX[.'.|.'.W.W.'.W.W.'.W.R.T.U.U.R.R.U.E.R.U.L.L.U.U.Y.Y.Y.Y.Y.Y.R.!.!.!.!.!.!.!.!.!.|.!.|.|. XoXoXoX>X=X=X=X>X>X=X=X8X=X=X-X-XoXoX X|.|.|.|.!.!.|.!.^.|. X X X X.XoX.XoXoXoX=XoXoX=XoXoX=XoXoX-X=X>XoX=X>X8X>X=XqX8X8X8X8X5X=X=X=X4X4X4X=X=X.X.XoX=X.XoXXXOX XXXOX'.'.W.W.!.W.'.'.'.|.|.|.OX X X X.X=X=XXXXX.XoX.X.X=XoXoX.X X XoXoX.X X.XoX.X X X X X X.X X.X X X X.X X X X.X.X.X.X X X X|. X X X!.!. XoX.X X.X.X X.X.XoX=XoX.X.X.X XoX X X X.X.XoXoX.X.XoXoXoXoXoXoXoXoXoXoXoXoX.X.X X.XoX=X=XoX=X=X>XqX8X8X8X8X>X>X>X=X>X>X=X8X<X>X=X=X>X<X<X<X>X>X0X0XwXwXwXkXlXlXlXlXlXlXkXkXkXkXkXcXkX,X{.+X;XB.,.8.~ J i = $ l *.j j X.j i i j E E g s 1 1 8 6 s R a i j ( s.s.] <.~ #.{ >.~ s.Q.T.( m.g.s.m.fXgXg , A.*.h X.$.0.A.l & s ( }.{.{.&X-XMXBXBXBX1XgXMX;XF.G.h.2.2.2.,.;.,.<.g.g.z.z.C.V.V.V.].].+X+X{.+X+X+X{.].).].C.V.V.z.q.9.9.9.z.z.g.h.h.g.h.g.g.9.2.#.^ / / W ^ ` ] ;.2.1.9.9.g.g.h.c.B.B.B.B.B.B.C.C.C.C.C.C.z.9.2.` / W H F F P P H H Q / ` ` ;.;.;.;.-.-./ ! O.O.$.,.2.1.g.g.z.A.F.;X;XdX2XdX;X&X&X;XH.H.J.J.J.J.J.A.A.A.n.n.c.c.j.j.j.j.p.p.s.g.g.s.s.b.c.c.c.g.8.$.! K S J J D D S S S A A A S S L D F F W ~ ^ ( ( ;.2.,.#.,.,.,.8.9.8.g.z.z.c.C.A.A.A.F.+X;XdXdXdXH.F.F.F.Z.B.B.p.*.%.%.~ W W T T ~ #.^ ^ Q Q Y W U U A K ~ R X.$.~ p E *.$.o.8.r.C.8.( ( W T O.<.o.j j a p S I K f f K T W 0.R g ) E g E E E E D g U T T R ~ ~ W K K ! ! K L S F F F F G d w w w e p p p p p p A S J K K E E K J S d d p e e e d d d ",
"g J J J j j j f j f f f f f f f f f d p p d d f d S D K K T W W ! ^ ^ ` ] :.:.:.:.:.:.>.7.7.3.3.:.3.3.3.3.7.3.3.5.5.5.5.5.5.5.1.1.1.1.k.k.k.x.).`.].[.XXXXXXXXoXOXXX'.'.|.|.'.'.'.'.W.U.I.E.E.I.I.U.U.I.I.U.Y.P.R.R.R.W.!.!.!.W.|.!.!.!.!.!.|. X!.!.XX.X=X-X=X>X8X0X8X8X8X8X8X8X4X4XqXqX=XoX.X X X X X|. X X X X|. X X X X.XoX=XoXoX=X=X=XoX=X4X:XXX=XoX=X:XoX-X-X>X=X>X=X>X5X8X8X8X8X8X8X8X8X4XqX=X4X=X=XoX=X=X=X.X X X X X|.|.W.W.W.!.!.|.|.'.|.XX X X X XoX.X.X=X=XoX.X=X=X=X=X=X.X.X=X=X=XoX X=XoX X.X X X X.X X.XoX X X.X.X X.X.X.X.X X X X X X X X!.!..X X XoXoX X.XoX X=X.XoXoX.X.XoXoX XoX X X.X=XoXoX=XoXoX=X=X>XoXoXoX=XoXoXoXoXoXoXoX=XoXoX=X=XoX=XqX>X>XqX8X8X=X=X>X>X=X=X>X>X>X>X=X>X>X>X>X<X>XqX>X8X8X0X0XkXlXlXkXlXlXlXlXlXkX0X0XfXkX,X<X;XhXCXdX*.o.~ ( X.t < &.B.E *.*.m X.j a J #.o.<.o...k 1 8 i g j E ~ #.9.s.;.( 2.<.s.( k.n.s.^ s.k.c.A.1XC.< i &XA.h p.*.<.A.;Xl 0 %.<XwX1X-X8X8XkXBXAXxXmXxXpXS.r.8.2.2.,.2.2.2.1.9.z.C.V.V.V.A.].+X+X+X{.+X].+X{.].].V.V.V.x.z.z.z.9.9.k.g.k.x.c.g.g.z.C.c.g.<.<.2.^ W W ^ ;.;.2.9.g.9.k.k.h.c.B.C.C.C.B.B.B.S.G.G.C.C.G.C.q.9.:.-.^ Q ! P P H H P Q -.` ] ;.:.2.;.;.O.` ^ ~ O.,.,.<.9.g.g.c.A.A.;X;XdXdXdX;X;XH.A.J.J.J.J.A.J.&XA.n.A.A.n.n.c.m.Z.B.j.p.p.s.s.s.g.g.b.k.c.c.c.g.,.~ T S S S D D G A S A S S S F K K K W ! ^ O.#.#.;.2.#.#.<.g.h.8.8.0.9.g.g.z.v.V.A.A.F.F.;XdXaXdX;XF.F.Z.Z.B.j.*.$.$.~ T ! T T T ~ ~ W / / / Y Y G F A A K R J g g i b r.$.%.$.+.$.( ~ ~ d T R X.g a j L f a I I f L o.T D ~ ) ) ) g g U T U g g g D J E W W W T T E T T W F G K P K K F A w w w w e w p I I A A D J J J J J g f S d p p e e e p p g ",
"g J J J J j j J f j j f f J J f f f d d d S S S S D F T T ! W / ^ ` ;.;.:.>.>.3.3.3.7.7.3.3.7.3.5.5.5.f.5.5.5.f.5.5.5.5.5.5.5.1.2.1.1.1.q.z.V.).].[.XX@X:XXXXXoX XXXOX'.'.W.W.W.'.`.`.T.T.E.I.I.L.I.I.I.L.L.I.U.R.Y.R.W.W.!.!.W.OX!.!.!. X|. X|. XXX.XXXoX=X>X8X>X0X8X8X0XwX8X8X8X8X8XqX=X=XoXoX.X X X|. X X X X X XXX.X.X.XoXoX.XoX=X=XoXoXoX=X=XoX-XoXoXXXoX>X:X>X=X=X8X8X8X8X8X8X8X8X8X8X8X8X5X8X8X4X4X=X=X=X=XoX.X X X X|.|.!.W.W.!.!.|.|.'. X X X XoXoX=X*X.X*X*XoX=X=X=X=XoXoX.X.XoXoXoXoX.X=XoX.X.X.X.X X.X X X X XXX.X.X.X.X.X.X.X.X X.X X X X X!.!..X X.X.XoX.XoXoX.X=X=X=XoXoXoXoXoX.XoX X X.X.X.XXXoXoX=X=X=X=XoXoX=X=XoXoXoXoX=XoXoX=X=X=X=X=X=X=X>X>XqXqX=X=X=XqX>X=X=X=X>X>X>X=X=X>X>X-X:X>X<X>X=X0X0X0X0X0XkXlXlXlXlXlXlXlXkXkXkXkX0X,XfX+XdXCXgXj.o.( s.%.X.i &.F.j.F.B.B.X.@.E i j %.0.X.X.j 1 1 w ( R E ( ( R k.g.,.,.W <.>./ >.2.#.g.`.`.A.<XA.t i 1XB.m A.$.E X.j.H.@.i o.A.1X1XlX<XmXAXNXMXlXgXG.G.0.<.g.2.2.1.1.1.1.g.z.z.V.V.A.A.].].+X+X+X+X+X+X{.].].].V.V.z.k.k.k.g.9.9.k.c.c.g.c.c.c.C.c.g.8.<.,.^ W ^ ;.2.2.2.9.g.g.k.z.c.C.B.B.B.C.S.S.B.S.S.G.C.C.G.C.z.k.q.1.;.` Q ! P P H P Q / ` ;.2.1.2.;.;.-.;.O.O.O.,.2.<.g.c.c.A.A.+X;XdXdX2X2X;X;XH.J.J.J.J.A.A.J.J.J.A.A.A.A.A.A.C.Z.c.j.j.p.p.s.p.g.j.k.c.n.n.c.g.<.#.W F D S S G G G A G D F F F K K ! ! ^ O.;.;.#.#.#.,.,.8.g.h.h.h.g.8.9.g.k.z.x.C.A.F.F.;XdXdX;XF.A.Z.Z.B.B.j.*.$.O.W K T T T T ! ! ~ ~ W / Y Y G G Z d D R R ~ ~ R L b ..$.%.+.+.( ~ ~ U E ~ g i a a g a i p S f f f f R E J o.) z g z U U g d d d J T W W W W T E T T T F G F W W T F A w w q w w p p p A A D D D J J f j f g d d e e e e e e g g ",
"g J J J J j J J j J J D J K J D D f S S D J D D K T T W ! ~ ^ ^ ] ] :.2.>.5.3.3.3.3.3.3.3.f.3.f.f.f.f.f.f.f.d.d.d.d.d.5.5.5.1.2.2.1.1.1.q.x.V.`.[.{.@X:X>X:X-X-XXXXXXX|.'.W.W.W.'.`.W.`.T.E.E.E.d.l.l.l.d.L.U.R.R.R.Y.W.W.!.|.|. X|.!.!. X|. X|. X.XoX=X=X-X>X>X8X8X8X0XwXwX8X8X8X8X8XqX=X=X=X=XoX X X X X X X X X X.X.X=X=XoX.XoXoX=X=X=XoXoX=XXXXX-XoXoXXXoX>X-X=X=X=X8X8X8X8X8X8X8X8X8X8X8X8X8X8X8X4X4X4X=X=X=XoX.X X X X X|.|.!.!.!.!.|.!.|. X XXX XoXoX.X.X=X=X=X*X=X4X=X=XoX.X=X=X=XoXoX=X=XoX=XoX.X.X.X.X X X X.XXX.XoX.XoX.X.X.X.X.X.X.X X X X.X.X~..X.X.X.XoXoX.X=X=X=X=X=X=XoXoX.X.XoX.X.X.X.X.X.XoXoXoXoXoXoX=X=X=X4XoXoXoXoXoX=X=X=X=X4X4X4X=XqXqX>X=X>XqX>X=X8XqX=X=X=X8X>XqX>X=X=X>X>XoX>X:X<X:X>X0X0X0X8X0XkXlXlXlXlXlXlXlXlXlXkXkX0X0X<XG.F.hXgXZ.@.J ~ o.%.j m %.;X+XA.A.%.R a 1 j R j i i 3 i f U s.#.J ( ( ! #.g.s.o.~ ( <.;.] ( <.m.k.T.&X1X;X0 h 2XA.A.&Xo.E j j A.gX*.j %.<.A.1XlXmXMXMXNXgXdXF.F.h.1.1.1.1.1.9.g.k.k.k.x.V.V.].+X+X].+X].{.+X+X+X+X].].].V.v.k.k.k.k.g.9.g.x.x.c.c.c.C.C.C.C.c.h.h.9.,.^ O.;.,.,.<.9.h.h.z.c.c.C.C.Z.C.C.D.D.Z.Z.Z.Z.A.A.V.V.z.x.x.q.:.:.^ / ! P P W Q / ` ;.2.1.1.;.;.-.-.O.O.#.#.,.9.h.c.c.A.A.;X;XdXdX2X;X;XH.J.Z.A.A.A.A.A.J.J.J.&X;XF.+X;XF.A.C.Z.c.B.j.p.p.p.j.g.c.m.c.c.c.h.9.;.^ T F G A A D F F F F K K K K W ! O.O.O.O.#.#.,.2.,.<.g.h.h.j.h.h.0.8.g.g.g.g.C.V.F.F.F.F.F.F.A.Z.B.B.j.j.*.$.O.! W K K K K K ! W ! ~ W W W F A A e d S R o.#.<.<.( L j o.#.+.X.$.2.~ T J E g a w w q a i a f w p a a J $.E g ) E j E E U d d d d D T T W W W T K T T K F G F W ! W K A e w w w p A I I A D D S f D S g g d p d e w w w w e d g g ",
"f J K J J j J J T J J K E E K F J J J J J J J K T W W W ! ^ ` ] [ :.5.5.5.5.f.f.6.f.f.f.f.d.d.d.d.d.d.l.l.d.d.k.l.l.k.d.k.5.>.2.1.2.1.9.z.z.V.].[.{.@X<X>X=X=X>XXXXXXX|.'.W.'.'.`.'.`.T.E.v.v.l.l.k.d.d.d.l.U.Y.R.R.R.W.W.|.|.|.|.|. X X X|. X X XoX=X=X=X>X=X=X8X0X0X0XwX0X8X8X8X4X8X8XqX4X4X=XoX.X X X X X X X X X.X.X.X.X.X.X=X=X=X=X=X.X.X=X.X XoXoXoX=XoX=X-X=X=X4X8X8X8X8X8X8X8X8X9X9X8X8X5X8X5X4X4X4X4X=XoXoX X X X X X!.|.|.!.!.!.!.!.!. X X.X.X.XoX.X*X3X4X3X=X=X=X=XoX=X=X=X4X=XoXoX=X=XoX=XoXXX*X.X X.X X.X.X.X.X=XoXoX=X=X=X=X*X.X.X.X.X.X.X.X.X.X.X.X X.X.X.XoX=X=X=X*X*XoXoX.X.XXX.X X X.XoXoXoXoXoXXX X.X=X=X=X=XoXoXoXoXoXoX=X=X=X4X4X4X4X4XqX4X=X>X>X8X8X5X=X=X=X=X8X=XqXqX>X=XoX-X-X>X:X:X:X>X>X8X8X8XwXkXlXlXlXkXlXlXlXlXlXkX0X0XkX+XG.+XhXgXZ.*.j f o.@.E i E s.}.&X+XA.<.g i j j j g g o.s.s.D T #.#.%.#.,.s.s.c.$.~ U ~ <.<.( ;.g.( Q.:X}.&X@.< g.-X,XwX*.X.) k X.&X+Xr.B.%.~ &XBXwX0XlXMXBXgXhXjXB.k.1.5.1.1.5.k.z.k.z.V.V.V.].+X+X+X+X+X+X:X+X+X+X].].].V.v.z.k.k.k.k.k.k.x.c.c.A.A.A.C.C.C.C.c.h.g.,.#.#.,.2.<.8.9.g.h.c.h.h.C.C.Z.C.Z.Z.Z.Z.Z.B.B.C.G.V.V.V.V.x.q.5.:.2.^ ! ! ! W W ^ ` ;.2.1.2.;.;.-.` O.O.#.#.,.s.h.c.c.A.A.;X;X;XdX;X;XH.J.J.Z.Z.Z.Z.Z.A.A.A.H.;X;X;X;X;XF.A.A.A.Z.B.j.p.p.j.*.j.g.m.c.c.c.z.g.2.^ W T K G G F F F F U T W T T ! ! O.O.O.,.,.,.2.2.<.g.h.c.j.h.h.j.g.g.h.g.g.h.c.c.A.F.A.A.F.A.Z.B.j.j.8.$.$.#.~ W P K K K F K T T W W W T U G A d d d S R O.$.<.1.>.2.R J X.X.L X.( T D J a g D d e q a 3 8 a a K D a U s.s.) U E l E T D d e e d S K T W ~ W T T K K F D A D W ~ W K G e w w p A A A A A D D A d S d p p p e e w w w w w p d g g ",
"f K K K K J J K R E K T R T W W T T E K K K T T W W ^ ^ ^ ;.;.:.3.5.5.q.k.k.k.d.d.d.d.d.l.l.l.l.l.l.l.l.l.l.l.l.l.l.l.l.k.5.1.>.1.2.1.9.k.z.V.V.[.{.@X:X>X>X>X>XXXXXOX|.'.'.|.'.R.`.R.E.E.v.l.l.l.d.f.d.d.l.U.T.T.U.U.R.W.|.|.|.|.|. XOX X!. X XoXoX=X>X>X8X8X>X8X0X0X8X0X0X8X0X8X8X9X9X8X4X4X=XoXoX.X.X.X X XOX X X.X.X.X.X.X.X=X.X.X.X.X.X.X.X.X XoXoX=X=XoX=X=X4X4XqX8X>X8X8X9X8X8X9X9X9X8X8X8X9X8X4X4X4X4X4X=XoX.X X X X X!.|.|.!.!.!.!.!.!. X X.X.X.X=X*X4X4X4X4X4X3X4X4X=X4X=X=X=X=X=XoXoX=XXXoX.X X.X X X X.X.X.X.X.X.XoXoX=X=X=X=X*X.X.XoX.X.X.X.X X X.X.X X.X.X.X.X=X.XoX.X.XoXXX.X.XoX X X X X.X.XoXoXoXoX X.XoXoXoX.XoX=X=X=XoX=X4X4X=X=X4X8X4X4X4X4X8XqX>XqXqX4X4X4X>X>X=X=X>XqX>X-XoXoX>X>X>XXX:X>X>X<X>X8X8X0XcXlXkXkXlXlXlXlXlXkX0X0X,X].;XhXMXgXB.p.X.g ( s.) E J W }.kX<Xs.( T U T o.%.~ J 8.k.i.T D #.g.g.<.$.g.c.C.A.h.$.~ ( ;.T ~ 2.( Q.`.&XfXl , $.-XlX1X@.%.m.j k l %.c.F.A.~ &XBXmXlX<XlXMXxXDXvXr.q.k.5.k.k.k.k.z.z.z.V.V.A.+X+X+X+X+X+X;X;X;X:X+X+X].].V.V.V.x.z.z.z.k.k.c.c.A.A.F.F.A.A.A.A.C.C.h.0.,.,.<.<.8.8.g.g.h.c.B.C.C.B.B.Z.A.B.Z.B.B.B.B.B.B.C.V.V.V.V.x.q.3.1.-.^ / / ! W ^ -.;.2.1.1.2.2.;.;.;.;.;.,.,.g.h.c.C.A.A.F.;X;X;XH.H.J.Z.Z.Z.Z.Z.Z.m.n.A.F.H.dXdX;X;XH.F.F.F.F.Z.B.j.p.j.j.p.*.p.g.c.c.c.c.g.1.] / ! K F F T W W W W / ~ ~ ! ~ ! ^ O.#.;.,.2.2.<.g.h.c.c.B.B.B.B.h.g.h.h.g.g.c.c.C.A.A.A.C.B.h.h.8.*.%.$.O.~ ! P P P P K F K T T W W K F D A d d S S D R O.#.,.,.,.<.$.R L j J T D T f j a f f d p w w w q q p K T f e U E %.E g E E T S d e e e S D T ~ ~ W T U K D D G A G K / ! W F e w w p A A I I A A A d d d e w w w w w w w w w w e g g g ",
"S T T T T E R R ! ! ! R T W W W T T T T T T W / / ^ ` ] ;.2.1.3.5.k.k.k.k.l.l.l.l.l.x.l.U.v.E.E.x.x.v.v.v.v.v.v.E.v.x.l.k.k.5.1.2.2.1.1.g.z.V.V.[.{.@X:X-X>X>X-XXXOXOX|.'.W.'.`.W.T.R.R.T.l.l.l.l.k.k.d.d.d.l.E.R.R.U.R.W.!.!.|.|.|.OX|. X|. X XXXoX-X-X>X8X8X8X8XwX0X8X0X0XwXwX8X8X8X8X8XqX4X=X=XoX.X.X.XXX X XXXoXoXoX.X.X.X=X=XoX X.X.XoXoXoX.X XoXoXoX=X=X4X=X4X4X4XqX=X5X8X8X8X9X9X9X9X9X9X8X9X9X8X8X5X5X4X4X=X=X.X.X X X|.|.!.!.!.!.!.|.!. X X*X.X.XoX3X4X4X5X5X4X4X4X4X4X4X4X=X=X=X=XoXoX=XoXoX.X X.X X X X.X.X.X.X.X.X.XoXoXoX.X.X*XoX.XoX.X.X.X.X.X X.X.X.X X.X.X.X=X.X.X.X.X X.X.X.X.X.X X X X.XoXoX XXX X.XoXoXoXoX=XoX=X=X=XoXoX=X4X4X4X4X4X4X=X=X=X4X4XqX=X=X4X=X=X>X=X=X=X=X>X=XoX>X-X:XXX:XoX:X-X:X<X>X>X8X8X0XkXwXkXkXlXkXkXlXkX0XkX,X].fXCXMX<XB.F.*.E ( <.o.%.~ k.}.gX<Xs.( ~ 1.c.c.#.~ 2.s.s.;.<.~ +.8.g.c.h.#.8.$.h.j.<.<.,.2.~ T <.g.b.`.;X%.q j g.n.,XlXj.g.$.E j s m.&X:X;XZ.;XlXBXmXlXMXAXDXVXpXz.k.x.q.l.l.k.z.x.z.V.V.A.].].+X+X+X;X;X;X;X;X;X;X;X+X+X].].V.V.V.v.z.z.k.c.c.A.A.F.F.;X+X+XF.A.C.C.h.g.<.<.8.9.g.g.h.h.h.B.B.B.Z.Z.Z.Z.B.B.B.j.j.B.B.B.c.C.v.V.x.x.k.5.1.2.:.^ / ^ ~ ^ -.2.2.1.1.2.2.2.;.;.;.,.2.<.g.h.c.C.A.A.A.&XJ.;XJ.A.Z.Z.Z.Z.Z.Z.Z.Z.n.A.F.F.aXdXaXH.;XH.F.F.F.F.Z.j.j.j.j.p.j.j.j.j.C.c.c.g.1.2.` ^ W K F T W W ( / ~ ^ ^ ^ ^ ! O.O.#.,.,.<.g.g.h.c.C.C.c.c.c.Z.Z.c.c.h.g.g.z.c.c.C.C.B.j.j.*.*.$.o.o.o.o.! K P F F P P F K K K W W K D D A d d A D D T o.#.#.,.2.O.2.~ J j L ~ R D p g g j f p a p w w q 3 a S F o.g i j b g f T T T D d e e e A D T W ~ W T U K D D A d S T ! ! W F d w w p A p p A S A d e e e w q q w w w w w q w w e d g g ",
"J ! W ! ~ ~ ~ ~ ~ ^ o.! ! ~ W W W W W W / ^ / ^ ` ] [ :.1.1.5.5.k.l.l.l.l.x.v.v.E.E.T.T.T.).T.T.T.v.v.v.v.v.v.T.T.v.v.x.k.k.5.1.2.2.1.1.1.z.v.V.[.{.@XXX:X-X=XXXXX|.|.'.Q.W.W.R.).T.R.R.T.U.l.l.l.k.q.k.d.f.l.l.E.U.T.R.W.W.!.!. X|.OX|. X|. X XXXoX=X-X=X>X8X8X8X0X0X0X0X0X0X0X8X5X8X8X4X8XqX4X=X=X.X X.X.X X XoXoXoXoXoX.XoX.XoX.X.X.X.X.XoXoX.X.XoXoXoXoXoX4X=X=X4X4X5X=X5X8X8X8X9X9X9X8X9X9X9X9X9X9X9X8X8X4X4X=X=XoX.X X X X|.|.!.!.!.!.|. X|..X.X*X.X.X3X3X4X4X5X4X4X5X4X4X4X4X=X=X=X=X=X=XoXoXoX.X.X.X XoX.X.X X XoXoX.X.X.X.X.X.X.X=X=XoXoX.X.X.X X.X X.X.X.X.X.X.X.XoXoX.X.X.X.X.X.X X X.X.X.X.X.XoX X X X X.XoXoXoXoX=XoXoX=XoX.XoX=X=X=X4X=X=X=X=X=X=X*X=X=X=X=X=X=XoXoX=X=X=X=XoXoXoX>X:XoXXXoXoX:X-XXX:X<X>X>X8X8X,X0X0X0X0XkXkXkXkX0XkX>X].fXMXgX+Xr.A.B.%.<.~ <.$.~ g.&X:XfX1XA.;.f.n.`.C.c.}.A.8.B.c.<.c.h.*.j.@.$.$.$.h.<.~ <.~ s.%.%.g.s.g.A.j.R Z.Z.8.n.0X&Xm.+Xo.#.%.j }.yX0X+X;XgXMXMXMXNXMXCXJXDXhXV.q.q.z.l.l.l.x.v.V.V.A.].+X+X+X+X;X;X;X;X;X;X;X;X<X;X;X;X+X+X].].].V.C.x.c.V.A.A.F.;X;X+X;XF.A.A.C.C.h.g.g.g.g.g.g.h.j.j.j.B.B.Z.C.Z.j.B.B.j.j.j.h.h.h.C.c.z.x.x.k.k.5.5.7.:.` ^ -.O.O.-.2.2.:.1.2.2.2.2.2.;.;.2.<.s.g.c.m.A.A.A.A.A.A.A.A.Z.Z.m.Z.Z.Z.Z.Z.A.A.F.pXaXjXdXdXdXH.F.F.F.F.Z.j.j.j.j.j.p.p.*.j.j.c.c.g.1.2.] ^ / W W W W / ^ ( ( ( #.#.^ ^ O.$.8.9.9.9.g.g.C.C.C.c.c.c.j.c.Z.A.C.c.c.g.g.c.C.C.C.h.*.*.%.o.R R K J K K F F G F F K G K W W W W K D S d d d d D U U ~ O.#.;.^ / ^ Q W K L ..R J S g a j j f f p w q 3 3 p L J f L j b b i f T T U D d e e e d D T T W R T U D D S S d D T W ! K F p w e d A A A S S d e w w w q q q w w w w w w w w w p f f ",
"T ~ ^ ^ O.O.~ O.O.^ O.O.O.^ ^ ^ ^ ^ ^ ^ ^ ^ ] _ >.>.>.3.k.k.k.k.x.v.x.U.U.T.T.T.`.`.).).).`.`.T.`.).T.T.v.T.T.`.).).V.x.x.z.k.5.1.1.1.1.k.k.x.).`.{.@XXXXXXXXX|.XX|.'.W.U.Q.W.`.).T.R.R.R.R.U.d.k.k.5.6.q.q.l.I.l.I.U.R.Q.W.!.!. X|.XXOX X!. XXXXXoX=X=X=X>X>X>X8X8X0X8X0X0X8X8X8X8X8X8X4X8X4X=X=X=X.X XoX.X.X.XoXoXoXoXoXoXoXoX X X.X.X.X X.XoX.X XoXoXoXoX.X.X=X=X=X4X8X8X8X8X8X8X8X9X9X9X9X8X9X9X9X9X8X8XqX4X=X=X=XoX.X X X X|.!.!.!.!.|. X X|..X.X*X3X=X4X4X4X4X4X4X4X4X4X=XoX=X=X=XoXoX=X=XoX>XoXoX*X X.XoXoXoX X|..X.X.X*X X.X.X.X*X=XoX.XoX.X.X.X.XoX.X.X.X=X.X X.X XoX=X.XoXoX.X.XoXoX!..X.X X X X X X XoX X X.XoXoX X X.XoXoXoX.XoX=X=X=X=X=XoX=X=X=XoX4X=XoXoXoX.XoXoXXXoX=X4X=XoXoX=XXX:XoXoXOXoX@XXXXX:X:X:X>X>X8X8X>X8X0X0XkXkX0XkX,X0X<X+X;XhXgX;XB.A.F.g.<.T T ~ ~ n.}.+X;XfX`.k.Q.V.A.A.<.$.8.g.$.0.g.m.*.B.F.s.j.c.$.g.<.o.T R ( ( g.%.E g.j.%.A.hX;X<.2XwXx.A.A.%.( o.o.g.fXmXMXgXgX;XV.NXBXMXSXJXJXDXG.x.v.l.x.v.v.v.v.V.V.V.F.+X+X;X;X;X;X;X;X;X;X;X1XfXfXfX<X<X<X:X:X+X].A.V.V.A.A.F.F.;X;X;X;X;XF.F.F.A.c.C.c.c.h.h.j.j.B.j.Z.B.B.B.B.B.j.B.B.j.j.j.j.j.j.z.C.z.x.x.q.q.5.q.5.:.` ` ^ -.-.] :.2.1.1.1.:.2.1.2.,.;.;.<.s.g.j.j.C.m.n.m.n.A.n.Z.B.Z.j.Z.B.Z.Z.Z.A.A.H.pXaXjXjXjXaXH.H.H.F.F.Z.B.c.j.j.j.p.p.*.p.j.j.c.h.9.2.] ` / / W W / ( ( ( ( #.,.,.;.;.<.8.0.0.0.g.g.h.C.C.c.c.c.c.Z.Z.Z.A.A.C.c.g.g.g.g.h.h.g.%.%.X.j J J J f f S D G A A G F G K W W W K F D S d d d d U U U ~ O.^ ^ o.^ W W Q Y o...J K f a a j f j f p a p q q f J S ~ %.j j a q g E D D S d e e e d A K T T T U U D S S S d D T W T K A p w e p A G A S A p w q w q q q w w w w w w w w w w w a f ",
"T #.,.,.,.,.,.;.,.,.,.;.;.;.;.-.;.;.;.^ -.2.2.:.>.1.1.k.k.x.x.x.v.v.).).).`.`.`.'.'.[.[.'.`.`.).[.).T.T.T.T.`.`.).).).V.V.V.z.9.1.1.1.9.z.z.v.).`.{.{.{.XXXXOX'.|.|.!.W.R.T.T.T.T.T.E.E.T.v.l.I.q.q.5.5.5.5.6.k.l.x.E.T.T.R.W.'.!.|.|.'.|.|.|. XXX X.X=X-X>X8X=XqX8X8X8X8X8X8X8X8X8X4X5X8X5X=X*X=X=X.X.XoX=X=X=X=X.XoX.XoX.X.X X.XXX XXX.XoXoXoX.X.X=XoX.X.X.X.X.X=X=X=X4X4X4X5X5X5X5X9X9X9X9X9X9X6X6X6X4X5X5X4X4X=X=X=X=X X|.|. X X|.|.|.|. X.X.X.X.X3X4X4X3X3X4X5X5X4X4X4X4X=X=X=X=X=X=X=X=XoXXXXXoXoX X.X X X.X X X X.X.X.X*X.X.X.X.X.X.X.X.X.XoXoX.XoXoX.X X.X.X.X X.X.X.X X.X.X.XoXoX.XoXoX.X X X.X.X.X X X.X XXXXXXX X XoX XoXoX.X.XoX=X=X>X=X=X=X=X=X=X>X=X=X=XoX XoXoXoX.X.XoXoXoXoXoXoXXXXXXXoXoXXXXXXXXXXXXX:X:X>X<X<X<X<X>X0X0X0X0XkXkX,X,XG.r.F.2X].C.dXfXn.( E R %.$.;XdX+X;X;X+X+Xs.k.2.$.8.E ~ C.h.<.A.F.j.h.A.j.C.c.$.g.8.#.~ R ( #.g.~ E j.%.%.;XMX1X+XxXlX<X`.( *.j.( ( g.k.0XmXMXmXC...gXMXZXSXJXSXVXbXV.l.b.E.v.v.).).V.V.].].].+XF.H.H.;X;XdX;X;XdXgXhXgXgXgXgXfX<X<X:X+X+X].A.C.A.F.F.;X;X;X;X;X;X;X;XF.A.A.A.Z.B.c.B.B.B.B.Z.B.j.B.B.j.c.j.j.j.j.j.j.g.g.h.z.z.z.q.q.q.q.5.1.:.2.;.-.` ;.2.;.2.1.1.2.2.>.2.2.#.#.2.<.s.s.j.s.j.m.m.m.m.m.Z.c.j.j.j.B.B.B.Z.Z.A.A.H.dXjXaXjXjXdXaXH.H.F.F.Z.B.Z.Z.j.j.j.j.j.p.p.p.j.h.s.2.,.] ` _ ^ ^ ^ ( ( ( ] ;.2.<.<.<.9.9.g.g.h.c.c.c.Z.Z.c.c.c.Z.A.A.F.A.A.A.Z.j.$.<.s.s.<.<.,.~ J f a a f a p p I I S S D D K W / / W W P K S d d A d T T U W / W / ^ / / W W ~ ~ T j f j a j j f f d p w p w q f F K J E B.g a d g U D U e e p q d d S K E T T T U F D D S D J K R K F A e w w I A A A d d e w w w q 4 4 q w w w w w w e w w w p p ",
"o.8.9.9.8.8.1.1.<.1.1.1.1.1.1.2.2.2.2.;.2.>.2.>.1.5.5.k.k.x.x.V.v.v.v.).).].[.[.{.[.{.{.{.'.[.`.].).`.T.`.`.`.`.`.`.).x.x.x.z.k.1.1.1.9.z.z.v.).).'.{.OXOXOX|.OXW.W.W.W.R.T.T.T.T.T.E.E.v.x.l.d.k.k.5.5.3.5.k.d.d.l.l.U.T.T.R.'.|.|.|.|.|.|.|. X X XoX-X=X=X8X8X8X8X8X8X8X8X8X4X=X4X5X4X4X3X3X=X=X=X=X=X=X=X4X=X=X.XoX.XoX.XoX.XoX.X XXX.X.XoXoX.XoX.X X X.XoX.XoX=X=X.X=X=X3X4X5X5X5X9X8X5X5X5X5X5X5X5X5X4X4X4X3X=X=X=X=X X X X!. X X X X X X!..X.X*X=X3X4X3X3X4X4X4X4X4X3X=X*XoXoXoXoXoX*X.XoXXXoXoX X X.X.X.X.X.X.X.X.X X.X.X.X.X.X.X.X X X.X.XoX.X.X.X.X.X.XoX.X.X X X.X.X X.X.X X X X X X X.X.X X.X X X.X X X X X X X X XoXXXoXoX.X.X.X.X.X=X=XoXoX=X=X=X=X=X=XoXoXoXoXoXoX.X.X.X=XoXoXoXoXoXoXoXoXoXoXXXXXXXXXXX:X:X>X>X:X:X<X<X<X>X0X0X,X:X:X@XG.S.jXgXV.j.+X;Xc.#.E E E h.8.A.dXgXfXA.9.s.%.#.~ R o.8.Z.A.+Xj.8.C.j.*.B.g.A.C.c.<.s.s.o.s.s.#.o.$.*.j.Z.;X;X;XgXMXMXlX&Xn.h.B.#.s.c.1.&XwXMXBX;XX.gXdXF.CXJXSXHXvXV.).v.v.x.v.).).V.V.].].].+XF.H.H.;X;X;X;XdXdXgXhXhXxXgXgXgXgXgXfX;X;X;X].A.A.F.F.;X;X;X;X;X;X;X;XF.F.A.A.A.C.C.c.c.B.j.B.B.B.B.B.j.j.j.j.j.j.h.j.h.h.9.9.9.5.5.5.5.5.q.5.1.1.2.;.;.-.:.;.;.2.1.1.1.>.2.;.#.( #.%.<.$.*.%.p.j.g.j.j.j.j.j.j.j.j.j.j.Z.B.Z.A.A.H.aXjXjXjXjXdXaXpXF.F.F.Z.B.Z.A.c.c.B.j.B.j.p.*.0.g.g.1.2.;.] ` ] ] ] <.>.s.s.s.s.g.g.g.g.g.h.h.c.c.C.c.B.Z.Z.C.C.C.Z.Z.F.F.A.Z.B.*.*.<.$.<.<.2.#.~ J f q q q a a p p p A I S A K W / ` ^ W P F S d d A d U U U T W W / / W W W W / ~ ~ E j j k j j j J f d w p a q f D $.J g E i g a g f U d d e e d e d S J T T T T U F F D S D J K K K F d w w w A A A A e e w w w w q q 4 q w w w w w w w w q q w e ",
"$.0.h.9.g.g.s.1.9.9.k.k.5.5.5.1.5.>.1.>.5.5.3.5.5.k.k.z.x.x.V.).T.T.).).].[.+X+X{.{.+X+X+X{.'.[.].`.`.`.).).`.`.].).V.V.V.V.z.k.k.k.k.k.z.x.v.).).'.{.OXOX[.'.OXW.Q.Q.Q.T.R.U.U.T.U.U.E.x.l.l.d.k.k.6.5.3.7.3.3.d.d.d.l.l.E.T.R.W.'.'.|.|.|.|.|. XOXXX-X=X=X=XqX8XqX>X>X=XqX4X4X=X4X8X4X=X=X3X=X=X=X4X4X5X5X4X4X3X*X*X.X=X.X=XoXoX.X.X.X.X.XoXoX.X.X.X.X X.XoX.XoX3X3X=X=X=X3X4X4X4X5X8X5X5X5X4X4X4X4X4X5X5X4X4X4X4X=X=X.X.X.X X!. X X.X X.X.X!..X.X*X*X*X3X4X4X4X3X3X3X*X=X.XoX.X.XoXoX.X.X.XoX X X X X X.X.XoX.X.XoXoX.X.X X.X X X X.X.X X!..X X.X.X.X.X.X.X.X.X.X X X X.X.X XoX.X X X X X X X X X X X X X X X|. X X!.!. X X X X X X X.X.XoXoX=X=X=X=XoX.XoX=XoXoXoX XoXoX.X XoXoXoX=X=X=XoXoXoX=X=XoXXXoXXXOXXXXXXX:XXX:X:X@XXX:X:X:X>X,X,X<X0X>X<XdXS.dX;XC.F.].V.s.( U g ) 8.g.F.;XA.C.g.,.o.%.X.X.@.*.j.B.A.h.*.j.C.+XA.C.c.A.+XA.c.%.R %.g.g.~ %.*.j.A.B.p.*.h.-XlXMXxX&X}.c.g.~ g.:X&X`.}.kXBXMX0.gXdXm jXJXJXKXCXC.z.).T.T.).`.`.].].].].].+XF.F.F.H.H.;X;XdXdXgXhXhXxXhXhXhXxXcXgXfXfX<X;X+XF.F.F.;X;X;X;X;X;X;X;X;X;XF.F.F.A.C.c.c.c.B.B.B.B.B.j.j.j.j.j.j.j.h.g.g.g.g.1.1.1.5.5.f.5.q.q.5.q.5.5.:.:.2.2.;.;.2.1.1.>.2.;.( ( ( #.#.#.%.%.%.s.s.g.j.j.j.j.j.j.j.j.j.Z.Z.Z.A.A.H.aXjXjXjXjXjXaXaXF.F.F.Z.Z.Z.A.Z.Z.A.c.B.B.j.*.*.8.<.<.2.2.;.] ] ] 2.1.s.g.k.g.c.c.C.c.c.c.c.c.c.C.C.c.j.c.Z.C.A.Z.Z.F.F.F.F.Z.B.p.%.#.~ #.2.;.^ W D d a q 3 3 a a a p I I S S F / ^ ` ^ ^ W F A d d d d D U U U W / / / W W W W T W ~ W J L k a j L j d p w p a a S F O.T g q i j g d g D f d e w d e f f D J T T T D U D D S S J J J D S e w w e p I A e w w w w w w q q 4 q w w w w w w e w q q w w ",
",.z.C.z.z.z.k.k.k.z.z.z.k.k.k.k.k.5.5.5.5.q.5.k.k.k.x.x.v.v.V.).`.`.`.`.].[.{.+X{.@X@X+X+X+X[.'.].).)._.).).`.`.].V.V.V.V.V.z.k.z.z.k.z.b.x.v.).[.[.{.{.OX[.'.`.`.W.Q.Q.T.R.U.U.E.U.U.E.l.l.l.d.5.5.6.5.3.7.7.3.5.5.d.k.l.l.U.E.T.W.W.!.|.|.|.|.|.|.XXoXoX=XoX>X>X>X-X=X=X=X=X=X=X4X4X3X=X4X4X=X4X=X4X4X5X4X=X=X4X=X=X.X=X.X=XoXoXoX.X.X.X.X.XoX.X X.X=X=X.X.X=XoX4X4X3X3X3X=X3X4X3X4X4X4X4X5X5X4X5X4X4X5X5X4X5X5X4X4X=X.X.X.X.X.X.X X X X X.X.X.X.X.X*X=X3X4X4X4X3X3X3X*X*X.XoX.X.XoX.X.X.X.XoX X X X X.X.X.X.X X X.X.X.X X.X.X X X.X.X X X X X X X.X.X.X.X.X.X X X X X.X.X.X X X X X X X X X X!. X X X X X X X|. X!.!.!.|.|.|.OXOX X X.X.X*X=X*X=X=XoXoX.X.X.XoXoX X X X.X.X.X=XoXoXoX=X=X=X=XoXoXoXoXXXXXXXOXXXOXXXXXXXXXXXXXXXXXXXXX:X:X:X<X0X@XfXD.&.F.dXC.;X+XA.s.( U g ) g.A.;X;X;XA.c.h.%.@.X.*.*.@.p.B.F.F.c.C.F.Z.A.A.F.A.Z.%.h.h.R %.c.g.%.@.R j.Z.X.t i j.1XlXNXMX$.n.`.b.2.R A.1XA.K c.AXBXc.gXgXD.hXSXJXPXvXG.).).T.).[.`.].].].V.].}.F.F.A.F.H.H.;X;X;XdXgXhXhXhXxXxXxXxXxXxXgXgXgXfX;X;X;XH.;X;X;X;X;X;X;X;X;X;X;XF.F.A.Z.c.C.Z.B.B.B.j.j.j.j.B.c.j.j.j.h.h.h.g.g.1.1.1.5.5.5.6.q.q.q.q.k.k.5.3.>.1.>.2.2.2.>.>.2.] ] ] ;.;.#.#.o.) ) #.%.s.j.j.j.j.j.j.j.j.j.B.Z.Z.Z.A.H.aXjXjXjXjXaXaXaXpXF.F.Z.Z.Z.C.C.A.A.A.Z.Z.B.j.*.$.<.,.2.2.;.;.;.2.1.s.c.c.c.c.c.A.A.C.A.A.A.C.C.C.C.c.j.c.C.C.Z.Z.F.F.H.F.F.Z.B.p.%.o.E ~ #.] ^ W F S p q 3 4 3 3 a a I I A A F Q / ^ ` ` Q F A d d d d d D D U W / / / W / W W T W W W T K f a j j j S A w p p a S F F T T 1 i j f d D f J f d S d S f f J J T T T D D D D d S D D S p p w w w p e w p e w w w w w w q q q q q w w w w e A p w q w w ",
"8.C.V.C.C.c.C.v.z.c.v.z.x.x.x.x.l.k.k.k.k.k.k.k.l.x.v.x.V.v.V.V.V.).].].[.{.{.{.:X@X@X@X+X+X[.].`.).).).).).).V.].V.V.V.V.V.V.v.V.V.z.x.v.V.).].[.{.{.{.{.OX`.W.`.T.T.T.T.T.R.U.v.l.U.U.l.l.l.d.k.6.5.5.5.3.3.3.3.5.5.d.d.k.l.l.T.R.W.W.!.!.|.|. X|. X.XoXoX.X.XoXoXoX.X.XoXoXoX.X.X.X=X=X=X=X=X4X4X4X4X4X4X3X*X3X=X=X.X*X.X.X.XoXoX.X.XXXXX.X.XoX X X.X.X X.X4X.X=X=X=X3X=X=X3X5X4X4X4X4X4X4X4X4X4X3X3X4X5X4X5X5X5X4X=X.X.X.XoX.X.X.X.X.X.X.X.X.X.X.X3X3X3X4X4X3X=X*X*X*X.X.XoX.X X X X.X.X X XoX.X.X.X.X.X.X.X.X.X.X.X X X X.X X X.X X.X!.!. X|. X X.X.X.X.X.X!. X.X X X X X X.X.X|. X X|.|.!.!.!.!. X X XOXOX|. X X!.!.|.|.'. X X X.X.X.X.X.X*X=X=XoX.X.X.X.XoXoX X X X X.X.X.X.X.X.X.XoX=X=XoXoXoXoX X XOXOXXXXXXXXXOX{.{.{.XXOXXXXXXXXX@X:X-X@XC.e.iXhXgXF.].A.A.c.s.( T %.A.2X;X;XF.F.+X;X;XA.A.F.F.*.j.C.Z.B.G.F.;XF.A.A.Z.B.*.$.B.dXB.h.c.8.%.*.%.j.c.o.< q A.lX1X&X+Xj n.lX&X#.J n.mXA.s n.NXMX1XlXMXnXjXSXHXHXaXG.].).T.`.[.'.[.}.].A.}.}.A.F.A.A.F.H.H.H.;XdXjXhXhXhXxXxXxXxXxXxXhXhXgXgXdX;X;X;X;X;X;X;XdXdXdXdX;X;X;X;X;XF.A.Z.A.C.B.B.B.j.p.p.B.B.B.Z.j.j.c.h.h.g.k.9.1.5.5.3.3.5.5.5.q.k.k.k.5.5.1.1.1.1.1.2.2.1.2.>.2.2.;.2.%.#.) ( ~ ) #.s.j.j.Z.c.c.j.B.j.B.B.Z.B.Z.A.J.aXdXjXjXjXjXaXaXpXF.F.A.A.A.A.A.A.A.A.Z.Z.Z.j.*.$.$.$.2.2.;.;.;.2.k.v.n.n.n.n.V.A.A.A.A.A.A.A.A.C.C.c.j.c.A.A.A.A.F.H.aXH.F.F.B.p.%.X.R W ~ ] ] ^ W F d p 3 4 > 3 3 a p I G A F W / ` ;.] Q H A d d d e d g A D U / / W W W W W W W W ! T T T j f j j S A w p p a S F D D J q k j J S D D J J R ~ D S D T T J T T T K D D D S d f d d w w w q w w w w w w w e e p e w w q q q q w w w w e A A w w w w ",
"8.C.V.C.C.C.V.V.v.v.V.v.v.v.x.x.x.k.k.k.k.k.k.x.l.l.x.v.V.V.V.V.V.V.].].].{.{.{.@X@X@X@X@X@X{.[.`.V.T.).V.V.V.v.V.V.V.V.V.V.V.`.V.V.V.V.).`.].[.[.XXXX[.'.[.`.T.`.`.T.T.T.E.E.U.v.U.U.U.l.l.k.6.k.5.5.5.5.5.>.>.>.7.3.5.d.k.l.x.E.T.R.W.|.|.|.|.|.|.!. XXXXXoX XoXoX.X X X X X X.X.X.X=X=X.X=X=X4X4X3X4X4X4X4X3X=X*X=X.X*X.X.X.XoXoX X X XXX.X.X X X.X.X.X.X=X=X.X=X=X.X=X3X3X4X4X3X4X4X4X4X4X4X5X5X3X3X4X4X4X4X3X4X3X=X.X.X.XoX.X.X.X.X.X.X X X.X.X.X=X3X=X=X3X3X*X.X*X.X.X.X.X.X X X XXXXX X X X X X X.X.X.X.X.X.X.X.X.X.X X|. X|.|. X.X X X X!.|.|..X X.X X X.X X X X|.!. X.X.X.X X|.|.|.|.|.!.!.!.!.|.|.|.|.|.|.|.!.|.|.|.|.|.|.|..X.X.XoXoX.XoXoXoX.X.X.X.X X X X X X X.X.X X.X.X.X.XoXoXoXoXoX.X.X.X X X X X|.OXOX'.OXXXXXOXXXXXXXXXXX@X@X&X<XpXS.pXhXhX2X].+X`.<.<.s.%.*.+XfX+XA.B.;XhXhXgXgXdXF.A.Z.o.*.j.B.j.h.Z.Z.F.+X;XF.@.%.A.;XZ.p.j.X.h m j.C.m.$.i w &XMX,Xc.;XX.A.lX}.2.2.b.1Xc.*.gXNXNXlXlXNXdXpXJXKXKXVXS.V.).).`.[.'.{.{.}.`.}.}.A.F.A.A.F.F.J.H.;XdXdXgXhXxXMXxXxXxXMXxXhXhXhXgXgXdX;X;X;X;X;X;XdXdXdXdX;X;XdX;XH.F.Z.Z.Z.Z.Z.B.B.j.p.p.p.B.B.B.B.Z.B.h.z.z.z.k.k.k.5.5.5.5.q.5.q.k.k.k.5.5.5.1.3.5.1.1.2.1.s.1.2.2.2.2.2.%.%.) ) #.$.g.c.Z.Z.Z.Z.Z.j.p.B.M.B.j.B.Z.J.H.dXjXjXjXjXaXaXpXF.Z.C.A.A.A.A.A.A.A.A.Z.C.h.8.$.$.#.( ;.2.2.2.1.k.n.V.A.A.n.V.A.A.A.A.A.A.A.A.n.n.m.j.m.m.A.A.F.F.H.dXH.F.F.Z.p.@.X.T T T / ` ^ W W D S w 3 4 4 3 a p I G F F W ^ ] 2.] Q H A A S S d d d A D W / / ^ W W W T T W W W ~ ~ W T f j j f p w I p p D F U F S 3 i j L D f J L X.+.T S S U T T J D D J J D U U S d p e w w w q q q w w w w w w w e p e e w w w w w w w w e e A A w w w w ",
"g.V.A.V.C.V.V.V.V.V.V.v.v.v.x.z.l.k.l.k.k.l.k.x.l.l.x.v.V.V.V.V.].].].].].[.{.+X+X+X{.{.@X+X{.].).V.v.T.v.x.V.v.V.V.V.V.V.V.V.V.v.V.V.V.`.`.].[.[.{.OX{.'.`.`.T.`.T.T.T.T.E.E.U.T.T.U.I.l.l.k.k.5.5.5.5.5.5.:.:.:.:.>.3.d.k.I.E.E.R.T.R.'.'.W.!.|.!.|. X|. X X|. X X X X|.|. XOX X.X.XoXoX.X=X*X=XoX=X=X4X4X4X4X=X=X=X*X*X.X*XoXoX X X XXX.X.X.X X X.X.X.X=X.XXX=X3X=X*X3X3X4X4X3X*X3X4X4X4X4X4X5X5X5X5X4X5X5X5X3X4X4X4X*X.XoX4X.X.X.X.X.X.X X X.X.X.X.X*X=X*X*X.X*X.X.X.X.X.X X!. X X X X X X X X X X X X.X X X.X.X.X.X.X X!.|. X|.!.!.!.~.!.!.!.|.|.|.|. X X X.X X!.|.|.|. X X!.!.!.!.!.!.!.|.!.!.!.!.!.|.|.|.!.!.!.|.|.|.!.!.|.!.|. X.XoXoX=X.X.XoX.X.X.X.X X.X.X X|.|. X X!. X.X.X.XoX=X=XoXoXoXoXoX.X X X X|.!.|.'.|.OXXXXXXXXXXXXXXXXX@X@X+XjXpXe.S.jXdX+X+XV.c.h.h.s.$.A.gXgXdXgXF.G.F.F.;X;XdX;XA.gX+XA.G.;X;XF.C.B.p.Z.;X;XZ.j.A.Z.*.l E h * 5 *.;X&XA.E D %.}.;XA.2X;X<X<Xn.k.v.Q.kXs.j.BXZXNX1X`.hXF.pXSXKXLXKXhXV.].`.`.[.[.[.[.].].}.A.A.A.A.A.F.F.A.H.H.;XdXdXhXhXMXMXMXMXMXxXxXxXhXhXgXdX;X;X;X;X;X;X;XdX;X;X;X;X;X;XH.F.Z.Z.Z.Z.B.B.j.j.j.p.p.B.B.B.B.C.C.z.c.c.z.z.z.k.q.6.d.5.k.k.k.k.k.k.q.5.5.5.5.5.1.1.1.1.g.s.1.1.1.<.<.<.#.( ( #.$.j.c.Z.A.A.Z.Z.j.p.p.p.p.j.B.Z.A.H.;XdXdXdXaXaXH.F.A.A.A.A.A.A.A.A.A.A.A.A.c.g.8.$.#.#.^ #.<.s.s.k.v.n.`.`.`.`.A.A.A.].A.A.V.V.n.n.n.m.j.m.j.j.Z.F.H.dXdXH.F.D.Z.M.%.E E J U W ^ ` / W T S p w 3 4 3 q w p G F P / ^ ] 2.[ _ Y F D D D D S D D D W / ` ^ W W W T T T T W ~ ! W T T J a f f S G p a S D K T D 3 k ..R D D j ..+.R d d S U T T D S S D D D J T D f p w w q q q q q q w w w w w e p d d e w w w w p a d d d A A A w w w w ",
"g.V.V.V.C.C.V.V.v.V.V.V.V.V.x.x.k.k.l.k.k.k.k.l.x.v.x.).V.`.V.V.V.].].].].+X+X+X+X+X{.{.{.{.].`.).V.v.v.z.z.z.x.V.V.V.V.V.V.V.V.n.`.].].].}.[.{.+X{.{.'.{.`.T.Q.W.Q.T.T.T.E.R.U.T.T.U.U.E.v.k.k.5.5.5.5.5.:.:.[ :.] ] >.5.l.l.E.U.R.T.`.'.'.W.W.!.|.OX|.!.!. X'. X X X|.!.|.OXOX X X X|.XX=X=X.XoX=X=X=X3X3X3X3X4X4X3X*X*X.X*XoXoX.X X X X.X.X.X.X X X.X.X.X.X*X=X3X=X3X4X4X*X*X4X3X3X4X4X4X4XqX5X4X5X5X4X5X8X4X5X4X5X5X4X*X*X4XoXoX.X.X.X.XoXoX.X$X$X.X.X3X3X=X.X*XoX.XoX.X X|.!.!. X|.!.!.|.|. X X|. X X.X X X.X X.X.X~.!. X X.X.X!.^.^.!.!.!.!.!.|.|.|. X X X X!.!.|.|.|.!.!.!.!.!.!.W.W.!.!.!.!.!.!.|.|.|.!.^.!.!.|.|.|.!.!.|.!.|. X X XoXoXoXoX.X.X.X.X X X.X X|.|.|. X!.!..X.X.X.X.XoXoXoXoXoXoX.X X.X XOX X|.W.'.'.OXOX'.XXOXXXXXXX{.XXXX+XD.N.e.jXhXdXG.8.c.c.$.8.h.j.A.dXF.Z.;XB.*.=.*.B.A.;XgXgXgX;XF.Z.C.C.j.j.Z.A.F.F.Z.C.F.F.S.=.h k 5 O % s A.c.<.) d S A.;XfXZXMX&X0.n.2Xv.n.mXC.g.mXAXxXgX+XZ.aXaXhXLXLXLXHX+X`.[.[.[.{.{.{.{.+X`.A.A.A.A.A.F.F.F.F.F.H.;XdXgXhXxXMXCXCXCXMXMXMXhXhXgXdX;X;X;XH.;X;X;X;XH.H.H.;XH.;XH.F.F.Z.B.B.B.B.j.j.j.B.j.B.B.B.B.C.C.z.c.v.b.z.l.k.d.d.d.6.k.k.k.k.l.k.q.5.3.5.5.5.1.1.k.5.9.g.s.s.s.s.s.8.%.#.%.<.g.c.C.C.Z.Z.Z.j.j.p.p.p.p.p.M.B.Z.A.H.;X;X;XH.H.F.A.A.A.A.A.V.A.A.A.A.A.A.A.m.g.<.,.$.#.#.2.<.s.s.c.n.}.{.}.&X&X}.`.`.}.A.A.n.n.n.c.m.g.j.j.m.j.Z.A.H.aXdXH.F.F.Z.B.*.X.E T E W ^ ] ] ^ ~ T S a q 3 3 q w p D P W / / ` 2.:.' Y F K T U T F U U G T / ` ! ! / T U T T F W W W W K K T d k f D K S p D U R T U q b =.L F D J +.o.f d d S D T T U D D f f f J J J f p w w w q q w w q q w w w e e d d d d w w w p f j S S G A A A e w w e ",
"h.C.V.v.V.C.V.C.v.c.c.c.x.x.b.l.k.q.q.k.k.k.k.z.v.v.v.V.V.V.V.V.V.V.V.V.].].+X+X+X{.+X{.[.[.].V.V.x.x.z.k.k.k.z.V.v.v.v.V.V.V.v.V.V.`.].].[.[.+X[.[.{.'.'.W.W.W.T.).T.T.E.E.T.T.U.Y.W.W.R.I.l.l.d.f.5.5.>.2.:.[ ] ] :.7.3.f.l.l.U.U.R.R.R.W.|.|.!.|.|.|.!.|.|.|.!. X|.|.!.!.!.!.!. X XXX.X.X.XoX.X.X*X*X3X4X4X4X3X*X.X*X=XoXoXoX=X.X.X X XXX.XoXoXoX.X.X.X.X.XoX*X*X4X4X=X=X4XqX3X4X4X4X4X4X4X4X4X4X4X4X5X4X4XqX4X5X8X4X4X3X3X3X4X3X3X=X*X*XoX=X3X3X3X*X*X3X3X3XoXoXoX.X.X.X X X|.|.|.!.^.!.!.!.|.!.!.!.|..X.X.X|.|. X.X.X X X X|.!.|.!.!.!.!.!.^.!.!.!.!.!.^.!.!.!.!. X X|.!.!.!.!.!.|.!.!.!.|.^.!.!.!.!.!.!..X|.|. X X|.|.|.|.!.|. X X X.X.X.X.X=XoXoX X X.X X|. X|.|.!.!.|. X~. X XoX.X.X XoX X.XoXoX X X X|.OX|.'.W.W.'.'.'.W.'.[.{.OXXX{.,XjXjXe.M jXSXjXc.o.,.g.o.o.*.*.Z.A.%.o.%.*.0.*.Z.D.H.dXfXxXgX+XB.B.0.*.*.j.j.F.A.S.Z.F.M.*.p.Z.F.B.s & @ , @.j.+.j g ) A.:XxXNX;X*.~ &X-Xf.Q.1X,XC.&XhXNXAXF.E hXjXjXHXJXKXLXjX].{.'.{.XX{.{.+X].A.A.A.C.A.Z.Z.Z.Z.Z.F.F.;XdXgXhXhXMXMXMXCXMXMXMXhXhXgXfX;X;X;XF.;X;X;X;XH.;XH.H.H.;XH.F.F.Z.Z.c.Z.c.j.j.j.j.B.B.B.B.Z.Z.C.C.C.C.v.v.v.x.l.f.f.f.q.5.k.k.l.k.5.5.:.5.5.>.1.1.9.1.k.z.k.k.c.h.g.g.p.*.s.g.j.c.C.V.A.A.Z.j.p.a.a.p.p.p.p.j.Z.A.A.}.+X+XF.A.A.A.C.A.A.V.V.n.A.A.A.A.A.n.c.g.<.#.#.( 2.2.s.g.g.n.}.}.}.&X&X&X&X&XA.}.n.n.A.n.n.m.m.m.m.n.n.n.A.J.H.;XdX;XF.F.A.B.*.@.E T T ~ / ] >.] ` / K d w w w w w p A H / ^ ^ ^ ] ] ^ W Y W F W T W W W Y Y Y / / W W W T K U U T W T F F D K K S a j R T a K W T o.U w ....X.T T F o.+.d e f f g E T J j g g g j J T T A p p w w w w w w q q q q w w e d d A d e e d g f E T T D A G A w w d d ",
"8.z.z.z.z.C.C.z.z.z.z.z.z.z.z.k.k.q.q.5.k.q.k.z.x.x.v.V.V.V.V.V.V.V.V.V.A.].].].[.[.{.[.].].`.).x.x.k.k.k.k.k.k.z.z.z.z.v.v.v.x.v.V.V.`.`.].[.[.[.[.[.'.'.`.W.T.T.`.`.).T.T.R.E.T.T.R.R.R.E.U.b.l.d.f.5.1.:.] [ ] :.:.3.4.f.l.l.I.R.R.R.W.!.|.|.!.|.|.|.|.|.|.|.!. X|.|.|. X!. X!.|.|. XXX X.X.X.X.X.X.X=X=X3X4X4X3X*X*X=XoXoXoX.X.X.X.X.X.X.XoX=XoX.X.X.X.XoX=X=X=X4X4X3X=X=X4X3X3X4X4X5X5X4X*X4X4X4X4X4X4X4X5X5X4X4X4X4X4X3X3X4X3X3X*X*X*X*X=X3X3X3X3X3X3X3X3X*X.X.X.X.X.X!.~.|.!.!.!.!.!. X X|.!.!.!.!.!.!.~..X.X X.X.X X|.|.!.!.!.!.!.!.!.!.!.!.!.!.!.!.!.!.!.!.!.!.!.!.!.!.!.!.!.|.!.!.!.!.!.!.!.!.!.|.!.|.|.|. X|.!.!.!.!. X X X X X X X X.XoXoX.X X X X!.!.|.|.!.!.!.!.|.!. X X X.X.X.XoX X X X X X X X|. X|.W.W.W.W.`.W.|.'.'.[.[.XX].fXhXN.v v VXCXdXj.#.T R ~ R 0.j.F.A.B.*.%.*.B.M.&.&.e.F.dXdXdXhXgXj.Z.;XZ.B.F.;X;XdXF.B.B.F.dXhXCXnXA.m < < a.A.o.1 1 g n.{.kXMXj.j A.MX1X}.}.1XV.B.Z.*.;XlXF.p.dXhXDXDXJXKXHXpXA.XX{.{.{.{.{.+X].F.A.C.c.c.Z.Z.Z.Z.Z.A.A.H.;XdXgXhXxXMXMXCXMXxXxXhXhXgXfX;X;XF.F.;X;X;X;XH.;XH.H.H.H.H.H.A.A.Z.c.B.c.j.j.B.B.B.Z.Z.Z.Z.A.C.C.A.A.V.V.v.T.x.l.d.d.6.6.k.k.l.k.5.5.1.5.5.1.1.g.s.k.k.x.z.z.c.c.c.j.j.s.s.j.c.C.C.V.A.C.Z.j.p.a.a.a.a.a.p.j.c.n.A.A.].A.A.A.A.C.C.A.V.V.V.V.A.A.A.A.A.n.m.g.<.2.;.( <.1.g.c.c.n.}.&X&X&X&X:X:X&XA.A.n.n.V.n.m.m.m.m.m.n.n.A.A.J.H.H.;X;XF.F.A.B.h.%.o.R ~ ~ W ^ >.>.] ^ W F d p p e p p G H W / ^ ;.] ` / W W W W W T W W W W Y W / W W W T K D D D D F D F F S S S K S a j L f K W ! ~ Y a j X.X.K F D R X.d w d g f D E D g g f g j T T T A e e w w w w w w q q w w w e d A d A d d d g g J T E R T D G A e p f f ",
"%.g.h.g.h.h.h.h.z.z.z.k.k.k.k.q.5.5.5.5.5.5.k.z.x.x.x.v.v.v.V.V.V.V.V.V.V.].].].`.[.[.`.`.).v.v.k.k.q.5.5.5.5.5.k.k.k.k.z.z.x.x.v.v.V.`.`.].[.[.[.'.'.'.'.'.`.T.T.T.T.).`.T.T.T.R.Q.W.R.R.R.E.U.l.d.f.5.5.1.:.[ ] ] :.3.6.d.l.U.I.E.R.R.R.!.|.|.|.|.|.|.!.|.|.!.|.|.|.|.|.|.!.|. X X X X.X.X.XoXoXoXoX.X=X=X4X4X4X=X=X3X3X=X.X.XoXoX.X.X.X.X.XXXoX.X.X*X*X*X.X*X=X3X4X4X3X*X*X*X4X4X3X4X4X4X4X4X4X4X4X4X4X4X4X5X5X4X4X4X5X5X4X4X3X3X3X*X*X*X*X.X3X3X3X3X3X3X3X3X=X.X.X.X.X.X X.X!.!.!./.R.!.!.!.!.!.!.!.!.!.^.~.^.!. X|.|.!.!.!.!.!./././.R.R.R./.!.!.!.!.!.!.!. X!.!.!.!.!.!.!.!.!.!.!.!.!.!.!.!. X X!. X X|.|.!.!.!.!.!.!.!.!. X!.|. X X X X XoX.X X X X X X X!.|.!.!.!.!.!.!.!.|. X X X.X.XoX.X X X X X.X X!.!.W.W.R.R.R.R.`.R.'.OX|.'.{.].fXaXB n N.VXjX;X2Xc.~ R E g E j.;X+XF.F.Z.Z.B.&.y $ * m B.S.B.F.H.F.;XA.j.j.Z.F.jXdXF.Z.dXjXhXCXCXhXdXB.t < &.Z.X.1 , i c.&X:X&XX.j dXBXmX<X`.2Xc.Z.B.=.A.&XgX*.F.SXJXKXKXKXsXe.+X<XXX{.XX{.&X+X+XF.A.C.m.c.C.m.m.c.Z.Z.Z.A.;X;XgXhXhXMXMXCXMXMXxXxXhXgXfX;X;XF.A.F.;X;X;XH.;X;X;XH.H.H.H.J.A.Z.C.Z.Z.B.B.B.Z.Z.D.Z.Z.Z.A.A.A.A.A.V.V.V.T.T.E.x.l.d.d.k.k.k.k.d.5.1.5.3.5.k.k.k.k.z.x.z.c.c.c.j.j.j.j.j.j.c.C.A.V.V.C.Z.j.j.a.a.@.a.a.p.p.j.c.A.A.A.A.A.A.A.c.c.V.v.v.V.C.Z.C.C.A.n.c.j.g.s.s.<.2.s.g.c.n.n.n.}.}.&X&X;X;X;X&XA.A.n.n.n.n.m.m.m.m.n.n.A.A.A.&X;XJ.;X;XF.F.Z.B.h.$.$.o.o.^ / W ] 2.>.] ^ / F A A A A A G H W W ^ ] ^ / W W W / / W / ~ W W W Y W / W W W T K D D S S D S K K D S S K D S f k k R W ~ / Y f L o.+.E D D R R e w d d f U T U g f g g J T T D A e e p w w w w q q q q w e e A A d d d S S f g J T R ~ E U D D A f f f ",
"+.8.9.9.0.0.9.9.9.9.9.9.9.q.q.1.1.1.1.5.5.5.k.z.x.x.x.x.x.z.z.V.c.v.v.V.V.V.`.].).[.`.).T.v.l.l.k.k.5.1.>.5.5.5.5.5.5.5.k.k.k.k.v.v.V.).`.`.].'.[.[.[.'.'.'.[.`.T.T.T.T.T.T.T.T.W.Q.W.Q.R.T.T.U.l.l.d.5.5.5.>.:.[ [ :.3.f.d.l.U.U.T.R.R.W.'.|.|.|.|.|.|.|.|.|.|.|.|.|.'.|.|.|.|. XOX XXX.X.XoXoX=X=XoXoX=X=X4X4X=X4X4X4X4X4X*X*X=X=X=XoX.X.X.X XoXoXoX=X*X.X.X.X*X=X3X4X3X*X*X*X4X4X3X=X*X4X4X4X4X4X4X4X4X3X4X5X5X4X4X4X4X4X4X4X*X3X3X3X*X3X3X*X3X4X4X4X4X4X3X3X=XoXoX.X.X.XOX X X!.^.!.!.!.W.W.!.R.W.R.!.!.!.!.^.!. X X X^.^.!.!.!.Y.Y.Y.Y.Y.R./.!.!.!.!.!.!.!.!.!.^.!.!.!.!.!.R.!.!.!.!.!.!.!.!.|.!.!. X X X X!.!.!.!.!.!.!.|.!.!.!. X X X X.XoX X X!.!. X X X!.!.!.!.!.!.!.!.!.|. X X X.X.X X X X X.X.X.X.X!.W.W.W.R.R.R.R.R.'.R.'.|.`.[.fXCXvXM c e.F.A.F.hX}.#.R ~ E g X.B.F.F.F.Z.Z.j.p.X.t t m *.M.=.*.Z.dXdX;X;X;X0.*.F.F.A.dXhXhXCXnXCXaXX.j i t &.F.*.i , 6 %.A.:Xc.m X.Z.F.mX:Xv.&XV.<XhXZ.A.<XxXX.S.CXDXHXHXSXPXvX;X:X:X:X:X&X{.&X&XF.A.A.A.A.A.m.m.c.Z.Z.Z.A.A.;X;XgXhXhXMXMXMXMXMXhXhXgXgXfX;X;XF.A.H.;X;X;X;X;X;X;XH.H.H.A.A.A.C.Z.A.A.Z.Z.F.F.F.F.F.F.F.F.F.A.A.A.V.V.V.T.T.v.b.k.l.l.k.5.k.5.5.5.5.5.5.k.k.k.k.k.x.z.c.c.j.j.j.j.j.j.c.Z.C.C.A.C.C.B.j.j.p.a.a.a.a.a.p.j.c.A.A.V.V.V.V.n.c.x.x.b.v.A.A.Z.Z.c.c.m.m.c.j.g.g.s.s.g.n.A.A.A.n.A.}.&X&X;X:X;X&X}.A.n.n.m.m.m.m.m.Z.n.A.J.J.J.&X;X&X&X;XF.F.Z.B.j.*.$.O.O.O.^ ^ ^ ] :.] ^ ^ W F G G G G F H W W / ^ ^ / W W W W / W W / / ^ / / Q W W W T K J D D D A S S D D S S d S S T S a k L W ^ T W S f X.=.R J f E R e w d d f T T U g g g g E E S S A d e e w e p e w q q w w e e e d e S S D S f f j E R ) R U D D S S f f ",
"X.$.,.,.,.$.$.,.,.2.1.1.1.1.1.1.2.2.1.1.5.5.5.k.z.z.x.x.x.l.z.z.k.k.z.x.x.v.T.T.).).T.v.v.l.k.k.5.5.5.>.>.>.1.1.5.>.>.>.5.5.5.5.k.z.v.V.).).`.`.[.'.'.[.[.`.`.`.`.T.T.T.T.T.T.T.T.R.R.R.R.W.R.U.T.U.l.d.5.5.3.>.3.7.3.6.d.d.k.l.E.T.R.W.'.|.|.|.|.|. X X X X|.|.!.|.|.|.|.|.|.OX X X X X.X.XoXoX=X=XoX=X=X=X=X4X4X4X5X5X5X4X4X=X=X=X=X.X.X.X.X.X=XoXoX.X.X.X=X=X*X*X3X4X4X4X4X4X=X3X4X4X4X=X4X4X*X*X3X4X3X4X4X5X4X*X*X*X*X3X*X3X=X4X4X3X3X3X4X3X3X4X4X4X=X3X3X=X.X.X.X.X.X.X!.~.|.!.!.!.R.R.Y.Y.W.Y.Y.Y.R.!.R.!.^.!.|. X X!.^.^.!./.Y.Y.Y.Y./.!.R./././.!.!.!.!.!.!.!.^.!.!.!.!.R.!.|.!.R./.!.!.!.!.!.!. X|.!. X X!.!.!.!.!.|. X X!.!.!.!.!. X XOX X X X X X X X!.!.!.!.!.!.!.!.!. X.X!.~..X X X X.X X.X X X!.!.!.!.W.W.W.R.R.R.`.R.W.W.'.@XxXjXM 7 y M D.dXdX;X1Xg.J ~ %.o.@.F.F.*.=.=.*.j.Z.Z.M.M.S.aXdXA.C.F.dXxXhXgXgXA.Z.A.dX;XMXhXvXDXDXVXhXD.p.j.j.p.Z.*.i & 1 $.:X<X%.b B.*.%.gX&XA.-X&X1XnXMXfX<XfXk b B.D.jXjXhXVXsX:X:X:X:X:X:X&X:X;X;XF.A.A.A.n.m.m.c.c.c.c.Z.Z.F.F.;XgXgXhXhXMXMXMXhXhXhXgXgXdX;X;XA.F.;X;X;X;X;X;XH.H.H.F.F.A.A.A.Z.Z.Z.Z.Z.F.F.F.H.H.H.;X;X;X;X;X].}.A.v.v.v.v.b.l.l.l.k.k.5.5.5.k.k.5.k.k.k.k.b.k.x.c.c.c.c.B.B.j.j.c.c.c.c.C.n.c.c.j.j.j.p.a.a.a.a.a.a.j.j.C.A.v.V.V.V.v.x.k.k.k.x.C.A.Z.Z.j.j.s.g.j.g.m.m.c.x.A.A.&XJ.A.A.A.A.&X&X&X&X&X}.}.n.m.m.m.m.j.m.Z.A.A.A.J.&X&X&X&X&X&X&XA.F.A.Z.h.8.,.#.#.#.;.( / / ` ^ ^ ^ W H F G G F F W W W W / / W W W Y W Q W W / ^ ` ` ^ W W / W T F J D S f d S S d d f d d A S D U J a a E ! K K S d ..=.R J f T R d e d e f D U U g d g E T T f d d e w w d d d e w w w w w e e e d d D U U S g f g g E E E T U D D f f f ",
"L o.O.O.O.o.O.O.( ;.2.2.2.2.2.2.;.:.2.2.1.1.5.5.k.k.k.x.l.z.z.l.k.k.k.k.l.l.x.v.v.v.v.x.l.k.k.k.1.5.5.3.>.>.>.>.>.>.>.>.>.5.5.3.q.k.x.v.V.T.T.`.`.`.'.`.`.).T.T.T.T.T.T.T.T.T.T.R.W.Q.W.W.'.W.U.T.T.U.l.k.k.5.5.f.3.5.d.k.k.l.b.U.T.W.W.|.|.|.|.|.|.|.|.|. X|.|.!.|.|.!.|. X|.|.OX X X.X.XoXoX=X=X=X=X=X4X=X=X4X5X5X5X4X4X5X5X5X4X4X3X*X.X.X*X.XoXoXoX.X.XoX=X=X3X3X4X4X4X4X4XqX4X4X4X4X4X=X4X4X3X4X4X4X3X3X4X4X=X=X=X*X*X*X*X*X=X4X4X4X4X4X4X4X3X3X4X*X*X=X=X=X.X.X.X.X.X.X!..X!.!.W.R.Y.Y.P.P.Y.U.Y.Y.R.R.W.!.^.^.!.|.!.^.^.!.R.R.R.R.R.Y.Y.R.Y./././.!.!.!.!.^.!.!.!.!.!.!.|.!.!.|.!.!././.!.!.!.!.!.!.!.!.!..X X!.!.!.!.|.|. X X X!.|.|.!..X X X X X X|.!.!.!.!.W.!.!././.!.!.!.!.!.!..X.X.X!..X X.X.X X!.!.!.!.W.W.W.R.R.Q.R.W.'.'.).+XMXpXm y c m D.hX;X;X:Xg.E T %.*.X.*.H.*.6 , 6 X.B.B.@.B.F.F.F.A.C.0.C.gXMXMXCXMXCXCXMX;X;XhXDXVXVXVXVXCXVXnXdXD.F.%.0 # , g.<X+X*.*.A.C.g.2X&X&X8X-Xb.gXNX<X1X;Xh m =.M v X.dXHXpX<X,X,X,X,X<X<X;X;X;X&XA.A.A.n.n.m.m.j.j.j.Z.Z.Z.F.;X;XdXgXhXhXhXMXhXhXhXhXhXgXdX;X;X;X;X;X;X;X;X;X;XH.;X&XF.A.A.A.Z.Z.A.Z.F.F.F.H.dXdXdXdXdXdX;X;X;X+XA.n.v.v.v.b.b.b.b.k.k.k.k.s.k.f.d.k.k.k.k.b.k.v.v.c.A.c.B.B.j.j.j.c.c.C.c.c.c.c.j.j.j.p.a.a.a.a.a.a.j.j.C.A.V.V.V.V.V.c.c.g.k.c.c.Z.Z.Z.j.j.s.j.j.m.m.c.c.n.A.;X;X;XH.A.A.A.&X&X&X&X}.}.A.A.n.n.j.m.B.B.Z.A.J.J.H.;X;X&X&X&XA.A.A.F.Z.Z.B.g.,.2.,.;.;.;.^ / ^ ^ ^ ^ / W H F F F W W W W W / Q W W W W Y W W / ^ ^ ^ ^ ^ / W ^ W T F D D S f d f D d p d f f f d S U T D g j L L J j a T X.X.K S E ! d e d e g D U U g f g T T U S A d e e w d d d d w w w w e e e A D g U U U D d g f g g E R T E g g f f j ",
"j R R R R R R ~ ~ ^ ^ ` ` -.;.;.] ` ` ;.2.2.1.1.q.q.k.l.l.f.k.k.k.k.5.k.k.k.l.x.l.l.l.l.k.k.5.5.3.3.5.5.5.>.>.1.3.3.3.3.5.5.5.5.5.k.k.l.v.v.T.T.`.`.`.`.T.T.T.T.E.T.T.T.T.T.Q.W.W.W.W.W.'.|.'.R.T.T.T.E.l.l.x.l.d.d.d.l.l.b.U.U.U.R.W.W.|.|.|.!. X|.!.!.!.|.|.'.!. X!.!.!.|.!.|. X X.XXXXXoXoX*X=X=X=X4X4X4X=X5X5X5X5X4X4X5X4X4X=X4X4X*X*X*X.X X XXX.XoXoXoXoXoX4X4X5X4X4X=X4X4X5X4X4X4X4X4X5X5X8X5X4X4X4X=X=X3X=X=X*X=X*X*X*X*X=X=X4X4X4X3X3X3X3X3X4X=X=X*X.X.XoXoXoX X.X X|. X|.!.!.W.Y.Y.P.P.P.P.Y.Y.R.W.!.!.^.!.|.!.!.!.!.!./.!.!.!.!.Y.Y.Y.R./.Y.Y././.!.^.^.^.!.!.!.!.!.!.!.!.!.!.!./.!.!.!.!.!.!.!.^.!.^.~.!.!.^.!.!.!.|.!. X X X X X.X X.X X X X|.|.!.^.!.!.W.W.^./.R.!.!.!.^.!.!.!.!..X X X X.X.X X X!.!.W.W.!.W.W.W.W.W.R.R.`.v.+XCXVXM.h u m D.aXB.A.+Xg.( D %.p.X.i *.Z.X.< % * m *.%.X.%.B.A.C.h.%.s m aXvXvXjXaXCX;XF.jXJXDXjXvXHXHXHXVXDXvXpXe.j : % , *.A.].B.j.;XgX;X1X:X,XwX-Xk.{.BX}.fX*.7 6 u * $ *.KXKXjX,XkX1X,X,X,X<X;X;X&X&X}.A.A.A.A.C.m.m.m.m.A.Z.A.Z.A.;X;XdXgXgXhXhXxXxXhXhXhXgXgX;X;X;XH.H.;X;X;XH.;X;X&X}.A.A.A.A.Z.C.Z.A.F.F.H.dXdXdXdXdXdXdXdXdX;X+XA.V.v.n.n.n.b.c.x.b.k.k.g.g.k.b.b.b.b.b.z.k.f.x.v.n.A.C.B.j.j.j.j.m.m.c.c.c.c.c.h.j.j.j.a.p.a.a.a.p.s.j.C.A.A.A.A.V.V.V.x.c.c.m.c.Z.Z.Z.B.j.j.j.j.j.c.n.n.A.&X;X;X;XH.A.A.A.A.&X&XA.}.+XA.A.A.A.m.Z.Z.Z.J.J.H.H.;X2X;X&XJ.J.A.A.A.Z.Z.Z.Z.j.<.<.,.;.;.;.^ ^ W ! ^ ^ / / W H F F W W / / W W W W W T T F T W P W W ^ O.O.! / ^ W T F D J D S f f S d e d f f f d D D S D f a j L J J a j X.=.R D E ! A p d e g g U U U g J T U D S D A e e e A A d e w w w w e e e S D D U U U U D f f f f J T T T j g j f f ",
"f J J J J J E T W W ! / / ^ ^ ^ ` ` ^ ` ] 2.>.>.1.q.k.k.d.k.f.5.q.q.1.5.5.k.k.z.k.k.l.l.q.5.5.3.5.5.3.5.5.>.5.5.5.3.3.3.5.5.5.5.f.5.5.k.l.v.T.T.T.`.`.T.T.T.T.E.U.U.T.E.E.T.Q.Q.W.W.W.W.'.|.|.W.`.`.W.T.T.E.U.U.U.U.b.l.l.U.U.U.Q.W.W.W.W.W.|.|.!.!.!.W.W.W.|.|.W.!.!.W.!.!.!.!. X X.XXXXXoX.X*X*X=X=X3X4X4X4X5X4X5X5X4X4X4X4X=X*X*X*X*X*X*X.X X X.X.X.X.X*X=X=X=X4X4X5X4X=X4X5X5X4X4X5X8X5X5X5X9X5X4X=X=X=X=X=X=XoXoX=X=X.X.X.X3X*X3X4X3X3X3X3X3X3X4X3X=X*X.X.X.X.X.X.X.X.X^.~.^.!.!.R.Y.Y.Y.P.P.P.Y.Y.Y.R.W.!.!.!.!.!.!.!.!.!./.R.W.W.Y.Y.Y./.Y.Y.Y.P./././.!.^.^.^. X X!.!.!.!.!.W.!./.Y.R.!./.!.!.!.^.!.^.^.^.^.!.!.^.^.!.!.W.!. X|.|.!.!.!.!.|.|. X X|.!.^.!.|.W.W.!.R.Y./.!.!.!.^.!.!.!..X|..X.X X X.X!.!.|.!.!.!.!.W.W.W.Y.W.T.'.[.xXSXhX&.y 7 u M M.F.;X}.g.<.#.R *.m t *.F.j.B.h , i l X.*.*.%.*.j.m.$.y * 5 7 - * 7 6 k @.D.M.k e.jXaXdXS.S.D.&.m b t < % , ) g.V.h.#.n.1X,XwX{.:X-X&XT.1XyX<XdX, $ = * @ - dXJXHXbXkXgX1X,X,X<X,X1X;X&X&X}.}.A.A.A.C.m.m.m.m.n.j.c.c.C.A.F.;XdXgXgXhXhXhXhXhXhXhXgXfX;X;XA.A.F.F.A.A.;XJ.A.A.A.A.A.A.A.A.Z.F.F.F.H.dXjXjXjXjXjXjXdXdX;X;XF.V.n.c.c.c.c.c.c.c.x.k.g.k.b.n.T.U.v.v.b.k.d.b.b.c.A.C.Z.B.j.j.g.j.g.c.c.g.c.c.g.g.g.s.a.p.a.a.a.p.p.j.c.A.A.`.].A.V.V.c.c.c.c.c.Z.Z.j.j.p.B.B.j.j.n.n.}.}.;X;X;X;XH.F.A.F.A.&XA.A.}.}.A.A.c.m.m.Z.Z.Z.H.H.;X;X;X;X2X;XJ.J.J.A.A.Z.B.B.c.j.8.,.,.;.;.;.;.^ W W ^ ^ ^ Q W H H F W W / W W T W W F D D F D K K W W ! O.o.~ ^ ~ W T K K K K J J S D S d d f f d f f d A d a g i b j T a f X.=.! U T ! d p d e g g U E E E T E T D S D G Z e e d A e e w w e e e e e S D g T T U T T f f f f D j T E E j j f f ",
"e f D f f f D K F K W W W / / ^ / ^ ^ ^ ` 2.>.1.1.f.k.k.k.5.5.k.k.k.5.5.5.5.k.k.f.d.d.d.d.k.k.k.5.k.5.5.5.q.k.k.q.k.l.l.l.k.k.q.f.k.l.v.x.x.U.T.W.T.T.Q.Q.T.T.T.x.E.U.U.T.Q.W.W.Q.W.'.'.!.|.!.|.|.!.!.W.R._.W.U.U.U.U.b.b.U.R.R.W.W.'.!.!.!.!.'.|.|.|.|.!.W.!.|.W.!.!.!.!.!. X X X X X X.XoX.X.X=X=X=X=X4X=X4X5X4X4X5X5X=X=X=X=XoXoX.X.XoXoX.X.X.X.X*X.X*X3X3X3X=X4X5X5X4X4X4X4X4X3X3X3X4X4X5X5X6X6X5X5X4X=X*X.X=X4X=X*X*X.X.X=X3X3X4X4X4X4X4X3X=X=X3X3X=XoX.X.X~.!.~..X~.~.~.!. X|.!./.R.Y.R.W.U.U.U.Y.R.R.R./.!.!.!.!.!.^.^.^.^.!.!.!.W.R.R././././././././.Y./.!.^.!.|.|.|. X^.!.!.^.!.!.!.!.!.!.!.!.!.!.^.^.^.^.!.!.!.!.!.!.|.|.!.!.!..X.X.X.X.X XOXOX|.!.!.!.W.W.W.W.W.!./.!.!.!.|.|. X X.X.X.X.X X X X X!.~.!.|.!.!.!.W.'.W.!.U.`.fXZXCXF.M 7 * * M jXhXF.F.g.( R j X.p.&.Z.;XdXdXZ.a.%.X.b X.*.p.%.p.j.=.h < = $ @ * 5 * < h X.s 5 &.m n c 7 u y 6 < < < < < a #.<.C.8.$.s.&X`.&X&X<X:X&X}.,XBXAXb @ = 7 * $ h DXJXJXvX,XgX1XgX1X1X1X<X;X&X&X}.}.}.A.n.n.n.c.c.c.c.c.c.c.Z.A.A.;X;XfXgXhXhXhXhXhXhXhXhXgX2X;X+XF.F.}.}.A.A.A.A.A.}.}.A.A.A.A.A.A.A.;XdXdXjXhXjXjXjXhXjXjX;X;XF.A.A.c.m.m.m.m.c.j.m.c.c.C.V.`.'.'.].V.b.f.f.f.f.b.v.C.C.c.j.j.j.j.g.c.c.g.s.m.g.g.g.s.$.s.p.p.p.p.j.j.C.A.A.].+X].A.A.n.v.n.c.c.C.Z.j.j.j.B.j.j.j.n.A.A.&X;X;X;X;X;XH.H.H.J.A.A.`.`.`.}.A.n.m.m.A.A.H.;X;XdXdX2X2X2X;XH.H.J.J.J.D.Z.B.B.j.8.$.$.O.O.-.#.O.! W W / Q / Q H H F F W W W Y Y F W F G A d S S D U W W W ~ ~ ~ ( T T ! T R o.! E D K K d f D D g g D f g a a p g k k E g f X.=.+.o.O.K e e e e d g D U T T T T F D G A G G Z e A d d e e e e e d d A A S D U T T E T g f f J J J E E E E g g d ",
"w f f f f f f D D F K W W W / ^ / ^ ^ ^ ^ ] ;.;.>.q.5.3.q.q.5.q.1.5.5.5.5.5.5.5.3.f.d.k.l.l.l.k.k.d.k.5.k.k.l.l.l.x.x.x.x.l.l.k.d.l.b.v.E.T.T.`.T.T.`.W.W.T.T.T.T.T.T.T.T.T.R.W.Q.W.'.'.|.|.|.|.|.'.'.W.W.W.W.T.R.R.U.U.U.U.U.Q.W.`.'.!.!.!.!.|.|.|.|.|.!.!.!.!.|.!.!.!. X|. XXX X.X X.X.X.X*X.X.X=X=X=X=X=X4X4X4X4X=X=X=X=X=XXX X X X.X.X.X.X.X.X.X=X*X=X4X4X4X=X3X4X5X4X4X5X4X4X3X3X4X5X5X4X4X5X5X5X4X4X=X*X*X=X=X*X.X3X=X=X4X*X3X4X4X4X4X4X4X*X3X3X=X.X X.X X X!..X~.~.~..X!. X X!.!.!.Y.R.Y.Y.Y.Y.Y.Y.Y.Y./.^.!.!.!.^.^.!.~.^.^.!.!.!.!./././././././././.Y.R.!.!.!.^.!.!.!.^.^.^.^.^.^.^.!.|.|.|.|.!.|.|.|.^.^.!.!.!.!.!.!.|.|.!.!. X X!.!.~.~.!.|.|.!.!.!.W.W.W.W.W.!.!.!.!.!.!.!.|.!.!.!..X.X.X.X X X X X X!.!.!.!.|.R.W.!.!.T.V.dXDXhXe.h 5 * u N.jXpXD.h.%.~ o.j j M.D.H.hXhXhXdXF.Z.B.*.l y y v v t t i s l m p.H.H.B.M.dXhXF.b @ @ = $ ; $ $ @ @ @ o o < X.h.h.g.$.$.V.;X}.:XlXwX-X-X1XmXFXnX5 = 0 * $ * D.JXVXHXhX,XkXgXgX1X1X<X<X;X&X&X}.}.}.A.A.n.n.c.m.c.c.c.c.c.B.A.A.;X;X;XdXgXgXhXhXhXhXhXhXgXgXdX;X;XF.A.A.A.A.A.A.A.A.A.A.A.A.A.A.F.H.;XdXdXjXhXhXjXjXjXjXjX;X;X+XA.A.n.c.m.m.j.j.j.n.n.A.A.].}.{.{.{.`.b.f.f.f.f.b.v.V.c.m.j.j.g.s.s.g.s.s.s.g.g.g.g.s.s.g.s.s.s.j.j.c.C.C.A.].+X+X].A.V.n.n.n.C.C.B.j.j.j.j.j.s.j.m.n.A.A.;X&X;X;X;XH.H.J.H.A.n.`.`.`.}.A.m.m.n.A.A.H.;X;XdX;X;X;X;XH.J.H.H.J.J.Z.Z.Z.p.p.*.$.$.O.^ O.O.^ ! W W W W W H H H F G F F T U U W W F G A d d e d S D T T E R E ~ T T ~ ! ! ! R E D K K S S D d d d g a a a a f J g i b ..f E =.=.R K K d e d e g d D U T T W T T T F D D D A e d e e e e e d e g d d A A S E T E T E E g f J K T E E E l g a w ",
"w d f d f f f S D D F T W W / / / / / / ^ ] ;.;.2.>.1.1.5.5.q.5.>.>.>.5.5.3.>.1.3.f.k.l.x.v.l.l.k.l.k.k.l.x.l.x.T.T.v.v.v.v.v.x.v.v.v.T.T.T.`.'.`.'.'.'.'.`.`.T.T.T.T.U.T.T.Q.Q.Q.'.'.|.|.|.|.XX|.|.'.'.W.Q.W._.R.T.T.U.U.Q.Q.W.'.|.!.!.!.!.!.|. X|.|.|. X X|.!.|.!.|. X X X X.X.X.X.X.X.X.X*X*X.X4X4X4X=X4X5X4X4X=X=X=X=XoXXXOX X X X X X.X.X.X.X.X3X3X3X3X=X4X4X4X4X4X4X4X4X*X=X3X4X5X5X5X4X4X5X5X4X4X4X=X=X*X=X=X*X.X*X=X=X=X*X=X4X3X4X4X4X3X*X*X*X=X.X.X.X X X X X.X X.X X|.^.!.!.|.!.R.R.Y.Y.Y.Y.P.P./././.!.^.^.^.^.^.!.|.!.^.!.!.!.!.!.!.!.^./././.^.^.^.^.^.^.^.^.^.^.~.^.^.^.^.^.^.^.^.|.|.|.|.|.|.!.!.~.!.!.!.^.^.^.!.|.|.!.!.!.!.!.!.^.^.^.^.!.!.!.!.W.W.W.W.!.!.!.!.^.!.!.!..X.X.X.X.X.X.X.X X.X.X.X X|. X X X XW.|.|.E.].gXhXCXdX&.b 7 * 7 M &.D.B.0.p.( R j a *.jXnXCXhXhXdXG.B.B.B.M.h @ o ; = * j *.*.*.F.dXjXaXjXCXCXdXj @ $ $ O X   o @ @ $ .   o , X.G.Z.8.g.C.:X1XwXyXwX=XwXwXBXFXjX- - = = $ h dXdXjXvXdXxXlXgX1X1X<X<X;X;X:X&X}.}.}.`.A.n.n.b.c.m.c.c.c.m.B.B.Z.A.;X;XdXfXgXgXgXhXhXgXhXgXgXfXdX;X;X}.}.A.A.A.A.A.A.A.A.A.A.F.F.F.H.;X;XdXdXhXhXhXhXjXjXjXdX;X+XA.A.c.c.m.m.j.j.c.C.C.A.F.&X&X&X&X{.}.Q.b.f.i.f.b.v.n.n.m.j.j.g.s.s.s.s.s.<.s.s.g.g.g.s.j.j.j.j.m.c.Z.A.A.A.].+X].].A.V.V.c.c.n.m.c.c.j.p.s.p.s.j.m.n.A.A.&X&X;X;X;X;XH.J.;XA.A.A.A.A.A.n.m.m.A.A.J.H.dXdXdX;XH.H.J.J.J.J.;XH.J.F.Z.Z.j.p.p.*.$.#.O.O.O.O.^ W W W W H H W H F G A G F F F T T D D G A A e S d D E T T T E R T T ~ ~ ! ! E T D T T D D f d d e w q q q i f j E E b k f %.=.X.j L K A d d e d d d D U T T T W T U D U U D d e e e e e d d d e d p d d f E T E E E E j J T K E E E E l g a r ",
"w d f d f d d A D D F T W W / / W / W / ^ ` ] ] :.2.:.>.1.>.>.>.>.>.>.>.3.:.>.>.3.d.l.x.v.v.x.z.x.l.l.l.x.v.v.v.).`.`.).T.v.v.v.T.).).`.`.`.'.'.'.{.OX{.'.'.'.).T.T.T.E.T.T.Q.|.Q.|.OXOXOX|.|.XX|.|.|.'.W.W.W.R.Y.U.U.R.W.'.'.|.|.OX|.!.!.!.!.!. X X!.|. X X X|.|.|. X X X XXX.X.X.X.X.X.X.X.X.X.X4X4X=X=X=X4X*X=X=X=XoX.XXXOXOX|. X X X X X.X.X=X*X4X4X4X4X=X4X4X4X4X4X4X4X4X*X*X4X3X4X4X4X5X5X4X4X4X4X=X=X=X*X=X=X=X*X.X.X=X=X=X4X4X3X4X4X3X3X*X*X.X.X.X.X X.X X X X.X X!.|.|.^.!.!.!.!.W.R.Y.Y.Y.Y.P././.^.^.!.^.^.^.^.^.!.OX!.!.^.!.!.!.!.^./././././.!.!.^.!.^.^.^.^.^.^.~.^.^.^.~.^.^.~.^.^.^.^.^.^.^.^.^.~.!.!.^.^.~.!.!.|.!.!.!.!.!.!.!.^.^.^.^.^.!.!.|.!.!.!.!.!.!.!.!.^.^.!.!..X.X.X.X.X.X.X.X.X.X.X!.!.|.OX|.!.!.W.'.).`.A.jXCXAXnXD.b 5 - = @ v H.Z.j.@.o.E g i @.jXvXhXjXdXdXF.F.B.*.*.*.k * % = y X.B.M.M.D.pXe.=.pXjXhXjXp.* O $ O . o O & * $ o X . o 5 S.jXA.0.g.;X1X1XwXwXwXeXlXBXJXVX- - = - m D.S.G.aXaXgXgXkX,X,X1X<X<X;X;X&X&X}.`.`.`.A.A.n.n.n.c.n.A.c.c.B.j.Z.A.F.;XdX;XgXgXgXgXgXgXgXgXgXdX;X;X;X&X+X}.}.A.A.A.A.A.A.A.F.F.F.F.;X;X;XdXjXhXhXjXhXhXjXjXdX;XF.A.c.c.n.m.n.Z.B.Z.Z.A.A.F.;X;X&X&X{.}.Q.Q.P.i.f.U.U.v.A.n.c.g.s.s.<.s.s.s.<.<.<.s.s.s.s.g.j.j.j.m.n.C.A.A.C.A.].}.A.V.V.V.c.c.c.c.j.c.j.p.p.p.j.j.c.n.n.n.`.}.&X;X;X;XH.J.;X}.A.A.A.A.A.c.j.c.Z.A.J.H.;XdXdX;XH.J.A.J.J.J.H.J.J.F.Z.Z.B.p.p.%.%.$.,.#.O.#.^ ^ W W / W H W H H G A A A D D F T F F D A A d d d g g l E T T T T T ! ~ ~ ~ T T F T T D S d d e w q q 3 3 3 a j J X.X.k i X.=.b j J E S d d A d d d S J T T T T T U U T U D g e e e e e d d d e e w p f f D E E E E E g T R J E E E E l g w q ",
"w d S d d d d A D F K W W W / ^ ^ ^ ^ ^ ^ ` ] ;.[ :.:.:.:.:.[ [ :.:.>.>.>.>.>.>.5.k.l.v.v.v.v.x.x.x.x.x.x.v.v.T.`.].[.`.`.T.T.T.).).`.'.'.[.{.{.OXXXXXXXOX'.'.`.T.W.T.T.T.T.Q.W.W.|.OXOXXX|.|.XXOXOX!.W.|.'.W.W.W.Q.Q.Q.W.'.|.|. X X X|. X X X X X X X X X X X|.|. X XXX X X X.X.X=X=X=X=X=XoXoX=X4X=X=X=X=X4X=X=X=X=X.X X X|.|.|.|.|. X X X X X*X.X4X4X4X4X=X4X4X=X3X3X3X3X4X4X4X4X4X4X4X4X4X5X4X4X4X=X=X=X.X.X=X=X*XoX.X.X=X=X=X4X4X4X4X4X3X3X3X*X.X.X.X!.!.!.!. X~.!.~.!.!.|.!.!.!.!.!.R.Y.P.Y.Y.Y./.^.^.^.!.!.!. X~.^.^.~..X!.!.^.^.^.^.^.^.!././././.W.!.!.W.!.!.!.^.!.!.^.^.^.^.~.^.~.~.~.^.^.!.!.^.~.~.~.^.^.^.!.^.^.!.!. X!.!.^.!.~..X.X X|.!.^.^.!.!.|.!.!.!.!.!.!.^.!.!.!. X.X.X.X.X.X.X.X.X.X.X.X.X.XOX X!.!.!.'.'.W.[.+XG.F.gXMXdX@.y - $ O $ h Z.dXj.X.p.E s 1 X.aXjXnXCXjXF.B.D.pXZ.C.B.p.*.j h X.S.D.S.@.m S.Z.p.B.Z.dXhXH.7 $ @ @ O @ = * * @ o . . . @ M VXhXF.*.A.;X2XwXwXeXlXwXlXFXHXc * u M D.*.S.dXjXDX<X1X1X<X<X<X<X:X&X&X&X}.}.`.`.`.`.`.A.A.A.A.A.C.C.Z.B.j.B.A.A.;X;X;XgXgXgXgXgXgXhXgXgX2X;X;X;X;X&XA.}.A.A.}.A.A.A.A.A.F.F.F.;X;X;XdXjXjXjXjXjXhXgXdXdX;XA.A.c.c.C.C.A.A.Z.Z.A.A.A.F.;X;X;X;X:X}.`.T.P.f.f.U.U.T.`.A.c.c.s.s.s.s.<.<.2.<.s.s.s.s.s.g.c.c.c.n.n.A.A.A.A.A.A.A.V.V.V.v.x.x.k.g.g.g.g.s.s.s.j.j.c.c.m.m.n.`.}.}.+X;X;XH.&X}.A.A.A.A.n.g.j.j.c.A.A.H.H.H.H.H.H.A.A.A.A.A.J.J.J.Z.Z.Z.M.p.p.@.o.%.$.#.#.#.( ^ ^ / ^ ^ Q / W W F A A A D F T T F F D d d e e e g g z E E D D U D U T W W T U F F F S S S d e q q 3 3 3 q a j j ~ ~ T a i j j j K U D A d D g d d D D T T T T U D D U U D e e e w e p p p p w w w p f S g E l E E E j T E J T T E E z g e q ",
"p f S f S A d S J K T W W W ^ ^ ^ ^ ^ ^ ^ ` ] ;.] ' :.2.] ] ] ' ] :.:.:.>.>.>.>.1.5.l.x.x.v.v.x.x.x.v.v.v.v.T.T.`.].{.[.'.`.`.`.].`.'.{.OXXXXXXXXX:X-XXXXXXXOX'.R.`.T.T.T.W.W.Q.W.|.OXOXXX|.|.OXOX|.!.!.|.|.W.!.|.'.'.W.!.!.!.!. X X X X X.XXX.X XXX.X.X.X X X|. X X XXX X X X.X=X=X=X4X4X=XoXoX=X=X=X=X4X4X4X4X.X.XoX.X X|.|.|.W.W.|. X X X X X.X.X=X=X=X=X3X4X=X=X=X3X*X*X4X4X=X4X3X4X4X4X4X4X4X4X4X4X=X=X.X.X=X.X.X.X.X=X=X*X=X4X5X4X4X4X4X4X3X.X.X.X X!.^.^.!.!.!.^.!.!.!. X X X!.!./.Y././.R.W.W.!.^.^.!. X X.X X.X~.^.^.!.^.!.!.^.^.^.^.^.!.!.^./.!.R.R.R.W.!.!.!.!.!.!.!.!.!.^.!.^.~.~.~..X.X.X.X~.~.~.~.^.^./.^.^.^.^.!.!.~.~.~.~.~.!.!. X X X!.!.!.|.|.!.^.!.!.!.!.!.!..X.X.X.X$X3X3X3X$X3X*X.X.X X.X=X X.X|.|.|.`.V.V.C.S.e.*.;XgXC.*.y = O O - h Z.F.B.@.E j l 1 i &.Z.dXjXF.%.6 t &.H.jXaXF.F.B.B.Z.D.pXdXB.i b D.F.F.C.G.dXdX&.* @ $ $ = - - $ O X . . o O 7 aXVXaX*.*.F.gX1X-X9XwX5XwXSXDXy 5 M.&.j B.hXF.vXvX+X<X1X<X:X:X&X&X{.+X}.}.}.}.}.}.}.}.].}.].].A.A.A.Z.j.B.B.B.A.A.;X;XdXgXgXgXgXgXgXgXgX2X;X;X;X;X&X&X}.}.}.}.A.A.A.A.}.A.F.F.&X;X;XdXdXdXgXgXgXgXdXdXdX;XF.V.c.c.c.C.A.A.F.A.A.A.H.+X;X;X;X;X&X}.`.T.d.f.f.U.U.T.`.V.n.b.s.s.s.s.s.<.<.<.s.s.s.s.s.k.b.c.n.n.n.n.n.n.A.A.A.V.V.V.V.v.v.b.k.k.g.s.<.<.s.p.p.j.c.j.j.g.m.n.A.A.A.;X;XJ.&X}.A.}.A.A.n.j.s.j.j.C.A.H.H.H.H.H.A.A.A.A.A.Z.Z.Z.J.Z.D.Z.M.p.p.%.o.~ ( #.;.#.;.;.` ^ ^ ^ ^ ^ / Q W F A A D D W W F F F A A e e e e e g U U D d D A D F F T T F F F F A d f d w q 3 3 q 3 q a j T ~ ~ E E a a i j T U U A e U d d d S D D D F T D S S U U U G Z e e e p p p p w w w p S S f J l l E E E T E E E T T E g g r r ",
"p S S S S D S D J K W W W / / ^ / / / ^ ^ ^ ` ` ] ` ] ] -.] ' ` ] ] ] :.:.:.:.>.1.q.k.k.x.l.l.l.x.x.l.x.v.v.v.`.`.[.{.{.[.[.'.'.[.{.{.{.XXXXXX-X:X-X-X-X-XXXOX'.W.`.T.T.`.W.W.W.W.|.OXOXXX|.|.OX|. X|.|. X|.!. X|.|.|.|.|.|.!.!. X X X XXX.X.X X X.X.X.X X X!.|. X X X X XXX.X.X=XoXoX=X=X=X=X=XoX=X.X=X=X*X=X=X.X=X=X.X X X|.!.W.W.!.!. X X X X.X.X=X=X=X3X=X4X3X=X=XoXoX*X=X*X4X*X*X4X4X4X4X3X4X4X3X4X=X=XoXoX.X.X.X.X.X.X=X*X4X4X5X5X4X4X4X4X3X.X X.X X!.!.^.!.!.^.^.!.!.!.|. X.X!.!.^./.!./.R.!.!.!.!.^.!. X.X$XoXoX.X.X~. X!.~.~.~.^.!.^.!.!.!.^.R.Y.Y.Y.Y.Y./././.^.^.!.^.^.^.!.!.^.~.~.~. X.X.X.X.X X~.~.^.^.^.^.^.^.^.!.^.~.~.~.^.^.^.^..X~.!.!.!.!.!..X!.!.~.~.~.~.~.~..X.X.X.X$X$X$X3X3X3X*X~.|. XXX X~.!.oXXX'.V.B.G.bXD.&.&.A.-X&XB.t $ $ @ 5 m p.B.*.@.j @.@.< & m Z.aXaXF.*.1 # , e.aXaXN.M M.D.F.Z.C.F.F.m t &.Z.B.b m C.F.;Xj & @ = - = O o X X . o @ @ $ e.VXvXB.X.D.dX&X}.-X^.}.8XZXVXj m S.X.r.xXCXhXHXbX;X>X<X:X&X{.}.}.+X].}.}.}.}.`.}.}.+X+X+X+X].A.A.Z.Z.B.j.B.B.B.A.A.;X;XdXgXgXgXgXgXgXgX2X;X;X;X;X&X&X&X&X&X}.}.}.}.}.}.`.A.+X&X;X;X;XdXdXjXgXjXjXdXdX;X;XF.A.c.c.m.C.A.F.H.J.H.;X;X;X;X;X;X+X+X`.n.v.f.} } d.T.`.T.n.n.b.k.s.f.f.s.s.s.<.s.s.s.s.s.k.b.v.n.n.c.c.c.m.n.c.c.c.c.v.v.x.x.z.k.k.1.1.<.<.<.j.j.j.j.j.j.g.g.m.c.V.A.A.A.J.}.}.A.+XA.A.n.s.s.j.g.c.A.J.J.H.H.F.F.F.F.A.Z.Z.Z.Z.Z.Z.D.Z.B.p.j.p.%.) ~ ( ;.( ;.] ` ^ W Q / / ` ` / W F G D F W W F U U U U D A d e e e g g g e A d A S G D D F F F D A d d p a q q 3 q q q a j D E R E U U f i f K Y U A Z D g d g d S f S S d d d S T W W T F A p p d d p w w w w I A D S j g g g l E U T T T T T U g g e w ",
"a S S S D D S S K K W W / ! ^ / ` ^ ` ] ` ` ` ` ` ` ` ;.` ] ] _ ] ] ] ] ] ] ] :.2.1.9.k.k.l.l.l.x.l.l.l.x.v.v.T.`.[.{.XX{.[.{.{.+X{.{.{.OXXX:X-X:X:XXXXXXXOX'.'.'.'.`.T.`.'.W.W.W.'.|.OXXX|.|.OX!. X|.|. X!.W.OX|.|.!.!.|. X X|. X X X X.X.X.X X.X.X.X X X!.!.!. X|.!.|. X.XoXoX.X.X.X.X*X*X.X.X=X4X3X4X4X=X4X=X.X.XoX.X X X!.!.|.!.W.W.!.|. X.X.X=X4X=XoX=X*X=X*X.X.XoX.XoX=X*X*X*X*X4X4X4X4X4X=X3X=X3X=XoXoXoX!.!..XoX.X.X*X*X5X5X5X5X4X4X4X*X4X*X.X.X X!.!.!.!. X!.!.!.|.!.|.!. X!.!.|.!.|.|./.^. X!.!.~..X.X~..X.X X X X X.X.X.X.X~.~.~.!.!.|.!.!.R.R.R.R.R.P./././.^.!.^.~.~.~.!.!.!.~..X~..X.X~.~.~.~.~.^.^.^.^.^.^.^.!.!.~.~.~.~.^.~.~.~.^.^.^.!.!. X.X X~.~.~..X.X*X*X.X3X3X3X3X3X3X3X3X3X3X.X!.!. X|.T.U.3.Q.T.V.0.=.M.dXZ.m @.1XwXlXA.y * @ @ y h p.Z.@.X.j E l 6 = < D.jXhXjXaXp.s , y M.pXM = 5 &.S.S.B.B.j h b @.j.*.X.@.j.*.*.*.b - $ @ O @ $ $ ; $ + O @ % v vXHXH.@.C.A.A.'.-XQ.Q.*XZXvXb pXaX=.G.MXZXHXvXpX;X:X&X&X{.}.}.}.}.].A.A.}.`.}.}.}.+X}.+X}.A.A.A.A.Z.Z.B.j.B.j.c.j.F.;X;X2XdXdXdXdXdXdX;X2X2X;X;X&X&X&X&X&X}.}.&X&X}.}.A.`.+X}.;X;X;XdX;XdXjXdXjXdXdX;X;XA.A.c.c.m.A.A.H.;XH.;X;XdXdX;X;X;X;X&X}.n.b.f.{ { 3.U.T.T.n.n.n.b.k.k.s.s.s.s.s.s.g.s.s.s.k.b.b.n.n.n.n.c.m.c.c.c.c.c.x.x.b.k.k.1.1.5.1.<.<.*.j.j.j.j.p.j.g.g.g.g.c.n.n.A.J.&X}.}.&XF.A.m.s.s.g.g.g.C.A.A.H.H.F.Z.Z.F.F.Z.m.Z.Z.Z.Z.Z.Z.B.p.p.p.%.( ~ ( ( ^ ] ` ] ` W W Q / ` ` ` / W F F U F W W W Y U U U U d d d e e e e e d e e A A S S A F A G D S S p a a q q i i q p g E J K E D U E k i S U U U U D g f d d d d d d d e d D W ^ ^ W W F A d A d e w w w w A G F J J g g g g g g T T T T T U g g g g ",
"p S D D S S S S K F F W ^ ^ ^ ^ O.O.` ` ] ] ` / _ ] ] ] ] ] ` ` ] ` ` ` ( ^ ` ;.;.1.1.1.k.k.k.l.k.k.k.k.l.l.x.v.`.`.'.{.{.{.{.[.{.{.XXXX:XXX:X>X>X:XoXXXXXOX|.'.'.`.T.R.W.'.'.|.|.|.|.|.|. X X X!.|. X|.!.!.|.|. X|.!.!.|. X X X X X X.XoXoX=X=X.X~.!.!.|.OX|.!.|. X X X X X.X.X*X.X=X*X*X*X*XoX*X*X*X=X4X4X4X*X*X=X=X.X X X!.W.|.'.|.|.!.!.^.~.=X=X=X=X*X.X=X=X4X*X.X.X*X.X.X3X3X3X3X3X4X4X4X3X3X3X4X3X=X=XoX.X X X X X.X=X4X4X6X6X6X6X5X5X4X3X*X.X.X.X.X!.!.!.!.!.!.!.^.!.~.^. X|.!. X.X!.^.^.!.!..X.X.X.X*X.X3X3X$X.X.X.X.X.X!..X.X.X X X X X!.!./.R.R.R.R.Y./././.^.^.^.^.!.!..X~.~.^.~..X.X~.~.~.~.~.~.!.!.!.^.!.^.^.!.^.|.~.~.^.~..X.X!. X~.~..X.X.X.X.X.X.X$X3X.X.X.X3X3X*X3X3X4X4X3X4X4XtX4XXX{.}.c.V.h.o.8 i j v c c h +.X.s X.C.c.}.Z.j 1 @ @ t b @.@.X.l t h j q & @ h aXhXjXvXaXZ.j t =.aXM.* O t B.G.D.S.b < j m &.*.p.Z.Z.B.X.L j s t 5 , = = $ $ @ O O @ O - pXPXjX*.X.h.A.c.Q.P.uX'.yXdXn N.D.M *.dXSXVXsXpX@X-X&X}.}.}.}.].`.T.`.`.`.A.A.].].+X{.+X].F.F.A.A.Z.B.B.j.j.j.j.j.C.F.;X;X;X;X;X;XdX2X2X;X;X;X;X&X+X}.}.}.}.+X}.A.&X+X}.`.`.}.+X;X;X;X;X;X;X2X;XdXdX;XF.A.V.c.c.c.Z.A.A.;X;X;XdXdXdXfX;X;X;X;X&XA.c.;.( _ } d.T.`.T.b.b.b.b.b.k.s.f.s.s.s.s.k.k.s.f.b.x.T.n.v.b.b.b.b.b.k.k.k.z.z.k.k.5.>.5.5.1.1.g.*.j.j.j.%.*.s.<.g.g.g.j.m.A.A.A.A.A.}.A.A.A.m.j.g.g.j.c.Z.Z.A.F.A.Z.Z.Z.F.Z.Z.Z.Z.Z.Z.Z.Z.Z.m.j.j.a.a.#.( W W ^ ( ^ / / W W / ^ ` ] ` / W W T W W W Y W W W W U U D D d e e w e e e e e A d d A A G F F F D A d p p a a a p w w f D J D D D U U U E l d W / U U T g e d S f f d d d d K ! / ^ ` ^ W G A I p w w w w w I G K K J f f g g g g D T U U U U U U g z ",
"p D F K D S S D K T W W ! ^ ^ ^ O.^ ` ` ` ] ` ` ` ` ` _ _ _ ] ] ] ` / / ^ ^ ^ ` O.;.2.2.1.5.k.k.k.k.k.q.k.k.x.v.T.`.'.{.{.{.{.{.{.{.OXXXXXXXXX:X>X>XoXXXXXOXOX|.'.`.W.W.'.'.'.'.|.|.|.|.|.|. X X!.|.|.!.!.!.|.OX X|.|.!.|.|. X X X X XoX=X=X=X*XoX.X.X.X XOX|.!.!. X X.X X X.X.X*X.X*X*X*X*X*XoX.X*X*X3X4X4X4X=X*X*XoXXX.XXX X!.!.!.!.!.!.!.!..XoX*X*X*X*X.X.X=X=XoXoX=X=X.X.X.X3X*X3X3X4X4X4X4X3X3X4X3X=X=X.X.X X X X.X.X=X3X4X5X5X9X9X8X5X5X4X*X*X.X.X X|.!.!.!.!.!.!.!.!. X.X.X.X.X.X.X~.^.~.!..X.X.X.X.X$X.X$X$X$X.X X.X.X.X.X*X*X.X.X.X X X!.!./.R.Y.R.R.R././.!.^.^.~.~. X.X.X~.~.~.~..X.X~.~.~..X.X.X~.!.!.^.!.^.^.!.^.!.~.~.~.~..X.X X X.X.X.X.X.X.X.X$X$X3X$X.X.X3X3X4X4X*X*X3X4X.X=X3X=XzXNX<X&Xg.l h , % o o @ * y l j 6 * 0 %.C.<Xn.@.t * $ N s l *.A.i 0 h s l 1 * i M.aXaXaXaXM.&.j &.aXM.* O 7 S.dXF.F.Z.X.l b 6 h b X.B.B.Z.j.%.g i j h y y y < * $ $ O @ = e.VXjXj X.A.h.s.Q.f.uXQ.wXgXM v &.&.+XZXDXjXaX+X-X:X{.{.}.].].`.A.n.`.`.`.A.A.`.`.}.{.+X+XF.F.F.A.Z.Z.B.j.j.j.j.j.c.A.A.F.;X;X;X;X;X2X;X;X;X&XA.A.A.}.}.A.A.`.A.A.&X}.}.`.`.`.+X&X&X;X;X;X;X;X;X;X;X;XF.A.A.c.c.C.Z.A.A.;X;XdXdXgXgXfX;X;X;X;X;XA.A.<.( ( } d.T.`.`.Q.n.b.b.b.n.b.s.g.g.j.s.s.s.s.f.k.b.T.T.n.n.n.b.b.b.k.k.k.z.k.q.5.1.2.>.1.1.1.g.s.g.j.j.*.p.j.<.g.g.g.j.m.n.A.A.A.A.A.A.A.A.m.j.g.g.j.c.Z.A.Z.Z.Z.Z.Z.Z.Z.Z.Z.Z.A.Z.Z.Z.Z.Z.m.m.j.s.s.%.( W Y W / / / W W H W ` ` ] ;.` ^ W W W W W W W / ~ ~ T E U D d e e w e d e e e A d A S S D K T T F S d f d a a p p e e p f S f f f D U W R r.=.f ~ U U T D f d d d d S f f S E ! ~ -.-.-./ H A I p w w w w w I A F K K D D f f g g g U U T T ~ ~ E E ) ",
"d F F K F D D D K T W W ! ^ O.^ ^ ` -.;.] ] ` ` _ ` _ _ _ ` ` ` ] ^ Q W W W W ^ O.O.;.;.2.1.5.5.k.5.5.5.5.q.k.x.v.T.T.'.'.[.'.'.'.'.[.OXXXXXXX:X-X-XoXXX XOX|.'.'.W.W.W.'.'.'.'.|.|.|.|.|.|.!.!.!.!.!.!.!.!.!.|.|. X|.|.|. X X X X XoX=X4X=X*X*XoXoX.X.X X X!.!.!.!..X.X.X!..X*X.X.XoX.X.X.X.XoX.X*X*X3X4X3X4X4X=X.X.X X.X X|.!.!.!.!.!.!. X X X*X*X*X.X.X.X.X.XoX=X=XoX.X.X.X.X*X*X3X3X4X4X4X4X*X3X3X=X=X.X.X.X X X.X.X*X=X4X4X5X8X9X9X8X8X8X4X=X=X.X.X X!.!.!.!.!.!.!.!.!.!. X~..X.X~..X~.~..X.X*X$X.X.X3X3X3X.X$X*X.X.X.X.X.X X.X.X.X.X.X X!.!.!.!.!.W.!.!.!.R.!.!.^.^.^.!. X.X.X~.~.~.~..X.X~.~..X.X.X.X~.~.~.!.^.^.!.^.!.!.^.~..X~..X~..X.X.X.X.X.X.X.X$X$X.X3X3X3X$X3X4X4X4X3X3X3X4X4X>X0XZXFXFXMX<XE t @ o . . . o @ 6 E U , o , ) c.c.n.%.t * - u < *.aX&.j X.s s @.g < 1 m S.e.v 5 v &.&.&.S.S.v @ O v S.F.F.Z.*.h X.l t b j M.jXdXH.F.j.X.X.&.&.e.e.e.N 7 $ % $ * e.VXH.j X.%.s.c.f.P.P./.-XMX&.- M pXhXCXhXCXdX:X-X:X&X}.}.].`.`.A.n.`.V.A.V.V.V.V.].+X+X+XF.F.F.A.Z.C.B.B.j.j.j.j.j.c.C.A.F.F.;X;X;X;X;X&X&XA.A.A.A.F.F.F.A.A.A.A.&XA.`.`.`.A.}.}.A.F.;XH.;X;X;X;X;X;XA.A.A.V.A.A.C.A.A.;X;XdXgXgXgXfXdX;X;X;X+XA.A.g.#.( >.b.T.Q.'.Q.T.b.b.n.n.n.b.m.c.m.s.s.g.s.f.f.d.b.T.n.n.b.b.b.b.k.s.k.k.q.5.1.2.;.:.2.2.1.g.g.j.j.j.*.*.j.j.g.g.j.g.g.m.n.A.A.A.n.n.n.n.m.m.g.s.j.j.j.Z.Z.Z.Z.Z.Z.B.B.Z.Z.Z.Z.Z.Z.Z.Z.m.j.j.g.s.s.( ( W U T W W / W W T W / ] ] ] ] ^ W W W P P W W ~ ~ #.~ ~ U U d e e e d A e d d d d A D S F T W W T F D D S f d p p e w p d d d g g f E W ^ $.e.M j E T U g f f d d d D J f J K K ! -.-.` / H G p w w w q w w w A G K K K K S d d d D U U T ~ ) ) ) ) ) ",
"S F F K K K K D K T W W ! O.O.^ ^ ;.;.] ] ] ] [ _ _ ` ` ] ` ` ` ^ / W W W W W W ^ O.^ O.2.1.>.1.3.7.[ [ 7.3.5.k.l.U.T.T.`.[.[.`.'.'.'.OXOXXXXX-XXXXXXXOXOX|.W.W.'.W.W.W.W.W.'.'.|.|.|.|.|.|.!.|.!.!.|.|.!.!.!.|.|.|. X|.|. X XXX X.X=X4X4X3X*X*XoX=X.X.X X X!.!. X X.X.X.X.X.X*X.X.XoX.X.X.X.X.X.X=X*X3X3X4X4X=X*X*X.X X X X!.!.!.!.!.!. X X X X*X.X.XoXoX.X.X.X.XoXoX.X X.XoXoX*X=X3X3X=X=X=X=X3X3X3X=X=X.XXX.X X.X.X.X=X=X4X5X8X8X9X9X5X5X5X4X4X=X.X X X!.!.!.!.W.W.!.!.!.!. X~..X.X.X.X.X.X$X3X3X3X3X3X3X4X4X$X$X*X.X.X.X.X.X X X.X.X.X.X.X!.!.|.|.!.!.!.!.!.R.!.!.!.^.^.!. X.X.X~..X.X.X.X.X.X.X.X.X.X.X~.~.~. X~.~.!.^.|.^.^.~..X.X~.~..X.X~.~..X.X.X.X$X$X.X3X3X3X3X4X4X3X5X3X5X4X3X8XlXAXJXJXFXZXA.i @ o . X . . * < : g e 2 $ % 0 E ) %.g s , * - N pXB.*.*.@.j i j @.i 0 k &.M 5 = 5 v e.D.D.S.M.h & O v S.F.pXD.k 1 @.@.k i m *.*.B.G.A.C.X.j j M &.D.D.c + $ @ $ M vXD.s %.$.o.s.k.d.3.i.Q.mX*.5 M dXhXMXhXdX<X-X:X:X{.{.}.'.}.`.A.n.n.n.n.v.v.V.V.V.+X+X+XF.F.F.F.A.Z.Z.B.B.B.j.j.j.c.C.A.A.F.;X;X;X;X;X&X&XA.A.A.A.A.F.F.A.A.A.A.}.`.}.`.`.A.A.A.A.F.+XF.J.H.H.;XH.F.A.A.A.A.A.A.C.C.A.;X;X;XgXgXgXgXdXdX;XF.F.A.A.c.%.( >.b.T.Q.Q.T.Q.n.n.n.n.n.n.c.c.m.g.s.s.g.s.f.d.b.b.v.n.b.b.b.k.k.k.5.k.5.1.1.2.;.] ;.;.1.g.g.g.g.j.j.j.g.j.g.g.g.g.g.m.m.n.n.n.n.n.n.m.j.j.g.g.j.j.j.c.Z.Z.Z.Z.Z.B.Z.Z.Z.Z.Z.Z.A.Z.m.m.m.j.s.s.#.( ( W W W W T W W W W T W ` ] ] ] ` Q W Q P P W W ~ O.#.( ) T U D d e e d A A d d d d S D D F T W W W W T K J D f d p e w e e e p a d f T W / ~ *.e.b j X.U g g d S S D E J f S J S K -.-.^ Q H A w w 3 3 3 q w w p A F W W T S d d d D U T W ~ ) ) ) ) ) ",
"S T T W P W K K K W W ^ ^ ^ ^ ^ ^ ] ] ` ] ] ] ] ] ` _ _ _ ` ` _ / W W W W K T T W ! ~ ^ ;.2.2.>.7.[ [ { [ [ [ } 6.d.l.E.T._.`.`.'.'.'.'.{.OXOXXXOXOX X|.|.|.|.W.W.W.W.W.W.W.|.'.|.|.|.|.|.|.|. X|.|.|.|.|.|.|.|.|. X X|.|. X XOX.X.X=X3X3X*X*X=X*X*X.X X.X.X.X.X.X X X.X.X.X.X.XoXoX=X=X.X.X.X.X=X=X*X4X4X4X4X4X4X*X*X.X.X X!.!.!. X X X X.X.X X.X.XoXoXoXoX.X X X X.X.X.X.X*X*X.X*X=X3X4X3X3X3X4X4X4X=X=XoXoXoX.X.X.X*X=X*X3X4X9X6X9X6X4X4X4X4X4XoX X.X|.!.!./.Y.Y.Y.!.!.!.|. X~.~..X.X.X*X.X$X3X4X4X3X3X3X3X3X3X*X.X.X.X.X.X.X X.X.X.X.X X!.!.|.!.!.!.!.!.!.!.!.!.!.!.!.!.!..X.X.X~..X.X.X.X.X.X.X.X.X.X.X.X~..X X~..X.X^.|.~.~..X.X.X~.~.~..X~.~.~.~..X.X.X.X3X3X3X3X3X4X5X5X6X4X5X5X.X=XMXFXKXFXMXnXl & o X . . . @ i l g a j : & o o 1 j g q j j * - N.m M.F.B.*.h s %.%.j 1 t &.&.t * @ = h &.S.G.G.B.&.y 5 v M r.F.Z.*.&.Z.m & < b &.B.F.;X2X*.s t i v e.N.7 + o $ ; n jX*.X.C.*.$.,.k.f.7.3.!.9XB.y X.B.fXnXjXG.=X-X:X>X:X:X{.}.}.`.`.A.n.v.v.v.v.V.A.A.F.F.+X+X;XF.F.F.A.C.B.B.B.B.j.h.c.C.C.A.A.;X;X;X;X;X;XF.A.A.A.A.A.F.F.F.A.A.A.F.A.}.}.`.V.V.A.A.}.+XF.A.F.;X;XH.+XA.A.A.A.A.A.A.A.A.+X;X;XgXgXgXgXgXdX;XF.A.C.C.g.%.( s.b.Q.Q.Q.Q.Q.Q.Q.Q.Q.Q.n.n.c.j.g.s.s.s.s.f.f.b.b.v.n.n.T.b.k.k.k.k.5.5.:.1.2.] ] ( ( <.g.g.g.g.g.j.j.j.j.g.j.j.j.j.m.m.A.n.m.m.m.n.j.j.g.g.s.j.j.j.c.c.Z.Z.Z.B.Z.Z.Z.Z.Z.Z.Z.Z.m.m.s.s.g.s.$.( ( ( ( W W W W W ! ! T K F / ] ] ] ` / / Q H H W W W ^ #.( ( ) T U d e w d F G G A A d A D K T W W W ! W W T E J D d e w w w w w w p d f R ~ / ] ( *.e.b j E f d e A D K R J f f S d F ^ -.^ Q H I w 3 4 4 4 q w w e A H Q W W F D S D U T T ~ ) ) ~ ) @.) ",
"S W W W W W T T W W / ^ ^ ^ ^ ^ ^ ] ] ` ] ] ] [ ] ] ` ` ` ` ` ^ / W W P F F F K K W ! ^ ^ ] ] ] [ [ _ _ { { { } 3.6.d.I.E.T.T.T.W.W.W.'.'.'.'.|.|.|.|.|.|.!.!.!.W.W.W.W.Q.!.|.'.|.|.|.|.|.|. X X X XOX|.|.|.|. X|.|.|.|. X X X X.XoX=X*X*X*X4X=X*X*X.X.X.X.X.XoX.X.X.X.X.X.X.X X*X.XoX=X.X.X.X.X=X=X*X3X5X5X4X4X4X4X4X=X.X.X.X.X X.X.X X.X.X.X.X*X.XoXoXoXoX.X.X.X.X.X.X.X.X*X*XoX*X4X4X4X4X4X5X5X4X3X=X=XoX.XoXXXXX.X.X.X.X=X4X4X5X6X6X6X6X6X4X3X$X.X.X X!././.Y.Y.Y.Y.!.!.!.!.^..X.X.XoX*X.X.X3X3X3X3X3X3X3X$X3X.X.X.X.X.X.X.X X.X.X X!.!.!.!..X!.!.!.!.!.!.!.^.!.!.!.!.!. X.X.X.X.X.X.X.X.X.X$X3X3X$X$X$X$X~..X.X~.~.~.~..X.X~..X.X.X~.~.~..X.X.X~..X.X.X.X.X3X3X3X3X4X5X8X5XtX5X6X4X8XBXFXKXKXFXgX;X&.@ o . o O # s ) g D +.j.h < @ o o @ < k j g 0 * 7 v pXS.*.j =.M.p.*.*.j 1 i E @.m 6 * 1 h m M.B.S.F.M.v , & t Z.dXdXS.B.S.m < k M.Z.A.+XdX;X0.=.j h v y - $ O $ $ c N.m =.B.*.<.$.1.d.d.2.b.-XF.v X.C.1XdXG.<XXX:X:XXX:X:X{.'.}.`.`.`.n.n.v.v.V.V.V.A.F.F.F.+X;X+XF.F.Z.Z.C.C.B.B.Z.j.c.C.C.A.A.F.;X;X;X;X;XF.A.A.A.A.A.A.F.A.A.A.A.A.A.}.}.`.A.A.`.A.}.+X+XF.&X;X;XJ.+XA.A.A.V.A.V.A.A.A.F.;X;XfXgXgXgXfX2X;XA.A.C.c.s.2.] f.b.'.Q.Q.Q.Q.Q.Q.Q.}.}.`.A.n.m.m.g.s.s.s.s.k.b.v.T.n.n.T.v.b.k.k.k.5.7.:.:.2.] ] ^ ^ <.s.s.s.g.g.g.h.h.h.g.g.j.j.j.j.j.j.m.m.m.m.n.g.g.g.g.g.m.j.j.j.c.c.B.Z.Z.Z.Z.Z.Z.Z.Z.Z.C.n.m.s.<.s.s.;.( ( ( ( W W T W ~ ! ! T K T W ] ` ] ] ` ^ W H H Y W W ^ #.( #.~ T U e e w d F F F F S d d S K T W ! ! ^ ! W T T K D d e w w w w w w p d D R ~ ,.2.] #.%.X.h j j f S S J K T D S d d p G / ^ ~ W F e w 4 4 4 q q w e d G H P / W T F U U T T T ~ ( ) ) ) ) ) ",
"S W W / W W W T W W / ^ O.O.-.` ;.;.:.:.:.:.[ [ [ [ ] ] ] ` ` ^ ^ / W H F F F K K W W W / / Q _ _ _ _ _ { { [ } 3.4.d.d.l.I.U.U.T.R.W.W.W.W.W.W.W.W.W.!.W.W.W.W.W.W.W.W.!.!.|.|.|.|.|.|.|.|.|.|.!. XOX|.|.!.|. X X!.!. X X.X.XoX.X*X*X*X*X4X4X=X4X4X=X=X.X.X.X X.X.X.X.X.XoXoX X.X.X.X=X.X*X.X.X.X*X*X4X4X4X4X4X3X4X4X4X4X=X*X*X.X.X.XoX.X.X.X.X.X.X=X=X=XoX.X.X3X=XoX.X.X.X*X3X=X4X4X5X4X4X4X4X4X3X=X=XoX.X X X X X X X.X.X=X=X4X4X5X6X6X6X6X5X3X.X.X X!.!.Y.Y.U.Y.Y.Y.Y.Y.W.!.^.~.~.~..X.X.X.X.X.X$X$X$X.X$X$X3X.X.X.X.X.X.X.X.X.X.X.X.X X.X X.X!.!.!.!.!.!.^.^.^.!.!..X.X.X.X~..X.X.X.X.X$X.X3X3X3X$X$X$X.X~..X~..X~.~.~.~..X~.~.~..X~.~..X$X.X.X.X.X.X.X.X.X.X3X3X4X5X9X5X4X3X6X5X>XMXJXKXSXhXB.*.h y @ % @ @ i %.m.E i & & : % O . . X O . @ 1 l 0 & @ &.D.D.=.j &.M.X.X.X.l s q X.*.j.*.X.l j l &.B.B.B.M.X.h t t M pXjXF.X.h j m j m j.X.$.A.;XA.j.*.*.m b y 5 u 7 ; - 7 t @.j.X.#.2.{ 5.f.,.b.:X;Xm M fXMXhX;X,X8X>X:XXX:X:X{.{.'.].`.`.A.n.V.V.V.A.A.A.A.F.+X+X+X+XF.F.F.Z.A.A.Z.Z.C.Z.A.A.A.Z.A.F.F.F.;X;XH.F.F.A.F.A.A.A.A.A.A.A.A.A.}.A.}.`.}.].`.`.].+X+X+X;X;X;XJ.+XA.A.A.A.V.V.n.C.A.A.+X;XfXgXgXfXfX;X;XA.A.c.c.s.<.>.f.T.'.{.W.Q.W.Q.}.}.&X&X}.}.A.n.m.m.s.s.s.s.k.b.v.n.T.T.T.n.v.l.k.5.5.:.:.:.:.] ] ( ( 2.<.s.s.s.g.g.c.c.c.c.g.g.g.j.j.j.j.m.m.m.m.m.g.g.s.j.j.j.j.j.j.j.j.c.A.Z.Z.Z.B.B.Z.Z.Z.C.A.m.s.<.;.] ( ( ( ( ( ( W W W W ! W W W W Y ` _ ] ] ^ ^ W P W W W W O.#.#.( W U U Z e e A F F K F D d d d J T ! ~ ~ ~ ~ ! T T J S d a w w w w w w w d D R #.,.,.1.>.( ) E k k g j J J D U D D S d p A P W P P G w q 3 4 q q p d g d D H P / ^ / / T U W W ~ ~ ~ ~ ) ( ) l ",
"D W W / / ^ W W W ^ ^ ^ ;.<.2.2.1.1.1.>.>.>.:.[ [ ] ] ] ] ` ` ` ^ / W H H F D D F K F W Y Y Q Q _ _ _ _ _ ' [ 7.} } f.d.d.I.U.U.R.R.W.W.W.R.R.R.W.W.W.W.W.R.R.W.W.W.W.Y.W.!.|.|.!.!.|.|.!.W.!.!.Q.!. X X!.!.!.!..X X|. X.X.X.X=X.X*X*X*X*X4X3X=X=X=X=X=X.X.X~..X~..X.X.X.X.X*X.X.X.X.X=X.X*X*X.X*X*X*X4X4X3X4X4X4X4X4X4X4X4X*X*X*X.X.X=X=XoX.X=X*X*X*X*X*X*X*X*X.X XoX3X4X3X3X4X4X5X5X5X5X5X4X4X3X=X=X.X.X X X X|. X X X X.X.X*X4X4X8X9X5X5X5X5X*X*X.X X!.R.Y.Y.L.L.P.L.P.Y.Y./.^.~.~.~.~..X~.~..X.X.X$X$X.X$X$X3X.X.X.X.X.X.X.X!.!.!..X!.!.!.!.!.!.!.!.^.^.^.!.^.!. X X.X.X.X.X~..X.X.X$X3X3X.X3X3X$X.X.X.X.X~..X~..X~.~..X~. X~.~. X.X~.~..X$X.X.X.X.X.X$X$X3X3X3X3X4X4X5X5X5X5X6X3X0XCXVXpXb 5 * = # # * , 1 0 j.<.( 1 @ o . . .       . @ * . & < i < * * h m @.j X.e.m h l s r a i L o.j.j.*.%.p.M.e.*.*.*.*.X.m &.&.&.=.D.B.X.0 j l i k b C.+X<XgXG.B.*.=.=.X.m M - $ $ - m @.X.o.%.<.( f.s.s.z.:XgXe.c A.MXhX<X>X>X>XXX:XXXXXXXXX{.{.+X+XA.A.A.V.V.A.A.A.A.+X;X;X;X;X;X+XF.F.A.A.C.C.A.C.A.F.A.F.A.F.H.F.H.F.F.F.F.Z.Z.F.F.F.A.A.A.A.A.A.F.A.`.}.+X+X].`.`.}.}.+X;XJ.;XF.F.A.A.A.A.A.V.c.c.A.A.;X;X1XfXgX1X1X2X+XA.C.c.c.s.<.s.k.T.'.'.W.Q.Q.{.}.}.}.&X&X}.}.A.m.m.j.s.s.g.k.b.v.`.`.`.}.T.T.v.l.5.:.:.5.:.;.` ;.,.;.2.<.<.s.s.g.g.h.c.h.c.g.g.j.j.j.j.j.j.m.s.m.s.g.s.j.j.j.j.j.p.j.j.B.c.C.Z.Z.B.B.B.B.Z.C.C.c.g.s.<.( ( ( ( ( ( ( / ^ ( W T W W W W W Q ] _ ] ;.] ` / W W W W ! O.#.#.~ T U U A e e A F K K F D d d d J E ~ ~ ~ ! ! T T T D S p a w w q w w q w p D T ^ ] ( <.<.#.( T j i i k L S S T F D S d p p G H P K G w q 3 3 q w d D f d G F Q ` ` ` ^ W W W W W W W W ) ) @.E ",
"S W / / / ^ ^ ^ ~ ~ ^ ;.,.2.2.2.5.5.5.5.>.7.} >.>.[ [ :.:.] ` _ ^ / / W H H F F F F H H W Y Y Q _ _ _ ' ' { [ } } 3.6.d.d.d.U.E.R.R.R.R.Y.U.R.W.W.Y.Y.R.Y.U.Y.W.W.R.W.W.!.!.!.!.!.|. X|.!.!.|.|.!.!.!.!.|.|. X X X.X X X.X.X.X=X.X.X.X*X=X3X3X=X3X4X3X3X*X.X.XoX.X.X*X=X*X.X*X3X=X=X=X=X.X.X.X3X.XoX=X=X4X4X4X=X5X5X5X4X4X4X5X4X3X4X4X3X3X4X=XoX=XoXoX=X=X=X=X4X*X*XoX.X*X3X3X=X5X6X9X9X5X5X4X4X3X3X=X=X.XXXOXOXXX X X X X X X.X=X4X5X5X5X9X9X8X=X.X X X!.R.Y.Y.P.P.P.P.U.Y.Y.!.^.!.^.~..X.X XoX3X.X.X.X3X*X.X.X.X.X.X.X.X.X.X!.^.!.|.|.|.!.!.!.!.!.|.!.!.!.!.!.|.|. X X.X.X=X.X.X.X.X*X3X$X$X3X$X3X$X3X.X.X$X$X~.~.~..X.X.X~.~..X X.X$X.X.X.X.X.X.X.X.XoX$X3X4X4X3X3X5X8X4X4X5XqX3X:XaXiXB - $ O o o @ & 2 q ) ~ s.2.p 1 O . .       . X   . = s : : 1 < & = % < m m m &.m 6 g #.) i 2 q E *.M.S.S.S.M.&.=.=.&.X.X.X.X.*.M.m e.dXdXB.X.i < 6 s =.B.A.A.c.h...E X.%.*.y ; ; $ 5 h m l %.$.#.~ ~ ~ 8.B.;XhXiXn S.DX:XXX>X>XXX@X@X{.-X-X&X}.{.+X}.`.}.A.n.V.V.A.].F.+X;X;X;X;X+X+XF.F.A.A.A.C.A.A.A.F.F.H.H.F.F.+XF.F.F.F.Z.Z.Z.F.F.F.A.A.A.A.A.A.F.+X}.}.`.A.A.A.].].+X;X+X;X;XF.}.A.A.A.A.A.A.A.c.n.A.+X;X,XfXfX<X;X;X}.n.A.j.m.s.;.2.>.b.Q.W.'.}.}.&X-XQ.}.&X&X&X&XA.A.n.s.s.s.b.b.b.T.`.`.].`.`.`.`.l.5.1.5.5.1.1.2.2.2.<.<.%.<.<.<.1.s.g.c.c.b.c.g.g.m.m.j.j.m.m.j.s.s.g.j.j.j.m.m.j.p.j.B.B.B.j.c.C.B.B.j.j.c.g.g.s.s.s.] ( ( ( ( ~ ( ~ ( / ^ ~ ! ! ^ O.( ^ ^ ^ ] ] ] ] ` ^ W F W ^ ~ ^ #.#.( / W F D e d A F F F D A p p f K K E R R R R K D D f p a a w w w w w w w p D K ~ ( ,.,.#.#.~ E d f a 8 k L R T L J A e e w Z G G G I I w q q w a j j f D D F Q ` -.-.^ W T W / ! ! T T ) %.%.@.",
"D ! / / / / ^ ^ O.^ ^ ;.2.2.1.>.k.k.k.k.k.3.3.7.3.7.7.>.:.:.] _ _ / / Q W H H H H H W W Y Q _ _ _ _ _ [ [ [ } 3.} 4.6.d.d.L.U.U.U.U.Y.Q.Y.U.Y.R.R.R.R.Y.Y.Y.Y.Y.Y.R.W.!.!.!.!. X|.|. X|.!.!.!.!.!.!. X X X X X X.X X X X.X.X.XoX.X.X.X*X=X4X4X=X3X3X3X3X*X*X=XoX*X*X*X=X=X*X*X*XoX.X.X.X.X.X.X.X.X=X=X=X=X4X4X=X5X4X5X5X4X5X9X5X4X4X4X3X3X4X4X=X=X=X=X.X*X3X3X=X3X4X4X3X3X3X4X5X4X5X9X9X5X5X5X5X5X3X*XoXoXXXOXOXOX|.|. X X X.X*X=X4X5X4X5X5X8X8X=XoX X X!.W.Y.Y.P.U.P.L.U.U.Y.R.R.R./.^.!. X XoX*X.X.X.X.X*X.X.X.X.X.X.X!.!.!.!.!.!.!.!.!.!.!.!.|.|.|.!.!.!.!.!.|. X X.X.X.X*X.X3X*X*X3X4X3X3X3X3X3X3X3X3X.X.X.X~.~..X.X.X.X.X~..X.X.X.X.X.X.X.X.X.X.X$X3X3X3X4X4X*X*X7X6X4X5X7X-X+XS.e.y = + + o O . o 1 @.) s.gX1X<X%.0 o .         .         s h , : & & , & @ , t t a.m 6 s o.a i s q q j X.e.e.M.*.k , & * 6 h m X.X.*.S.D.pXdXF.r.j 6 < 5 < i j X.$.h.0.*.*.*.=.5 $ ; * < * y v j j E o.R m &.r.G.F.M.S.*.HXkXXX{.@X@X:X{.@X{.{.{.{.+X+X}.}.}.`.A.V.V.A.`.A.+X;X;X;X;X;X+XF.+XF.A.A.A.A.A.F.F.H.H.;X;X;X;XF.F.F.F.Z.Z.Z.Z.F.F.F.A.A.A.A.A.;X&X+X}.}.A.A.A.].+X;X;X+XF.+XF.+XA.A.A.A.A.A.n.c.n.n.}.;X<X1X,X<X<X;X}.n.n.g.g.s.( ( ] f.b.Q.W.}.&X&X-X}.-X-X-X-X&X}.}.n.m.m.s.b.n.n.`.'.`.'.}.`.`.T.k.5.5.5.5.5.1.2.<.<.<.s.$.<.<.2.<.<.s.g.x.c.b.c.c.c.m.m.m.m.j.j.s.s.j.j.c.B.j.j.p.p.p.j.B.j.j.j.Z.Z.B.j.h.g.g.g.s.1.<.;.^ ^ ^ ( ( ( ( / / ^ ^ ^ ^ ^ O.( ^ ! ^ ] [ ] ] ` / / W / ^ ^ O.#.#.( / W U D e d d D F D A e p p d J K T R R T J J S S f p p p p a w w w p p f S D W ^ #.^ ^ ^ ~ U J p d d q k =.+.E E R T p w p f A I e w w w w e f g j E E g D ! ^ -.^ ~ ~ ~ ~ ~ Y Y T ~ %.%.@.@.",
"D ^ ^ _ ` ^ ` ^ -.-.;.;.2.1.1.k.k.l.l.l.l.d.5.3.5.3.3.3.7.:.[ ] ` _ _ / Q Q W W Y Q | | | | _ _ [ [ [ } [ } 3.3.4.4.d.d.L.L.U.U.Y.Y.Q.R.Q.Y.Y.Y.R.W.W.R.Y.Y.W.R.Y.R.W.!.!.!.|. X|.|.!.!.!.!.!.W.!.|.|. X X X X X.X X X X X.X.X.X.X.XoX*X=X4X3X=X4X4X3X4X3X3X=XoX=X=X=X4X4X=X*X*XoXoX.X.X.X.X.X.X.X.X.X*X=X4X4X4X4X4X5X5X4X5X9X8X5X5X4X4X4X5X5X4X4X4X4X*X*X4X4X*X3X4X4X4X4X4X5X8X4X5X6X9X9X9X5X5X8X4X*X=X=X.X X|. X|.!. X X X.X=X=X4X5X4X4X5X5X5X3X=X.X X!.W.W.Y.P.U.U.P.U.U.Y.R.!.!.!.!.!.!..X.X.X.X.X.X.X.X.X.X.X.X.X.X!.!.!.!.!.!.!.!.!.!.!.!. X|.!.!.!.!.|.|. X.X.X.X.X.X.X.X*X.X.X.X3X3X3X.X3X3X3X3X3X.X$X$X.X.X.X.X.X.X.X~..X.X.X.X.X.X.X.X.X.X$X$X$X$X3X4X5X=X=X4X4X4X4XtX+Xe.c 7 * $ X O . .   o 6 E m.&X&XQ.-XA.X.* o . .       . .     O s z 0 < & & & & = * t h u k l @.i s l i 1 > t i X.*.X.j q 1 , < < i X.=.X.*.S.pXpXG.B.X.j t , 5 t i i J g.F.c.j.*.h - $ - v 5 $ $ - t y m &.X.v v X.*.B.e.pXaXDXfX[.@X{.[.+X+X{.{.{.{.}.}.+X}.+X+X+X}.}.].A.A.A.+X+X;X;X;X;X+X;X;XF.F.F.F.A.A.F.F.H.H.;XH.H.;XH.F.F.F.F.F.F.F.F.F.F.A.A.A.A.}.&X;X&X&X+X+X;X+X].F.+X+X+X+XF.A.A.A.A.A.n.n.n.n.n.n.n.A.&X:X<X<X<X<X}.}.n.m.g.s.>./ Y / >.f.b.Q.}.}.&X-X-X=X-X-X-X-X&X&XA.n.m.m.b.b.n.`.'.'.{.'.].`.v.k.5.5.5.5.q.q.g.g.g.g.s.<.$.%.#.2.<.s.k.x.c.n.A.n.c.c.g.g.m.j.j.g.g.j.c.c.Z.j.j.j.p.p.p.j.j.j.j.c.c.h.s.<.8.<.<.<.<.2.2.#.~ / / / / / / W W ~ ^ ^ ^ ;.;.( ^ ^ ] [ ] ] ] ` ^ / ^ ^ ^ ^ #.#.( W W T U d d d S G A e w w p p S J K R L j f f f d p p p p p p p p a p f S J D D W ^ ^ ^ ^ W D f S A d f k h =.*.%.%.T w q w p p p w p e p d d f f g g D f D ! W ^ O.O.~ R J g ( E T ~ %.*.*.@.",
"F ^ ` ` ` ` ] ] ;.;.;.2.1.1.k.l.l.v.v.l.l.k.d.d.5.5.3.3.3.>.[ [ [ ' _ _ _ _ _ / | _ _ _ _ ' ' ' [ [ [ [ } 7.3.4.4.f.d.L.L.P.U.U.Y.R.W.W.W.W.W.R.R.Y.Y.Y.Y.Y.Y.W.W.!.!.!.!.|.|.|.!.!.!.!.!.!.!.W.!.|. X X X X X X X X X.X!. X.X.X.XoXoX=X3X3X=X*X4X4X4X4X3X3X*X=X=X=X3X4X4X4X4X4X*X.X.X.X.X.X.X.X.X.X.X*X*X4X4X5X4X5X5X5X5X5X5X5X5X6X6X6X5X5X5X4X5X4X4X4X4X4X4X4X3X4X4X4X4X4X5X5X5X5X6X6X5X5X5X5X8X5X=X=X=X.X X|. X X X X X X.X=X=X4X5X5X5X6X6X5X4X3X.X X|.!.W.W.Y.Y.U.U.U.U.Y.W.!.!.!. X.X!. X.X.X.X.X.X.X.X.X.X.X.X.X.X~.~.~.!.!.!.!.!.!.!.!.!.!.!.!.!.|.|.|.|..X=X.X.X3X*X*X3X3X3X$X3X4X4X3X*X.X3X3X3X3X3X3X$X.X$X$X.X.X$X*X~.~. X~.~..X.X.X.X.X.X.X.X.X3X4X5X5X5X4X3X3X4XqX,XS.N.V = + $ + o . X   o < g n.MX1XQ.n.s.m 5 @ @ @ O X . .   o X o % r z 0 * & & & * * * = 5 l @.X.o.@.l j i # # 2 h *.=.*.X.E l j i j X.r.B.B.*.B.D.F.dXF.B.X.i 6 0 s s j o.B.;X;X&.5 = - M M.y * @ $ = - y n v v h v =.N.B sXVXVX;X[.].+X).{.:X{.{.{.{.{.+X+X+X+X+X+X+X+X}.].].}.+X+X+X;X;X;X;X;X;X+X+XF.F.A.A.F.F.H.H.dXaXaXaXH.H.F.F.F.F.F.F.F.F.F.A.A.A.A.&X&X;X&X&X&X;X;X;X+XF.A.F.+X+XA.A.A.C.n.n.n.c.n.c.n.c.n.A.&X:X<X<X<X<X+X}.n.m.s.g.s./ Y Y _ s.d.Q.A.}.}.-X-X=X-X-X-X-X&X&X}.n.b.b.b.b.T.'.{.{.{.'.`.`.v.k.5.5.5.5.q.k.c.c.c.g.s.$.%.%.#.2.s.s.z.v.x.V.A.V.c.c.m.g.m.j.g.g.g.m.c.c.B.j.j.B.M.p.p.j.j.j.g.c.g.g.<.2.2.2.2.<.2.<.2.,.^ / W W W / / / W / ^ ! O.O.;.O.^ ^ _ ] ] ] ] ] ` ^ ^ ^ ^ O.#.#.~ ~ W W U A d d d d d e w w w p S J L L L j f d p p w w p p p p p f S S S f D D D T ! ! ~ ^ W G d f S J J f s k h b *.X.a a j L b b j L L L L X.m X.X.E T T D T T ^ O.^ W T U U ) E T ) %.%.%.@.",
"F / ] _ ` ] ] ] ;.;.:.>.5.q.k.l.v.E.v.v.x.l.l.k.5.5.3.3.3.:.[ [ [ [ [ [ [ [ [ ' _ ' { { [ [ [ [ } } } } } 3.3.4.f.d.d.L.U.P.U.Y.R.W.W.W.W.!.!.W.W.R.Y.Y.Y.Y.R.W.!.!.!. X X X X X|.!.!.!.!.!.!.!.!.|. X X X X X X.X X.X.X X.X.X.X.X.XoX=X4X4X=X*X3X3X3X3X3X3X4X4X4X3X4X4X4X*X*X4X.X.X.X.X.X.X.X.X.X.X*X*X*X4X4X4X4X5X5X5X5X5X5X5X5X6X6X6X5X5X5X4X5X4X4X5X5X4X4X5X4X4X4X4X4X5X6X6X6X6X9X9X5X5X5X5X9X9X5X=X.X.X.XXX X X!. XoXoXoX=X=X=X4X5X6X6X6X5X4X4X*X.X X|.!.W.Y.R.Y.U.U.U.Y.W.!.!.!.!.!.!.~.~..X.X.X.X.X.X.X.X.X.X.X.X~.~.~.!.!.!.!.!.!.!.!.!.!.!.!.|.|. X|.|..X=XoX.X3X*X3X4X4X4X4X4X4X4X3X=X3X4X3X3X3X3X3X~..X$X.X.X.X$X.X~..X.X.X~.oXoX.XoX.X.X.X*X3X4X5X5X*X5X4X=X*X*X+XpXe.c - - + X o . X   . o & p.;Xc.E E s , @ O . o u * , & & * y 2 < t < E E 1 & < : & , = o = m X.s @.%.E f i , % * 6 b =.=.=.=.X.X.X.E E E E =.*.j.S.aXvXhXjXaXZ.B.@.X.X.*.A.F.dXC.h - u &.D.S.M 5 @ o O ; - y n n M =.e.S.=.sXJXvXdX<X+X{.XX:X0X>XXX{.}.{.+X+X].+X+X].+X+X}.].+X+X&X+X+X+X;X;X;X+X+X+X+X+XF.A.A.F.F.;XH.dXaXaXaXH.H.F.F.D.D.D.F.Z.Z.Z.Z.F.A.A.+X&X&X&X&X;X;X;X+X;X;XF.F.F.A.A.C.C.c.c.c.m.b.b.b.m.c.n.`.}.&X;X<X:X&X{.`.n.b.s.f.s.( Y F Y [ f.b.n.Q.Q.}. X-X=X8X-X-X-X&XQ.Q.n.n.b.b.T.'.{.{.{.'.`.v.l.k.5.5.5.5.k.z.c.c.m.g.s.$.%.#.( ;.<.s.k.v.x.v.V.n.c.c.c.c.g.g.g.g.c.c.c.c.B.j.B.B.M.p.p.p.j.j.j.g.g.s.<.2.#.#.2.2.<.<.2.,.^ ~ / W W W / / W ! ! ! ~ O.O.O.^ ^ / ] ] ] ] ] ` / W ~ O.O.#.#.O.~ ! W U S d d d e e w q q w p S J K R E J f p p w w w w p p p f J E T D f f f f J J K K T T F f f S D D L T e q i h b c v v h n n v n v v v v M B e.&.=.e.e.e.$.*.$.o.E D f d U R ~ o.$.@.@.) ",
"F _ [ [ [ ] [ [ :.:.>.>.5.k.k.l.l.x.E.v.v.v.l.k.d.5.3.3.3.[ [ } } } [ [ } } [ [ [ [ [ [ [ 7.7.7.3.} 3.3.4.4.4.4.d.d.d.L.L.U.Y.W.W.W.W.|.!.!.!.!.|.!.W.W.R.!.!.!.!.!.!. X X X X X X|.!.!.!.!.!.!.!.|. XXX.X.X.X.X=X.X X X.X.X.X X X.XoX=X4X4X*X*X4X4X4X4X3X4X4X5X5X4X4X4X4X4X4X4X*X*X.X.X.X X X.X.X.X*X*X*X*X3X3X4X4X4X4X5X5X5X5X5X6X6X5X5X6X6X5X5X5X5X5X5X5X5X4X5X5X5X5X5X5X6X6X6X6X9X9X9X9X9X5X8X9X9X5X=X*X.XXX X X X.XoXoX.X.XoX=X3X5X5X6X6X6X4X4X*X.X.X X!.W.W.W.Y.U.U.Y.Y.!.!.!.!.!.!.!.!.~..X.X.X.X.X.X.X*X=X.X.X.X!. X X!..X!.|.|.|.!.!.!.!.!.!.!.|..X X X.X.XoX*X*X.X3X5X3X3X4X3X3X3X3X3X*X4X3X3X3X3X3X3X.X$X.X.X.X$X.X.X.X.X.X~.oX.X.XoX*X=X=X3X4X4X4X3X5X4X$X X=X=X+XiXV - $ + O o o .   X   O , 1 l l < @ . . .     X @ * t q l q g T E g ~ E o.U q 1 q 1 , * O . 5 h m m *.%.f j 1 % o * 1 j j j j X.*.X.E j g i s X.j.D.aXjXvXvXvXhXjXdXdXG.H.hXjXdX*.y 5 M aXpXM.M 5 @ o O $ * 7 v M =.=.0.*.=.aXKXVX+X<X<X[.[.`.OX>X-X{.}.].+X+X].].].A.].}.].}.+X+X+X+X+X}.+X+X+X+X+X}.].F.A.C.A.A.A.F.F.H.H.F.F.H.H.F.F.D.D.D.D.Z.Z.Z.Z.F.A.F.A.&X;X&X;X;X;X;X+X;X;X;XF.A.A.A.A.C.c.m.g.g.k.k.m.c.c.n.`.}.&X:X:X:X&X{.`.c.b.s.s.{ { Y U Y ] f.d.n.Q.Q.W.!.-X-X>X-X-X-X&X}.Q.n.n.b.b.T.'.XXXX'.'.v.x.k.5.5.5.k.k.x.v.n.c.c.g.s.<.#.( ( ( ;.>.s.b.c.n.n.n.v.c.b.k.g.s.s.g.c.c.c.c.B.B.B.M.p.p.j.j.j.g.j.g.<.<.2.] ( ( #.2.,.<.2.;.( ^ ^ ^ W W W W W ! ! ! ~ ^ O.-.O.^ ` ] ] ] ] ] ` / W ~ o.O.o.o.o.o.^ W T S d d A e w w q q w p p D J K J f d w w w w w w p f S J E E E J f f a g g f D D D D F f J S S J J T E f > 1 1 6 6 t 0 1 1 3 q q q i q 6 i i k h v b M =.e.e.e.*.=.l g g J R o.$.*.*.@.",
"F _ [ [ [ [ 7.7.>.:.} 3.5.k.k.l.l.l.v.v.v.x.l.5.k.3.7.7.>.:.[ [ 7.7.7.3.3.} } [ } } } } 3.3.3.3.4.4.4.4.4.4.6.6.d.d.d.L.P.U.Y.W.W.W.!.|.|.|.!.|.!.!.!.W.W.!.!.!.!.!.!. X X X X.X X|.|.!.!.!.W.'.!.|. X X X.X.X.X.X.X X!. X.X X X.X.X*X=X4X*X*X*X4X4X4X4X4X4X5X5X5X4X4X5X5X5X4X4X*X*X*X.X.X.X X X X.X*X*X*X*X3X=X3X4X4X4X5X5X5X9X5X9X9X6X6X9X9X6X5X6X6X5X5X6X6X5X9X6X6X5X5X9X9X6X6X6X9X9X9X9X9X5X4X8X9X5X5X4X=XXXoX.XXXXX X X X XoX=X=X4X8X9X9X9X6X4X3X3X.X X!.!.!.W.R.Y.Y.Y.Y.!.!.!.!.!.!.!.!.~..X.X.X.X.X.X.X*X3X.X.X.X.X.X.X.X!. X X X X|.!.!.^.^.^.!.!..X X.X.X.XoX=X.X.X*X3X*X3X4X4X3X4X4X4X3X4X3X4X3X3X3X3X3X$X3X3X.X$X.X.X~.oX.X~.oX*X*X3X$X=X3X*X4X4X3X.X4X4X3X3X=X:XS.M c - ; O O o . . X . . < @.j h 5 O . . .     .       @ 0 U D #.2.) ( Y f.W R U f g g < @ @ . o < h t l E a s < @ o o # i i 1 < h h h X.j j L j j =.B.S.pXaXjXvXVXVXhXhXvXhXhXjXF.=.v S.aXjXjXS.m * O O o @ - 7 c v e.=.&.e.M sXLXLXdX'.:X XXX[.[.OXXX{.].V.V.].A.A.V.A.`.A.A.].}.+X+X&X&X&X}.}.+X+X}.A.A.C.C.C.C.C.A.F.F.F.F.F.F.F.F.F.D.D.D.D.D.Z.Z.F.F.F.F.F.A.;X;X&X;X;X;X;XF.F.;XF.F.A.Z.Z.C.c.j.j.s.s.s.g.g.k.b.n.`.}.:X:X:X&X:X}.`.n.b.m.g.s.{ / Y Y ^ { f.b.Q.Q.Q.Q.{.-X>X,X-X-X&X}.}.T.`.T.n.T.`.{.XX'.T.x.k.5.7.7.5.k.l.v.V.V.n.c.g.s.<.#.] ( ( ] >.s.k.b.v.v.v.b.b.k.k.s.<.s.g.c.c.j.c.B.Z.B.B.p.p.j.j.j.g.s.<.2.2.#.^ ( ( o.%.$.<.1.,.;.;.^ ^ / / W W W W ! ! ~ ^ ^ ` O.^ ` ] ] :.] _ ( ~ W ~ o.o.R R o.o.( ~ E D D f A d e w q w w p f D D J J f d a w w w w w d D J R ~ E E U g f a a g f f S D J K J J J L J U R ..j q q r w w d d w p A G F K D S e e d f g a s s j j h b m =.e.e.=.=.X.R ) o.@.o.",
"F ` [ [ ] :.:.>.>.>.} 3.5.f.k.l.l.l.x.l.x.x.l.5.5.3.>.[ [ >.:.[ :.7.3.3.4.4.} } } 4.4.4.4.4.4.4.4.4.4.4.4.4.4.4.d.d.d.I.U.Y.Y.Y.W.W.!.|. X!.!.!.|.!.!.!.!.!.!. X!.!. X.X.X X X.X X|.!.!.!.R.R.W.W.|.|. X X.X.X.X X.X X!. X X X.XoX*X=X4X*X*X*X*X*X*X=X=X3X4X4X4X5X5X4X5X6X5X3X.X*X*X*X.X.X.X.X.X.X.X*X*X*X*X=X=X=X4X4X4X5X5X5X9X5X9X9X6X6X9X9X5X6X6X6X6XrX6X6X6X9X6X6X6X5X9X9X6X6X6X9X9X9X9X9X5X8X5X4X4X4X4X=XoXoXXXXXXX X X X X=X=X=X4X5X9X9X9X9X6X4X5X3X.X X X!.!.W.R.R.Y.R.!.W.!.|.|.!.!.!.!..X.X.X.X.X.X*X*X.X.X*X3X.X.X.X.X X X X X X|.!.!.!.!.!.!.!..X.X.X!. XoX3X.X.X=X=X=X3X4X3X3X3X3X3X4X4X3X6X4X3X3X4X3X.X$X3X.X.X.X.X~.=X*X.X3X3X3X4X.X*X3X*X4X5X5X4X3X=X=X3XOXdXaXN.n - ; o o O     .   . = 0 l < O o . . . . . .       O 1 U Y ] ] ( ] W { { U D D E U i * @ . . o * t t i q < * = = o o < i 1 : * @ 5 h k E j j j j E X.*.D.dXdXjXvXhXjXvXnXCXCXF.&.=.pXVXvXvXvXS.- O @ @ = - 7 7 y c V V V n UXKXLXdX{.>XoX X:X'._.'.{.].V.V.V.C.n.V.A.A.A.A.A.].].].+X&X+X`.A.A.A.A.V.A.C.c.h.j.C.C.A.Z.G.F.F.F.F.F.D.S.S.S.Z.Z.Z.Z.F.F.F.F.F.A.].].F.J.;XF.+XF.F.F.F.F.A.Z.j.j.j.g.s.s.s.s.s.s.s.b.n.T.}.:X-X-X&X<X}.}.A.n.n.b.f.{ ( / Y Y _ } b.Q.n.T.T.}.-X-X=X-X-X&X}.}.`.}.}.T.T.T.'.{.T.R.l.d.5.7.7.5.k.l.V.V.V.V.c.k.g.<.<.>.] ( ( ] s.s.k.b.b.b.b.k.k.k.<.;.2.s.g.g.j.c.Z.Z.c.B.B.j.j.j.g.s.<.2.2.2.( ( E ) o.#.#.<.1.2.2.2.;.^ ^ / W / ! W W ! ^ / / / / W / ` ] :.[ ] ] ^ T ~ o.E E E ~ ~ #.~ R J J S A d e w w w a w f D G S d d p a a w w w p A T R @.o.) E U d d w a g f f S J T K K R R R J E X.j p d e e e D D d A G F H P K D f g g f g f J E E E J j g s i k h M e.e.S.*.@.) T ",
"F _ { [ :.[ [ 7.>.>.7.7.f.d.k.k.d.l.x.E.x.k.f.3.7.7.] [ [ [ [ [ [ 3.4.4.4.4.4.6.4.f.4.4.4.} } 4.7.6.4.4.4.4.4.d.d.L.L.L.U.Y.U.Y.W.W.!.!.!.!. X X X!.!.!.|.!.|. X X X X XoXoX.X.X.X!.!.!.W.W.W.W.Q.W.!. X.X.X X X.X.X.X.X.X.X.X.X=X=X4X4X4X4X=X=X=X.X=X=X.X4X5X5X6X4X3X6X6X5X4X4X=X=X*X.X.X.X.X.X.X.X.XoX=X=X=X*X4X4X5X5X5X6X6XrX6X6X6X6X9X6X6X9X9X9X9X9X9X9X9X9X9X9X6X6X6X6X6X6X6X6X6X6X9X6X6X6X8X8X5X5X5X4X4X=X=XoXoX=XoX.X.X.X=X=X4X5X5X9X9X9X9X9X6X5X4X=X=X X!.!. XOX|.W.!. X|. X X!.!.!.!.!. X X.X.XoXoX.X.X.X=X4X*X3X4X4X4X.X.X X X X X X.X!.^.!.!.!.!. X X.X.X.X.X=X=X*X=X3X3X4X3X3X3X3X3X3X3X4X4X3X*X.X.X3X$X*X3X3X=X$X$X*X.X*X3X4X3X=X3X=X4X4X4X3X5X9X4X4X7X4X0XXXMXCXG.v - $ + + X o . . . . = t 5 $ o . . . . . .         $ z ( _ Y ( 3.Y W W ( U 0 t 6 0 q 0 = o o . o 5 < t s < $ $ < @ @ : > 1 1 : o o $ 6 1 1 s a f j j X.G.jXaXD.F.aXaXjXvXvXjXjXn 7 N.vXDXDXHXVXB $ % $ $ $ ; - C C - - - 7 n LXKX;XoX<X[.|. X}.{.{.'.`.V.V.V.V.v.n.A.].V.A.].A.}.].+X&X{.`.V.V.n.c.c.c.g.<.8.0.h.B.B.C.C.C.Z.Z.A.A.G.G.S.Z.B.Z.Z.Z.Z.F.F.F.F.A.A.A.A.F.F.F.F.F.H.F.F.F.Z.B.j.j.j.j.s.s.s.s.s.s.s.k.n.`.{.:X:X:X:X:X&X}.`.n.n.n.k.s.] / Y Y Q ] k.x.T.T.Q.W.}.-X-X-XXX{.}.`.}.&XQ.}.}.`.`.Q.T.b.k.6.6.7.7.5.k.k.V.v.`.v.k.g.g.<.>.2.2.{ ] ] { s.f.f.f.k.f.f.f.f.5.>.2.s.g.h.h.h.c.c.B.B.B.B.j.j.j.<.<.,.#.#.#.~ E ) ( ~ #.,.1.2.:.2.2.^ ^ #.#.~ ! ! ! Q Q Q Q ^ ^ W ~ -.;.[ [ { ] ~ W R X.R E E R ~ o.( ~ T D T f d w w e p p f f f f f d p a a w w w p d S T E @.%.( E D S p w q a j j J K T P K ! R X.X.o.E g g d d d d S D U d F H P P P K S f f g f D E E J E E E E X.E f w k h v B e.N.*.T ",
"F _ { [ [ [ [ :.:.>.7.} 7.3.5.5.d.l.l.l.l.k.5.3.:.:.] ] ] ` ] [ [ 7.4.4.4.4.f.d.d.d.d.d.4.4.3.} 3.6.4.4.6.4.4.d.d.d.L.d.U.U.U.U.R.W.W.!.!.!.!.|.|.!.!.|. X|. X XOX X X.X.X.X.X X X!.!.!.W.W.W.R.W.W.!. X.X.X.X X.X.X.X.X.X.X.X=X=X=X=X=X4X4X=X=X=X.XoX4X3X*X3X5X5X5X5X6X6X4X3X3X=X*X.X.X.X.X.X.X*X*X.X.XoX=X*X3X5X5X5X5X5X5X6X6X9X9X9X9X9X9X9X9X9X9X9X9XeX9X9X9X9X9X9X9X9X9X9X9X9X6X9X9X9X9X9X6X5X5X5X5X5X5X8X5X=X=X=X=XoX.XoX=X=X=X4X5X5X5X9X9X9X9X9X9X5X4X=X=X.X.XoXoX X|. X|.|. X X X X X.X.X X.X.X.X.XoXoX*X.X.X4X3X3X5X4X4X3XoXoX.X X X X X!.!.!.!.^.!..X.X.X.X.X.X.X=X=XoX3X3X4X4X3X3X3X=X3X3X3X*X*X*X*X$X3X3X*X.X.X*X.X.X.X*X3X3X3X*X*X4X=X=X=X3X4X6X8X4X8X4X4X:XDXJXDXM.m y * $ X X . . .   . * y 5 + X . . . .       .     < s #.( ( ^ Y e U Y S U q @ . o @ = $ o o .   O * t l t O o @ , < < i q q < o     @ < b =.=.=.&.=.e.S.vXvXvXvXvXVXvXDXKXHXVXD.M.pXpXjXvXVXKXVXn @ o $ + ; - - - ; - - * 7 HXKX:XOX>X{. X|.`.'.'.`.V.v.v.V.v.v.n.V.A.V.A.}.}.}.}.+X{.}.`.V.V.b.c.c.k.s.s.8.8.8.j.j.B.B.B.B.j.C.Z.C.C.Z.Z.B.B.B.A.F.A.A.A.A.A.n.A.A.A.F.F.F.F.F.A.Z.Z.B.B.j.j.j.j.s.$.$.<.s.s.s.b.T.Q.{.:X>X,X>X:X&X}.}.`.`.A.b.s.] ( Y Y Y _ { d.b.T.T.Q.|.{. XXX|.{.}.}.}.}.&X}.}.'.'.Q.U.d.d.5.3.7.7.5.k.l.x.x.x.x.k.1.1.,.] ] ] ] ] ] s.s.s.s.s.f.f.>.3.3.>.>.2.1.1.g.g.h.j.c.B.B.Z.Z.j.j.s.$.%.#.( ( ~ R E E ) ~ ( ,.2.2.:.2.2.;.#.#.$.O.O.^ / W W P Q ^ ^ / ^ ;.:.>.>.] ;.^ ! R E E E E T ~ o.~ W T T T f d e e d p p f j j f f p p a a a w w a d D E ) %.%.o.E D f a q q a j j J T T P K K o.+.o.E T g g d g g d D U U F T H H P P K D f f f f f g J j j j E j g f J D G S a i y n B e.",
"H ' { [ :.[ [ :.] [ [ [ [ } 7.5.f.f.d.k.k.5.1.2.:.] ` ^ / _ _ ] ] :.3.} } } f.f.I.d.d.6.6.6.4.3.3.f.6.4.6.6.4.d.d.d.L.l.I.U.U.Y.R.W.W.W.!.!.!.|.|.!.!. X X!.|. XOX X X.X.X.XoX X X!.!.W.Q.R.R.Y.Y.W.!.!. X.X.X X X X X X.X.X X.X=X=X=X=X=X=X=X=XoXoXoX3X3X*X*X4X4X4X5X5X4X4X4X4X=X.X.X.X.X.X.X.X*X.X.X*X.X=X*X3X4X4X4X5X5X5X9X9X9X9X9X9X9X9X9X9XrXrX6X9X9X9X9X9X9X9X9X9X9X9X9X9X9X9X9X9X9X9X9X9X8X5X5X5X9X9X9X8X8X=X=X=X.X*X=X=X=X4X5X5X5X5X8X9X9X9X9X9X5X5X4X4X3X=XoXoX X X X X!.|. X X X X.X.X X.X.X.X X X.X*X*X*X3X3X3X4X4X4X4X4X4X=X.X.X X.X X|.!.!.!.!. X.X.X.X.XXX.X=X=X.X*X*X*X3X4X4X4X4X4X4X3X*X.X.X*X3X.X$X*X.X.X3X3X.X*X3X3X3X*X*X3X3X4X4X4X4X5X6X5X5X5X5X$X0XKXJXhXdXp.m y * o o . . . . . $ * $ X X . . . .       .   o 1 g U W S T D a U U e g g o       .     o X     $ < h t * O . $ < 6 i r q , @ - = - y n M =.&.=.@.*.B.D.pXjXaXaXvXvXPXHXKXKXKXKXHXVXPXPXPXLXLXIXn O O % + $ ; $ $ $ = = n LXCX,X=XoXXXOX|._.`.T.T.v.x.x.b.b.v.n.V.V.V.V.A.`.`.}.{.}.`.`.V.V.k.k.g.s.<.<.<.$.*.8.8.h.B.B.h.j.B.B.B.B.Z.B.B.B.B.Z.A.Z.A.A.A.Z.c.c.C.A.A.A.A.A.A.A.A.Z.B.j.j.p.%.%.%.#.;.;.2.>.f.b.b.Q.XX-X>X<X,X>X&X}.'.`.}.A.n.k.>.( Y U Y Y { f.b.Q.Q.Q.'.'.Q.'.{.{.{.}.}.&X&X}.}.'.Q.U.l.d.5.3.7.[ [ 7.q.k.k.k.k.k.k.1.;.] ] ] ] ] ] s.s.s.s.s.{ >.{ [ >.>.1.1.2.1.2.<.8.h.h.c.B.Z.Z.c.h.g.<.<.#.#.( ( ~ T T E R R ~ #.;.;.;.;.2.,.#.,.,.#.O.O./ W P H Q ` ] ` ` >.>.>.2.;.#.~ T E E X.E E E ) o.~ W T T F f d p p d f f j j f f g a p p p a w w e d E E ) %.%.o.~ J f w q i a f j K T W W K R o.O.R R T g g g g d D U U U U W H H P P T U D g d g d f f f J J J g a a j J J L J d w i i v ",
"F ' [ } 7.[ [ [ ] [ ' ' [ [ [ >.3.3.3.3.3.>.2.;.-.^ ^ W W / / ` ] ] } 3.4.4.d.d.I.L.d.d.d.d.4.6.f.f.6.6.d.d.f.f.d.L.l.l.I.U.U.R.R.W.W.W.W.!.!.|.|.!.!.!.!.!.!.!.OX X X!. X XXXXX|.!.W.W.Y.Y.Y.U.Y.W.!.!. X X X X X X X X X X X X=X=X=X=X=XoX.X.X.X=X.X X.X*X3X3X5X6X6X5X5X6X5X4X3X.X.X.X.X.X.X.X.X.X*X*X=X=X*X*X4X4X4X4X5X5X9X9X9X9X9X9X9X9X9X9X9X9X9X9X9X9X9X9X9X9X9X9X9X9XeXeXeX9X9X9X9X9X9X9X6X6X6X9X9X9X9X8X9X8X4X4X=X*X4X4X4X4X8X8X5X5X5X9XwX9X9X9X5X5X5X5X4X=XoX.X!. X XOX!.|.!. X X X.X.X X.X.X.X X X.X=X=X=X3X3X3X4X4X4X5X5X4XoX.X.X.XoX X X X.X.X X X X.X.X.X.X.XoXoX.X.X.X.X.X*X=X4X4X3X3X3X.X.X.X*X*X.X.X*X.X*X3X3X$X3X3X3X*X3X3X3X3X3X5X5X5X4X4X5X9X4X4X=XMXJXJXAXgXZ.*.m - o o X .   . O - = o . X . . . . .       O 5 s T e <.( W j # q D R ~ g #                       * y , t * . . = s s g j y h c - u c y y b j j a 3 d p J o.M.N.e.pXvXvXPXPXvXPXHXHXHXHXLXLXLXKXsXu O o o o + @ $ $ $ - PXLXfX0XwXoXoXOXOX'.`.).T.v.x.x.x.v.v.n.n.n.`.`.V.`.`.].}.}.].].V.x.k.k.1.2.;.2.2.#.$.$.$.*.j.j.h.j.0.j.h.j.j.j.j.B.B.B.B.Z.Z.Z.j.j.h.h.g.h.c.Z.A.A.Z.A.Z.B.B.j.j.p.%.%.%.#.;.;.] 2.f.b.x.T.-X-X8X>X,X=X-X{.}.}.}.`.n.s.<.] / U Y Y ' 3.b.Q.Q.Q.Q.Q.'.'.'.'.}.}.}.&X-X&X}.!.!.Q.l.d.7.[ [ ' ` :.5.5.1.5.5.1.1.:.] ] ( ] ( ] ] s.s.f.s.s.{ { { _ ] ] :.1.>.1.2.1.1.g.h.c.c.B.c.c.g.g.<.<.#.#.( ~ T T T T E T W ^ ` ` -.;.;.;.#.#.$.#.~ ~ / W W Q ^ -.;.;.` >.>.[ 2.;.^ ~ E E E X.X.X.E ) o.~ W W T F D f d d f f f j j f g a p p p p a w w d d T E @.%.o.R R D d w w a g f J R T K W ! O.o.~ ~ ~ T U D U g g U U U T T K P P P P K D g f g d p d f f f J f d f f f L j b j p e d g j ",
"H [ [ } } } [ [ [ ' _ _ _ _ _ [ [ :.} [ [ :.-.^ ! W T F F W W / ` ] [ 7.3.4.d.l.d.l.d.d.d.d.6.f.f.f.f.f.d.d.f.d.d.L.d.d.I.I.U.Y.Y.R.W.W.W.W.!.!.!.!.!.W.W.W.W.W.|.|.!.!.!.|.|.OX|.W.W.W.R.R.R.R.Q.W.!. X X X X.X.X X X X.XXX XoX.XoXoXoXoX.X X X X.X X X.X=X$X3X5X5X5X4X4X5X4X*X3X.X.X.X.X.X.X.X.X.X*X=X=X=X=X*X4X4X4X3X4X5X8X5X5X6X6X6X6X9X9X9XeX9X9X9X9X9X9X9X9X9X9X9X9X9XeXeXeX9X9XeX9X9X9X9X9X9X9XeXeXwXwXwX9X9X8X8X4X4X4X4X4X5X8X5X4X4X8X9XwX9X8X8X5X5X5X4X4X=XoX.X!..X XOX X!.!. X.X.X X X X X X.X X X.X.X=X3X3X4X4X4X4X5X4X4X=X.X.X.X.XoX X.X.X.X.X.X.X.X.X X X X X X X XXX X X X.X.X*X*X.X.X.X.X.X.X*X*X*X.X$X3X3X3X*X*X3X3X3X3X3X4X4X4X3X6X9X4X4X4X4X9X0X*XMXKXLXSXCXhX;Xp.j < % o o . o % * u * O X . o . . . .       o t j D s./ D U r 2 1 a o.E i < .                     o * < < t O . O t l @.&.b h y = O o . % < 1 q q i j *.B.F.vXvXvXpXpXvXPXvXvXPXvXsXjXvXVXPXKXHXPXiX- O o . o o O $ % iXLXDX0X0X8XqX>X{.'.|.`.T.T.v.b.b.b.v.x.v.v.v.T.T.n.`.`.`.'.'.].`.v.b.k.5.2.2.;.;.;.2.#.$.$.$.$.8.g.s.*.8.j.j.j.j.p.j.B.B.j.B.B.j.j.j.s.j.j.j.s.j.c.Z.C.C.B.B.B.B.j.p.g.<.$.#.#.;.>.>.3.d.x.'.XX-X>X>X,X=X-X-X{.'.}.`.n.k.<.;.( Y Y Y _ 3.b.Q.Q.Q.Q.Q.'.'.`.`.'.'.'.{.:X-X}.W.Q.Q.l.5.} [ ' _ _ ` :.3.:.>.>.2.;.;.( ^ ( ^ ^ ;.>.s.f.f.s.{ ] { _ _ _ ` 2.:.2.1.1.1.1.9.g.z.c.c.h.h.g.g.,.<.2.#.o.E T T T T T T T / ^ ` ;.O.-.;.O.O.#.O.! / / Q W Q O.;.2.2.` [ } [ :.] ^ ( ~ o.X.@.%.@.R E E ~ ~ ~ ~ T J f f S j f f j j j g a p d d d p e e d D T E @.o.@.E J f a w p g f j J R E E W o.o.~ o.O.~ R T E U g g g U U T K F K P H F D S g g d p e p d d f D f f S J f J J f J L a w R B.",
"W [ [ 7.} } [ [ ' ' _ _ | Q _ _ ] ] ] ` ` ` / W K F D D D F P W / ^ ] :.3.5.6.k.d.d.d.d.d.d.d.f.4.4.f.d.d.d.d.d.d.d.d.d.I.I.U.U.Y.Y.W.R.W.W.!.!.!.W.W.Q.R.Y.R.T.T.T.Q.Q.Q.'.'.'.W.Q.W.W.R.W.W.W.R.W.!.|. X X X.X.X X X XXX XXXoXXX X XoXoX X X X X X X X.X.X.X*X3X3X3X*X3X4X*X.X*X.X.X.X.X.X.X.X=X=X=X=X=X=X=X4X4X4X4X3X3X4X4X4X5X5X5X6X6X9X9X9X9X9X9X9X9X9X9X9X9X9X9X9X9X9X9XeXeXeXeX9X9X9X9X9X9X9X9XwXeXwXeXeX9X9X9X8X8X8X5X5X4X4X5X5X4X4X5X8X9X9X9X8X8X8X5X4X=X=X.X.X!.!. X|.|.!.!.!. X.X.X X X X X.X X X.X.X*X3X3X4X4X3X4X5X4X4X4X3X*X*X.X.X.X.X.X.X.X.X.X.X.X X X X X|.!.|.XX X X X X.X.X.X.X.X.X.X.X.X.X.X=X.X.X.X.X.X*X3X$X4X4X3X3X4X4X4X4X5X5X4X4X5X5X4X7XlXSXKXVXvXHXVXF.*.X.k < @ = @ < s l 5 @ O o . o X . .         . = m X.n.U ( D i < , i D R R 0 @                       = < , t * o - n m h j 0 i < @ % O o % 2 q R *.F.pXdXpXaXpXpXpXe.e.aXVXvXvXvXvXVXvXvXvXvXvXPXPXvXUX- $ + O O @ % * VXKX+XqX0X0X>XoXXX'.R.T.T.v.l.z.k.k.b.v.v.b.x.v.v.v.`.`.T.T.Q.T.T.v.b.l.5.>.2.2.;.;.;.#.,.,.,.<.$.8.s.8.8.*.*.8.j.*.*.*.j.j.j.j.j.*.*.%.$.j.j.j.j.j.j.B.B.B.B.B.B.j.j.g.s.s.s.s.<.>.>.3.d.b.W.XX=X8X>X>X=X-X X|.Q.`.`.b.k.s.2.( Y Y Y | } P.Q.Q.'.`.].'.'.T.`.'.{.-X-X-X-X}.Q.T.T.d.3.} ' _ / Q ` ] [ :.>.2.;.` ^ ^ ^ ^ ~ ^ 2.s.f.f.d.f.{ ] _ / Q _ ] :.1.>.5.1.1.1.1.9.k.z.g.g.g.g.1.<.<.,.#.o.~ E E E J J T T / ^ ^ ;.O.O.O.O.O.#.O.~ ! / Q Q ~ O.,.<.;.^ ] [ [ ] ` ^ O.o.o.X.X.%.o.R T T E ~ ~ ~ W J S f J J f f j j j g g d d d d d d d d D E E E o.R J S p w w p f f J T R R E R T T o.#.^ ( ( R T g g g D D U U D S G G G S d f g f p p e e p p f f f f f f L f I S d a a q f X.",
"/ 7.3.3.3.} { [ { _ _ _ Q Y Y _ _ _ ` / / W W F F A d d A D K W W / ` [ 7.7.5.6.k.d.d.d.l.d.d.q.4.3.6.d.d.d.d.d.I.I.l.l.U.U.U.U.Y.R.W.W.W.!.!.!.Q.W.Q.Y.Y.U.U.U.I.U.U.U.R.R.T.R.R.T.R.R.Y.R.R.R.R.R.W.!.|. X X X X X X X X|.|.oX X X X X X X|.|.!.!. X X X X.XoX3X4X3X3X4X4X3X*X.X.X.X.X.X.X.X.X=X=X4X=X=X3X3X3X=X3X4X*X*X4X4X4X4X5X5X5X6X9X9XeX9XeX9X9XeX9X9X9X9X9X9X9X9X9X9XeXeXeXeXeX9X9X9X9X9X9X9XwXwXwXeXeX9X9X9X9X8X8X8X5XqX4X5X4X4X=X=X>X5X9X9X5X5XqX4X=X=X=X.X X!.!. X X|.!.!.!.!.!.!. X X!.!.!. X X.X.X.X3X=X4X4X*X4X4X5X5X5X4X4X3X=XoX.X.X.X.X*X*X*X.X.X X X X X X|.!.|.|.|. X X XXX.X=XoX.X.X.X.X*X.X*X.X.X~..X3X3X3X*X4X5X3X3X4X4X4X5X5X5X5X5X5X5X4X=XbXDXaXM.sXaXjXhXF.Z.p.%.X.*.l l l i < = o o $ O X . . .       . X O # j.<.~ ~ 1 % , g ) R U E , .                     O = * t y y u - 5 t i s g i > : & & t %.B.G.0.O.o.#.o.j.C.F.jXjXpXS.pXjXaXvXvXvXvXvXvXvXvXvXvXvXpXy % $ @ % @ # &.KXCXlX0X0XkX>XXXXXOXW.W.T.E.l.l.l.l.b.v.v.b.b.x.x.v.T.v.v.T.T.Q.T.T.x.v.l.f.3.>.2.2.] 2.2.2.<.<.$.<.<.s.8.8.*.8.8.*.%.%.*.*.*.$.$.%.@.E o.*.j.p.*.*.*.j.B.B.B.B.B.B.j.g.g.j.m.g.s.s.s.f.d.l.T.OX-X:X-X>X=X-X XW.Q.T.n.b.k.s.>.] / Y Y | } U.Q.Q.'.`.].'.T.T.'.{.-X-X=X,X=X-X{.T.U.f.7.[ ' _ _ ` ` ' [ :.:.2.2.O.^ ^ ! / / ^ 2.s.f.k.f.f.>.[ ^ Q / Q ] :.5.5.k.5.1.1.2.5.k.s.9.g.g.s.1.<.<.,.#.o.o.R X.l j j J T ~ ^ ^ O.^ ^ ^ ^ O.#.^ ^ ! W / / ^ O.,.,.;.^ ` :.] ` ^ O.O.~ X.X.o.o.o.~ E E T W ~ ! W K D J J j j j j j f f f f f d d d d d S D E E l E E j f p p a d S J T R ~ R R E J T O.#.#.,.,.~ E D D D f D D S d p p p d d d d g g a p w w e d d p f S f J K L A d r a f a ..X.",
"^ 3.4.4.7.} { ' [ _ Q Q Q Q Y Q Y Q / W W W T F A A e d d d K K W / ` [ [ 7.3.f.d.k.d.d.d.l.k.d.4.3.6.d.d.d.I.I.I.I.I.I.U.U.U.R.Y.R.W.W.W.!.!.W.Q.W.Q.Y.Y.U.I.d.l.l.d.l.l.I.U.U.T.R.T.Y.U.U.U.U.R.W.W.!.|. XoX X X X X X|.!.|.*X X X|.|.|.|.|.!.!. X X X|. X=XoX*X=X3X3X3X3X*X*XoX=X=X.X.X*X=X3X=X4X3X4X3X3X3X3X*X4X4X=X*X4X3X*X8X8X9X6X9X9XeXeX6X9X9X9XeX9XeXeX9X9X9X9X9X9X9XeX9X9X9X9X9X9X9X9XwXwXwXwXwXwXeXeX9X9X9X8X8X8X8X5X5X5X5X4X4X=X=XqX=X5X9X5X=X4X4XoX X.XoXoX X X X|. X X X.X X!.!. X.X!.^.!.!.!..X.X.X*X=X4X4X*X5X6X5X6X6X5X4X4X4X=X.X.X*X*X*X3X*X.X.X.X X X X X|.W.W.W.W.W.|.|. X.X X.X.X~.~..X*X*X.X*X.X~..X3X3X*X3X4X7X3X3X6X4X3X5X4X4X5X4X4X5X5XpXN.B n B c M.jXdXnXMXgXF.F.;X$.%.X.6 * - u v * o . . . .             o 0 m.#.X.E < & z p.f ~ X.0 .               X         < M n y * @ & i i g g i q q X.M.=.*.g g w Y / 2.h.+XhXbXhXhXjXe.M e.aXaXaXaXpXaXaXaXaXpXaXpXpXM < & # # i j.HXKXcXcX0X<XkX>XXXOXOX!.W.T.l.l.l.l.l.l.x.x.T.T.T.v.T.T.T.T.T.T.Q.Q.T.U.x.d.d.f.3.5.>.] 2.2.1.g.g.8.s.g.s.j.8.8.8.*.$.%.%.%.#.%.%.o.o.o.E o.*.j.j.j.*.*.j.B.Z.Z.Z.A.A.C.c.n.m.Z.m.j.s.f.d.d.E.T.'.OXXX-X:X-X X X!.Q.T.n.b.k.s.>.] / Y Y _ 7.d.Q.Q.Q.Q.Q.'.`.T.'.XX-X-X=X1X=X:X{.T.d.7.7.[ ' ` ` ` ] [ [ :.] 2.1.O.^ ~ ! W ^ ( 2.f.k.d.f.f.[ ] Q W Q Q ] :.5.k.k.5.k.1.1.5.1.1.2.<.s.g.s.<.2.,.#.o.o.o.X.E E E T T W / / ~ ~ ^ ~ ^ O.O.~ O.! W ^ ^ ^ ^ ;.#.( ^ ^ ;.] / ^ ~ o.R o.X.X.o.o.E ~ T T W ~ ~ ! K K K J j j L j j j f f f f d d d d d d D E l l E j f f p p d S J K T R ~ R T J ~ ~ ~ #.1.s.<.$.R D D J f S D d d p p e e p p d g g a p w w e d d J J L L J S S A w w q 3 L Z.) ",
"/ 3.3.3.:.:.] _ _ Q Y Y Y Q W W W W W W W F F F D d p p d A D T W / ^ ] [ 7.3.6.d.d.d.d.d.d.d.f.5.6.d.d.d.d.d.I.I.U.U.U.U.U.R.R.U.R.W.R.W.!.!.W.W.!.W.W.R.U.d.f.d.d.d.d.d.d.U.U.T.R.U.I.U.U.Y.Y.Y.W.!.|.OXoXXX X X|.!.!.!.!.!.!. X X|.!.!.|.|.OX!.!.!.!. X X.X.X4X4XoX=X*X=X4X=X4XoX=X*X3X4X3X3X3X3X3X5X4XqX4X=X4X4X=X=X=X3X=X4X4X5X5X5X9X9X9X9X9X9X9XeXeX9X9X9X9X9X9X9X8X9XeX9XeX9XeXeXeX9X9XwXwXwXwXwXwXwXwXwXeX9X9X9X9X5X4X5X8X5X5X5X=X=X8X8X5X4X4X=X.X=X=X.X.X.X.X.X X X X X X X X X X X X!.~.!.!.!.!.!. X.X.XoX=X4X5X4X4X6X5X9X6X4X4X4X3X3X.X.X3X3X3X*X*X.X.X.X~.!.!.W. XW.!.R.W.W.W.!.XX|.oX!..X.X!.*X=XtX*X.X~..X$X.X$X3X4X3X4X5X5X5X3X3X*X6X4X7X3X$XqXG.B c - C - - M Z.jXdXdXgX1XF.#.~ #.E t h &.pX&.O . .     .               @ j.n.$.s.l 6 l <.R f l s * .       . = O .       o u c 6 , < 1 < s q i i s E *.X.g 2 g g T F ^ 1.F.dXbXdXhXhXCXCXhXS.e.N.M.S.pXpXaXaXaXpXpXS.e.e.X.m t & j G.vXJXCXgXkXkX>X:X-XXXOX'.W.T.T.U.b.d.l.l.l.x.x.U.T.T.v.T.T.v.T.Q.T.'.'.T.Q.T.v.x.x.l.k.5.>.2.1.k.s.k.g.1.k.g.g.g.8.*.*.$.#.o.o.o.@.o.R R E E ( s.m.j.j.g.s.p.B.Z.J.H.;X;X+XA.F.F.Z.m.g.s.s.f.f.U.W.OX XXXXX=XXX|.{.'.T.T.v.b.f.f.s.>.] / Y Y [ d.Y.Q.T.T.W.'.'.'.'.{.:X<X,X>X=XXX'.x.d.3.:.:.] ` ' :.7.:.7.[ >.2.,.,.;.^ W ! / ^ >.k.z.k.f.f.[ _ Y W Y ` :.3.5.l.l.k.k.k.1.>.>.2.1.1.1.<.1.<.8.<.$.$.$.$.o.X.E T T T T W / ^ ^ ^ ~ ~ #.o.~ ~ ! ~ O.O.;.,.1.,.O.^ / ` ] ^ Y T R R R R ~ o.o.o.! ! ! ! ! O.! ~ ! ! K L L j j L j f f g f f S A e d S D J T E D f d d p p d D U T R X.R J D W ~ ~ #.,.1.1.2.#.W T J D S A S f p p p e e p g g g f d p w w d f J J K K K K K D I w w 4 4 w f d ",
"^ 3.3.3.7.:.] _ _ Q Y Y Y / Q / Y W W W W F F F G A d d d S F W / / ^ ] [ 7.5.d.l.l.d.l.b.l.l.d.f.f.d.d.d.d.d.d.U.U.U.U.U.U.U.R.R.R.W.!.!.!.!.W.W.W.W.W.R.U.d.f.d.d.5.5.5.f.l.U.T.T.T.U.U.U.U.U.Y.W.W.!.|.|.|.|.|.|.!.!.!.|.|.|. X X|.|.|.|.|.|.!.!.!.!. X X.X.X=X=X.X*X.X=X=X=X=XoXoXoX=X4X4X4X4X3X5X8X4X4X4X3X=X4X*X=X=X3X3X5X=X5X5X5X9X9X9X9X9X9X9X9X9X9X9X9X9X9X9X9X9X9X9XeX9X9X9X9X9X9X8X8X8X8X8X8X8XwXwXwXwX9X9X9X8X4X4X4X5X4X5X5X4X4X8X8X5X4X4X=X.XoX=X.X X X X X X X X.XXX X X X X X X X!.!. X X!.!. X.X.X.X=X3X5X5X4X6X6X9X9X5X4X4X4X3X=X*X*X$X.X*X*X.X.X|.!.!.W.Y.W.R.P.Y.U.R.W.!.!. XOX!.~..X.XoXoX*X.X.X3X~..X~.4X5X5X5X5X4X4X3X3X4X5XqX4X*XqXqX+X&.c c - - - = &.pXbXfX<X}.&X#.e s k y 6 @.2XZ.5 X . . X .         .       o E n.<.%.j < l j.h.s.@.s -         o t t @ o o $ = @ o < t i i 6 1 1 h t y y i 0 a 2 g U #.#.1.A.+XF.fXbXCXCXSXJXKXDXbXS.r.M.S.iXiXpXiXiXS.M.=.X.b k : i A.fXMXCXfX<X0X<X>XXXXX{.[.T.T.v.x.l.d.l.x.E.T.v.T.T.T.T.`.`.`.T.Q.Q.Q.'.'.'.T.T.T.T.T.x.l.k.5.5.s.k.k.z.k.g.k.g.g.g.g.8.*.%.o.R E E R R E E R ( #.s.m.m.m.m.j.j.Z.A.J.2X2XdXdX&XA.A.Z.m.s.s.s.f.f.U.W.OXOXXXXXXX XQ.'.Q.v.v.x.b.f.f.f.s.>._ Y Y _ } U.Q.T.T.W.'.'.'.[.'.XX:X>X=X=X:X'.l.5.3.:.:.:.:.:.7.5.5.5.5.5.9.9.1.;.^ ! ! ^ ;.1.k.k.k.5.3.] Q Y W Q ` :.5.k.l.v.b.z.z.k.2.2.1.1.1.2.<.2.,.<.<.<.$.$.$.o.X.E T E E T W W ^ ~ ^ ~ ~ #.#.o.^ ~ O.-.#.;.<.,.,.O.^ / / / Q W T E R R R ~ o.o.o.! ! ! ! ~ O.O.~ ~ ! K J J j j j j f f g d d d A d d d d D J j f f d p d A S D D R R J f D U T ~ o.#.<.9.9.<.#.! T D D D D D p p p w q w p a g g a a p w e d f R R R P K K D S p w w 3 > 3 w q ",
"^ 1.5.3.:.:.] _ / Q Q Q Q / / / Q Q W W W F F F F G G S S F T W / / ` ] 7.3.f.k.l.E.U.E.E.x.U.l.d.d.d.d.I.I.d.d.U.U.U.U.U.U.R.R.R.W.!.!.|.!.W.W.W.W.W.Q.T.R.I.f.k.k.5.3.3.5.l.x.R.U.U.T.U.U.I.I.U.Y.W.W.!.!.|.'.|.|.|.|.|.|.OXOX|.|.|.'.'.|.|.|.|.|.!.!.|. X X.XoX=XoXoX.X=X=X=XoXoX=X=X4X5X4X4X4X4XqX8X5X3X3X4X*X4X*X=X*X3X=X4X=X4X5X9X9X9X9X9X9X9X9X9X9X6X6X6X9X5X9X9X9X5X9X9X9X9X9X9X9X8X8X9X8X8XqX8X8X8X8X8X8X8X9X8X8X4X4X4X8X4X5X8X8X8X8X8X4X4X4X=X=X.X.X.X X X X X X|. X X.X X X X X X X X X!.|.|.!.!. X.X.X.X.X=X5X5X4X4X4X5X4X3X4X3X*X*X3XoXoXoX.XoXoX.XoX X|.!.!.R.R.I.d.U.>.d.R.!.!.!.|. X*X.X.X.X.XoX4X.X*X~.3X.X*X*X4X4X4X=X4X4X5X4X7XoX5X5XqX{.e.V c - ; ; O 5 &.H.;XlX{.c.g , * @ o % i gXnXj $ O o . . . .             X . a A.c.h.*., , g.C.C.@.& @         o 1 0 t , 5 y & % @ , 1 s i t 6 t i t * @ , 1 q 1 g D ~ 1.k.C.A.&XfXCXCXSXJXJXKXHXfX+XC.B.B.S.S.e.e.X.X.h 6 6 2 2 j ].lX0XfX<X<X:XoX>X@XXX{.'.`.T.T.v.l.d.d.x.T.T.T.).T.T.T.`.[.`.).`.'.'.'.'.[.'.`.'.`.T.T.T.x.b.l.k.k.z.b.x.x.z.c.c.h.g.g.8.$.#.) T l E T E T E E %.#.s.s.b.n.n.A.Z.A.J.H.2X2XgXgX2X&XA.A.m.s.] { f.d.T.'.OXXXXXXXXX|.'.Q.T.b.b.b.x.d.f.f.f.3.] / Y Q [ d.U.T.T.T.T.'.'.'.'.{.XX:X-X-XXXQ.l.5.5.5.5.5.5.5.5.q.x.x.x.z.z.z.9.,.-.Q ! O.,.9.9.q.5.1.>.` Y Y Y / ` w.5.l.v.T.T.x.l.k.2.2.1.1.1.2.<.<.,.<.<.<.$.$.$.#.o.R R E T W W W ^ ^ #.#.#.,.$.#.O.^ O.;.,.8.9.8.,.O.^ ^ / Q W W K K E T T ~ O.o.o.o.~ O.^ ^ -.-.^ / W J J j f j j f f f g d d e A d d e d D J f f f p d d S D D J E J f g D U U ~ O.$.8.9.9.9.$.R J f f J K D S d p w q i a a a a a a p p d d D R R R W K K F D w w w w 3 q a p ",
"^ 1.3.3.:.:.` _ ^ Q / / / / / / Q / / W W W H W F F F F F W / / ^ ` ] :.3.5.d.l.x.T.T.T.T.E.E.l.l.l.l.l.I.I.I.I.U.I.U.T.T.R.W.W.W.'.W.!.!.W.W.W.'.W.Q.W.R.R.U.l.l.k.5.3.5.f.l.l.U.U.U.U.U.I.I.I.U.U.Y.W.W.W.W.W.W.!.!.!.!.|.|.|.!.'.'.'.`.R.Q.W.W.W.W.!.!.|. X.X.X.X=X=X.X=XoX=XoXoX=X=X=X4X=X4X4X4XqX5X4X3X4X4X3X4X*X*X.XoX.X=X=X=X8X9X9X9X9X9X9X9X9X6X6X6X5X5X9X5X5X9X9X5X9X9X9X9X8X8X8X8X8X8X8X8X=X=X5X8X8X5X8X8X8X8XqXqXqX4X8X8X8X8X8X8X8X=XqX4X4X=X=XoX.X.X.X X X|.!.!.!.!..X.X.X.X.X.X X X X X X|.!. X X!..X.X.X*X4X4X3X3X4X5X4X3X4X4X3X*X4XoXoXoX.XoXoX.XoX X!.W.W.W.R.I.q.1.^ 2.W.=X5X.X=X|. XtX.X$X3X=XoX|..X3X.X3X.XoX4X3X3X3X4X3X4X*X3X4X5X3X>XF.B c - ; - ; h p.A.;X&Xj.X.$.s # * & # < Z.gXD.t @ . . . . .   . .           o 2 A.gXZ.Z.=.i #.9.#.%.< o         . @ > s a i > 1 : : , 2 1 k &.h < 6 t * @ @ & , 2 g ~ <.;.<.A.A.A.gXCXDXHXKXKXDXxX,XXX].v.c.%.+.X.L J f a a p E h.fXkX,X8XqX:X<X:XoX@XXXOX'.`.).T.v.v.x.l.x.T.).).T.'.'.'.T.`.`.`.T.'.{.'.'.'.[.OXOXOXOX'.`.T.T.v.v.x.l.b.v.x.x.x.k.c.g.g.s.<.$.@.R E g j E E T E E %.#.>.s.b.n.A.}.A.A.J.;X2X2X2X2X-X&XA.m.s.] { _ >.f.b.'.{.{.{.'.{.|.'.T.T.b.b.b.x.b.d.d.d.f.>.' Y Q { f.d.U.Q.T.T.T.`.'.'.[.{.{.-XXX|.T.b.f.k.5.5.q.l.E.l.x.).V.V.C.C.z.k.2.-.Q ! O.1.9.9.q.1.2.] Q Y Y Q ` ` :.k.v.).).T.v.k.k.>.1.1.1.1.2.2.2.2.s.<.s.<.$.$.#.o.~ E ~ ~ W W / ^ O.,.,.<.8.<.$.O.^ O.,.,.0.h.0.,.O.^ / / W W T K D D J T ~ #.#.$.$.#.,.O.O.-.,.` / P D S j f f f f d d g d d e d d e e e A S D f d p d d D D D T J S d d d S U ~ #.$.0.8.9.8.#.T f f f J K F A d p w i i a i i i i a w p d S D K K K K K K F G d e w w w w p p ",
"^ 1.5.7.:.:.] ` ` / / / / ^ Q _ / / ^ / / Q Q Q W W W H W / ^ ` ` ] [ >.5.5.d.l.E.T.T.T.T.R.R.x.U.I.I.I.I.I.I.I.U.U.R.T.T.R.W.W.'.'.'.W.W.W.W.|.|.W.W.W.`.T.U.l.d.5.3.3.5.d.l.l.b.U.R.I.U.U.U.I.I.l.I.U.Y.Y.U.Q.W.W.!.!.!.!.|.W.W.W.W._.T.T.Y.Q.R.W.W.W.W.W.!.!..X.X.X.XXX=X.X=XoX.X=X=X=X=X=X=X=X4X4X4XqX4X4X4X*X3X.X.X.X.X.X=X=X=XqX8X8X8X9X9X9X9X6X6X6X6X5X5X5X5X8X8X8X8X9X9X6X5X5X4X=X=X=X=X>X=X=X=X=X=X=X=X>XqXqX=X4X4XqX4X8X8X8X8X8X8XqX4X4X=X=X=XoXoX.X X X X|. X X X X.X.X.X.X*X*X.X.X X X X.X X|.|..X.X.X.X*X*X4X4X3X4X4X5X4X4X4X4X3X3X3X=X=X=X*X*X3X.X.X X|.W.Y.U.d.5.1.1.R R A.1XmXmXzXoX=X4X=X~.tX-XoX$X.X.X~.3X.X X3X3X.X3X3X3X5X5X=X=X=X3X{.e.c - - - - y =.J.2XA.C.m.#.T U ) ( n.z i &.;XJ.*., o . . X X X .   .   . .   o t *.F.;X;Xm X.%.o.$.o.@.O           @ s l g q 2 s q & 2 : t h j s t 5 i < 1 @ . O & R ~ T U ;.8.h.A.gXDXDXKXKXKXCXgX>XoXXXXX:XT.z.1.1.2.1.<.s.n.&X,XkXkX<X0X0X>X:XXXoXXXOXOX'.).T.E.v.l.x.x.T.T.`.[.'.{.'.'.'.`.`.`.T.{.{.OX{.[.[.[.OXXXXXOX'.'.T.T.T.T.v.v.v.n.v.c.c.k.g.g.<.<.$.o.E E g g J E T ~ %.%.s.s.s.k.n.A.+X&X&X2X2X&X&X&X&X}.A.n.g.s.( ^ ] >.f.v.`.'.'.'.`.'.Q.T.T.b.b.b.U.b.b.d.U.U.d.f.{ _ Q _ 3.d.Q.W.T.E.T.T.).[.'.[.[.{.'.`.T.x.l.k.k.l.v.T.`.).`.].].].V.V.v.k.>.` / ~ ;.9.9.1.1.>.:.` Q H H | ` ] :.z.).).).T.b.k.k.1.1.1.1.2.2.2.;.,.9.9.8.<.$.$.#.o.~ ~ ~ ^ ^ ^ ^ O.#.,.8.0.0.9.<.,.;.;.,.,.0.h.8.,.^ / / / W W T F D D D T ~ ,.,.$.,.,.<.,.O.O.-./ / H D S f f f f a d d p d e w e w e e e e d d d e e d g D D D D U D d e d D T W O.$.,.,.,.$.~ U f f f D F F A d p a i s s s i a i w w e p d D K K K K K F D A d p e w p p p p ",
"^ 1.5.5.3.3.[ [ ] _ _ / / _ _ _ _ ` ` ` ` / Q / Q Q Q Q _ ` ` ] [ [ 3.5.5.k.l.l.E.W.Q.Q.T.R.W.T.T.T.T.T.U.I.I.I.R.R.R.T.R.R.W.W.`.'.'.|.W.W.|.|.|.|.!.'.'.T.E.l.d.5.3.3.3.d.d.l.d.U.T.R.U.R.U.d.l.d.d.d.L.U.Y.Q.R.Q.!.!.!.!.!.W.W.W.R.T.E.U.U.U.R.W.W.W.W.W.!.!.!. X X.XXX=X.X=XoX.X=X=X=X=X=X=X=X4X3X4XqXqX4X3X=X3X.X.X X.X.XoX=X=X4XqX8X8X8X9X8X9X6X5X5X5X5X4X5X5X5X4X4X8X8X4X5X4X4X=X=X=X=X=X-X-X=X=X=X=X=X=X-X-XoXoXoX=X=X=X=X5X4X5X9X8X8X4X4X=X=X=X.X.X.X XXX X X X X X X.X.X*X*X*X*X=X=XoX.X X.X.X X X.X.X.X$X*X*X4X4X3X4X3X4X3X3X4X3X*X*X3X*X3X4X3X=X3X3X*X.X XW.U.5.,.9.f.c.X.6 j *.&XBXAXNXBXmX=X!.!.|.!.*X3X3X3X.X X!.*X=X.X=X*X*X=XXX=X.XoXXXr.n C - C c y %.~ &XAXBX0XrX-Xb.W { i.W i 1 E J.1XgXZ.i @ . . . . X   .   .   . . m ;XF.C.F.j j j.%.%.X.@.-           $ i j R a q i 1 i 1 : , , 1 s s 5 t j s 5     & j g T S f J E *.gXDXHXKXKXHXgX@X@X:XXXOX<X>X:XXXoXQ.'.{.@XkX,X0X8XkXlXkX0X>X>X:X:XXXOX'.'.).T.v.x.x.x.v.T.`.'.{.OX{.{.'.'.`.T.W.W.XX:X-XXXXXOX[.OXOX:XXXOXOX'.T.T.).`.T.`.`.v.v.c.g.g.1.<.<.,.#.~ T D g D D E #.s.g.j.g.g.s.b.n.+X2X2X1X2X&X&X}.n.n.m.g.c.s.2.] >.5.l.T.`.`.].'.`.T.T.b.b.d.b.b.U.b.b.U.U.U.U.d.f.[ / _ [ d.Q.'.`.T.T.T.)._.[.[.'.'.`.`.T.x.l.b.v.`.'.{.{.[.[.].].].].V.v.k.>.` / -.2.9.9.1.1.2.;.` Q H Y _ ' [ 7.q.v.v.v.v.k.k.k.1.1.1.1.2.2.;.;.;.1.1.8.<.<.,.O.O.^ ^ ^ ^ ^ O.;.;.,.,.0.h.g.g.8.2.2.;.;.,.0.9.<.2.^ ^ / / / W T F D D U W O.<.,.8.0.0.8.,.O.O.O./ W F D S f f p f d d d p e w w w w w Z e e d d e e e D D f f D D D d e e d S E T ~ #.#.O.O.^ T S d f f S G G G f d a a a s a s i q q w w p d D K K K D D A A S d p p p I I I I ",
"^ 1.5.5.3.3.>.[ ] ` ` ` ` ` _ [ ' ] ] ] ] ] ` ` ` ` ` [ ] [ [ :.7.3.5.d.d.l.I.E.T.W.W.W.W.'.'.`.W.T.T.T.R.U.U.U.T.R.R.T.`.`.`.'.W.'.'.W.W.'.|.|.|.|.|.|.'.T.x.l.q.6.5.5.6.f.d.I.I.U.T.R.U.I.L.d.d.d.6.6.d.U.Y.W.W.W.!.!.!.!.!.!.!.W.Q.T.U.U.U.Y.R.R.W.W.'.'.W.!.|. X X.X X.X.X.XoXoX=X=X=X=X=X=X=X4X=X=X=X=X=X=X=X=X.X.X.XoX X XoX=X=X4X4XqXqX8X8X8X8X5X5X5X4X4X4X4X5X4X=X=X=X=X4X4X=X=XXXXX=X=X=X-X=X=X=X=X=X=XXXXX X X X.X=X=X=X4X4X5X9X8X5X8X5X=X=X=X=XoXoXoX.X.X X X X X.X.X3X4X4X4X4X3X4X4X=X X X.X.X.X.X.X.X.X.X*X4X4X3X3X4X5X4X4X5X4X3X4X3X3X4X4X=X=X3X3X*X.XW.x.1.<.O.$.T l t # , j A.BXFXFXJXFXlX`.w.q.-XmXmXeX=XQ.-X8XkXlXkXkXwXlXkX@XE.Q.T.r.M c c 7 y @.c.2XwXmXBXmXT.Q.b.f.s.R i % % 0 a.n.g.<X-XmXD.& . o   . X .       X X < dX;X;X&X;Xj.%.@.%.j 0 -           @ 0 s g j E i a 0 2 0 < # : i i * % y l y O o @ % i s.%.a g j k Z.DXJXLXLXCX<XoX@X:X:XXXoXXXXXXX:X>X>X,X>X0X0XcX,X>XlXkX0X0X0X<X>XXXXX{.[.[.T.v.U.v.T.T.T.`.[.{.XX{.{.{.`.`._.`.'.XX:X-X-X-XoXXXXXOX:XXXXXXX{.`.`.T.`.).`.`.v.v.x.k.k.g.s.1.<.#.~ R U D D U ~ <.m.n.A.m.j.g.m.n.}.2XgXgX1X2XJ.n.g.s.s.s.s.s.2.:.>.5.l.T.`.).).T.v.b.x.b.f.d.b.x.U.U.U.Q.Q.T.T.U.d.} _ Q ' 3.U.W.[.[._.).)._.[.[.[.`._.).T.x.x.T.`.{.:X:X:XXX[.].].].].V.x.k.:.` ` 2.1.9.9.1.1.:.] ` Q Q _ ] [ 7.7.q.k.l.l.k.k.k.1.2.2.;.2.2.2.;.;.;.2.1.1.1.1.1.,.O.^ ^ O.O.O.;.2.,.<.8.h.h.h.h.g.2.2.;.;.<.0.,.,.;.O.^ -.-.^ ^ W F D F T W #.8.0.0.B.0.8.,.O.! W P H F A f d p p d d d d e w w w w 3 w w w p d d e e e d d d d D U d e e d d S T E ~ o.O.~ ! W D d p f f S A D S f f a a s g g a i q q w p p S F K K L D S I A A A A A A A A p p ",
"^ 1.5.5.3.3.>.[ :.] ;.:.:.:.] ] ] [ ] ] [ [ [ [ [ ] ] [ [ } 7.3.4.4.f.l.l.l.U.E.T.`.'.'.|.'.'.).`.W.T.T.T.R.R.R.R.R.R.T._._.W.W.W.'.'.W.R.'.|.|.OX|.|.|._.T.E.E.q.k.6.f.6.d.L.I.I.U.U.R.U.I.d.d.6.d.d.d.d.L.U.R.R.|.|.|.!.|.|.|.!.!.W.Q.U.R.R.R.W.R.R.W.'.'.W.!.!..X!..X X.X.X.XoX.X=X=X.X=X.X*XoX>XoXoX=X*X*X4XoXoX X.X.XoX X X X.X.XoX4X=X=X4X=XqX5X5X5X5X5X=X4X4X4X=XoXoX-XoX=X=X-X-XXXoX-X=X=X=X>X>X=X=XXXXX|.|. X X X X.X=X=X4X4X5X8X8X5X8X5X4X4X4X=X=X=X=X.X.XoXoXoX.X=X3X5X5X5X5X5X4X4X4X3X.X.XoX.X X.X*X.X$X*X=X4X5X4X3X4X5X5X5X5X4X4X4X4X=X4X4X=X.XoXoX.X*X'.z.<.%.j i 6 * = & 0 p.fXZXFXFXFXJXMXj.i i n.MX1XA.,.c.lXAXFXSXMXgXgX1X;X8...( @.&.M X.=.*.;XBXBXZXNX1XtX!.n.b.Q.f.U < o X . s n.1X`.:Xb.-X1XZ.X.5 O . . . X   .   O , %.;X+X&XC.B.0.h.E k * $           & q i i a j q 2 1 2 1 : , : 1 t & . o t h 7 @ . . # E A.~ U j k X.hXKXLXJXcX@XoXXX-X=XXX-XXX@X{.{.:X<X0X<X,X0X>X8X9X0XcX0X0XqX>X-X:X{.{.{.[.).v.T.E.T.T.`.[.[.{.XX@X@XOX'.[.'.[.'.XX:X=X-X=X>X-X-XXX:XXXOXOX'.T.`.v.`.).`.`.v.v.x.k.k.k.g.1.1.;.^ W T D T T ( s.n.A.A.A.g.s.s.m.`.;XgXgX2X2XA.m.s.( s.s.2.2.>.>.>.5.E.'.[.`.`.v.x.b.k.d.f.d.b.x.x.U.U.Q.Q.T.`.T.b.f.[ Q _ } L.T.[.[._.)._._._._._.].).v.v.x.T.`.[.}.:X<X:XXX{.].[.].].V.V.q.1.;.-.w.w.q.q.k.5.2.-./ Q Q ` :.7.:.7.5.5.k.l.5.5.5.2.2.;.;.;.2.2.;.;.2.2.2.1.1.1.1.2.;.-.-.O.#.#.,.1.8.0.0.h.h.h.h.h.2.2.] O.<.,.,.;.#.O.-.-.;.;.^ W W F F U T #.0.h.0.B.9.<.;.! P F F G A d d p p p d d A d e w w w w q w w w p d d p e e e e e e g J D d p p d S U K ! ~ ~ W W T S p p f S S S S S j f g a g g a a a w w e p p S F P K F L S p p I S S A A F F I I ",
"^ 1.5.6.3.3.7.>.:.[ [ [ [ [ :.>.[ [ :.:.3.7.} } } 7.3.7.7.3.5.5.4.d.l.l.E.E.E.E.`.Q.W.'.'.|.'.[.`.`.R.R.W.W.R.U.R.R.R.T.T.T.R.W.'.'.`._._.`.'.|.!.W.|.|.R.R.T.U.d.6.d.d.d.I.U.R.U.Y.R.U.I.l.d.d.4.4.4.f.d.I.U.Y.R.!.!.W.!.OXOX X|.!.W.W.W.'.W.W.W.!.W.R.W.W.!.!.!.!.!. XoXoX.XoX=XoX=X.X=X.XoX.XoXoXoXoX=X=X=X=X=X=X=X.X X.X.X X=XXXXXoXoXoX=X=X=X=X*X*X4X4X4X4X7X3X3X*X=XoXoXoX>X-XXXXX=X>X>X:X>XqX>X>X=X:XXXXXOX|.!.!. X X XoX4X4X5X8X9X8X8X9X5X5X9X8X4X*X=X=XoXoX*X*X*X3X4X5X9X9X9X6X5X5X3X3X3X3X.X.X.X.X~..XoX.X3X3X4X4X4X4X4X5X5X4X4X4X5X4X4X=X4X4X$X$X.X X|.'.@X`.*.k t * @ $ $ h L c.gXSXFXFXFXFXgXX.1 t b.A.@.t i C.BXFXFXFXSXhXS.X.s 5 & 5 i j j.%.8.2X,XwXQ.Q.&X}.:Xv.'.yX&XQ.z + X o X O j 2XgX<X-XU.<Xc.}.*.5   X .   X .   o * X.gXgXgXB.j B.p.l h - .         . , R g a E s > 2 2 2 > & & , : < < O . . 5 s t o o @ & h.k.( %.j *.hXJXJXSXcX:X:XoX:XoXoXoXOXOXXXXXXX:X,X<X>X<X>XqX0X8X8X9X8X>X:X>XXX:X@X[.[.).T.`.T.).).).`.'.|.OX{.{.@XXXOX|.OXXX@XXX-X>X>X>X:X:X:X>X@X@XXX).T.E.v.v.T.`.v.v.v.x.x.x.z.1.1.>.] ~ W T F T ~ 2.c.A.F.A.m.s.s.s.m.A.2X2X2X;XJ.n.m.s.s.s.( ( ( ] >.3.l.v.`.[.[.`.T.k.k.f.k.k.k.d.d.b.U.U.T.T.`.`.Q.Q.b.>._ | { 3.E.'.[.[.`.).).[.[._.#Xv.v.v.v.`.{.{.{.<X0X<XXX{.{.].+X].V.V.q.5.w.-.:.1.q.q.q.k.1.;.^ ^ ` ` [ 3.3.:.1.1.1.1.1.>.2.;.;.;.O.^ -.` ` ] ] :.:.5.5.1.1.2.;.-.;.;.-.;.;.,.2.1.g.0.8.g.h.g.2.2.,.;.O.O.#.;.^ ^ ,.1.2.;.] ^ W K F F T O.8.9.h.0.0.8.O.W D G d A d p d d d d d S D S d w w w w q w w w w e e e e e e e e e d D f d d e p f J F T W W W T D p p p p S A I I D j f f f g g g a f f d e w e A F P K F S S p p p p S A A F F A I ",
"W 1.k.d.f.f.5.3.3.>.7.7.7.3.5.5.3.7.3.3.3.3.3.7.7.4.4.4.3.4.6.3.d.L.I.E.T.T.T.T.`.'.'.'.'.'.'.`.`.`.R.R._._.R.R.Y.R.R.T.T.R.R.W.`.`.`._._.`.'.|.!.W.'.|.'.R.R.T.I.d.I.I.I.U.R.R.R.R.R.R.I.d.5.3.3.3.4.f.d.I.U.Y.R.W.!.!.!.OX|. X X!.!.|.OX|.|.|.|.|.|.|.!.!.|.!..X X X X.X.X.X.X=XoX.X.X.X.X.X.X=X=XoXoXoX=X=X=X=X=XoX X X X X XXXXXXXoX X X X XoX X.X.X=X=X4X4X4X4X=X.X.XoX=X=XoXoXoX-X>X>X>X:X>X>X>X>X>X:XoXXX XOX!.!. X X.X=X4X8X8X9X9X9X9X9X9X6X6X5X4X=X3X4X3X4X3X3X4X4X6X9X9X9X9X9X6X5X5X5X4X3X*X.X.X.X.X.X4X3X3X3X4X4X4X4X6X6X5X4X4X4X5X4X5X4X4X3X.X.X.X*XW.{.].h.@.i * $ = @ < p.C.;XSXJXAXAXMXfXC.*.j.;XNXA.m , k ;XfXAXFXJXJXJXpX5 @ # % % # < j j E A.b.:XXX-XyXyX1X1XmXeX}.-Xn.0 # @ X o < $.wXlXmXwXNX}.:XgX&.5 = X X   X . o $ h ;XMXdXG.%.%.*.M 5 O X         o : g J T E i 1 q s 1 1 : , * @ , < < .   . = t b & < q T b.k.}.Z.B.dXJXJXxXcX,X<X4X>X>X>X>XoXXX:X@XXX:X<X<X<X>X>X8X>X8X8X0X0X8X>X<X:X>X@XXX[.[.).`.T.T.T.`.[.OXOXOXXX@XXXXXXXOXXX-X<X>X>X8X8X>X>X<X<X<X:X@X{.).).T.v.v.T.`.`.`.T.T.v.z.k.1.1.,.;.^ W W W W ~ 2.c.A.}.n.m.m.s.m.n.A.&X&XJ.n.m.m.m.s.s.s.( ( ( ] >.3.l.T.`.'.`.T.v.k.l.f.s.1.k.d.d.x.U.T.`.`.`.'.|.!.T.f.' _ [ 3.l.T.'.'.'.`.)._.]._.V.x.v.v.v.].XX:X:X:X<X:X{.{.{.+X+X+X].V.q.:.:.;.:.5.q.k.k.k.k.>.] ` ` ` ] 7.7.:.2.1.1.2.:.:.;.;.;.;.;.-.` ` ` ` ` :.1.5.5.5.1.2.;.;.;.-.` ^ #.,.<.9.h.g.0.8.s.<.2.2.2.,.;.O.O.;.( ;.,.1.1.5.1.^ ^ W T K W O.8.9.0.h.h.9.O.K d e w e e p d d d d d S S d d e e w w w w w w w e d d e w w w w e d f f f d p p f g U T W / W P G p p p p p I p p p f f f f f f j f J D f d e A A F P K K L f p p a p d A G F K F S ",
"^ 1.k.d.f.f.5.5.5.5.5.3.3.3.5.5.5.5.3.3.3.3.5.5.4.6.d.6.6.d.d.d.L.U.U.R.T.T.T.T.`.'.'.'.'.'.'.`.`.`.`._._._.R.R.T.T.T.T.E.E.E.T.T.).).)._.W.W.W.'.W.'.'.'.'.W.W.U.I.I.U.U.Y.W.W.W.W.W.R.I.d.6.4.4.4.4.d.L.U.Y.R.W.!.|.!.!. X X X X|.!. X X|.OX X|.|.|.|. X X X X X X XXX.XoX=X=XoX=X.XoX.XoXoXoX=XoXoXoXoX=X=X=X=X*X.X.X.X.X.X.XXX X X X|.|.|.W.|.|.|. XoXoX4X4X8X5X4X=X=X=XoX.XoX:X>X:X>X>X<X,X8X>X>X>X>X>XoXXXXX X|.|. XXXoX=X4X4X5X9X9X9X9X9X9X9X9X6X5X4X4X5X4X5X4X5X5X6X9X9X9X9X9X9X9X6X6X6X4X4X3X*XoX.X.XoXoX.X.X3X3X3X4X5X5X6X5X4X4X5X5X4X3X=X=X=X.X.XoX.X*X<X`.o.j 5 @ $ & h M.nXCXFXJXDXgXhX;X0.0.dXMXAXSXF.h * k ;XfX1XSXJXJXCXpXM * o O o o @ & * 1 m *.R E ( s.&X/.rXyXyXrXwXlXc.( E 5 & & %.<X8X1XAXgXMX&X;XZ.M.y   .   . O o O y B.CXdXB.B.j.X.y O .           * r a E j s s < 1 q q q i : = o o * < @     o < *.X.s %.k.k.{.gXCXdXjXJXJXfXkX0X>XqX8X8X0X0X8X>X<X:X@X>X>X>X>X-X=X=X>X8X0X0X0X0X8X>X>X>XXXXXXX[.[.[.'.`.[.[.XXXXXXXX@X@X:X@X@XXX:X>X<X0X0X8X8X0X0X0X,X,X<X:X{.[.'.).`.T.`.`.T.v.v.x.x.z.k.1.1.2.2.;.^ ^ ^ / ^ <.b.v.n.b.b.g.m.n.n.&X&XJ.n.m.m.m.m.m.s.s.s.( { ] >.f.v.T.'.'.`.T.T.z.k.f.>.5.f.f.b.`.`.].}.}.'.{.XXXX'.d.} { [ 3.d.U.[.'.'.'.`._._.).x.x.v.v.T.{.:X-X>X:X-X:XXX{.{.@X<X+X+X].k.5.:.:.;.5.k.l.x.l.k.5.>.] ` ] [ [ [ ] ] ;.2.;.] ` ;.;.2.2.2.2.-.` ` ` ` :.5.5.q.q.5.2.:.] -.-.^ ^ O.$.,.0.8.<.<.2.<.<.,.2.1.2.;.O.O.O.#.<.9.9.9.k.1.2.^ / W W W ! ,.9.0.h.z.9.O.D p w q q w p d A A A A S S d d e p w w w p p p e e e d d e w w w e d p f f d d d f f T T W ~ W H G p p p p p p p p a f f f f f j J T E T D A A A A F K K K K S p a w w d A A G F F F ",
"^ 5.k.d.6.6.5.5.k.k.5.5.5.5.5.5.q.6.6.6.f.6.6.k.4.d.d.d.d.d.L.L.L.U.U.R.).T.T.T.W.[.[.'.'.[.[.'.`.`.'.`._._._.R.`.T.E.v.x.l.l.U.v.T.T.T.T.R.R.R.W.W.R.'.'.'.R.R.R.U.U.Y.Y.W.!.!.W.W.W.R.I.d.6.4.d.d.d.L.U.Y.R.W.!.|. X|.|. X X X X X X|.|.XXXXOX X X X X X X.X X X.X X X.XoXoX.X.X.XoX=XoX=XoX=XoX=X=X=X=X=X=X=X=X*X.XoXoX.X X X X X|.|.|.|.W.Y.W.W.!. XoXoX=X4X9X5X5X8X4X=XoX.XoX>X>X>X>X,X0X0X0X>X>X:X<X:XoXoXXXXX X|. X.XoX=X4X4X8X9X9X9X9X9X9X9X9X9X9X5X5X5X4X5X5X5X5X9X9X9X9X9X9X9X9X9X9X9X6X4X3X3X3X.X XoX.X.X3X3X5X5X8X5X5X5X5X5X5X5X5X4X5X4X=X*X.X=X X!.Q.-Xc.j 5 $ * t B.nXJXJXJXSXCXdXF.dXjXH.;XMXSXAXnXS.y = 5 B.1X}.xXJXFXMXgXhXe.* o o o o O % * t ) A.j.) t i j m.wX-X5X0XMXBX;Xp.@.E j p.n.<X}.:X}.A.j.C.F.hXh X . o . X O @ t *.jXCXF.j.%.=.5             . 5 g j E s j 1 # 1 q r 1 i q 1 @   O < t o . o < E s.%.C.lX&XxXMXSXSXHXKXSXkX>X0X0XwXeXwXwXkXwX0X8X>X>X>X@X>X>X-X=X=X8X0X0XkXkX0X8X>XqX>XoX@XXXOX[.[.OXOXXXXXXXOXoX>X>X>X>X>X>X:X>X>X<X,X0X0X,X0XkXkXkX,X,X<X{.{.[.).T.T.T.T.T.v.v.x.b.x.x.k.k.f.1.2.2.2.2.] ] 1.k.b.z.k.f.k.b.n.n.&X&Xn.m.s.s.b.n.n.n.m.s.s.s.>.f.l.T.'.{.{.'.'.`.v.l.f.>.5.5.f.v.}.&X{.}.}.}.&X:X-X'.T.k.3.3.3.f.U.[.'.'.`.[.`.).v.x.v.).).`.{.-X=X>X>X-X:XXXXXXX:X:X@X+X[.x.5.:.w.;.1.5.l.x.x.k.5.>.] ^ ] ] ] ] _ _ ] ;.;.;.] ;.,.9.9.9.9.;.` ` _ ` :.5.5.5.k.5.:.:.` ^ ^ ^ O.O.O.$.$.#.#.#.( <.<.,.2.2.;.^ ^ -.,.,.<.9.9.9.1.1.1.;.^ / W W ! ,.9.0.z.9.<.! D p w q 4 w d A A G S D D S d d e p e p A d d d p w e p e e w w w p d p p d d d f D J T T W / W F G I I I p p p p p w p f f d f S J T T T U D A A A D K K K K S p a a e d d d A G F F ",
"` 5.k.k.d.l.l.l.k.l.l.l.l.x.v.v.x.l.k.d.f.d.k.k.6.6.d.d.d.L.I.U.U.U.R.R.T.T.T.`.W.[.[.W.W.[.[.'.[.'.W.W.`.'.'.W._.T.v.v.x.x.l.l.x.v.T.T.T.R.R.T.T.R.Q.W.W.R.Y.R.R.U.R.R.R.R.!.|.!.!.W.R.U.I.L.d.d.d.d.L.I.Y.R.!.|.|. X X X.X X X X X X|.|.XX X X.X.X.X.X.X.X.X.X X.X X X.X=X=X.X.X.X=XoXoXoXoXoXoXoX=X=X=X=X=X=X=X=X=X=X.X X X X X|.|.W.W.W.R.U.Y.Q.W.!. XoX4X5X5X5X5X5X4X=X=XoXXX:X>X>X8X0X0X0X0X>X:X:X:XoXoXoXXXXX X X X.X.X=X5X9X9X9X9X9X9X9X9X9X9X6X9X9X5X9X4X4X5X6X6X9X9X9X9X9X9X9X9X9X9X9X6X6X4X4X3X*X.X*X=X*X3X3X4X4X4X4X4X4X5X5X5X5X4X4X5X4X*X*X*X=XoXoX,X<X*.y * $ h ;XFXJXKXJXCXjXF.D.fXCXFXFXBXlXgXaXpX&.y * - p.gX1XlXAXSXSXSXSXgXX.$ O o . o $ = & o.<XmXwX}.$.h * D g.BX:Xn.p.y s X.C.MXxX;XgX,.Q.<X0.g A.;XdXh + o . . X + O * B.dXdXF.j.*.&.-   .     X . & i g R R f E j 2 > g %.s , i i < = . , t < # # 1 f g.F.V.,XMXMXSXJXKXLXKXMXcX8XkXlXeXeXzXzXkXwXwX0X8X>X>X:X>X>XoX>X>XqX0X0X0X0X0X8X8X0X0XqX>XoXXX@XXXXX@X:X-XoXoX>X0X8X8X8X0X>X>X>XqX,X0X0X0X0XkXkXkXkX,X0X<XXXXX{.`.`.T.T.E.T.T.v.v.v.v.b.l.x.x.k.5.5.5.5.1.5.5.5.5.k.k.k.k.l.v.n.A.n.m.s.s.s.s.b.T.}.A.n.b.b.k.l.T.`.{.XXXX{.{.[.`.v.f.3.k.l.b.n.A.;X&XA.A.&X:X:X:X{.'.Q.b.d.3.f.d.T.'.'.'.'.).T.v.x.v.).[.'.{.:X>X>X>X:X-XXX{.{.{.{.{.{.].v.5.1.2.:.1.k.l.x.x.k.f.>.] _ ] ] ( ( ( ( ] ] ] :.2.1.9.0.0.0.9.9.;.;.` ` :.5.5.5.6.5.:.] ^ / ~ ~ O.O.O.#.O.#.#.( ( $.,.,.2.2.;.^ O.;.<.8.<.,.9.9.9.1.1.,.^ ! ! ! ^ ,.9.z.z.9.,.! S p w q q w e A A F F F F S A e e d d G D S f d d e e e e e e e e p d a p d f S J K E R ! ^ ^ Q H G Z I I p p p w w w p d d d d D D F T W W F G A A D K K K J f a p p e e d d d S S F ",
"` k.l.x.l.v.x.x.l.x.v.v.V.).`.`.).T.v.x.l.x.l.l.6.d.l.l.I.U.U.U.U.U.U.R.T.T.T.).T.).).T.`.`.[.'.'.'.W.W.`.[.'.W.T.T.v.x.x.l.k.k.l.x.E.E.E.E.E.T.U.T.R.W.W.R.Y.Y.U.U.R.R.R.R.!. X X X|.W.R.Y.U.L.d.L.L.U.Y.R.!.!.|. XoXoXoX=XoX XoX X X X X X X XoX.X.XoXoXoXoXoX X X X X.X=X4X4XoXoX=X.XoX.X=X=X=X=X*X=X3X4X4X4X=XoX.X X X X.XoX X|.|.|.R.R.T.U.U.Y.Q.Q.|..X3X5X7X7X4X=X=XoXXXXX-X:X>X>X0X0X0X0X0X>X>X:X:XXXXXXX XoXoX XoXoX=X4X5X9X9X9X9X9X9X9X9X9X9X9X9X9X9X9X5X6X9X9X6X9X9X9X9X9X9X9X9X6X9X9X9X9X5X4X4X*X.X3X=X.X.X.X.X.X*X=X4X4X4X4X5X5X5XqX5X*X*X4X=X.X-X0XlXF.b 5 - h F.FXKXSXSXhXpXD.aXnXAXFXJXFXAXxXF.&.M =.y * 7 *.dXgXMXZXSXSXJXAXMXe.* O o . O @ = < E 2XyXeXyXyXyX:XR X.A.T.s.g , % @ l <XfX}.1X;XgX;X;X) dXfXhXM.@ O o .   X $ & j F.F.H.H.Z.p.c .       X @ 0 E X.@.j f a j j a a j m @ O 5 s s & , 1 s q 1 f ~ c.;X;X;XMXCXJXKXKXLXHXxXcXlXlXzXlXzXzXzXlXlXwXwX0X8X8X>X>XoXXXoX>X>X>X8X0X0X0X0X0X0X0X0X0X>X>X>X>X:X>X>X>XqXqX8X<X8X8X0X0X<X>X>X,X0X0XkXkXkXkXkXkXkXkX0X<XXXXX{.'.'.`.T.T.E.v.v.l.v.v.l.x.v.v.x.l.k.k.k.l.l.k.k.5.k.k.k.k.x.v.c.V.n.m.s.] ] s.b.Q.{.}.}.T.n.v.T.`.{.XXXXXX:X{.{.].`.b.b.v.v.b.n.A.A.A.Z.A.H.2X<X<X:X-XXX|.U.f.f.d.l.R.W.W.W.T.x.v.l.x.).[.OXXX=X>X>X>X-XXX{.{.&X:X:X@X+X].x.f.>.{ ] >.f.b.b.b.d.f.f.[ ] ] { ( ( _ _ ] ] ] :.1.k.z.C.r.r.B.9.9.;.` ` 2.5.5.5.5.7.:.` ^ ^ ^ ! ! ~ O.O.~ ~ $.] #.$.#.,.,.2.;.#.;.<.9.9.1.1.2.1.9.1.2.,.O.~ ! ! ^ ;.1.q.q.9.-.! D p w q q w e A G F F F F A A e e A G K K J S f d p w w w e e e e p p p p f f D K ! ! ~ O.O.` Q H G I p w w p w q q w p d d d f D F F T W W T G d A S K K K J f d p p e e d d d A G G ",
";.k.l.v.x.v.x.x.v.T.).].].].].{.[.[.`.).T.T.E.I.l.l.l.E.E.T.R.T.T.T.E.U.U.U.U.T.x.v.v.v.T.T.'.'.[.'.`.W.`.`.R.T.T.E.x.l.k.k.5.5.k.d.l.l.l.x.v.T.T.R.R.W.R.Y.Y.U.U.U.R.W.R.W.|. XOX XOX|.W.R.Y.U.U.U.Y.Y.W.!.|..X X XoXoXoX=X.X.XoXoX X.X.X X X.X X XoXoXoXoXoXoX=X=X=X=X=X*X*X=X=X=X=X=X=X=X4X4X4X4X4X4X4X4X4X=XoXoX X X X.XoXoX X X X|.W.T.T.T.U.Y.Q.W.!. X=X5X5X5X4X=XXX XOXOX@X:X:X:X<X,X<X<X<X>X:X@XXX'.|. X XoXoXoXoX=X4X5X5X8X9X9X9X9X9X9X9X9X9X9X9X9X9X9X6X9X9X9X9X9X9XrX9X9X9X9X9X6X6X6X9X5X4X4X4X*X.X3X4X=X.X.X.XoX3X4X3X4X3X4X4X5X5X5X5X5X4X4X3XXX>XmXfXS.=.M M.jXSXJXSXaXe.e.aXVXSXSXJXJXFXFXFXSXMXF.D.H.&.6 h e.dXhXSXFXFXMXxXMXCXN.t * @ o o @ & s ;.1XwXwXyX1X`.1X&XxXdXg.A.2XZ.O o % i 1XwX{.BXBXgX;X&XxXxXCXSX&.@ o X X   O 6 l +XdX*.*.H.aXy o       @ < s %.h.%.@.f q q E X.o.o.k o   . & t l i 0 i g a j %.A.+X<X1XxXAXDXKXLXKXCXzXlXcXkXzXzXzXzXmXzXlXzXzXwX0X0X0X>XXXoXoX>X>X>X>X8X0X0X0XkXwX0X0X0X0XqX8X>X0X8X8X8X8X8X>X>X>X>X>X<X>X<X>X>X0X0X0XkXkXkXkXkXkX,X,X>X:X:X{.{.{.'.`.T.T.v.v.v.v.x.x.V.T.T.T.V.I.l.k.l.l.x.l.l.x.k.l.l.v.V.v.V.b.f.s.{ { [ f.T.&X:X&X}.}.{.{.XX:X>X:X:X:X@X@X+X].'.'.].V.c.n.Z.Z.Z.Z.Z.H.dXfX<X>X>X,X=X XP.f.f.l.T.R.T.R.E.l.l.k.l.T.'.-X=X8X>X>X>X:X:X-X&X:X:X<X:X+X'.U.f.i.{ ] >.f.k.d.d.f.f.f.>.] ] { ( _ ' _ ] ] ] 2.5.z.z.C.V.C.C.C.9.w.,.-.2.:.:.:.:.:.-.-.^ O.~ W P W ~ ^ ^ O.,.,.#.#.#.;.,.,.,.<.1.9.9.9.1.1.1.,.,.,.2.#.O.! T W ~ ;.1.9.9.<.O.K D d w w w w e A F F W F F A A e e F F K K K D d p p w w w e p p p d f f f f f L K ! ! O.-.-.` Q P A w w w w w w 3 q w p d d d S D F U U W W F S d d d D K E T f g d d e e d d d A A G ",
";.z.x.v.x.v.v.v.T.).].+X+X].+X:X@X@X{.].).T.E.l.I.I.E.T.T.)._.'.`.).R.U.U.l.l.x.l.l.l.v.V.T.T.'._.[.`.[.'.[.).E.T.E.l.k.q.5.5.5.3.3.5.k.l.l.v.T.`.R.R.W.R.R.R.U.R.R.'.|.'.|. X X X X X X|.|.!.W.Q.Y.R.W.!.OX X X.XoX=X XoXoX.X.XXXoX=X.X.XoXoXXXoXoXoXoXoXoXoX=XoX=X4X4X3X*X=X4X=X=XoX3X3X5X4X4X5X4X5X5X5X5X4XoXoXoX X X X.X.X X.X X|.!.W.T.R.E.Y.Y.R.W.!. X=X4XqXqXqX>XoXOXOXOX{.XX@X@X:X:X:X@X@XXX{.{.'.`.W. X|. XoX XoX=X4X5X8X9X9X9X9X9X9X9X9X9X9X9X9X9X9X9X9X9X9X9X9X9XrXrX9X9X9X9X6X6X6X6X6X6X4X4X4X=XoX4X=X=X.X$X.X$X$X3X3X3X$X3X4X6X5X5X5X5X4X.X*X=XlXZXnXhXhXCXJXKXKXKXVXe.n S.CXAXFXKXKXJXFXAXAXCXAXMXgXgXdXF.pXD.D.pXxXJXJXFXBXMXZXC.h h 7 * @ = 1 X.;XMXZXMXBXgXB.t X.&XlXMX1X1X;Xt O . @ s ;XBXwXBXMX;X&XNXMXdXCXVXM * o . . o < *.;XfXdXb *.F.n O     . 5 X.j E o.B.E f g q s X.J E m $     . @ 0 g i i q q E j.c.n.&X1XMXZXDXKXLXHXxXzXzXcXzXzXzXzXzXNXzXzXzXzXlXkX0X0X>X>X8X>X>X>X>XqX8X0X0X0XcXwX0XwX0X0X8X0X8X0XqX>X8X8X=X>X8X>X>X>X>X>X:X<X>X0X0X0XkXkXkXkXkX,X<X,X:X:X:XXXXX{.{.[.T.T.v.v.v.).v.T.`.[.[.[.`.l.l.k.q.k.x.v.T.v.v.x.x.v.V.x.v.E.x.k.s.] [ f.T.}.-X-X-X-X<X,X,X>X>X:X<X,X:X@X@X&X:X:X{.].n.m.p.p.M.Z.J.H.gXgX1X0XwXwXwX=XQ.f.f.l.U.U.U.T.T.l.k.5.k.U.W.*X5X8X>X8X>X-X:X:X:X:X<X<X:X&X}.Q.d.f.s.] { s.s.d.d.f.f.f.>.[ ] _ _ { ' _ ] >.2.1.z.v.C.x.V.V.C.V.z.9.w.2.2.2.:.2.:.:.-.-.^ ~ ! P P W ! ^ O.O.,.,.#.( ( ;.2.,.1.9.q.g.9.9.2.2.2.1.,.;.;.#.~ W K K ~ ,.1.9.9.,.o.K S d w w e e w A F F W U F A Z e Z F P F K K S p p p w w w p p p d f f J J J J J P O.O.$.-.-.^ P F A w p w w w w w w a d d d d S D U U F F T F A d d d D D T E f f d d d e d d e A G G ",
"2.k.l.l.v.T.v.V.V.`.].+X+X@X:X<X<X:X{.[.]._.T.U.T.E.E.E.T.`.W.T.R.T.T.).T.E.x.l.l.l.x.v.).`.`.[.[.[.[.`.Q.Q.R.T.U.l.k.q.5.5.>.>.} [ [ 3.d.l.I.R.T.T.).T.R.R.R.T.T.R.R.W.|. X X|.OXOX X X|.|.|.!.!.|.!.!. X X.X.XoXoXoX.X.X X.X=XoX=XoX4X3X.X=XoX.X.X=X XoX.XoX.X4X4X5X4X4X4X4X3X3X3X3X3X4X4X5X9X8X9X8X5X4X8XqX=X.X X X X X.X.X.XoX X|.|.W.R.U.U.R.R.W.!. X.XoX=X=X=X*X.X!.'.`.[.[.`.'.[.{.[.[.].].).T.T.v.E.T.W.!.|. XoX4X4X=X4X4X8X9X9X9X9X9X9X9X9X9X9X9X9X9X9XeXeXeX9X9X9X9X9X6X9X9X9X9X9X6X6X9X8X5X5X4X3X3X$X.X.X*X*X$X.X.XoX.X*X3X4X5X5X5X3X4X3X4X8X:X,XZXJXDXCXCXSXLXLXJXSXiXv k B.MXMXMXSXFXFXSXSXAXMXhXH.j.Z.gXSXSXMXjXjXxXSXJXJXFXBXCX&.y m m &.&.k q %.lXNXSXCXfXwXA.< * z n.wXmXmXmX}.- @ O o g 2XMX:X&XzX].hXJXnXF.aXv - O . . . o &.gXfXhX;X*.S.&.O       t p.j R R o.a R +.R j a j 0 < o         O r s q q q > k B.V.;XjXfXMXCXSXKXZXxXcXzXzXlXzXmXzXNXmXzXzXzXzXlXzXwX0X0X0X>X<X<X<X<X>X>X,X0X0X0XcXcXcXkX0X0X0X0X0X0X0XqX>X>X>X>X>X>X>X-X:X>X0X0X0X0X0X0X0X0X0X0XfX<X<X@X@XXX:X@X{.{.'.).T.).T.V.).T.`.{.XX:XXX'.T.l.5.5.k.x.[.[.].).v.x.x.T.v.x.v.v.T.x.1.[ f.U.].:X<X<X1X1X0XlX1X1X0X0X<X:X:X:X&X<X<X@X].A.c.p.p.p.Z.H.dXjXgXgXgXlXlXwXwXXXb.f.f.d.I.l.T.E.k.k.3.f.d.W.*X8X9XwX0X-X&X&X<X<X<X1X<X<X<X&XQ.b.s.{ ] ( { i.} } 3.f.f.>.2.;.;.;.] ] { [ [ 7.5.k.x.x.V.G.G.V.V.C.0.1.1.2.2.2.2.2.:.:.` ` ^ ~ ! W W Q ^ ^ ;.1.9.9.1.;.2.<.1.9.k.k.k.9.1.1.2.;.` ^ ;.;.O.o.R E E ! O.<.;.-.O.! D d p p d d d d d U T T D A A Z e A G K K K K D d p w w w w a p d f J K R K ! R K ! ~ O.-.-.-.! P F e w w e e w q q w w f j j f d U T F G F F G e d d d f D J J J D S d p d d d p p A G ",
";.k.k.l.v.v.v.V.V.].+X@X:X<X<X<XfX<X@X[.[._.T.U.T.T.T.`.`.[.`.`.`.`.`.).T.l.k.k.d.k.x.T.T.T.T.`.'.[.'.'.Q.Q.R.T.U.l.k.5.1.1.2.>.7.:.:.3.f.d.d.U.U.R._.R.U.Y.R.R.T.W.|.|.|.|.|.|.'.'.|. X|.OX X X|. X X XoX.X.X.XoXoX X X X X.XoXoX=X4X5X4X=X.XoX*X.X=XoX=X=X=X*X4X5X5X4X4XqX4X4X4X5X5X5X8X8X9X9X5X9X9X8X4X4X=X=X.X.XXX.X.XoX=X=X-XoX X|.W.R.U.U.R.R.W.!.!. XoX=X4X=X=X.X|.W.T.T.T.E.T.`.`.`.V.x.x.k.k.q.k.f.d.U.W. XoXoX4X4X=X=X4X4X5X8X9X9X9X9X9XwX9X9X9X9X9X9XeXeXeX9XeXeX9X9X9X9X9X9X9X9X9X6X9X5X5X4X4X3X$X.X=X*X*X3X3X$XoX$X.X.X*X=X3X4X5X4X=X5X4X=X:XxXJXKXDXvXDXJXKXHXVXiXc 7 j F.CXNXMXAXFXFXAXAXZXgXZ.m t h e.dXgXMXAXDXSXSXSXJXJXFXCX&.5 y m dXMX;X%.A.MXBXAXCXMXMX;Xh $ @ j `.wXMXBXlXX.@ o o * i 2XlX}.:X{.gXjXMXdXD.m y o . . . o < dXCX;XdXF.pXS.-     . t @.p.%.f f R %.*.j.*.j p.t $ o         . < s E 3 1 # o 0 j.dX+XF.hXAXJXHXZXxXlXlXzXzXzXzXzXNXmXzXzXzXzXzXcX0X0X0X>X>X<X<X,X,X<X0X0X0X0XkXlXlXlXcXkXwXwXwXwX0X8X8XqXqX>X>X:X-X-X:X>X>X0X0X0X0X0X0X0X0X,X,X,X:X:X:X@XXX@X@X{.XX{.[.`.).).).).).`.[.XXXX{.[.`.E.v.l.v.[.{.@X@X{.`.v.v.v.x.x.l.l.v.v.k.3.f.U.`.XX:X<X1XlXlXxXlXkX0X0X,X,X<X@X&X<X<X@X+XA.Z.j.Z.Z.J.H.gXhXgXgXkXlXzXmXkX:XT.f.3.3.6.d.l.l.5.5.7.3.d.Y. X5X9X9X8X:X&X&X:X<X1X2X<X<X:X&Xn.b.s.{ ( ( _ { { [ f.f.k.1.2.2.1.>.:.] [ [ 7.3.6.l.x.x.V.#XG.V.V.C.q.9.9.1.2.2.2.-.2.-.2.:.;.O.^ / / ` ^ ` 2.9.z.9.1.s.9.1.9.9.q.k.q.q.1.1.2.] ^ ^ ;.O.! K K T E T ! ,.;.O.! K d e p p g d d d f U T U D S A Z Z A A F J J J S d p e e w p p p f D K ! o.~ o.! ! ! ~ O.^ -.O.! P A w w w w e w w w w p S S f U U D U A Z A G S e e d d d S D K K D S d p p p p d d A G ",
";.k.l.l.v.v.v.V.].].+X:X<X<X<X,XfX<X@X{.[._.T.v.).T.)._.`.[.[.'.'.'.`.`.E.l.d.5.f.d.U.T.T.T.T.'.'.|.OX'.W.W.R._.E.l.k.5.1.>.>.>.3.7.>.3.f.f.d.L.U.R.R.R.R.R.W.R.W.'.|.|.|.|.|.|.'.'.|. XOX X.X.X X X.XoXoX=X=XoXoXXXOX X X X.XoX4X=X4X4X=X4X.XoX.X.X.X=X=X=X=X=X3X5X5X8X4X8X5X5X5X5X6X9X9X9X9X9X6X9X9X9X5X4X=X.XoX XXX.XoX=X=X=X=XoXoX X|.R.T.T.U.Y.W.!. X XoX=X=X=X X|.W.T.U.l.l.k.k.k.k.z.k.9.2.;.` ] ] [ 3.d.Y.|. XoX=X4X4X=X4X5X5X4X8X9X9X9XwXeXeX9X9XeXeXeXeXeXeXeXeXeXeX9X9X9X9X9X9X9X9X6X6X5X4X4X3X=X.X.X.X.X.X.X.X.X.X.X3X*X=X=X=X3X3X3X=X3X3XoXlXFXLXHXaXVXKXKXSXdXe.c y v B.CXSXNXMXZXFXFXAXBXZXgXB.v * = 5 y *.gXZXZXDXSXFXSXJXJXCXM.7 $ y dXZXAXMX,XMXAXFXFXMX:X;XX.= @ * j b.lXMX:Xj.6 O o O % j wXkX{.gXCXhXhXMXaXp.y $ + X X . @ =.hXdXaXF.&.M.-     X < %.*.o.o.E %.E %.X.m m m 5 $           . , s g q 0 $ O O t h.}.H.F.fXSXDXMXxXlXlXzXzXmXzXzXmXmXmXzXzXzXlXlXwXwX0X,X>X<X,X,X<X0X0X0X0X0XkXkXkXkXkX0XwXkXkXwX0X8X8X8X8X>X>X>X:X:X8X8X8X0X0XkX0X0X0XkX0X,X,X<X@X{.@X@X{.XX@X{.XX{.[.'.[.`.`.].`.`.[.{.XX[.[.`.T.v.x.v.[.@X@X:X{.`.v.x.l.k.k.5.q.l.v.l.k.d.U.`.{.:X-X1XlXMXxXlXcXlXkX,X,X<X:X&X:X:X@X+XA.A.Z.Z.J.J.;X2XgXgX1XgXkXMXMXgX<XQ.f.[ { [ 3.3.d.5.5.>.>.7.d.!.5X9X5X=XXX{.}.;X1X2X2X2X;X;X}.n.b.s.] ( { ( ( _ [ 3.k.k.k.1.1.5.5.5.:.:.:.3.6.d.l.E.E.x.V.V.V.V.V.q.q.q.2.w.2.2.-.2.2.:.1.2.;.-.` ` ` ;.2.1.k.V.z.z.z.k.9.9.9.z.q.q.q.1.2.;.^ ^ ^ ^ ^ W K F K K K P ^ ^ ! D f w w e d f f d d d D T D G S A Z Z A G F J J J S f d p p p p p f S J R o.O.O.O.! ! ! ! / Q Q Q P K A e w w w e e w w p d S E T U T E #.U e e e d d e e e d d A D F G d d p p a p d d A G ",
";.k.l.k.x.v.V.V.].].+X:X<XfXfXfXfX<X@X+X].).T.v.T.T.).).`.`.'.'.{.'.`.W.T.b.d.d.k.l.E.).).).[.OX'.|.OX|.W.W.`.`.T.E.x.q.1.1.>.>.3.3.3.3.f.d.d.U.R.R.R.W.R.W.!.!.'.'.|.|.|.|.|.|.'.|. X X X X.X.X.XXX.XoX.X.XoX.XoXoX X X X XoXoX4X=X=XoXoX=XoX=XoXoX XoX.X=X=X=X4X5X4X5X4X8X5X8X5X5X8X9X9X5X9X9X9X9X9X9X5X4X4X=X X X XXXXXXXoXoXXXXXXXXX|.W.W.R.Y.W.!. X.X.XoX=XoX X|.W.R.I.d.5.3.:.:.2.2.2.;.O.W W F W Q _ [ 4.L.R.|..X=X=X=X=X=X4X4X8X9XwXwX9XeXeXeXeXeXeXeXeXeXeXeXeXeXeXeX9XeX9X9X9X9X9X9X9X6X6X4X4X*X.X.X.X X X.X.X.X.X.X.X.X*X=X=X=X3X3X3X4X3X3X@XDXKXHXiXN.HXKXKXDXN.n v M p.;XMXBXmXmXAXAXAXNXmXmXgX;X*.- $ $ * h F.lXMXMXAXSXSXDXZXjXM.c ; - B.AXFXFXZXNXAXFXFXMXC.0.p.v @ o % E &X<X:XfXZ.h * @ # i }.<XlXZXZXgXdX;XjXhXM.- O . . o o h dXaXM.p.&.n - +   . < X.X.F.o.%.%.%.o.i y * $ $ $         . O : E g a s < O O o s &XdXm X.dXDXCXxXlXzXzXzXzXzXzXmXmXmXmXmXzXwXlXlXwXwX0X,X<X,X,X<X0X0X0X0X0X0XkXkXkXkXkXkXkXkXkX0X0X8X8X8X>X:X>X:X>X0X0X0X0X0XkX0X0X0X,X,X<X<X@X{.[.{.[.[.{.@X{.XX{.[.[.[.].`.[.[.[.[.[.{.[.[.`.V.).x.x.[.{.@X{.`.v.l.l.k.q.k.5.q.z.x.b.k.l.U.`.{.-X-X1XkXxXxXxXlXkXkX1XfXfX<X:X<X<X;X&X+X+XF.;X;X;X&X;X<X<X<X1XgXgXhXgX2Xn.f._ Y Y _ [ 3.5.5.>._ ' f.Q.=X5X*X^.Q.Q.`.&X2X2X2X;X&X}.A.n.b.s.] { { ( ( ] [ >.f.k.k.k.q.k.k.q.5.7.7.3.6.d.6.l.E.E.E.V.V.V.V.z.q.q.1.;.;.-.-.:.1.5.9.w.2.:.;.;.:.7.5.5.z.V.V.z.c.z.z.9.q.z.z.q.q.1.;.] ;.^ ^ ^ ;.W T K S S F F F T D p p w w p f f S d d d g D S A A A A A G F F J J J D f d p p p p p f S K ! o.O.O.^ ! / W P P P P P K F A e e w w e e w e d S T T W W T J %.( e w e e e e e e e e d d A p p p p p w a p d A G ",
";.k.l.q.k.x.v.v.V.].+X:X<X<XfXfX,X<X@X[.].).T.v.T.T.T.`.`.'.'.'.'.`.T.T.R.U.d.d.d.l.E.T.).`.'.[.W.|.|.!.W.W.W.R.T.E.U.k.5.5.3.3.7.3.3.f.f.d.I.U.R.R.W.W.W.W.W.W.'.W.W.W.W.|.|.|.|. XXXoX XXXoX.X.XXX.X.X X XoX XoX X X X X X X X XoXoX>XoXoXoX.XoXoX XoXoX=X=X=X4X4X4X4X4X4X5X5X8X8X8X8X5X5X5X9X9X9X9X5X4X4X=X.X X X XOXOXXXXXXXXXXXXX XOX|.W.W.W.!.!..X.X=XoXoX.X XW.R.I.f.>.[ ` / / ^ ^ W K D D A d A F W _ } d.U.W. XoX.XXXoX.X=X=XqX8XwXwX9XwXwXeXeXeXeXeXeXeXeXeXeXeXeXeXeXeX9X9X9X9X9X9X6X6X6X5X5X3X.X.X.X X X X.X.X.X.X.X~.~..XoXoX=X4X4X3X3X8XxXJXJXVXiXpXHXKXKXDXS.e.B.e.Z.;X<XkXlXBXAXZXxX=XQ.Q.:XnXB.5 $ @ = 6 j.gXMXMXMXSXMXF.dXjXD.v - - m MXJXJXFXNXMXBXAXSXfX*.%.l * o O & ( wXmXZXgXB.S.h @.;XF.v.<XgXxXgX;Xp.v D.jXaXc = O $ = t Z.jXS.*.&.v c O . O m *.*.F.h.j.X.%.@.t @ . . .         . % < q o.@.s t s t o X # j.;X=.5 =.jXCXxXkXwXeXeXzXzXzXzXzXzXzXzXzXzXcXwXwX0X0X0X0X0X0X0X0X0X0X0X0X0XwXwXkXkXkXkXkXkXkX0X0XqX>X>X-X-X:X:X>X>X0X0X0X0XkX0X0X0X,X<X<X:X{.[.[.[.`.[.[.{.XXXX{.{.{.[.[.[.].[.[.[.[.[.[.[.`.V.).z.z.).`.`.`.x.k.k.k.k.1.5.5.q.x.v.x.x.v.U.[.XX-X-X=X1X1XlXlXkX0X0X,X<X:X<X<X<X<X<X:X&X&X;X;X;X+X`.}.&X:X<X<X1X1X2X2X;Xn.s.Y Z Z G Q ] 3.>.' Y ^ >.n.&X-X-XQ.U.U.T.}.;X;X&X&XA.A.n.b.f.>.] _ _ / / [ >.1.k.k.z.k.k.q.q.q.q.q.6.6.6.6.q.q.E.x.x.z.V.V.z.z.q.q.w.-.-.-.-.w.5.q.q.q.5.5.q.5.5.5.k.l.x.).V.x.z.z.z.9.9.z.k.9.,.#.;.;.^ / ^ ` ^ / T J f f S S S S d w w w w p f S D S S D D D D A G G G G F K K E R T J f d d p d d S D D K ! O.O.O.^ W W P G F F P P D S d d A e e d d e d S T U U Y Y Y D U U w q w e p e e e e e e w w p p p p w w a a p S F ",
";.k.l.5.k.l.x.x.v.V.+X@X:X<XfXfX,X:X+X].`.`.T.v.x.T.T.T.`.'.'.'.'.`.).T.T.U.d.f.f.d.U.E.T.W.W.W.|.|.|.|.'.W.Q.R.R.U.U.l.d.d.3.5.3.f.d.d.d.l.E.T._.R.W.W.W.W.W.W.W.'.|.|.W.W.|. X X X.XoXoXoXoXoXoX.XoXoX X XoXoX X X X X X X X XOXoXoXoXoX XoXoXoXoXoXoXoXoXoXoX4X3X4X=X4X4X5X4X8X5X5X5X5X5X5X9X9X9X9X5X4X4XoX X X XOX|.'.|.OXXXXXXXXXXXXXXX|.|.!.!. X XoX=X=XoXXX|.R.U.f.7.] / W F F F F D d p a w w e A F Q ' 6.I.R.|..X X XoXoXoX-X>X8X8X8X8X8XwXeXwX9XeXeXeXeXeXeXeXeXeXeXeX9X9X9X9X9X9X6X6X6X6X6X5X4X=X.X.X X X!.!.!..X.X.X.X.X.X.X.X.X3X4X5XOXcXFXLXVXaXpXhXJXKXJXDXH.D.e.=.M.B.z.{.lXAXAXBXlX*Xf.>.A.;X*.j t * * k Z.MXSXZXxXMXgX*.e.jXF.M n y b dXSXKXFXAXMXmXAXAXMXF.m @.5 o O o s gXlX;XjXaXM.dX;XAXCXfXlXgXxXxXj.t @ * m jXaXM v y m *.dXhXjXB.M.v - . . o X.X.*.Z.%.*.j X.j < .       .     o @ 2 q g s.%.< % , E s O . h gXB.5 * X.cXMXzXeXwXwXlXlXlXzXzXzXzXzXzXzXcXwX0X0X0X0X0X0X0X0X0XkX0X0X0X0X0X0X0X0X0XwX0X0XkX0X0X>X>X>X:X>X>X>XqXqXqX0XwX0X0X0X>X>X>X>X:X:X{.[.[.[.[.[.{.{.XXXX{.{.{.[.[.[.`.[.[.[.[.[.`.`._.V.).x.z.v.z.z.z.k.9.q.k.k.1.5.q.q.x.v.E.E.T.T.XX:X=X-X-X-X-X<X1X,X0X,X-X'.'.{.'.{.&X:X&X+X}.}.}.}.A.V.A.`.&X:X:X<X;X;X;XA.g.1.W Z w e F / >.] _ Y W <.n.&X-X&Xb.f.3.d.n.}.&X}.A.n.v.b.k.f.>.[ ] { _ / ] >.5.5.5.k.k.k.q.q.q.q.q.q.q.l.q.q.x.).q.q.q.x.x.k.q.1.:.-.` ` ` -.w.q.q.q.q.q.q.q.q.q.k.E.T.x.x.x.x.x.z.k.9.9.9.g.1.,.#.^ ^ ^ ^ ^ ^ ` ^ W K J D f p d d e w q w w d f S D S D D T D S S D F F F P P T R R R J D S d d d d S J J T W ! O.^ ! K F F G F F K F S d d A S d S S S A S U W W T / Y Y F A r q q q e p e w w w e w w w w w w w q q q a p S D ",
"^ q.k.q.k.k.l.x.x.V.].{.+X:X:X:X:X@X[.`.).T.v.x.l.v.T.`.`.`.'.'.[.[.`._.T.U.I.l.d.U.U.T.T.W.W.W.|.|.|.|.'.W.R.Y.R.U.U.I.l.d.d.d.f.d.L.d.L.U.R.T._.R.W.W.W.'.|.!.'.'.|.|.|.|. X XXX X.XoXXXoXoXoXoXoXoXoXoXXXXX X X X X X X|.|. XOX XoX X XOX XoX X X X X.X.XoX.X3X3X4X5X5X4X4X4X4X4X4X5X5X5X5X9X9X9X9X8X8XqX=XoX|.|.OX|.'.'.|.OXXXXXXXXXXXXX X X X X.X.X=X=X=X.X XW.U.d.3.[ / W T F A A d d p w q q q w A F Q [ 3.I.R.W. X X XXX:XXX-X>X8X8X8X8X8XwX9X9X9X9XeXeXeXeXeXeXeXeXeXeX9X9X9XeXwX9X9X9X9X6X5X8X4X=X.X X X X X X.X.X.X.X.X.X.X.X.X.X*X3X:XdXDXKXHXiXe.pXCXSXJXHXVXpXB.v y m E T s.1XBXAXmXmX6XQ.n.j.X.j *.X.h v M.gXSXJXSXMXZXCXD.n =.&.e.e.&.D.CXSXJXKXJXAXAXAXSXgXX.5 l Z.< = $ k gXAXhXS.m * y *.AXDXMXFXFXZXxXMXm @ o = M S.S.H.Z.D.F.dXnXhXaXD.S.@ .   5 M.B.p.@.E a.=.j j < o   .     o $ < q g E s.8.o., . o s }.l @ @ F.MXX.* k ].lXmXeXlX0X0XwXwXeXzXzXzXlXwXwXwXwXwX0XwXkXkXkXkXkXkX0X0X0X0X0X0X0X0XwXwXwXwXkX0X0X0X>X>X>X>XqX>X8X8XqXqX0X0X8X8X>X>X=X-XOXOX{.{.'.[.[.[.[.{.{.{.@XXX{.{.[.'.[.'.[.'.'.'.'.[.`.).).).V.z.z.z.z.k.9.q.q.k.k.k.k.z.q.k.).).).'.{.:X<X>X-XXX'.'.{.:X:X-X-X{.Q.T.x.U.`.+X+X&X}.`.A.T.n.c.c.C.A.}.&X;X<X;X;X&Xn.k.s.^ F e e Z Y _ _ Y Y W <.A.;X2X&Xn.s.[ >.k.n.n.n.b.b.b.k.f.3.>.} } [ ' { [ >.k.5.1.k.k.5.q.q.q.q.q.q.l.x.x.x.V.V.x.q.k.x.x.5.5.1.;.` / _ / ` w.q.q.q.q.q.q.x.x.x.E.T.T.E.x.x.l.l.k.5.1.2.<.2.2.2.,.^ ( ;.] / ^ ;.-.W P K F d e d e e e w w e d f S S A S D D D f d D F F K P ! ! W ! R K D D S A S S S S D F K W W T K G A A A G F D S f d d A S F F F F F T W ~ ( ! W / Y F A e q q q w p p e w w w q q q q 4 4 3 3 q q q p S S ",
"^ 1.5.5.k.5.k.l.x.V.).].].{.+X{.{.{.[.].T.v.x.x.k.x.T.).).`.'.OX'.'.`.).T.R.U.U.R.R.T.T.).`.'.OX'.|.!.'.'.W.R.Y.W.Y.U.U.U.U.l.I.l.I.U.I.I.U.T.T.`.W.W.W.W.|.|.|.|.'.|.|. X X X X X X.XoXXXoXoXoXXXoXoXoXoXXX|. X!.|. X X|.|.!.!.|.|..X X!. X|. X X XXX!..X.X=X=X$X4X5X9X5X4X4X4X4X4X4X5X5X5X5X6X8X9X8X8X8XqXqX=XXXXXXXOX'.|.OXXXOXOXOXOXXXXX.X.X X*X=X4X4X=X=X.XXX'.T.d.3.] ^ W K D S d p w w q 3 q w e A F Q [ 3.I.R.R.W.|. XOXoXXX-X>X8X8X8XwX9X9X9X9X9X9X9XeXeXeXeXeXeXeXeXeX9X9XeXeXeX9X9X9X9X9X5X5X4X=X.X.X!.!. X X X.X.X.X.X.X.X.X3X3X3X4XcXvXHXVXaXiXiXaXVXDXJXAXpXM y - u j l ~ b.wXmXmXmXeX,X}.A.X., j *.&.&.S.jXCXJXKXFXDXDXSXVXM 7 u v &.F.nXJXKXKXKXJXFXFXAXAXZXaX5 t &Xp.7 @ h gXCXSXVXn - O , =.BXAXJXCXCXMXMXD.$ X o O u Z.H.hXhXdXF.nXDXaXM.e.$ . o y *.A.*.j s j.B.j @.t O       . < i f 0.J %.%.O.+.i o   & :.m.@.* k NXMX*.M A.cXlX0XwXwX9X5X8X9X9XwXwXwXwX8X0X0X0X0XwXkXlXlXkXkXkX0X0X0X0X0X0X0X0X0X0X0X0X0X0X0X8X=X-X=X=X=X=X=X>X>X>XqX8X8X8X8X>X>X=XOX'.'.'.).`.[.[.`.{.XX[.{.@XXX{.[.'.[.'.'.'.OXOX[.'.[.).).v.V.x.z.x.z.z.z.z.z.z.z.k.l.x.k.l.).[.'.XX:X>X>X>X:XXX'.`.].}.{.XXXX'.T.b.d.d.b.V.}.}.`.n.v.b.k.g.g.j.c.A.;X2X;XfX2X&Xn.n.k.2./ Z Z w G Y Y G G W j.A.;X2XH.n.k.>.[ >.s.k.k.d.f.f.d.f.3.>.>.} { [ } 3.>.k.k.z.l.k.1.1.q.q.q.l.l.x.x.x.V.V.z.V.q.5.k.q.>.>.5.;.] _ _ / ` 2.w.q.q.q.r.#X)._.[.).E.l.x.l.l.l.d.5.>.2.;.;.#.;.;.#.( ( ( / / ^ ^ ` / W H G A w w w e e w w e d d S S A d S f f f g S F F K ! ! ! W W ! K F D F G D S S f S D F F F D D A w e p A A S f S d d A T W W W W W W ~ ~ ( ( W / Y Y K d q q w w p d e w w w q q 4 4 > > 4 3 1 q q p d d ",
"W 1.5.5.k.k.k.5.k.x.x.V.`.].'.[.`._.).).T.T.x.x.l.l.l.x.T.[.'.`.`.'.'.'.'.Q.T.T.R.R.R.T.R.'.OXXX|.'.W.W.W.W.W.R.R.R.T.T.U.T.T.U.Y.U.U.U.R.R.`.'.W.|.OX|.|.OX X|.|.|.|.|. XXX|.XXOXXXXXXXXX.X.X.X=XoXXXXX X X|.|.!.W.|.OXOX'.W.W.!. XXX X X|. X X|.|.|.|. XoX=XoX4X=X*X4X4X4X4X4X4X8X4X4X8X5X8X9X8X8XwX8X8X8X=X=X=XoXXXXXXXOXOXXXXXXXXXXXXXXX.X.X*X*X=X=X=X=X*X*X X|.W.l.5.:.` Y T F A p w a w q q w p A F W _ [ 3.d.U.W.W.'.'.'. XXX-X>X<X8X8X8X0XwX9X6X9X9XeXeX9X9XeXeXeXeXeX9XeXwXeXeXeX9X9X9X9X9X5X5X3X3X.X X X X X X X.XoX=X.X.X=X=X.X4X:X:XhXHXHXVXVXVXvXjXjXDXSXdXM - - 6 v m ~ b.5XeXmXzXwX-X=XV.j.h & 5 v X.p.G.fXDXSXFXJXJXDXDXCXjXe.7 = c e.vXJXKXKXKXJXJXFXFXSXAXZXF.u j nXM.5 ( fXSXZXSXB.m = O $ a.ZXSXZXFXAXCXaXu o O X o t dXDXDXDXCXCXvXjXM.v $ . @ l X.%.*.X.s *.r.$.@.s o       @ j a g $.( 1.( ,.%.s @ . # g c.&X%.k ;XFXDXVXbXkXwXkX8X5X4XqX8XqXqX8X>X0X0X8X8XwXwX0XkX0XkX0XkXkX0X0X8X8X0X,X8X8X8X8X8XqX>X0X0X0X8X:X>X:X-X=XoX>X4XqXqXqX8X9X0X0XqX>XoXXXOX'.`.[.[.[.[.{.OXXX[.@X{.XXOX[.OX'.'.OX[.[.'.'.'.`.T.T.x.v.v.x.V.V.V.z.z.z.k.l.l.v.x.x.v._.XX@X>X<X0X0X0X>XOX'.{.+X{.{.'.].].].T.v.x.b.T.`.`.`.v.x.k.k.s.;.<.j.j.F.;XfXfX<X&X}.A.n.k.:.Q Z w Z Z G e A W g.H.dXdX2XA.m.>.] { [ >.k.d.f.5.3.f.f.f.f.3.7.} 7.f.3.k.k.x.x.l.5.5.5.6.q.q.x.x.x.x.V.x.V.V.z.q.5.5.1.:.:.] ] ] ] ] :.2.2.5.q.q.V.V._._.`.T.E.l.l.d.d.6.6.3.:.-.O.^ ^ ^ ] ;.^ ^ ^ ^ ^ ^ ^ ` ^ W F F e q w a p p e e d d d d d e d d d d f d d D J J K K T T W W K F F D D U F D A A S G S S d d p w w w p p p d d A d D W / ^ W W W ^ ( ( ^ / W / Q W ~ T w e w p e A d e w w q q 4 > > 4 > 4 1 3 i a e e ",
"W 1.5.5.k.k.k.k.k.x.x.v.v.T.T.T.v.v.v.x.x.l.k.k.k.l.l.l.v.T.`.[.Q.'.'.W.W._.T.T.Y.R.Q.Q.Q.W.|.|.OX'.W.Q.W.W.W.W.R.R.R.W.W.'.W.W.W.W.W.W.W.W.W.'.'.OXOXOX|.OX XOX XoX X XoXXX XXXXXXXXXXXXXoXoXoXXX X X X XXX|.|.!.W.|.OX'.W.W.W.!.!. X X X X X X X X X X X.X=X4XqX4X4X4X4X4X4X4X=X=X4X8X8X9X8X8X8X8X9XwX8X8X8X8X=X=XXXoXXXXXXXoXXXXXXXXXXX X X.X*X=X4X=X=X=XoX.X X XW.E.k.5.:.` Q W G A p e e e d d G F W ^ :.3.d.L.Y.W.W.'.|.OX|.XXXX:X>X>X8X8X8X8X9X9X9X9X9XeXeXeXeXeXeXeX9X9XeXeXeXeXeXeXeX9X9X9X5X4X3X*X.X X.X X X X.X=X=XoX3X4X*X.X3XoX:XdXVXKXLXLXKXHXvXpXdXDXCXe.7 = 7 m &.j.g.&XeXwX8XwX}.n.b.@.j 5 @ @ * h p.A.;XCXSXMXCXDXjXjXjXVXaXe.v 7 c D.SXJXKXKXKXKXSXZXSXSXDXAXm y nXAXS.gXNXhXxXMXp.v $ . o * M.CXNXZXSXSXJXD.* O . O @ p.CXJXSXSXHXDXjXF.e.$ . = j j %.j.X.E %.B.@.X.< .     o < s g h.g.,.8.( g.Z.t O . % g <.m.;XC.;XZXJXKXSXcX0XwXwX4X*X=X4X4X=XqX>X>X>XqX>X8X0X0X0X0X0X0XkXkXkX0X0X0X0X>X>X8XqX>X>X>X>X0X0X0XqX>X>X>X-X=X-X>X4X4XqXqX8X8X0X0X8X>X=XoXOX'.'.[.OX{.@X@XXXoX{.@XXXXXOX[.OX'.OXXXXXOX'.'.'._.).).T.v.V.x.V.V.z.z.z.k.k.l.k.x.x.x.T._.[.@X>X>X0X0X0X,X:XOX{.{.[.[.+X+X@X+X[.].T.T.`.'.].`.v.z.k.f.[ ^ o.@.%.j.A.;X;X;X}.T.v.b.d.3._ F e w w w w w F s.H.dXdXdXA.m.s._ / _ ] >.3.k.k.5.3.5.k.k.f.3.7.3.f.k.k.b.v.v.x.k.5.5.5.6.q.q.x.x.x.z.z.z.z.9.1.2.>.>.:.] ] ] [ ] :.>.5.5.q.q.q.q.q.)._._.T.x.k.6.3.3.7.3.[ ] ` ] ^ ^ ^ ^ ^ ^ ^ W W W / ` ` / W F A e w w w w e e e e e e d d p e p d d f d d S D J K K T T ! ! W F F G S U U F D A A A A A d p e w q w p I p p p d S D W ^ ^ / / W W ^ ( / W W W W T W d e p e d A e A A A A e q 4 4 4 > > 1 3 q a p e w ",
"T 1.5.5.k.k.k.k.k.l.x.x.l.l.l.l.l.l.l.l.l.d.d.k.l.l.l.l.l.x.T.`.Q.'.'.W.W._._.Q.[.'.'.'.|.|.|. X'.'.W.W.W.W.W.W.W.W.W.'.|.|.!.!.|.|.|.W.'.'.|.|.|.|.OXOXOXXX X X XoXoXoX-XoXXXoXXXXXXXXXoXoXoXoXOXOX X X XOX|.|.!.!.|.|.'.'.W.W.W.!.|. X X.X.X.X X X.XoX.X X=X8X4X4X4X5X4X4X=X4X=X=XqX8X8X8XwX8X8XwX9X9XwX8X8X8X4X4X=X=X=X*XoX=X=XXXXXXXXXoXoX=X=X4X4X4X=X=XoX.X X X'.R.l.k.5.:.] Q W H F F F H W W W / ` :.5.d.U.Y.W.W.W.'.|.|.|.OXXX:X:X>X8X8X0X8XwX9X9XeX9X9XeXeXeXeXeXeXeXeXeXeXeXeXeXeXeXeX9X9X6X5X4X3X*X.X.X.XoX*X3X3X3X3X4X*X.X3X.X`.dXVXHXKXKXKXVXpXpXaXjXCXaXm 7 - u m *.F.&X}.<X-X-X-Xn.s.~ j t * O O $ m A.2X1XAXSXnXhXF.&.N.D.jXVXVXvXB c &.hXJXKXKXKXJXSXCXDXSXDXFXgXb ;XBXxXAXZXxXCXgXH.v o o O o 5 gXZXCXSXSXSXnXv O o X . t H.VXJXvXHXHXhXjXN.c . 5 i @.$.j.o.+.@.p.p.s & . . . & @.g o.Z.A.g.$.s.%.j.h o . o 0 ].n.}.].gXZXJXLXJXZXlX8X5X9X8X9X8X4XqX0XqXqXqX0X0X0X0X0X0X0X0X0X0X0X0X0X0X0X>X>X:X>X:X:X>X>X>X<X<X>X>X>X>X>XXXXX-X>X5X5XqXqX0X0X0X0X8X8XqX-XXXOXXXXX@X:X:X:X:XXX@X@XXXOXOX[.OX[.OXXXXXOX'.'.'.[.'._._.x.x.x.x.V.v.z.z.z.l.v.l.x.x.x.).[.OX@X:X>X>X<X,X<X:XXX[.{.'.[.{.{.@X:X:X:X{.{.XX:XXX{.`.v.E.d.>.( ~ E E @.j.A.&X}.T.b.l.d.d.f.[ Q G e w q q q A ,.A.dXdX2XJ.n.s./ Y Y Q ` ] 5.k.q.5.f.l.l.f.5.3.f.l.l.v.v.V.v.v.k.5.5.5.5.5.q.q.q.z.q.q.q.9.1.;.] ] [ ] _ ' [ [ :.:.5.6.k.k.q.x.q.q.q.).).E.k.6.3.3.} } 3.[ ` ` ` / / / / ^ ^ ^ W T W / ` / Q F A e w q q w w d d d e e e d p e w w e d d f d f S f J J E R E T T F F S S D U T U F A A A A d p w w q w p p p w w p f D K ^ ^ W Q W W / / Q F W W W W ~ f p f E d d S A A A A d w 4 > > 4 > 4 3 q w e w w ",
"! 1.5.5.k.k.k.k.k.l.x.x.l.k.k.l.l.l.l.l.l.k.d.l.l.l.k.l.l.x.U.T.`.W.Q.R._.W.W.'.OX'.'.|.|.|.|.|.'.'.'.W.W.W.W.W.R.R.W.|. X|.!.!.W.|.|.'.'.'.|.OXOX|.OXOXXXXXoXoXXXXX=X-X>X=XoXXXoXoXXXXXoXoXXXXX|.OXOXOX X X|.|.|.|.|.|.|.'.W.W.W.W.|.|. X X X.XoX XoXoXoX.X=X5X=X=X4X4X4X=X=X4X=X=XqX8X8X8XwX8X8X8X8X8X8X8X8X8X8X8X8X4X=X=X=XoX=XoXoXoXoXoX=X4X=X4X4X4X=X=XoXoX X X|.W.R.l.k.5.5.] ` ` ` / _ ` ;.;.:.2.1.5.l.U.R.W.!.!.W.|.|.OXOXOXOXXXoX>X8XwXwXwXwXwXeXeXeXeX9XeXeXeXeXeXeXeX9XeXeXeXeX9X9XeX9X9X6X5X5X4X4X=X.X=X3X3X3X3X3X3X4X4X4XXX].F.jXPXHXPXVXvXsXjXvXhXvXhXF.m t t h @.h.;X].$.$.s.T.!.n.s.o.l t * O o * M.hXlXMXAXSXZXCXpXv u v pXJXJXKXvXS.M.jXKXKXJXJXJXJXSXCXMXCXMXAXpXJ.1XlXAXSXAXSXCXhXD.h @ o O * p.gXxXDXSXFXJXjXu $ o O @ =.hXJXVXDXDXvXvXaXv = y X.B.*.A.%.*.%.%.*.i < o o O i j.E *.Z.F.;X! ^ #.@.h o o % 0 k.}.1X<XF.F.VXLXJXxXzXzXwX8X8XwX8X8X8X8X8X8XqXqX0X0X8X8X8X8X0XqX0X0X0X0X0X0X>X>XoX@XoX:X>X>X>X>X<X>X-X:XoXoXOX|.XXoX4X5XqX8X8X8X0X0X8X8X8XqX>X>X>X>X<X<X:X:X>XXXXX@XXXOXOXXXOX[.|.OXXXXXOX|.|.[.'.'.).).V.x.V.V.x.x.x.k.l.l.l.x.x.).`.XXXX@XoX:XoX>X:X@XXX'.).`.'.'.'.{.XX:X>X>X:X:X>X:XXXXX{.`.E.l.f.] W U g E $.g.V.n.x.d.f.4.f.3.[ ` Q G e q 4 4 w #.C.;X;X2X}.b.>.Y Y H H W ` 5.k.l.k.k.l.l.k.5.5.k.l.x.v.T.V.v.v.k.k.5.5.3.q.q.q.9.9.9.9.9.1.,.^ / / _ _ Q _ ' [ :.3.5.6.6.k.k.q.q.q.q.x.l.l.d.3.3.3.} } 3.} ` _ / Q Q W W / W W T W W Q Q Q W A e w q q q q w e e e e e w e p p w e e d d g g f f f f f D J J D F F G S S f D U T T F F D A p p w w w w p p p w w w p S T / W H W H H Y Y P F F G H F T T p f f g d F G F Q F e w 4 4 4 4 4 3 q q w w w w ",
"^ 5.d.f.d.k.l.l.k.k.l.l.l.l.l.l.l.l.k.k.k.l.l.I.l.l.k.l.l.l.U.T.R.Q.Q.R.`.W.W.|.W.W.W.!.!.!.W.!.W.W.W.W.W.W.W.!.W.W.W.|.|.!.!. X!.!.|.'.'.'.'.OXOXOX XXXXXXXoX=X=X-X-X=X>X>X-XXXoXoXoXoXoXoXXXOX!.'.'.|. X X|.|.|.|.|.|.|.|.|.W.'.|.|. X X|. X XoXoX=X=X=X=X4X4X4X4X4X4X4X4X4X4X=X4X4X=X8X8X8X8X8X8X8X8X8X8X8X8XqX8X8X4X4X4X=X-X.X=X=X4X4X4X4X4X4X4X4X4X=X=XoX.XoX X|.'.`.R.T.U.l.5.5.5.3.3.3.3.q.k.d.k.l.x.T.T.|.|.|.|.|.|. X XXXXXXXoX=X8X8X0XwXeXeXeXeXeXeXeX9X9XeXeX9X9XeXeXeXeXeXeXeXeXeX9X9X9X9X9X9X5X4X3X3X=X*X*X3X3X3X3X*X*X@X+XD.pXvXvXVXvXvXVXDXJXJXDXvXjXF.%.X.g.c.A.0.j.*.E l ( b.*X-Xv.c.j.X.v 5 @ 5 D.MXxXxXZXZXZXMXdXb 5 7 pXDXSXJXDXDXvXPXLXKXDXvXJXHXCXhXS.dXCXZXhX;Xc.fXZXgXxXhXJXSXSXhXb n v t jXZXSXFXJXJXJXJXaXn O o @ h dXJXDXDXDXCXhXVXB - y M.S.G.*.Z.*.o.B.$.j 1 & 6 t L %.A.;XB.c.c.9.<.,.%.j , @ < i s.:X<XBXgXl D.KXKXMXlXzXzXwX5X0XwXwX9XwX8X8XqX>XqXqX8X8X8X8X0X0XqX0X0X0X0XqX>X>XoX@X@X@X@X@XoXoX:X:XoXXX:XoXXX XXXoX=XqX5X8X8X8X8X8XqXqX8X8X8X0X0X0X,X,X>X>X>X>XXXXXXXXXXXXXXXXXXXOXOXXXXX'.'.OX'.'.[._.).).).V.x.v.x.x.l.x.v.x.T.`.[.XX@XXXoXXXXXXX{.[.[.T.E.T.T.).[.[.XXXX@X@X<X<X<X-XXX{.{.`.T.b.f.] / W U R #.g.v.v.b.f.4.3.} } ' :.:.^ F w 4 4 q W c.}.&X;Xn.k.] Y Y G G Y ] >.5.k.d.k.k.k.k.k.5.k.l.l.v.T.V.v.x.k.k.5.3.3.5.5.w.9.w.1.1.,.;.^ W W Q Q Y Y | _ ] :.3.5.6.6.k.q.q.5.7.5.6.f.d.3.7.} } [ } } 7._ _ Q Y W W W W F D F T W W W W F d e q 4 4 q q w e e e e e p p p p e e e d d d d d g d d g d J S S S A e d d d D U W W W K F G A w w w w w w w w w w w w S T ! W H H G G G Y H F G I F P K J a J f p d F / P H F A w q q 4 4 3 q w p d e w w ",
"#.z.l.k.l.k.x.E.x.k.k.k.l.l.l.l.l.l.l.k.x.x.I.l.l.x.E.v.l.l.U.T.T.`.`.W.W.'.'.W.|.!.|.OXOX|.|.|.W.W.W.W.W.Q.R.W.W.W.W.W.W.W.!.!.!.!.W.W.W.`.'.[.{.XXXXoXoXoX-X=X8X>X=X-X-X>X>X-XXXXXXXXXXXXX XOX|.W.Q.W.|.|.|.|.|.|.|.|.|.|.|.W.|.|. X X X X X X X=X=X=XoX=X=X4X5X4X4X4X3X=X=X=X=X4X=X=X=X4X=X8X8XqX>X>X>X>X>XqX>XqX4X4X4X4X=XoX=X=X=X3X4X4X4X4X5X5X4X3X*X*X=X.X X X|.'.'.'.'.W.T.R.U.l.d.d.l.l.R.R.T.T.T.`.'.|. X X X X X X X XXXoX=X=X8X8X0XwXwXeXeXzXzXzXzXeX9X9XeXeX9X9X9X9XeXeXeXeXeXeX9XeX9X9X9X9X9X6X5X4X4X4X4X4X4X3X4X4X5X>X].S.B N.vXHXPXPXKXKXJXSXCXCXnX;X;XF.+X1X}.g.l j h i h E n.5X8XQ.n.c.c.j.b 6 k Z.MXMXgXfXhXZXCXgX*.v y M S.jXSXJXJXHXHXKXKXsXe.jXDXnXjXM D.JXSXhXX., B.MX;X&XhXhXDXF.aXhXhXD.pXDXSXSXFXSXJXKXKXDXB o O & j dXSXCXvXSXCXDXHXsX7 h dXF.B.C.A.h.J *.X.$.j q s J %.h.+Xh.h.,.$.+XA.$.<.=.j q E $.k.gX1XfXhXdXB.DXLXAXzXlXcXeXwXcXwXeXwXeX9XeXwXqX8X8X8X8X8X0X0XkX0X0X0X0XqXqX>X:XoXXXXXXXXXXX@X@X@XXXXXXX:XXXoXoXoXoX=XqX5XqXqX8XqXqXqXqX8X0X0X0X0X0X0X0XqX>X:XoXXXXXXXXXXX@XXXXXXXOXOXOX|.|.|.OXOXOX[.[.).).).V.T.).).x.x.x.T._.[.[.@X@X>XXXXX|.|.'.`.T.E.I.l.l.E.T.T.'.OXXXXX-X<X>X>X>XXX{.{.`.T.b.b.3.[ ] ^ ( 1.b.v.T.U.d.3.} _ ' ] 5.5.:.Q G w q q S 2.v.A.A.n.f.>.Q Y Z G Y ] [ 3.f.d.f.f.f.k.5.5.d.k.l.v.T.).v.l.k.5.3.>.:.:.w.1.1.9.1.;.-.^ / W W H H G H Q _ ` :.3.5.6.6.q.q.5.7.[ 7.3.3.3.:.[ _ _ { [ } } _ Q Y Y H Y W F S d S D F F Y F A d e q 4 3 q w e d e e e d d d d d e e d g g g e g g e e e d f g d e e e e d d D T W / ^ W T F D d e w w w w w w w w w w A T P W H G w Z G H F G Z w w G K p q h.fX#.A F / / / F A e q q 4 4 q w p f S A I I ",
"<.V.).V.V.V.v.E.E.l.l.l.l.l.l.l.x.v.x.l.x.T.E.l.E.T.T.E.E.E.E.R.T._._.Q.Q.`.'.W.OX[.OXOXOXOXOX[.'.'.'.'.W.W.R.R.W.W.W.W.W.|.!.!.W.W.Q.W.W.`.'.'.{.XX-X-X-X=X=X=X8X=X=X-XXX-X>X=XXXXXOX|.|.OX|.|.OX'.W.W.|.|.|.!.|.|.|.|.|.|. X!.'.|.|. X X X X XXXoXoXoXoXoX=X4XqX4X4X4X*X.X.X=X=X=X=X=X=X=X=X8XqX>X-X-XoXoXoX-X=X=X=X=X=X4X4X=X4X4X3X4X4X4X5X8X8X5X4X3X3X=XoXoX X|.|.W.'.|.|.'.|.'.W.W.Y.Y.W.W.|.|.|. X XXXoX=XoXoX.X.X.XoXoX=X=X=X=X5X9X9XwXwXlXzXzXzXzXzXzXeXeXeXeXeXeXeXeXeXeXeXzXeXeX9XeXeX9X9X9X9X9X9X6X6X7X6X6X6X4X3X4X6X=X,XdXpXiXpXPXHXKXLXLXJXDXvXjXgXhXdXgXhXhX1Xj.X.t < < * < s ( Q.}.T.c.A.<X;XA.p.@.A.MXCXgXdXgXMXZXMXdXaXM.v y e.DXKXKXPXvXHXJXvXB e.nXVXvXe.S.FXKXDX=.$ 5 B.F.gXhXF.M.v e.aXSXDXSXJXKXDXFXAXJXLXKXJXjX7 O * @.MXDXSXnXCXvXKXLXVXB * D.F.F.*.0.B.E o.L E E E ) E +.c.8.h.~ ~ %.$.B.A.A.j.$.E %.+Xv.+X;XA.M.CXdXCXKXSXNXlXkXwXwXwXwXwXeXeXwXeXwX9X9X8X8X8X8X0X0X0X0X0X0X0XqX>X>X:XoXXXOXXXXX@XoXXX@XXXXXXXoXoXoXoXoXoXoX=X=XoX=X=X5XqXqX8X8X0XwX0X0X0X0X8X8X>XoXoX:X@X:XoX@X:X@X:X:XXXXXOXOX XOXOXOXOX'._.).).).).T.T.x.x.l.k.T._.[.XX@X:X:XXXOX`.R.E.l.l.k.6.d.l.E.E.T.W.|.XX=X-X=X=X>X-XXX{.'.'.T.v.x.k.3.>.>.1.l.T.`.`.T.d.7.{ _ _ ] 5.5.5.] Q Z w 4 w W >.b.V.n.f.>._ Y G  .| [ >.5.f.3.3.3.3.5.5.5.5.5.k.l.v.).x.k.5.3.>.>.>.:.:.2.1.1.2.;.` / Q Q Q H G G G Q Q / ` :.3.5.5.6.5.3.} [ [ 3.:.[ ] _ _ _ _ [ } [ _ Q Y Y H F U D d d g d G G H D d d p q q w w w p p p e e d d d S d e e e g e e e e r r e e e d p e e e e e g D U W ^ ^ ^ ^ W T F S d d e e w p w w w e d G T W P F A w Z A G G A w G w w p f i X.h.S d / ^ 2.g.~ e w q q 4 q q w d S D D A A ",
"h.].].].].V.).v.E.E.l.l.x.x.l.l.x.T.T.v.E.T.T.I.T.T.T.E.T.T.T.E._.R.T.).`.W.W.|.|.|.|.|.OX XOX'.OX|.'.'.W.W.W.!.'.'.W.W.W.W.R.U.'.R.T.T.W.W.W.'.{.XX-X:X-XqXqX=X>X=X=X-XXXXXoXXXXXXX[.'.'.'.'.'.|.'.`.'.W.Q.!. X X X X|.!.!.|.!. X X X X X X X XoX X XoX=X=X=X4XqX4X4X*X.X.X.X=X*X.X=X4X*X=XqXqXqX>XoXXXOX|.|.|. X X.X.X=X4X5X5X4X5X5X6X6X6X5X5X4X4X3X3X3X=XoXXX X X|.|.|.|. X XoX X X X!.!. X XoXoX=X=X=X=X4X5X4X=X=X=X=X4X4X4X4X4X4X5X9X9XwXwXzXzXzXmXzXzXzXeXeXeXeXeXwXwXwXwXeXeXeXeXeXeXeX9X9X9X9X9X9X6X9X9X6X6X6X4X4X4X4X4X5XfXCXjXsXvXPXHXLXLXKXCXjXG.S.F.jXgXxXMXdXj.j 7 * @ $ @ @ , q ^ ] s.A.:XkXgXgX;XA.;XhXgXgXMXNXMXZXZXZXCXVXS.n e.jXHXKXvXe.vXDXSXpXB aXaXjXD.S.CXSXJXM.$ $ b ;XCXAXVXe.* $ 7 e.VXLXSXSXJXSXJXJXLXJXJXKXD.5 y p.ZXSXDXJXDXjXHXLXVXiX5 =.D.B.X.B.F.%.%.j E l E g.9.o.8.$.$.O.E R @.B.;XgXA.g.s.x.fX1X+X;XB.6 j.MXSXKXJXNXzXwXwXwXeXcXeXeXzXwXwXwXwX9X9X9XwX0X0X0X0X0X0X0XqXqX>X>X-X:XXXXXoXoX:XoXXX@X:XXX:XoXoXoX=XoXoX=X4X4XoXoX=XqXqXqX8X8X0X0XwX0XwX8X8X8X4X=X=X>X:X>X>X:X:X@X>X<X>X>X:XoXoXoXOXOX|.'._.)._.`._.T.).v.E.l.k.T._.|.XX@X>X@XXX'.W.U.k.5.q.5.4.f.d.x.E._.'.OXXX@X@X=X=X-X:XXXXXXX{.`.T.E.l.d.d.b.v.T.'.{.'.T.x.3.[ ' _ ] >.k.d.>.{ Y A w r Z Q 1.z.b.f.[ Q Y Y Y | } f.d.3.[ [ 7.3.3.3.3.3.5.d.l.x.v.k.q.5.>.>.7.7.7.:.w.;.;.;.;.` ` Q Q Q Y G G H Q W W / ` ] >.3.5.6.4.3.} :.:.2.] ] ' _ Q _ _ [ ' Q Q Q Q Y Y Y D d g d d S A G D A d d w a p p f f S d d d d S d S S d e e e e r r r r r e g g g g p a e e g g D U W ^ ^ ] ^ ^ T U D d d d e e p p p e d A K ! / P G I I G G A G G G 1.^ w S 9.s a q q T ~ ( ( ) T A w 4 q q 4 q a f J K K A Z ",
"B.+X+X+X+X[.].).E.x.E.E.x.x.x.l.x.v.v.E.R.T.T.T.U.R.T.U.U.U.R.T._.'.`._.`.'.|.W.'.'.W.W.|. XOX|. X|.|.'.W.W.|.OX|.W.W.W.W.Q.R.R.T.T.T.E.T.W.`.`.{.XXXXoXoX-X>X8X>X>X:XXXOXOX|.'.OX|.'.'.'.'.'.'.W.W.W.'.'.|.|.OX X X X X|.|.|.|. X XXXXXoXXX X X X|. XoX.XoX=X5X5X=X=X=X=X.X.X.XoXoXoX=X=X>X>X>X=X-X{.[.`.`.`.T.W.'.|. XoX=X4X5X8X8X9X5X6X9X9X5X5X5X4X=X.XoX.XXX.X X|.!.!..X.XoX=X=X=XoX.X.X.X.X=X=X4XqX8X8X8X9X9X8X5X4X4X5X5X4X4X5X8X9X9XeXwXeXeXzXzXmXmXmXzXzXeXwXeXeXwXeXeX9XeXeXeXeXeX9X9X9X9X9X9X8X5X5X5X6X3X6X6XrX3X4X5X=XgXCXVXpXsXvXPXHXKXJXCXdXe.v m D.dXhXhXdX*.h - $ O o X o @ : 0 t q E &X1XfXgXfX;X].dXH.*.Z.MXAXDXZXDXSXSXDXaXaXpXsXVXJXvXn n aXDXnXB n N.pXS.&.jXDXSXnX7 O k gXAXSXKXVX= + O $ &.DXCXDXKXAXJXKXJXSXDXSXVXpXZ.dXCXHXDXJXKXJXDXHXVXe.7 &.aXj.r.B.*.j @.j $.*.X.*.$.X.E *.R %.+.*.X.o.C.A.c.c.n.n.+X<XgX2XS.- * B.SXJXSXAXzXeXeX0XeXeXeXeXeXeXeXeXwX9XwXwX8X8XwXwX8X0X9X8XqX>X>X>X8X>X>XoXoXoXoXoXXXXXoX-X-XXXoX=X=X=X=X=X=X=X=X>X>X>XqX8X8X8X8X8XwX8X8X0X8X8X8XqXoX@X@X@X@X@X@X@X:X>XqXqX>XoXoXoXoXOXOX[.[.'._._._.T.R.E.l.l.l.l.T.OXXXXX@X@X@XOX`.I.5.:.:.5.5.6.6.l.l.E._.[.XXXXOXXXXXXXXXXXOX[.'.W.T.T.T.v.v.T.`.Q.{.XXOX`.E.5.[ _ _ / ] 5.5.3.} _ H e w w F _ 3.f.f.[ | Y Q [ >.k.b.d.3.] ] [ :.:.[ [ } 7.6.6.l.l.k.5.5.3.>.7.7.} [ :.:.;.-.` ` ' _ | Q Q Q Q H W W W / ` ` ` :.7.3.3.7.5.5.[ ] ] [ _ Q Y Y _ _ ` Y Y _ ` ^ ^ W U D d d A A G H A A d d d d S J D F F S S S d D T g g g g g e r r r q r g g g g g d e r r e g g D E T ( ^ ( ( ~ T U g d d d d d d p p p d K W / / H A Z w S S p S W s.( %.E J f j j q w W 2.^ K ~ G w 4 4 q 4 4 q a A K K F S p ",
"C.+X<X<X+X[.[.).T.E.U.U.l.E.E.l.x.x.U.U.R.T.T.T.U.E.T.E.U.U.T.T.R.R.R.W.`.R.R.W.W.'.W.|.|.|.OX|.|.|.'.'.R.R.'.'.W.W.W.W.W.W.T.R.I.E.U.E.T.T.).).'.OXXXoXoX-X-X=X-XoXXXOXOXOX'.'.W.W.`.W.W.W.W.W.W.W.W.'.'.|.|. X X X X X X X X X X|.|.OXXX X X X X!.!. X.X.XoX=X=X=X=X=X.X.X.X.X=XoX*X=X=X=X-X=XXXOX[.T.v.l.l.l.U.U.R.!.XX.X=X4X5X8X9X9X8X5X5X5X5X5X8X5X4XoX X X X X|.|. X.X.X=X3X3X3X=XoX.X.X.X4X4X5X8X9X9X9X9X9X9X9X5X5X5X5X5X8X8X9X9X9X9X9XeXeXzXzXzXzXzXzXzXeXeXeX9X9X9X9X9XeXeXeXeX9XwX9X9X9X9X8X5X4X4X4X4X4X6X5X6X6X9X4XqXCXJXDXaXsXvXPXHXHXDXvXD.v 5 h D.gXhXMXgXj.h 5 = O o . o & 2 2 & , j j.+X;X&X;X<X1XZ.X.t i C.MXZXCXDXCXSXDXjXvXDXVXHXKXVXB - n jXhXpXM n S.&.=.jXPXjXpXv + 5 2XhXCXZXVXB O + $ - e.CXSXKXSXFXKXSXSXpXaXvXDXhXhXSXDXCXSXKXHXDXDXsXB c t B.dXB.j.%.l E j %.*.@.E %.%.*.*.g 8.*.E X.*.*.h.+XV.k.+XA.:XkXMXH.5 o t DXHXCXNXNXzXeXeXeXeXeXeXwXeXeXeX9X9X9X9X8X8X9X8X5XqXqX5XqX>X>X>XqXqXqX>X>X>X>X>XoXXXXXoXoXXXXXoX.X=X=X=X=XoXoXoXoXqXqXqX8X0X0X8X8X8X0X0XqXqX=XoXOXXX@X@X@X@X@X:X>X>X0XqX>XoXoXoXoXoXXXOX'.'.'.`._.l.l.l.k.6.q.l.R.'.XXoX@X@XXX'.T.5.:.:.:.5.5.3.4.f.l.R.).`.'.|.XXXXOX|.|.|.OXOX{.'.'.T.T.T.T.`.'.}.-X:X:X{.T.f.:.Q Y Y ` :.3.7.} [ Y A w w e Y ] >.>.] / Q ' >.f.v.T.b.f.[ ] _ _ ] ` _ [ } 7.5.6.5.5.5.5.3.7.3.5.3.:.2.;.` ` ` ` [ ' ' _ _ ` _ Q W / ^ ` ;.` _ _ :.7.3.7.3.5.>.[ ` ] / Q Y Y Q Y Q W Q ] :.;.;.W T F S A A A G H G A d d S F K T F W T D K K D U T E E E U d e r r r r r r g g g g s r r r e g g e T ~ W ( ( ( ( E T g g e e e e d d e A K P Q ` Q H I w w P e p p d d d j J q 4 k f r S ^ K K 1./ A q 4 4 4 4 4 q p A K K F p a ",
"C.+XdXfX+X+X{._.).E.U.l.I.E.U.l.l.l.I.I.R.T.T.T.T.R.E.T.T.T.T.W.R.Y.R.Q.W.R.R.R.R.W.W.W.W.'.|.|.|.|.|.'.W.R.W.'.'.'.'.W.R.R.R.l.l.I.U.E.E.E.T._.T.'.OXXXXXoXXXXXoXXXOX|.|.|.|.'.W.W.W.W.R.R.R.R.W.W.'.'.W.|.|. X X X X X X X X X X|.|.|.OX X|.!.|.W.W.|. X X X.XoXoX=XoX.X.X=X.X=X.X*X.X.X X X X|.R.E.l.k.5.3.3.3.f.U.Q.!. X.X3X4X5X8X8X5X5X5X5X5X8X9X5X3X.X X X X X|.|. X X.X*X3X3X4X5X5X5X4X3X*X4X5X8X9X9X9X9X9X9X9X9X9X6X6X6X9X9X9X9X9X9X9XeXeXzXzXmXzXzXzXzXeXeX9X9X9X9X9X9XwXwXwX9X9X9X9X5X8X5X4X4X4X3X3X3X5X9X6X4X9X8X@XkXFXKXHXvXvXVXKXKXHXVXvXS.y * h F.MXSXSXAXgXj.j 5 = @ o o * : : & @ 5 k *.+X:X<XgX2XX., @ @ h F.hXCXCXCXDXDXjXpXvXJXLXLXHXN.- - M F.VXpXn e.M.F.VXVXpXN.M.5 * Z.MXCXCXJXpXO o O O 5 M.MXJXFXSXKXFXSXjX&.D.DXDXCXKXJXDXDXSXDXhXKXvXc c &.D.hXG.C.A.*.X.m X.@.*.*.B.j j.X.X.C.$.f X.%.F.+XdXfX+X<X+X}.xXgXnX&.$ * dXLXSXNXcXcX9XeXeX9XwX9X9XeXeXeX9X9X9X8X8X8X8XqX4X=X=X4XqX>X>X>X>XqXqX>X>X>X>X>X>XXXXXoXoXXXXX X XoXoXoXoXXXoXoXoXqX>X=X>X8X8X8X0X8X8XqXqX=XoX X|.XXXX@X@X@X:X>X<XqX0X0X>X>X>XoXoXXXXXOX|.|.|.'.R.I.l.l.k.6.5.6.R.'.XX:XoXXXOX`.E.3.] ] :.:.5.3.3.4.f.d.E.`.'.OX XXX|.'.'.|.OXOXOXOX{.'.T.T.'.'.{.{.-X=X>X-XQ.k.>.` Q Q ` >.3.3.3.[ / F e q w d T ^ _ _ | _ >.f.b.`.`.T.x.1.] / Q _ Q _ _ [ 7.3.5.3.6.5.3.7.7.5.k.5.:.;.` / / _ ' [ [ [ ' [ [ [ _ Q _ ` ` :.] _ { ] ] 7.5.3.3.3.:.] ] / W W W W W W / ] 3.7.2.;./ W F F A A G H H F F D D F W ! ! Q / W W ~ ~ E ) ) ) ) ) E D d e r r r r e g g g s s r r r r r g g g U ( ( ( ( E E E g g w d d p f d d p F Q Q ' ^ H A w f o.A w p p q q > 3 > 3 1 i g D I S -.;.P I q 4 4 4 4 4 3 w A K K G p w ",
"C.dXfXfX@X@X{.`.).E.U.I.I.I.l.d.l.l.l.I.E.R.R.R.`.R.T.T.T.R.R.W.R.W.Q.T.R.R.W.R.R.R.W.R.R.W.'.'.|.|.|.|.W.W.W.'.'.'.'.'.W.R.E.l.I.l.l.l.l.l.E.E.U.T.'.'.|.OXOXXXoX X|.'.!.!.|.'.W.W.W.W.W.R.R.Y.W.W.W.'.W.|.|. X X X X X|.!.!.!. X|.|.'.|.|.|.W.!.W.W.|. X X X XoX=X=X=XoX=X=XoXoX.X.X.X|.|.!.W.'.R.d.f.3.[ [ :.7.3.d.U.W. X.X=X4X4X4X=X=X4X3X3X5X5X5X5X=X X.X X!.|.|.|. X X.X.X.X*X3X4X5X5X5X4X3X3X4X5X9X9X9X9X9X9X9X9X9X9X9X9X6X6X9X9X9X9X9XeXeXzXzXzXzXeXzXzXeX9X9X9X9X9X9X9X9XwXwX9X8X8X5X4X4X3X3X3X3X3X3X3X5X5X6X7X9X=XfXZXFXJXPXVXVXHXKXJXDXvXdXe.v y =.dXAXFXSXNXgXA.*.E t * $ @ * & & & o @ , m A.;XfXgXZ.h @ O O < X.A.gXxXMXCXDXaXB e.DXLXLXHXpXc - t G.SXDXS.e.F.dXCXsXS.e.M.M.j A.AXJXHXDXsX5 % o O = j hXFXSXJXJXDXSXvXn v hXDXDXKXJXJXDXCXSXCXDXHXy y D.aXhXM.F.dXM.v t y b *.X.=.p.M.@.B.Z.%.g.R ~ fX;XC.<X<XgX<X+XgXMX;XgXk , B.KXJXZXkXeXwX0X9X9X9X9X9X9X9X9X9X9X8X4X4X4X4X=X>X=X=XoXoXoXoX>XqX>X>X>X:XoX:X:X:XoXoXoXoXXXXX X|. X|.|.|.OXXXoXoXoXoXoX=X>XqX8X8X8XqXoXoX=XoXXX|.OXXXXXXX@XXX:X>X<X0X8X>X:XoXoXoXoXXXOX|.|.|.'.R.T.E.I.l.l.6.6.I.`.OX-XoXXXOX`.E.6.:.] :.:.5.3.3.3.3.f.U.R.'.OXOX'.'.`.`.'.|.|.|.OXOX|.Q.Q.'.{.{.}.-X>X>X:XQ.f.>.^ Q Q ^ :.3.3.7.[ _ W A w w w d F Y Q Q [ d.b.`.].].].T.k.>._ | ^ Q Q _ ' } 3.4.4.6.6.3.7.7.5.k.5.:.;.` / Q _ _ [ [ [ [ [ [ [ ' ' ' ` ` :.:.[ 7.[ :.7.5.3.3.5.:.] ` W T F F T W W ` :.5.5.1.;.^ W F F G G H H H H H T W ! ^ ^ ! ~ / Q ^ $.$.%.%.%.%.%.%.) T D d e e e e e e e r s r 0 0 0 0 r r e U U ( ~ ~ ~ E z g g a p p p d p d d G P P ` ` ! W S w a f D p p p p q 4 > 4 w i a f J ~ ,.q.^ F w w q q q 4 q 3 w I F F I w q ",
"C.dXfXfX@X+X[.`.).E.U.I.l.l.l.d.l.l.d.I.E.R.R.R.`.`.R.T.T.T.R.R.)._.R.T.R.R.W.R.|.|.W.W.W.W.W.W.!.W.'.W.W.W.W.W.|.|.|.|.'.R.R.E.I.d.6.d.d.l.I.I.U.U.Q.W.|.'.|.|.|.|.|.'.W.W.W.'.W.W.W.W.W.W.R.Y.R.W.W.W.W.W.!.!.!.!.|.|.|.|.!.!.!.!.|.|.|.|.|.|.W.W.W.|.|. X X.XoXoX=X3XoX4X4XoXoX X.X!.|.|.|.W.R.I.f.3.} [ _ [ [ 3.d.U.W.|..X=X4X4X=X=X=X=X3XoX3X3X4X5X4X*X.X.X!.!.!.|.OX.X.X~..X$X3X3X3X3X3X3X3X4X5X5X9X9X9X9X9X9XeX9XrX9X6X6X9X9X9X9X9X9X9X9XeXeXeXeXeXeXeX9X9X9X5X5X5X6X6X6X6X6X6X9X6X5X5X5X4X3X*X*X3X3X3X3X5X3X6X6X=X,XZXSXSXHXVXsXvXDXDXVXVXhXpXS.*.*.aXDXFXFXNX,X`.c.C.s.j i 6 = @ @ = = o O 5 h *.;XgXdXp.y $ X % , T n.<XgXMXCXCXjXB n pXDXJXHXvXe.7 k ;XSXSXhXdXjXjXCXvXN.iX7 B.ZXCXSXFXHXvXsXD.n $ O $ @.CXSXSXKXJXSXSXvXc $ M.DXDXJXKXSXDXhXhXCXSXVXn 5 S.jXaXS.F.F.m % = * h l l h h b m S.*.j.h.J h.+XC.g.V.].gX,X<XgXCXgXgXB...gXKXJXZXzX8X5X0X5X8X9X9X9X8X8X5X6X9X5X4X=X=X=X>X>X=XoXoXXXXXoXoXoX=X>X>X>X>XoXoXoX@XoXoXoXXXXX X|.|.|.'.|.|.OXOXOX X XoX>X>X>X>XoXqX>X>X>XoXoX|.'.'.OXOXOX@XoX>X<X<X>X>X-XoXoXoXoX>XoXoXoXOX|.'.'.R.E.E.I.I.l.6.I.T.'.XXXXXXOX'.R.d.5.5.5.5.6.6.5.3.f.l.U.T._.'.'.W.W.W.`.'.'.'.'.OXXXXX'.Q.|.{.{.{.XX:X>XXXT.5.:./ Q Q ` :.>.>.>.[ _ Q H A e w e e Z F Y >.n.}.&X:X{.{.`.x.3.[ _ ] _ Q _ _ [ 3.3.6.d.6.3.7.7.5.5.7.:.` ^ / P Q / ' [ [ [ } } } } } [ [ 7.3.6.3.7.} :.7.5.3.3.5.2.` / W T F F F F Q :.3.5.5.1.;./ H H F H H H H H H W ! ^ O.;.;.O.O.! ! O.*.p.p.p.p.p.p.a.%.) T U D g g g e r r r r r 0 0 0 0 0 0 r e U T ~ R T l j g E w e e e e D p d G K ! ! ! W -.S w q j L 4 w w w q q 4 4 w i a J ! ;.-.^ ^ D e w w w w w w 3 w w I I w 3 3 ",
"B.dXfX:X:X{.[.[.).E.U.I.l.l.l.d.d.d.d.l.E.R.R.W._.W.R.R.R._._.T._.T.T.W.W.R.W.W.|.|.|.|.|.|.W.W.W.W.W.W.W.W.W.W.|.|.'.|.'.R.R.E.I.6.6.f.d.d.I.I.U.U.R.W.!.W.'.'.W.|.|.|.W.W.W.W.!.W.W.W.!.W.R.Y.R.T.R.W.W.W.|.|.!.!.!.|.!.!.!.!.W.W.!.W.W.W.W.!.W.W.W.!.!.|. X X.X.X.X*X3X3X=XoXoX X.X!.|.|.|.W.R.I.f.3.} [ _ _ ] 3.d.Y.W.|. XoX4X=X=X=X=X=X=XoX.X.X=X4X4X3X.X.X X X!.!.|. X.X~..X3X3X*X.X*X3X3X4X4X5X5X6X9X9X9X9X9X9XeXrX9X9X9X9X9X9X6X9X9X9X9X9X9X9X9X9X9X6X6X9X6X6X5X3X4X6X6X6X6X6X5X5X3X3X3X3X*X*X*X*X.X3X3X7X3X5X8X0XMXJXJXVXVXsXe.iXpXaXvXCXCXhXjXdXdXDXJXJXAXMX}.k.c.c.o.g j s * o o O O . o * t @.;XMXfXM.y $ O * s g.&X1XMXCXDXDXDXsXUXe.pXDXHXSXvXe.*.hXSXSXZXCXCXjXCXPXsXsXM =.AXSXJXFXvXiXM aXN.n * * X.SXZXZXJXSXCXVXVXy O * M.DXDXDXDXSXDXCXhXSXpX- * M.aXpXpXS.M.u o o o 6 t b 6 O @ 5 M &.*.%.%.C.;X;X;X<X].<X;X-XMXMXCXCXhXhXSXKXJXNXzXcX9X8X4X4X3X3X4X5X4X3X3XqXqX=X=X=XoXoXoXoXoXXX X X XoXoXoXoX=X>XoXoXoXoXoXoXXXXXOX|.|.|.|.W.W.W.W.R.W.!.|.|.|.oXoXoXoXoXoXoXoXoXXX|.'.'.'.OXXXXXoX>X>X,X8X>X>X-XoX=XoXoX>XoXoXoXoXOX|.|.'.R.R.R.R.E.I.T.R.'.OXXXXXXXOX'.R.l.k.k.k.l.6.6.k.l.l.E.T.).W.W.W.W.R.R.W.`.`.'.'.{.{.'.Q.Q.|.XX{.XX:X:X{.v.1.] _ _ ` ;.1.5.5.1.:.] _ Y F S e a w w d T 2.T.:X1XkX,X&X}.V.b.3.[ :.] _ _ ] [ 3.6.6.I.I.6.3.3.5.5.3.:.` Q W H W / ' [ 7.4.4.d.f.} } [ } 3.6.6.5.7.} 7.7.5.7.7.7.:.` / W F F F F H ^ :.5.5.5.2.^ H H H H H H Y H H H Q ^ O.,.<.<.<.,.#.O.$.*.p.B.p.B.B.B.p.p.%.) E E T z g g e r r w e s r 0 0 0 0 E ) e E R E E X.E E %.T f q e p p D D S K O.9.#.W J ..g.D a a q w e w q 3 > 3 a q a T / -.w.^ F S e e w w w w w w w w w w 3 4 3 ",
"r.+X<X@X{.[.[._._.E.l.l.k.k.l.l.d.d.d.l.I.T.R.W._.R.Y.Y.R.R._.R._.T.T.R.W.R.W.|.|.|.|.|.|.|.!.R.W.W.W.'.W.W.W.!.|.|.|.|.W.W.R.U.I.I.I.d.d.I.U.U.U.U.Q.W.W.W.W.`.W.'.|.|.!.!.!.|.!.!.|.|.!.!.W.Y.R.R.W.W.W.|.|.OX!.!.!.!.!.!.!.!.!.!.!.W.W.W.|.!.W.W.W.W.!.|. X X X X.X=X=XoX=XoX X X X!.!.|.|.W.R.U.d.d.3.} [ [ [ 3.L.Y.W.!. X.X=X=X=XoXoXoXoXoX=X*X*X*X=X=X=X*X.X X|.!.!.|..X X~..X*X.X.X.X*X3X4X4X5X6X6X6X6X9X9X9XrXrXeXeXeX9X9X9X6X5X9X6X5X6X9X9X6X6X6X5X4X5X5X4X5X4X4X4X6X6X6X7X4X4X4X3X3X$X3X*X*X*X.X.X.X*X3X4X8X0XkXCXDXVXaXsXiXB B B S.VXDXDXDXDXjXhXSXJXHXCXMX;Xz.n.j.k q g i * o X o . o o @ t p.gXMXhXF.b , , i ( +XgXxXMXZXDXDXJXDXsXB B hXSXSXDXjXhXSXSXZXAXCXhXjXhXsXpXjXjX=.dXCXDXDXaX7 $ N &.vXpXN.e.DXDXSXSXSXSXpXvXv . @ i hXJXCXSXSXJXDXDXDXsX7 t S.hXjXS.D.M.- . X . @ h y - o   O v h *.%.c.F.dXgXF.F.;XfXgX<XMXCXCXFXSXSXKXLXKXMXcXcX9X4XoX.X.X.XoXoX.X.X.XoXoXoX.X.X.X X X X XOXOX|. XoXXXXXoXoXoXoXoXXXXXXXOXOXOX|.|.|.OX|.W.R.R.R.Y.Y.W.|.!.'.|.XXoXoXoXOXOXXXOX|.'.'.'.|.OXXXXX@X:X>X<X0X0XqX>X>X>XoXoXoXoXoXoXoXOX|.|.|.'.'.R.R._.T.`.'.|.XX-X-X-XXXOX|.T.E.l.k.E.E.R.E.E.E.T.'.'.'.W.R.T.R.E.E.T.T.T.T.T.'.`.T.T.Q.|.'.{.XXOXQ.U.5.:.' _ ] 2.q.z.z.z.s.2.;.^ W E g g g g f W 1.`.,XlXMXlXfX;X].V.x.k.3.>.] ] [ 3.d.l.l.U.R.l.5.3.5.5.5.:.` ^ / Q Q ` ' } 4.4.d.L.d.d.} [ } 7.3.6.3.7.[ [ 7.7.7.:.:.[ [ / W F F H H / ` :.:.1.2.-./ F P H H H H H H H H W ! O.$.<.8.j.g.8.,.<.j.B.B.j.B.B.B.j.j.*.%.%.@.@.l z z g g g d g g p r r 0 0 ) &X) E E T l %.s.g d T ~ D ! p d $.m.~ F ! ~ o.) j j g.U k 3 3 w p a w q 4 3 q 8 g T ~ ^ O.R U f d d e w w w w w w w 3 4 4 4 3 ",
"r.+X+X+X`.`.[.).).E.l.l.k.k.k.6.l.d.d.l.l.E.R.R._.T.Y.Y.Y.T.T._.T.R.U.U.U.R.'.|.|.|.|.|.|.!.!.W.Y.W.'.|.W.W.|. X|. X X!.!.|.'.R.U.Y.U.I.l.I.R.T.U.U.Y.R.R.Q.W.`.Q.'.'.'.W.!.!.|.!.!.|.|.|.!.!.W.'.'.'.'.'.|.|.|. X|.|.|.|.|.|.|.!.!.W.W.W.|.|.|.|.|.!.|.!. X X X.X.X.X3X3X.XoXoX.X.X X|.!.|.|.W.W.U.U.l.6.3.3.3.3.f.U.Y.Y.!. X.XXX.X=X$XoX X.XoX=X=X=X=X=X3X3X=X.X.X X!.!.!. X X.X*X*X.X.X.X*X3X=X4X6X6X6X6X6XrX9XrXrXeXeXeX9X9X9X9X9X6X6X6X4X4X4X4X3X4X4X3X3X3X4X3X4X4X4X5X5X4X3X7X4X4X4X6X5X4X=X3X3X3X=X=X3X4X7X5XqX>XfXjXpXN.N.pXN.v u y D.CXDXDXJXHXhXhXDXJXDXhXgX+XC.A.%., 1 g 0 * O o . o = = * j +XMXCXCXhXr.h k E ( +XxXCXCXJXvXdXhXhXaXB M pXnXDXCXCXCXSXSXZXZXDXCXjXVXpXM M.CXpXS.ZXDXKXVXM = $ h JXHXvXvXCXJXKXSXVXSXpXu y O $ < F.HXHXSXDXHXHXDXHXVXv t aXDXVXD.M.v @ X X   o < t *   X o $ < *.j.;XjXD.jXG.r.dXdXfX<XhXMXhXMXFXJXKXKXKXZXlXqX=XqX*X$X.XoX.X X X XoXOX X X X|.|.|.!.!.|.'.W.!. X XXX X XXXoXoXXXOXOXOXOX|.|.'.|.|.OX!.R.R.R.U.I.U.Y.R.|.|.|.XXOX|.OX XOXOXOX|.'.'.'.|.OXXX@X:X>X>X0X>X>X>X>X>XqXoXoXoXoXoX XoXXXOXW.|.|.|.'.`.`.`.[.|.OXXX=XqX>X-X-XoX[.'.).T.T.T.T.T.).'.OXOX{.'.W.'.R.R.E.U.E.E.v.x.v.T.T.U.T.T.Q.Q.W.!.W.Q.U.d.3.[ [ :.1.z.V.V.A.A.g.<.,.#.%.E E E E E #.g.`.,XlXMXMXMXgX;X].A.V.d.f.:.[ :.5.k.l.U.R.R.l.5.3.f.k.q.q.2.;.] ] { } [ 7.4.4.4.4.4.4.} [ [ 3.4.3.} [ [ [ } 7.7.:.[ [ [ Q W H W W Q ` ` ` ] 2.2.-./ W W P H H H H H H H H W o.$.$.j.j.j.h.9.g.j.j.B.*.j.j.p.p.p.p.%.*.*.@.l E E E z g g g f d d a q i r U m.X.j E g z g U U d e ^ @X^ E s.a.R T K D D l @.f d A f 3 q w a a q q 3 q i i j J D T W J j g g d e e e w q w w w 3 4 4 4 4 ",
"0.].[.].).v.).).l.I.I.I.I.l.6.q.6.6.f.l.l.l.U.Y.R.R.R.U.U.R.R.R.R.R.T.R.R.R.W.W.'.'.|.'.|.|.W.W.'.W.W.|.|.|.|.|. X X XXXXX|.W.W.R.R.U.U.U.R.W.W.U.U.U.Y.Y.Y.R.R._.R.W.W.!.|. XXX!. X X X X X!.W.'.'.'.'.'.OXOX|. X!. X|.|.|.!.!.!.!.!.!.|.|.|.|. X|. X X!.!. X.XoXoXoX4X=X.X.X.X~..X X|.|.!.!.W.W.W.U.U.U.L.d.L.d.L.P.Y.!.!. X.X.X3X.X.X.X*X.X X.X*XoXoX=X4X4X.X.XoX.X X X.XoXoX*X.X.X.X.X.X*X3X3X4X5X6X6X6X6X6X9X9XrXrXrXrX6X6X6X6X6X6X4X*X3X4X$X.X.X.X.X.X$X3X3X3X3X3X3X3X3X3X5X3X3X7X6X4X3X4X7X3X3X3X3X3X3X3X3X4X4X[.G.M y y n N.B 7 = u pXVXDXJXKXKXDXCXCXCXCXdX:Xc.c.B.t @ < s q , # % O = s b k g.gXCXCXCXMXF.X.h f ~ `.gXMXSXJXVXpXS.S.N.M.=.M.jXCXCXCXCXCXMXSXDXDXDXVXvXsXaXvXJXDXhXDXSXKXHXaX7 O 7 D.VXDXCXCXJXJXMXSXpXv $ O O O $ X.CXJXJXDXCXCXDXDXDXN.h aXDXVXaXpXy $ o X X o < s @   X . o 7 m F.G.G.D.dXB.aXD.jXjXgX;XgXgXxXSXFXKXSXAXzXkXoX3X.X4X.X.X~.~..X X X|.|.!.!.!.!.!.!.R.R.R.Y.R.!.|.|.|.|.|.|.|.|.|.|.|.!.W.W.'.'.R.R.Q.R.R.R.E.I.I.I.I.R.W.|.|.|. XOX X|.|.|.|.|.|.|.|.OX|.XXoXXX:X>X@XoX:X>X>X>X>XoXoXOXXXXXXXOXOXOXOX|.OXXXOX'._._.OXXX X=X=X=X=X-X=X:X:XXX[.'.'.'.'.'.OXXXXXOXXXXXXXXX'.)._.T.l.l.l.l.l.d.d.d.d.d.U.U.T.R.`._.E.l.6.} :.1.5.z.V.A.F.F.Z.B.j.p.%.*.*.&.*.p.p.B.F.<XxXCXZXCXhXdXA.V.v.b.k.f.>.>.k.k.l.V.).`.T.k.5.k.k.l.k.5.1.7.[ [ [ 3.3.} } } 4.3.[ ] _ _ ' } [ ' | [ ' [ [ 7.7.7.[ ` _ Q Y Q | ' ' [ ` ;.2.9.8.~ W H H H H H G G H F G K ! ! #.$.j.8.h.c.c.Z.*.*.%.$.$.*.*.p.a.a.p.a.&.m @.X.X.E z g g D f f f a a i q a j g g w e f C.$.a j 8.c.,.g U  .( #.K T D i f j g g g i q q q w w q q q q a g f f S S f g g g e e e e w w 3 3 3 3 4 > 4 4 ",
",.x.v.x.x.x.v.l.l.x.l.l.l.d.6.6.d.d.d.l.l.l.I.U.R.R.R.I.U.R.U.E.R.R.R.R.R.R.W.|.'.'.'.|.W.|.W.W.W.W.W.|.|.|.|.|. X X XXX X|.W.W.W.W.R.R.R.R.W.W.R.Y.U.U.U.Y.R.W.'.'.'.!.!. X XXX.X.X.XoXoX X X|.W.W.'.'.'.'.|.XX.X X X X X X!.!.!.!.!.|. X X X XoX X X X X XoX*X=X.X.X*X*X.XoX.X~. X X|.|.!.!.!.W.W.W.R.R.Y.Y.Y.U.Y.R.!.!.|..X.X!..X.X.X.X.X.XoX.X*X*XoX=X4X4X=X=XoX.X.X.X.X.X.X*X.X.X.X X.X*X3X3X4X6X6X6X6X6X9X9XrXrXrXrXrX6X6X6X6X6X6X4X3X3X3X.X.X.X.X.X.X.X3X3X3X3X4X4X4X3X3X5X4X3X4X4X4X4X6X7X4X4X3X3X4X3X3X3X.X=X[.=.y * * v e.v * $ t F.DXHXHXHXDXVXnXjXdXdXF.0.X.X.h = o < a q i < & < j j.Z.B.F.MXZXCXCXAXhX&.j L T c.&XMXSXJXDXaXN.M v &.N.D.dXxXCXCXnXhXlXZXSXCXhXhXjXpXjXJXKXSXAXSXJXKXKXHXn O $ * M.DXDXZXSXSXhXJXHXy $ o X O $ k jXKXJXSXCXDXDXVXvXe.X.dXDXDXvXaXv $ o X   % s h $   X . $ 7 &.Z.B.aXD.D.&.M.M.S.H.F.dX<XxXxXAXJXKXJXkXwXqX4X!.*X$X X~.~.~.~. X|.|.W.W.W.W.W.W.R.R.R.Y.Y.Y.R.R.W.W.'.'.|.|.|.|.|.|.|.'.W.'.R.U.U.U.R.U.I.I.I.I.U.U.R.W.|.|.|.|.OXXX|.'.'.'.'.'.|.OXXXOXXXXXXXXX@XXX:X>X>X>X=X=XoX X|.|.|.OXOXOXOXOXOXOXOXXXOX|.'.'.|. X=X=X=X=X>X8X>X:XXXXXOXXXXXXXOXoX>XqX>X>X>X>X:XOX`.T.E.l.k.k.l.l.d.3.3.7.3.f.L.U.U.T.T.E.l.6.7.7.1.5.z.A.F.F.H.F.Z.B.p.p.a.p.M.M.Z.S.D.A.;XgXCXZXDXnXdXA.c.k.z.k.f.>.2.2.1.k.).v.E.U.k.d.k.5.k.l.q.5.3.7.7.[ 3.3.} [ [ [ [ [ Q Y H H | ' ' ' [ ' [ [ 7.7.[ [ ] ' ` _ ' [ [ [ [ -.:.q.z.0.,./ / Q P H H H G G I p G K T ~ o.$.$.<.s.j.j.*.%.o.R $.$.M.M.p.p.M.M.N @.&.X.@.@.l g g d f S S J j g a q i a q q e g $.#.J J E f d f z ) ) o.! R a i f f g f g q q q q w a a q a q g g f g f f f f g d e e e e w w 3 3 4 4 4 > 4 4 ",
"! 1.5.5.k.l.x.k.x.x.l.l.l.d.f.f.6.6.6.l.l.l.I.U.U.U.I.I.U.U.I.I.R.U.R.R.R.R.W.|.'.'.|.|.|.!.W.!.W.W.W.|.|.|.|.|. XoXoXXX X|.|.|.'.W.W.W.W.W.R.R.W.R.U.U.Y.R.W.W.|.|.|. X X.XoXoX=X=XoXoXoX X X|.!.!.!.|.OXOXXXoX.X X X X X X|. X X|. X XXXoXoX XoX X.X.XoXoX=X3X.X*X*X*X3X=XoXoX.X.X X X X!.!.!.|.|.!.!.!.W.R.R.W.W.!.!. X X.X.X X.X X X.X.X.XoX.X*X=X3X3X5X5X4X3X3X*X.X.X.X~.~..X.X.X!.!.!..X.X3X3X6X6X6X6X9XrX6XrXrXrX6X6X6X9XrX6X6X6X6X3X3X.X.X.X~..X.X.X.X.X$X$X3X3X4X4X4X4X7X4X4X4X3X4X6X6X7X6X6X4X4X5X4X4X*X.X.Xv.L < @ 7 e.e.y = * y S.CXCXCXjXF.pXpXD.S.S.*.X.j 6 * @ O 1 g f J g q E s.A.dXdX;XlXMXhXhXAXCX*.m %.( ;.f.fXAXSXVXjXaXM 7 h pXjXjXCXDXCXjXjXgXMXSXnXF.hXCXaXvXDXDXjXMXSXSXHXKXKXpX- + @ y hXSXDXDXFXJXKXHXM - O o O < &.jXSXDXJXHXSXDXHXaXy j H.DXHXVXaXm $ o   . 5 @.m $ . X +   = &.F.aXjXpXh * @ t =.p.aXF.].xXMXZXJXLXSXcX4X*X.X~.!.!..X!.~.!.!.!.!././.R.R.R.R.R.Y.Y.Y.Y.Y.Y.Y.Y.Y.R.R.R.'.W.'.'._._._._.R.R.U.I.I.U.R.U.U.I.I.I.U.U.U.W.|.|.'.'.|.|.OX'.'.'.'.'.'.OXOX|.OXOXOXXXXXXX=X>X>X>XoXoX XOX|.|.|.|.|.|.OXOX|.|.|.OXOX|.'.'.|.XX>X8X8X8X8X8X8X>X-XoXXXXXXXXXXX>X8X0X8X8X8XqX-XXX'.T.T.T.E.l.x.l.k.k.3.3.3.f.f.d.l.U.R.I.l.6.3.5.5.k.k.c.Z.F.aXD.D.Z.p.a.p.M.M.D.D.pXD.D.A.:XxXCXDXCXgXA.j.s.s.>.>.] ^ ~ ^ 2.k.l.I.I.d.5.6.d.l.x.k.>.[ [ [ ] [ [ [ ' | | Q Q Y H H H | _ ' ' ' | | [ 7.7.[ [ ' ' ' ' [ [ 7.[ [ :.q.k.9.r.0.-.-.^ W P H H G Z w w p I S J T ! E E ) %.%.@.~ E T ! 0.D.M.p.p.M.M.&.@.@.@.@.@.m l l a f D J J J f a q a i q i a g g %.o.g a a a f g E j E T D a a f f a a i q q 3 q a s g a i i g g g a a p d f a a a w w w w q 3 4 4 4 4 > 3 w ",
"H :.3.3.3.5.l.l.l.v.x.l.l.d.f.f.5.5.5.d.d.l.I.I.I.I.I.I.I.I.I.I.U.U.U.R.R.R.R.W.|.W.|.|.|.|.W.!.W.W.W.|.|.|.|. X X XXXXX X|.|.|.|.'.W.W.W.W.W.W.|.W.W.'.'.W.!.!.|. X X.X.X=X=XoX=X=XoXoXoX X X X X|.!.|.XXoXoXoXoX X X X X X X X X XXXoXoXoXoXoX=XoXoX=X4X4X=X*X.X3X3X*X3X3X.XoX.X.X.X X!.!.!.|. XoX.X X X X!.!.|.|.!. X X.X.X.X.XoXoXoX.X~..X.XoX*X3X3X3X5X5XqX=X3X3X3X3X.X~.^.~.!.!.!.!.!.!.!..X3X4X6X6X6X9XrXrX6X6X6X6X6X6X6X6X6X6X6X6X3X3X3X.X.X.X.X.X.X.X$X3X3X3X3X4X6X6X6X7X7X7X7X4X4X6X9X6X6X6X6X6X6X6X6X4X6X=Xv.j , $ M aXN.7 = * y S.hXCXdXC.&.&.M.B.e.*.@.@.i = @ @ @ 0 E d D E g o.<.}.xXMXfXgXgXfXgXCXnXM.m j.g.2.>.A.MXCXhXpXD.&.* t pXVXhXhXDXCXaXS.;XxXMXjXM.F.CXVXDXHXKXaXjXSXVXHXJXHXvX7 O $ t pXJXJXSXFXKXJXjXy 5 o o * @.hXDXCXDXJXKXSXSXJXiXh @.dXDXHXHXaXN.c . o $ b B.p.u o . o . o v M.hXF.y - O o - y p.M.*.;XMXZXZXSXKXAXoX3X*X.X$X^.~. X!.~. X^.!.!./././.R.R.R.R.Y.U.U.I.I.I.P.Y.Y.Y.R.R.!.R.R.R.R.R._.R.R.R.I.I.I.U.U.U.U.U.I.I.U.U.Y.W.|.|.|.|.|.|.'.'.'.'.'.'.'.OXOXOXXX@XoXoXoX:XqXqXqX>XoXoXXXOX|.W.W.'.|.|.|.|.|.|.OX|.'.'.|.XXOXoXqX8X8X8X8X8X0X8XqXqX>XoXXXXXoX>X0X0X0X0X8X8X>XXX[.`._._.T.x.x.x.x.k.5.5.5.5.f.d.d.I.I.I.d.5.3.5.5.k.g.j.B.Z.D.D.Z.M.p.&.&.p.M.D.pXaXpXD.C.A.gXCXDXCXhXA.s.*.2.2.] ^ T U W ^ :.5.I.L.4.3.5.l.x.v.k.>.[ _ _ / _ ' ' | Y H H H H H H Q | | | | | | | ' 7.7.[ [ ' ' ' ' [ 7.7.7.[ :.5.1.,.0.0.-.O.^ Q P H H F A p p p p p S G F D D g E E o.~ R O.O.B.F.p.p.*.p.&.a.@.m @.@.@.@.@.l j f d K S J f a a a a a a g i j j g g e d d j E E L ~ U d a q q i q 3 1 > 3 q a g g g s s i g g a a a p a a a a w w w w q 3 3 4 4 4 4 4 q f ",
"F ;.:.7.3.3.5.k.d.l.l.l.l.k.5.5.5.5.6.d.d.d.d.l.d.L.L.d.I.I.I.I.I.I.I.I.I.U.R.R.W.W.|.W.W.W.W.W.W.W.W.!.|.|.|. X X X X XXX X X|.|.|.|.W.W.W.!.!.|.|.|.|.|.|.|.|. X XoXoX=X=X=X=XoXoX.X.X.XoXoXoXOXXXXXOXOXoXoX.XoXoX X.X.X X X XoXoXoXXXXXXXXX=XoX=X=X4X4X=X=X*XoX4X4X=X3X=X.X=X.X.X.X.X.X.X.XoXoX4X=X.X.X.X.X.XoX.X.X.X.X X.X!..X.XoXoX.X~.~..X$X=X3X3X3X4X4X4X=X=X3X3X3X.X.X!.!.!.!./.W.!.!.^.~.3X3X6X6X6X9XrX9X9X6X6X6X6X6X6X6X6X6X6X3X3X3X4X$X.X.X.X.X.X$X$X4X4X4X4X7X7X6X6X7X6X6X7X7X6X6X9X6X6X6X9X6X5X4X6X5X6X4X`.E < * e.aXB - $ = y D.jXjXF.=.b m B.F.Z.*.*.m , @ @ o @ 1 i r U E T ! 1.,XMXxXgXgXfXdXgXCXhXM.m *.c.2.k.V.;XhXjXD.e.v * 6 D.hXjXjXhXpX&.h e.dXCXhXM.M dXDXVXDXKXaXpXDXDXjXaXhXSXN.7 * D.DXKXJXJXSXSXVX*.5 + O % t H.CXHXCXJXJXJXSXDXHXiXh S.CXDXHXHXpXjXN.O $ , *.F.B.M @ o . o o v Z.jXX.@ + X X * u m h X.dXCXDXZXCXSXSX0X~.*X.X X.X.X X!.~.~.!.!.!.!.^././.R.R.Y.Y.P.U.I.Y.U.P.P.P.Y.Y.Y.Y.Y.Y.R.U.R.R.U.U.I.I.I.I.E.I.I.I.R.U.R.R.R.R.W.!.|.|.OX|.!.R.R.W.'.'.'.|.OXOXOXXXXXoXoX:X>X>X>X>X>XoXoXXXOX|.W.R.R.W.'.'.|.|.|.|.'.'.W.|.XXXX:XqX8X8XwX8X8X0X8X8X8X8X>XoXoX-X>X8X8XwXwX8X8X>XXXOX[.[.[.).).).V.x.k.k.d.5.3.6.d.l.I.I.d.5.3.3.3.>.s.s.p.p.B.Z.D.Z.Z.p.@.@.&.M.N.pXaXpXD.B.h.;XMXDXCXnXJ.$.%.;.;.] ( ~ T W ^ :.3.3.4.4.3.3.f.k.x.x.z.>./ W P Q | _ Q H H H H H H H P Q | | | | | | | ' [ } ' ' ' _ ' [ [ 7.7.:.` ` ^ O.w.0.,.^ / Q W W Q W F A A A I A A I A D f g E E R R R C.F.B.0.%.@.o.@.%.%.%.@.E X.@.*.@.m l g d S J f f f f a j j j a i a f d f d g S E E E R R f f a 3 3 3 1 > > 1 q s g g g g s s i g g a w a a a a a p a w w w 3 4 3 3 w w 4 4 a K ",
"K ^ ` [ :.3.6.6.f.d.l.l.l.k.5.5.6.f.d.d.6.6.6.d.6.d.d.d.d.d.d.I.l.U.I.I.I.U.R.R.W.W.|.W.W.W.R.R.R.R.W.!.|.|.|. X X X X X X X|.|.W.|.|.|.|.!.!.!.|.OXOX|.|.|.|. X X X X.X.XoX=XoX=XoXoX.X X.X.XoXXXoXXX XXXoX=X.XoXoX XoXoX.XoX.XoXoXXXXXOXOXOXXX XoX=X=X4X=X=X3XoX4X4X=X*X*X=X4X3X$XoX.X.X*X=X3X3X4X4X=X=X=X=X=X=X=X=XoXoX X|.^..X.X X.X$X.X.X*X3X3X3X3X3X4X4X=X=XoXoX*X$X.X.X X!.^.!./.R.R./.^.~..X3X4X6X6X6X6X9X9X9X9XrX6X6X6XrX6X6X6X4X4X4X4X4X3X$X$X3X3X3X3X3X4X6X6X7X7X6X6X6X6X6X6X6X6X6X6X6X6X6X9X6X5X6X6X4X4X=X`.*.t 5 N.pXv * * 5 M F.F.F.B.@.b =.G.dXF.e.=.t @ O O o O = * 1 U #.( ( k.<XlXhXMXgX;XfXhXjXdXM.m $.C.g.x.<XgXdXjXD.M 5 O 5 M.dXdXgXjX&.5 = 5 &.hXnXN.7 v hXHXHXKXvXe.VXDX&.y &.DXDXn M DXJXDXDXSXSXJXDXm = $ o $ l jXCXJXDXDXJXJXJXDXDXpXb pXDXDXHXJXjXVXN.5 h =.F.A.Z.&.< @ o O @ m F.S.*.* o O o + $ - 5 =.B.hXDXCXCXCXMXNXqXXX X.X~.!..X!.!.!.!.!.~.^.!./.!.!./.Y.Y.Y.Y.Y.Y.Y.Y.P.P.P.L.L.P.L.L.L.L.L.I.L.L.I.I.I.I.E.I.I.I.U.U.R.'.|.!.!.!.|.|.|.!.R.W.W.W.W.W.'.|.|.|.|.OXXXXXXXoX>X>X>X>XoXXXXXOXOX|.!.W.W.'.'.'.'.'.'._._.'.'.'.XXXX:X>X8X8X9XwXwXwX8X8X8X5XqX=XoXoX=X>X8X8X8X8X>XoXOX[.[.[.[.[.[.[._.).x.x.l.k.d.6.d.l.l.d.6.3.7.:.[ [ <.s.p.p.Z.Z.F.F.D.p.@.@.@.p.M.N.K.D.M.*.%.c.hXCXCXMX;Xp.( ( ;.2.2.%.o.o.#.>.>.[ } 3.3.7.f.x.V.V.c.1.^ H K P Q Q | Q H H H H H H W P P _ ' Q Q Q Q _ ' ' | | | | | ' ' 7.7.7.] / Q ! ,.0.9.` Q Q Q / ` ` / F G G G G G A G A d f J T E E o.*.h.*.$.%.o.R ~ #.o.%.%.%.X.X.@.@.X.l j g d J f f a a L 0.L +.B.8.d f S d f J J E J j J f f f r 3 > > > 2 1 q i g z l g g s q w g g a w w a a f f f p w w w 4 4 4 w p p w w S ! ",
"D ^ ` ` :.>.5.5.f.d.d.l.l.l.6.5.5.6.6.6.6.6.6.6.6.6.6.d.d.d.d.U.I.U.R.E.U.R.Y.Y.W.W.'.W.W.W.R.R.R.R.W.W.!.|.|.|. X X X X X|.!.W.W.!.!.|.|.|.!.|.!. X X!.W.!.|. X.X X XoX.XoXoXoXoXoXoX.X.X.X X XoX X X.XoX=X=X.XoXoX.X=X=X.XoXoXXXOX'.'.'.`.'.{.|. X.XoX=X=X*X3X$X$X=X=X=X=X4X4X3X3X=XoX3X3X3X4X5X5X4X4X4X=XoX=XoXoXoX.X X X|.!.!..X.X.X3X3X3X3X4X4X4X5X5X5X4X4X=X=X.X*X$X.X.X.X X!.!.!.R.Y./.^.~.~.3X4X6X6X6X7X9X6X6X9X9X9X9X9X6X6X6X6X9X9X9X9X6X4X3X4X3X3X3X7X3X6X6X6X6X6X6X5X6X6X6X6X6X6X6X9X6X6X6X6X6X9X9X9X6X6XoX].B.v h D.S.y 5 5 M D.dXF.A.Z.@.m =.Z.F.M.&.y = o o o o o O @ : g ^ 2.s.n.F.dXCXAXgX;XhXhXdXF.e.m *.A.V.].1XgXjXaXM.v * $ 5 M.dXF.dXaXn $ O + u M.dXS.7 * F.JXHXJXVXe.vXJXN.* - M.nXe.jXJXSXnXAXDXJXJXvXpX5 = $ O s hXSXDXJXCXDXHXHXHXVXS.=.pXDXDXHXJXvXaXS.=.F.jXdXF.jXF.m < * * * &.H.dXZ.- o X O X O O * m *.dXCXMXSXCXxX0XzX>X.X$X~. X~.~.~.~.!.~. X~.!.!.!.!././././.R.R.R.R.R.Y.U.I.Y.Y.Y.Y.L.P.L.L.L.L.L.L.I.I.I.U.U.U.U.R.R.'.|.|. X X X|.|.|.!.W.!.!.!.!.W.W.W.|.|.OXOXOXXXXXXX:X:X:XoXXXXXXXOXOX X|.'.|.|.'.'.'.'._.R.T.R.'.'.OXoX-X=X4X8X8XwXwXwXwX9X9X8XqXqX=XoX-X-X=X>X>X>XXXXX|.'.'.[.[.[.[.[.[.).).x.x.l.l.k.l.I.l.6.3.[ ] ` _ ( ( p.j.Z.Z.Z.H.H.J.Z.p.@.@.p.a.M.M.N.&.@.E #.:XMXCXCXdXj.( ( 2.1.g.j.*.$.#.:.>.[ [ } [ } 3.V.`.A.A.z.2.^ ! Q / / _ _ _ Q Y F H H H P P P Q | H | | _ _ ' | Y H H Q _ ' } 7.7.:.' Q W o.8.9.;./ Q ` ` 2.:.-./ H H H F G F H G D K T T T ! $.j.8.0.#.W ~ E ! ~ O.#.( ,.%.X.L X.X.l z f a p a p J f a ..j o.O.T A F K E J f J J j j g g j f q 3 2 2 2 > q s s j l l g s i q i p g a a a p f f J J L S p w q 4 4 w A F A I K ~ ",
"S ^ ` ` ] ] 5.7.5.6.6.6.6.d.6.3.5.6.6.6.6.6.6.6.4.4.4.4.d.f.d.L.U.U.R.R.R.U.U.Y.R.R.W.W.W.W.R.R.R.R.Y.R.W.!.|.|.|. X X|.|.!.!.W.|.!.|.|.|.|. X X!.!.!.!.!.!.!.!.!. X XoXoXoXoXoXoX.XoX=X*X.X.X.X X X.X=XoXXXoX4X=X4X=X=X=X XoX X|.`.).).).T.T.W.|. X X XoX=X*X3X3X~..X*X=X4X4X4X3X$XoX=X4X4X4X4X3X3X*X=X=X.X XoX.X.X.X XOX|.!.^.~.~..X$X3X3X3X4X4X5X5X5X5X5X5X4X4X3X3X4X4X3X=XoX.X.X!.^././.^.^.~..X3X5X5X5X5X5X6X5X6X6X9X9X9X9X6X6X6X6X9X9X9X9X6X6X5X5X4X3X3X7X6X6X6X6X6X6X9X6X6X7X6X6X6X6X6X9X6X9X9X6X6X9XrX9X9X.X X:XF.=.m D.S.b h m M.aXdXdXF.C.o.X.*.Z.B.=.h * O o o o X X . @ 0 ) 2.>.n.A.A.;XZXSXdX;XMXgXF.S.=.h X.A.A.;XgXhXjXD.&.y $ O * M.jXS.S.D.v O o O $ h B.M.7 $ %.vXVXDXVXiXaXJXpX- $ < F.hXDXJXHXDXxXZXSXSXJXvXn O O O h CXSXCXHXCXCXFXJXHXvXN.e.jXSXDXHXDXVXsXpXaXhXdXdXCXCX;XF.M.=.m v M.dXdXD.- o @ O X + o - u l dXAXCXSXCX8XeXoXcX$X~.^. X~.~.~..X.X.X X!. X!.^.^././././.Y.R.R.R.R.R.U.I.Y.Y.Y.Y.Y.Y.I.I.L.L.L.I.I.U.U.Y.R.Y.R.W.W.'.|.|.|. X X|.|.|.!.!.R.Y.W.W.W.W.R.R.R.'.|.'.OXOXOX@X:X:XoXXXOXXXXXXX X|.|.|.OX|.|.|.'.'.R.T.R.'.OXXX:X-X=X=X4X9X8XwX8X9X9X8X8XqX=XoX XXX X XXXXXXX|.W.W.'.'.XX@XXX{.{.OX[.`.).T.v.x.x.U.I.l.6.7.` _ Y Y / ( s.Z.F.J.J.aXaXH.D.B.a.*.*.*.&.&.&.@.l s F V.xXZXCXhXA.( ;.1.s.c.j.j.s.2.;.:.[ [ [ [ [ 7.z.V.A.].V.9.2.( ^ ` ` ` ' ` _ _ Q P P H H H H Q Q H H P _ _ Q H H G H H P _ ' [ [ ' _ Q W ! -.1.2.` ` -.-.w.5.w.` H H P P H P P F W ~ T W T ! $.&X+Xz.( ^ ~ o.! T ~ ;.~ R o.+.j X.X.l l g a 3 i f f j j k f f q d K W T E E R U D J g q g j a p q > 1 3 q g l j l l l g a q 1 i w g f d p f f j L o.! K S p q 3 q p K W P F P ~ ",
"S / / ` ` ] [ 7.5.5.5.6.6.6.3.3.4.4.d.3.6.4.6.4.7.7.3.4.6.6.d.L.L.I.U.R.R.U.I.I.U.U.R.R.T.T.R.Q.R.R.R.R.R.Q.!. X!. X X!.!.!.!.W.'.W.W.!. X|.!.!.|.|.!.!.!.!.!.!. X X.X.X.X.X.X.X~..X.X=X=XoX.X.X.X X XoX=X=X=XoX.X=X4X=X.XoX|.OXW.T.T.v.v.v.T.R.W.!. X.X XoX3X3X3X3X3X3X4X4X4X*X$X*X*X*X3X4X4X7X3X3X3X=X.X X XXX XW.W.W.W.!.!.^..X.X~..X3X3X6X6X4X6X5X4X5X5X3X6X6X8X5X5X6X4X4X3X*X.X~..X!.^.!.!..X3X4X4X4X6X4X4X5X4X4X5X8X8X5X5X4X3X4X5X9X9X9X9X5X6X9X6X6X6X7X7X6X6X6X6XrXrXrX6X6X6X6X6X6X6X6X6X6X6X6X9XrXrXrX9X9X.X:XdXF.=.=.aXaXM.X.=.S.aXdXF.C.$.R E j.Z.&.h 5 = @ $ $ O O @ @ # s s.3.1.n.j.B.F.nXCXdX;XfX;XfXF.X.s j g.+XdXhXhXhXaX=.5 @ O * &.jXN.B M.c O o o O < p.Z.y $ l jXHXVXvXUXB MXCXv $ = &.SXCXSXHXJXvXDXHXCXSXDXM.7 + O s nXDXHXJXJXCXDXJXJXN.e.S.hXVXDXJXHXPXD.aXhXhXjXCXhXCXnXfXhXdXhXD.B.;XdXaXy o - + o o o $ $ j ;XMXSXDXxX0XwX3X3X9X$X|.oX~.~.|.|.|..X.X X~.~.^.!.!.!.!././.R.Y.Y.Y.Y.P.P.P.Y.Y.P.Y.Y.P.L.L.I.P.Y.R.R.R.!.R.!.R.R.R.|.|.|.!.|. X X.X~.!.|.!.!.!.!.R.R.R.Y.R.R.`.'.'.'.|.OXoXXXXXOXOXOXOX X X|.|.|.|.|.|.|.|.'.'.|.'.'.XXoX.X=XqXqX4X4X8X9X9X8X8X4X4X8X*X.XXX|.'.'.|.OXOX'.T.E.[.[.OX[.XXXX:X@XXX[.`.`.[._.v.v.U.d.3.[ Q Y H H W ,.h.Z.F.H.aXaXH.H.F.Z.j.a.a.@.@.m l z s 0 q #.<XMXCXMX;Xs.( <.g.h.c.g.s.$.] ] ] ] ] ] ] [ 5.v.A.F.A.c.k.g.1.2.:.-.-.-.] _ Q Y H H H H | Q H H H H _ H G G I Z Z G H H _ ' ' ' _ W Q / / ^ ` :.` ' :.7.7.7.[ | H H P H W H P ! ^ ^ ! ! O.^ A.;Xh.#.O.,.^ O.P W ` O.o.X.c.) J l X.T d q r w d L j p p a k f K K E o.E ~ R l J i q a a f d p 3 > 3 J f l l j j E g f w 1 > q i a f f S I L K L O.O.! K p q 4 3 p K O.O.W K R ",
"S W Q / / ` [ :.:.>.3.5.6.6.3.3.3.4.6.3.6.3.4.3.7.7.7.3.6.d.d.d.L.I.I.I.I.I.U.U.R.U.U.T.).T.R.Y.W.R.R.Y.R.W.!.!.!.|.!.W.W.W.R.R.W.R.W.|.|.|.!.!.!.!.!.|. X X|.|. X X X X.X.X.X X!..X.X.X.XoX.X.X.X.X.XoX=X=X=X*X*X=X=X.X X X|.!.R.U.l.k.k.l.U.R.W.!.|..X X.X=X3X3X3X3X3X3X4X3X*X3X3X4X4X5X5X4X4X4X=X.X X|.W.R.R.R.U.R.W.W.!. X!..X.X.X.X3X3X4X4X4X4X4X4X4X4X4X4X4X4X5X5X6X6X6X5X4X3X3X.X~.~.~..X3X3X5X5X4X4X4X4X4X=X=X=X4X4X=X.X*X*X3X5X5X5X9X9X6X6X6X6X6X6X7X6X6X6XrXrXrXrX9XrXrX9X9X6X6X6X9X6X6X6X9XrXrXrXrX6X3X8X<XfXF.&.S.jXjXS.=.*.Z.F.F.B.8.o.X.X.*.*.m h t * < 5 - * * t i t l s.<.o.@.X.m &.H.jXgX;X;XfXgX;X*.X.j %.A.;XhXhXCXjX&.5 @ $ - &.aXN.n h y = o X . * *.dXS.7 h S.VXDXvXaXN.nXDXS.c O X.CXJXSXDXVXDXSXCXFXSXDXaXv = @ m CXSXDXJXKXSXDXHXHXiXy B.DXDXDXHXKXHXaXaXvXhXhXxXhXhXhXxXMXhXhXF.hXgXgXdX&.5 - O O O O $ + < *.xXSXCXcXqXqX5X3X3X5X3X!.$X.X.X X X.X.X X~.~.~.~.!.!././.!.Y.Y.Y.Y.Y.P.P.U.Y.Y.Y.P.P.Y.Y.Y.Y.R.W.!.!.!.!.!.!.R.R.R.R.!.|.|.!.~.~. XOX!.^.!.!.!.W.R.R.R.U.R.R.R.`.`.`.'.|.OXOXOXXXXXXXOX|.|.|.|.|.|.OX|.|.|.|.|.|.|.|.XXXX=XqX5XqX=X=X=X=X>X=X8X4X4XqX.X XOX'.T.T.R._._.`.T.T.).[.OXXXXX@X<X>X:XXXOX'.[._.).T.E.l.5.` W H H H Q 2.g.C.A.H.H.H.H.F.A.Z.j.j.%.@.m l z s 0 1 > D ].xXMXMX1Xn.;.,.8.g.s.s.<.%.^ ^ ` ] ` ` ` ` ;.9.c.A.A.v.V.C.z.k.5.:.:.:.:.` / W F H H H H H H H H H H G I Z Z Z Z G G H | | | | _ Y Q ` ` ` :.:.' ' -.-.7.7.[ _ Q H Q / Q P P ! ^ O.O.O.O.^ $.C.h.$.,.8.,.#.w.P ^ O.+.j.) %.D X.=.l g i a e L D F A e e w T Q.2.s.c.$.o.o.j g i q q a d d a q 4 3 f f g g g j s j f 3 > > 1 q a f S S S F K +.O.O.o.K p q w 3 p ! O.-.~ E T ",
"f W Q Q Q Q _ [ [ [ 7.3.5.3.3.3.3.3.6.3.6.3.3.7.[ [ [ 3.5.d.f.6.d.d.l.l.I.I.U.U.R.U.U.T._.R.R.R.R.R.U.U.Y.Y.R.R.|.|.!.R.R.R.R.U.Y.Y.Y.W.|.|.|. X!.!.!.!.!.|.|. X X X X X X X X X~..X.X X XoX=XoXoXoX.XoX*X*X*X*X.X.X.X X X X!.R.T.I.l.k.k.l.I.R.R.W.!.|. X.X3X3X4X4X3X3X4X4X4X3X3X3X4X4X4X4X3X3X3X.X X|.W.T.U.I.I.I.U.R.W.!.!.!.!..X.X.X3X4X4X4X4X3X3X4X3X4X4X3X3X5X5X6X6X6X9X9X6X6X4X3X3X.X3X3X3X5X6X5X4X3X3X3XoXoX.XXXXXoX.X X.X.X*X=X*X.X=X4X4X4X4X3X4X6X4X6X6X6XrXrXeXeXeXeXrX9X9X9X6X6X9X6X6X6X9XrXrXrX6X6X4X>X[.+XF.S.jXDXnXF.*.j.A.F.C.g.O.X.X.=.*.*.m m h y h l k t k R T j z ) X.k t t t m M.F.gXgX;XgXMXdXB.$.o.,.}.1XxXhXhXdXe.y = = 7 e.pXe.7 5 h 5 o X o @ E 2XjX&.v v F.DXaXjXvXCXDXSXsX; h ;XJXJXHXaXS.SXCXSXSXSXDXD.y 5 s DXSXSXJXKXCXHXVXvXS.k S.DXDXDXHXHXHXvXD.jXvXhXhXhXhXCXCXhXCXdXfXhXZXMX;XF.M.7 * = O + $ + @ X.MXFXvXkXcX4X5X4X3X5X4X$X$X.X.X.X X.X.X.X.X~..X X~.!.!.!.!.Y.Y.Y.Y.Y.P.Y.P.P.P.Y.Y.Y.Y.Y./././.!.!.!.!.!.!.R.R.R.R.R.R.W./.!.!.!.!.!.!.!.Y.Y.Y.Y.Y.Y.R.Y.U.R.R.T.T.T._.'.OXOXXXXXXXOX|.'.'.W.W.|.|.|.|.|.|.|.|.|.|.OXXXoX=X4XqX=X=X.X X|.XX X=XoXoX=XXXXX|.R.E.I.I.l.E.T.R.T.T.'.{.XXXX@X:X:X@XXXOX'.`._.).).v.k.5.` W G G H Q ;.s.c.C.A.Z.C.Z.c.c.j.g.j.a.%.) z s i 0 2 : q <.fXxXMXgXQ.s.2.<.g.<.;.;.#.W Q / ` ` ` ^ / ^ #.<.g.c.c.A.A.V.V.l.7.w.7.:.-.` / F F P H H H G G Z Z I Z w w w w I G H | ' _ | Q Q Q _ -.:.2.:.7.] _ _ ` ` ] _ _ _ P Q -.P K K ! ! ! O.O.^ ^ T 0.C.9.,.,.<.,.^ ^ -.O.,.$.X.m %.X.l L X.g s f P H H P 8.! w +.1Xm.s.s.p.%.o.a a a q q p p f w q 3 4 q p e w a j f o.J > 2 1 3 q a f S A A L J X.o.o.O.! S p p 3 p P O.;.#.T D ",
"d W / / / / _ _ [ ] [ :.7.7.} } 3.3.5.5.3.3.7.[ [ [ [ 7.3.6.6.5.6.6.d.I.I.I.I.U.R.U.U.R.R.R.R.R.U.U.Y.Y.Y.Y.R.R.W.W.W.R.Y.U.U.U.P.P.Y.R.|.|. X X!.!.!.W.W.!.|. X.X X.X X X.X.X X~..X.X X X.XoXoXoXoX.XoXoX=XoX.X.X.X.X X|. XW.Y.R.I.d.f.f.f.d.I.Y.W.!.!. X.X3X3X*X*X*X3X3X4X3X3X3X3X3X3X3X=X*X.X.X.X!.W.Y.U.l.l.d.d.I.U.Y.Q.W.!.!.~.~..X3X3X4X4X3X3X3X3X3X3X3X3X4X4X4X6X6X6X6X6X6X6X6X4X6X7X7X6X6X6X9X8X4X=XoXoX X X'.`._.'.|.!.|. X X X X X.X=X*X*X3X3X3X4X3X7X6XrXeXeXeXeXeXeXeXrXrX6X6X6X6X6X6X6X9XrXrXrX6X6X5X|.V.+XdXdXCXDXhXF.B.C.F.F.B.%.~ %.B.B.M.&.m &.=.X.*.*.X.j J ( T s s i y - = = 5 y h *.;XgX;XgXZXxXF.0.,.g.A.fXxXhXhXdXM.m 5 * v M.S.B 7 5 z 5 o . . % g &XdXF.e.y &.aXiXaXDXHXHXSXVXn =.;XDXHXvXn y aXSXnXhXCXSXjXM.&.*.CXSXCXDXJXdXHXHXvX&.j *.DXHXHXDXDXDXjXD.jXhXCXMXCXhXfXfXgXCXMXgXxXMXDXgXhXjX=.m v 5 $ + + $ b MXFXDX0XzXwX5X3X4X$X~.4X~..X.X.X.X.X.X.X.X~..X X~.~.~.~.!././././.Y.Y.Y.Y.P.Y./.!.!.!.!.!.!.!././././.!.Y.Y.Y.Y.Y.Y.R.W./.!.!.!.!././.R.P.P.Y.U.Y.Y.Y.U.U.I.I.E.T.T._.`.|.|.OXXXOX|.|.'.'.R.W.|.|.W.W.|.W.W.W.|.|.XXoXoX=X=XoX.X.X X|.'.R.R.|. X XXXXXOX'.`.E.l.k.l.l.x.T.T.T.`.{.XXXX:X:X@XXX'.`.`.).).V.x.x.q.1./ Y H H Y Q ] 2.1.g.g.g.8.<.<.s.g.s.<.s.) ) z s s 0 > 2 > J ].kXlXlX&Xn.s.<.1.>.2.;.] Q W Q ^ ` ` ^ ~ ^ ^ #.<.<.g.V.A.].`.l.5.:.2.-.-.` W F F H G G G G Z w w w w w w w w p G P :.7.[ | Y Y | ' 7.7.:.w.:.` | Y W Q ` _ _ / Q Q O.L S F K K R O.O.^ / W O.w.,.,.9.9.2.@.$.C.1.c.*.B.X.*.M @.A.{.) j o.W -.O.$.V.$.j X.#.) ) a.a.X.s g f a q q a p A I w q 3 q p p w a g i q 3 > > 3 3 q p S S A A A S L o.! ! K I w 4 > w F ~ ;.#.E E ",
"f W / ` / / Q _ _ ` ` ` ] ] [ [ 3.5.5.5.3.:.] ` ] ] ] :.3.5.5.5.3.3.f.d.d.d.l.U.U.Y.R.U.R.Y.Y.Y.U.U.U.U.U.U.U.Y.Y.Y.Y.Y.U.U.I.U.P.U.Y.R.!.|. X X|.|.|.W.W.!.!.!. X!.!.!.!.!.!.!.~.!. X X X X.XoX.X.X.X.XoXoXoXoX.X.X.X X!.!.W.Y.U.I.d.f.f.d.d.L.Y.W.!.!. X.X3X3X=X=X3X4X4X3X3X3X4X4X3X*X*X.X.X.X~.^.W.Y.L.d.4.3.4.6.I.U.U.Y.Y.W.!.!.!..X.X$X3X3X$X3X3X*X3X*X~.3X3X4X3X5X6X6X9XrXrXrXrX6XrX6X6X9X6X9X9X8X4X=X.X.X|.W.R.I.l.E.U.U.R.W.W.!.!. X.X=X.X*X3X.X3X3X3X4X6XrXeXeXeXeXeXeXeXeXrX6X6X6X6X6X6X6X9XrXrXrX6X6XtX X<XgXdXdXDXDXjXdX+X;X;XF.j.*.%.*.Z.S.S.*.=.B.Z.Z.A.A.j.R U T g t 5 < - $ + O $ $ , &.dXaXF.gXMXCXgXC.0.h.c.+X;XfXgX;XZ.*.k 5 M S.M.N - * s 6 @ . . # j A.;XdXS.u m e.e.dXCXDXDXvXvXjXjXhXSXVXe.* * t DXCXCXCXDXCXgX;XjXCXSXCXCXhXjXDXHXHXv j B.CXDXDXDXVXDXD.dXjXjXhXdX;XdX;XdXgXCXxXgXMXgXSXZXCXhXhXjXD.m 5 ; O ; e.ZXSXZXzXwXzX9X3X4X3X$X$X$X$X$X.X.X.X.X~..X.X~..X$X.X~.!.!.^.!././.!././.Y./.^.~.^.!.!.!.!.!.!.!.!.!.!.!.Y.Y.U.Y.Y.Y.R.R.!./././.!.W./././././.Y.R.R.R.U.I.l.l.I.T.T._.'.R.'.|.|.|.'.|.|.'.'.|.|.|.|.|.OX!.|.|. X XoXoXoX>X=X X|.W.Q.U.I.6.d.R.W.|.|.'.W.`.R.R.l.d.k.k.k.T.T.).).{.XX@X@X>X@X{.`.T.T.T.T.v.x.l.5.[ Y H H Y Q _ ` 2.2.2.;.#.( ^ ^ 2.1.<.<.a.( ) z z s s q < 2 q ,.:XkXlX1X&Xn.s.1.s.>.] ] ^ Q Y / ^ ^ ^ ^ W W ~ #.#.1.v.].+X`.l.>.:.` ` ` Q F G G G G G G G p w 3 3 3 q q a w p F / 5.f.[ _ Y Q ` :.7.7.-.w.-.` H G F P Q Q ` / Q W ! p p p p S X.O.,.-./ Y P w.q.z.].F.z.+.$.w.;.( *.aXH.=.=.*.Z.Z.s.L o.E =.=.+.X.X.*.j J g U a.) l E E f a q q w a G G p w w a f a a i > 3 3 3 q 3 q q a f D G A p p p S J J K J f q 4 4 3 p ! O.o.E l ",
"S W / / Q / Q / / / / / / ` ] [ 7.3.5.5.:.:.` ` / _ ` ] [ 3.3.5.3.4.6.d.d.d.d.I.U.U.U.U.U.Y.Y.U.I.I.L.L.L.I.I.U.U.Y.Y.Y.U.U.U.U.U.U.Y.W.!.|.|.!.!.!.!.!.!.!.!.!.!.^.^.!.!.^.!.!.!.!.!. X X X XoX.X.X.X.XoXoXoXoX.X.X.X X!.!.W.R.Y.I.d.d.d.d.L.U.Y.!.!.!..XoX3X*X3X3X4X4X3X3X3X3X3X*X.X.X.X.X.X~.!.!.Y.U.L.4.3.3.3.4.d.L.L.L.P.Y.R.^.!.~..X$X3X3X.X3X3X$X3X3X.X3X3X4X3X5X6X6XrXrX9XrXeX9XrXrXrXrX9X9X9X9X5X*X X|.R.I.d.f.6.d.d.L.I.U.Y.W.!.!..X.X.X.X3X.X.X3X3X7X6X6XrXeXeXeXeXeXeXeXrX6X6X6XrX6X6X6X6X6X6X6X6X6X3X4XkXfXF.jXDXvXbXjXgXgXF.S.*.*.*.*.M.M.e.&.*.F.dX;X;XF.A.%.~ ( s 5 * $ + O X . X o * M.aXM.e.F.gXMXMX+X0.B.B.h.C.;XdX;XZ.B.m y &.S.M u * < g k , O . & E c.;XdXD.v v n c F.CXDXSXaXD.DXHXSXJXDXaXy $ = &.hXJXCXCXCXCXhXhXSXCXDXSXjXG.nXVXvXM j dXDXVXDXDXDXDXaXF.B.F.hXF.F.D.jXdXMXCXMXMXxXgXSXSXMXSXSXDXCXaXM.- @ ; &.SXSXZXzX8XwX9X4X3X4X9X3X3X$X$X$X$X.X.X~..X.X~..X$X.X X~.^.~.^././.!.!.!.!.^.~.^.^.!.!.!.!.W.W.!.!.W.W.R.Y.Y.U.U.Y.Y.Y.R.!.!.!.!.!.!.!.!.!.|.|.!.W.R.R.R.U.I.l.I.E.R.R.R.T.R.'.|.'.W.'.|.|. X XW.W.|.|.|.|.|.XXXXoXoX=XoXoX X|.R.U.L.d.6.7.3.d.U.U.Q.W.Q.T.T.U.L.f.d.k.k.x.v._.).[.{.@X@X@X{.`.T.x.v.v.v.v.x.l.>.] Y Y Y W Q ` ` ;.;.^ ^ W W W / ( 2.<.<.a.) ) z z z z s 0 > > S x.,XxXxX,X&Xb.1.1.>.:.] ] Q Y Q / / ^ ^ ! W ! W / 2.b.].+XV.k.>.` / Q / P F G G G G G G A p q 3 3 3 q q a a p F / 2.1.:._ Q Q ] 7.6.7.:.-.` Q F A G K Q ! ^ Q Q W K f a w w f L R ! ^ / Q Y w.G.].;XdX+Xr.0.1.~ J *.*.M.S.p.*.=.*.g g X.E E R O.o.*.dXs.~ T g g g U T J d w q q a w p A I w w a f p f a w q 3 w q q a f a S K F p w w w q a a f j f a q > 4 w K o.o.E z ",
"f W Y / Q / Q Q Q W W W / ^ ` ] [ >.>.3.:.` / / W Q / _ [ } 7.7.} } 3.6.6.6.6.L.d.I.I.I.U.U.U.E.T.I.L.L.I.I.I.I.U.U.U.Y.Y.U.U.U.U.U.Y.R.!.!.!.!.R.R.W.W.W.!.!.!.!.!.!.^.!.!.!.!.!.!.!.!.|.|..X.X X.X.X X X.XoX.X~.~..X X!.|.!.W.Y.U.I.L.I.U.U.Y.W.!.^.~..XoX=X.X.X.X.X.X.X X.X.X.X.X.X.X~.~.~.~.^.R.Y.L.L.4.} } } 4.d.d.L.d.L.P.Y.!.^.~..X3X3X3X$X3X3X3X*X3X3X3X3X4X3X6X9X9XrXrXrX9XrXrX9XeXeXeXeX9X9X9X5X*X!.W.U.d.3.3.4.4.4.d.d.L.U.R.!.!.!..X.X.X.X~.~.3X3X7X7X6XrXeXeXeXeXeXeXeXrX9X6X9XrX6X6X6X6X6X6X6X6X6X5X4X:X+X+XhXDXvXbXdXgXdXS.e.=.%.%.*.e.e.&.&.S.hXhXfX;X+XC.%.<.%.h * $ o o X X . X O , @.&.M M &.F.hXhXpX&.*.B.0.h.A.+XF.Z.A.*.=.B.D.M - $ t X.X.s $ o , E j.F.;XF.&.y c M hXKXKXDXe.h vXKXDXSXKXsX7 $ O b nXSXCXnXCXCXCXDXDXCXvXdXjXpXjXjXe.v B.hXJXDXVXDXHXVXjX&.S.dXD.pXD.aXVXdXSXSXSXAXgXMXZXSXCXSXCXDXJXDXvXm 5 - m FXHXxXzX8X3X4X4X.X.X5X3X$X$X$X$X$X.X.X.X$X.X~.~.~..X.X.X X.X~.!.!..X.X.X~.~.~.^.^.~.!.!./.R.Y.R.R.R.W.R.R.Y.Y.U.U.Y.Y.R./.!.|.|.!.!.|.OXOXOXOX|.|.R.R.R.R.R.I.U.R.R.R.R._.`.|.|.'.'.'.|.OXXXXX|.W.W.|.'.'.'.OXXXoX=X>X=X X|.W.U.L.4.4.3.} } 3.6.d.U.W.W.T.U.I.L.d.6.5.k.x.v.).).).[.XXXX`.T.x.k.k.k.l.l.l.l.k.:.] Y Y Y W Q ^ ] ] ^ / W F F H W ^ ;.<.<.a.%.) l z z z g i 1 > q O.@XlXxXlX:Xn.k.1.2.:.] ` / Q _ _ / ^ ^ ^ ! W T W ] g.A.].v.k.>.` Q P P P F G A G F F K D p a 3 3 3 i a a f D K W / ^ ` ] ` / ] 3.7.7.7.-.Q P F A G F P ! ~ Q W W T K a a a f f d S F W Q Y 0.bXhXxXxXdXpXF.z.! #.2.( R @.a.X.+.+.X.l %.^ T F ! +.0.g.2.~ T T E T U f f a a q q a a p p I p a f F K F S w q q w a a j j L L P F A a q 3 3 3 i a j j f w 3 4 3 f T E l z ",
"f W Y Q / / / ! ! W W W W / / ` _ [ ] :.` ^ W W W W Q / _ [ [ [ { [ 7.3.3.3.3.d.l.l.l.I.U.U.E.T.T.I.L.d.l.l.d.6.I.I.I.U.Y.U.I.I.T.R.U.Y.W.!.!.!.Y.Y.Y.Y.W.W.|.|.!.!.!.!.!.!.!.!.R.W.R.R.!.!.~.~.oXoX.X!.!..X.X.X~.~..X!.!. X!.W./.Y.Y.R.R.Y.Y.Y.!.^.^.~..X.XoX.X.X.X.X.X!.|. X.X.X.X.X.X~.~.~.~.^.R.Y.L.L.4.} } } } 4.d.L.L.L.U.Y.!.^.~..X.X*X*X3X.X.X$X.X.X3X3X.X3X3X6X6X6XrXrX9X9X9XeX6X9X9X9X9X9X9X9X4X.X!.!.U.4.} } } } 3.4.4.d.L.P.Y.!.!..X~..X.X~..X3X$X3X7X6XrXrXeXeXeXeXeXeXeXrX9X9X9X9X6XrXrX6X6X6X6X6X4XoX{.@XbXvXCXnXdXH.;XF.M.e.&.*.*.=.=.&.e.S.jXDXhX1X:XA.h.%.s.~ s $ o o X X . . X o * h m M v h M.hXnXaX&.m *.$.j.A.F.F.A.F.G.B.F.D.&.7 = i #.8.E * $ 0 E X.=.Z.2XB.&.e.S.CXKXHXD.5 y vXKXHXDXLXvX- $ % t hXCXjXMXDXCXhXDXCXCXDXpXaXvXjXaXiXn +XVXHXVXvXJXKXVXvXr.D.pXr.jXM.S.aXhXJXnXhXhXMXNXAXSXSXCXDXSXJXJXVXpXM v X.JXKXMXlXwX5X9X7X3X3X*X*X3X$X$X$X$X.X.X.X X X~.~..X.X.X.X.X.X.X.X.X3X3X3X.X3X3X.X~.~.!.!./.Y.Y.Y.R.R.W.W.R.Y.Y.U.L.U.Y.R.R.!.!.!.|.'.|.OXOXOXOX|.'.'.R.R.R.R.R.R.R.R.R.R.'.'.OXOX|.|.OXOXXXOX X X|.W.W.OXW.`.|.XXoXoX=XoX X X|.R.L.4.} } [ [ 7.6.d.U.Q.Q.Q.U.L.L.d.5.5.k.x.v.x.v.x.).`._.T.x.k.5.1.q.k.f.z.k.5.:.` Q W Q W Q ^ ;.#.^ W T F F H / ( 2.<.s.p.a.a.) l l l z s 0 2 > D ].gXxXxX<X].l.2.;.:.] _ _ _ _ _ ` ` ` O.! W F W ] s.V.A.v.z.:./ Q W P S S I p S P P P J p a i q i g j J R ~ ~ ^ W P ^ :.] / ` 7.7.:.:.^ W W F G D F H P / / / ^ ~ o.a a a a q p A G F ! Y $.S.dXgXhXdX+X+X].,.,./ #.$.) ) j X.*.E g X.f D f a s l e z l E U U g j f g a a q q a p p A I a a f P _ Q P A w w w f j j ..+.+.+.P F p a 3 3 > 3 j X.L j f p 4 4 w g l z g ",
"p K Q Q / W W W W W W W W Q / ` ` ` ] ` / W P F D F F W / ` [ ] [ ' ' [ 7.} 3.3.6.6.d.l.x.T.R.R.T.U.I.d.d.6.f.6.L.d.d.L.U.L.L.I.L.U.U.Y.W.W.R.R.P.R.'.R.R.!.|.!.|. X|.!.!.!.!.!.Y.Y.Y.Y.Y.Y.R.Y.!..X.X.X.X.X.X.X X.X!.^.^.!.!.!.W.R.R.W.!.!.!.!.!.!.^.~.~..X.XoX~..X.X.X|.!.!.^. X|.!.~.~.~.~.^.!.R.Y.P.L.4.4.4.4.4.d.P.L.P.Y.P.Y.!.!.!.!.~.~.(.$X.X$X.X.X3X.X3X4X4X6X5X6X6X9XrXrXrXrX6X6X6X6X6X6X6X6X6X3X3X.X/.P.t.} } } } } } 4.L.P.P./.^.^.~.|..X.X~.~.3X3X3X7X6XrXeXeXeXeXeXeXeXeXrXrXrXrXrXrXrXrXrXrX9X9X9X4X5X{.+X;XaXjXjXpXpXpXS.B.&.p.M.m m X.=.S.jXCXDXhXfX;XC.$.E E j 5 % o . . X . o o @ * j @.m 5 7 M.jXDXvX&.g T o.*.C.C.C.+X;XF.F.F.pXe.5 , a ~ *.X.i i E X.h h c.;XF.;XjXvXDXJXDXpX7 < bXSXSXDXKXJX&.$ O 5 dXZXCXjXCXCXCXCXgXnXDXN.aXDXjXjXpXS.jXCXDXvXpXJXHXvXF.D.jXjXpXaXc v pXVXhXG.fXhXSXDXSXDXDXDXSXDXSXJXVXhXdXF.pXKXJXZXzXeX9XqX9X3X3X3X3X4X3X3X3X~.$X.X.X~..X X.X.X.X.X.X$X3X6X6X6X4X4X3X3X3X3X*X~.^.!./.R.Y.Y.Y.Y.Y.Y.W.R.Y.Y.Y.Y.Y.Y.Y.|.R.W.|.|. X X XOXOX|.OX|.'.R.R.R.R.R.W.|.|.|.|.|. X|.OXOX|.OXoXOXoXXX XW.|.'.'.W.|.'.W.oX=X XoXXX'.OX|.U.l.f.3.[ [ [ >.k.R.R.R.Y.U.I.I.d.f.d.k.k.l.l.x.x.l.U.l.d.f.3.:.] :.1.5.k.1.2.] _ Q Y Q ~ ,.<.$.( ( W R P W ~ #.<.j.B.p.B.p.a.@.l l z z g q > > a <.:XkXgX<X`.k.2.;.;.^ / ' [ _ _ _ ` _ / ! ! K / ` 5.b.v.b.k.] Y Y W F S p I L L K L L ..L j a a j L L X.$.8.,.` Q P ^ ,.,./ ` ` :.w.-.^ ^ W P P F F F H / / ` ^ / -.j f p w q f S S F F W *.e.*.dXhXF.dX:XC.$.%./ %.*.a.a.e 6 =.a a a a g s g g g z g z z l g f f D a w a a a a w w I I a a L ^ w.7.` K w w a a j L ,.1.+.! +.L p k i 8 i i a g j b j j a i j g s j z ",
"p K W W W W ! W W W W W W W / / / / / / / W F A A A F H W _ ` _ _ _ _ ' [ [ [ 7.3.4.f.l.E.T.R.U.T.R.l.d.6.4.4.4.6.6.d.d.L.L.L.I.L.U.U.Y.Y.Y.Y.W.P.R.W.R.Y.W.|.!.|. X!.!.!.W.W.Y.P.L.L.L.U.Y.W.W.!.!..X.X.X.X.X.X X.X!.!.!.!.!.!.!.!.!.!.!.!.!.!. X!.!.^.!. X.X X.X!.!.!.!.!./.!.!.^.^.~.~.~.^.^.!./.Y.Y.L.L.L.L.L.d.L.P.P.P.Y.Y.Y./.!.!.^.^.~.~.~..X$X.X.X.X.X3X3X3X4X5X6X6X6X6X6X6X6X6X6X6X6X6X6X6X6X4X3X.X.X/.Y.L.} } } } } 4.4.L.P.Y.^.^.^.^..X.X.X~.~.$X3X3X7X6XrXeXeXeXeXeXeXeXrXrX9X6X6X6XrXrXrXrXrX9X6X6X6X.X'.+XF.S.M.M.D.D.D.S.M.X.m b t h &.N.pXvXCXCXfX2X;XZ.X.i i < = o o . X o O @ = 5 h p.p.v * 5 e.dXDXVXe.j j X.o.*.j.C.A.;XdXpXdXjXe.- 5 J ^ s.<.E E @.j < i g.;XgXCXnXCXCXDXJXVXy 6 hXJXJXKXJXJXDXc @ b dXDXCXhXDXSXhXCXhXnXvXN.e.pXvXaXjXvXVXVXVXaXD.DXVXN.&.S.dXF.aXM $ y S.jXvXF.MXCXSXSXSXjXvXDXDXCXCXJXJXDXCXCXVXJXJXMXwXeX5X5X5X7X7X6X5X4X3X3X3X.X.X~.~. X.X X X.X$X$X4X3X4X6X6X6X6X6X6X4X4X4X*X~..X!.R.Y.Y.Y.Y.Y.Y.Y.Y.Y.Y.Y.Y.Y.Y.U.U.Y.R.|.OX|.|. X XXX X|.|.|.'.'.'.R.R.R.|.|.|.|.|.XXOX[.OXOXOX|. X|.XX X XW.|.W.W.!.|.'.|.XX=XoXoX>XXXXXXX`.T.l.k.3.} [ :.5.l.I.I.U.I.l.l.d.f.d.q.6.6.k.k.k.k.d.f.3.7.[ ] ] ] ;.2.1.>.2._ Q Q Y ^ $.0.g.<.#.( W ! ^ ^ #.<.j.j.B.M.M.a.a.a.) l z z g r 1 > q R c.+X{.].v.5.;.^ ( ^ ^ ] [ ] ` ` ` _ P W ! W / ` 1.k.k.1.2.Q Y Y H A A A S F L L L L ..L L L ..X.+.+.$.$.9.k.1.` P W -.-.-./ / _ _ / -.;.O.P P H F A G Q ;.g.1.8.+Xr.S p a a a f D F F W =.S.*.+XjXdXdX].z.$.#.2.0.=.m ) ( w 3 0 Z.( a i s g z z z g g g g g d f f a q i a a a w w I I p f F w.q.7.` S p w 3 3 f L o.^ -.Q P A q 1 j $.3 1 1 i j j f j a i j s l *.E ",
"p K W W W W ! ! ! W K K F W / / Q Q / W W F G d e A A G H Q / Q _ Q | _ _ ' [ [ [ } 4.d.U.T.E.U.`.E.l.6.5.6.3.3.4.4.6.d.L.d.L.L.L.I.I.I.U.U.U.Y.Y.W.W.W.R.W.!.|.!. X!.|.!.!.W.Y.P.L.d.d.L.U.Y.R.R.!.|..X X X X.X.X.X~.!.!.!.!.!.|.!.!.!.^.!.!.!.!.!.!.!.!.|..X.X|.!.!./.Y.Y.Y.Y.!.^.!.^.^.^.^.^.^.^./.Y.Y.Y.P.P.P.P.Y././.R.R./././.^.^.^.~.~.~..X.X~..X.X.X$X$X.X3X3X5X6X6X6X6X6X6X6X6X6X3X3X3X6X7X4X4X3X$X.X^./.P.L.4.} } } L.P.P./.!.~.~.~.(.$X3X3X(.(.3X3X4X6X6X6XrXeXrXeXrXrXrXrXrXrXrXrXrXrXrXrXrXrX6X6X6X6X8X:X:XF.&.b M S.S.*.B.@.s t 5 * y M N.aXjXhXjX;X;XZ.@.i * < * O . . o o @ $ & i &.B.D.Z.=.t 5 n pXDXHXpXm j X.E o.*.g.c.;XdXF.vXvX&.5 h #.^ ,.1.( %.X.t # i ;.&XgXDXDXVXCXhXhXjXv m MXJXJXKXDXCXJXe.@ *.CXVXVXVXVXVXhXSXCXvXN.N.u y S.vXjXvXHXjXDXaXe.DXVXN.B.S.Z.S.Z.5 $ - h pXaXjXDXCXCXCXCXpXD.jXDXSXCXDXKXSXDXnXHXKXHXxXeXzXwX6X7X7X4X4X3X4X3X3X3X.X.X~.!.!.^.^.~..X.X$X4X3X4X6X6X6X6X6X6X6X4X3X3X.X.X~.!./.Y.Y.P.P.P.U.Y.Y.Y.R.R.R.R.R.Y.W.W.|.OX|. X X|. X X X|.|.'.'.'.W.W.|.|.|.|.|.|.[._._._.OX'.|.XXXXoX X X|. X!.W.W.W.'.|.OXXX-XoX>XoX:XXX[.[.).v.d.f.3.>.5.5.d.l.l.l.l.k.d.d.5.5.5.3.5.3.:.3.[ } [ { { [ ] ] ] 2.;.] ] ^ ^ / ^ <.B.C.B.j.%.~ ~ O.;.;.<.j.B.Z.M.M.M.a.a.@.) ) ) l z g q q q f ~ 9.l.l.k.q.;.^ ^ / ^ ] :.] ` ` _ _ P H W W W / ;.^ 2.;._ Y W Y F A F F D L L L X.X.X.X.o.+.+.*.*.*.$.8.8.2.;.Q W l.v.W -.-.^ ` ^ _ -.<.,.! W W H F H H ^ s.s.s.J.J.o.S d f f J ! ! O.P *.S.w.*.S.G.).x.,.+.$.9.0.*.%.U { W q 1 *.( q a s l z z z l g g p d d d d a q q a a a w p I p p a K w.q.q.-.S q > > 3 j L L W ~ ` H I q > *.yXQ.D > 8 j L j f q q q i j %.@.",
"p K W W / / ! / W W K K F W / / Q / / W F D S d e e A G H W Y Q Q / _ _ _ _ ' [ { [ 3.f.l.T.T.T.).T.l.k.5.5.3.3.3.4.6.d.L.I.I.L.L.L.d.d.L.L.L.I.P.Y.W.W.W.W.!.|.!. X!.!.!.!.W.Y.L.L.d.d.d.L.U.U.Y.!.!.!. X X X X X X X!.!.!.!.|.!.!.!.!.!.!.!.!.!.|.!.!.!.!.!.!.!.!.R.Y.P.P.Y.Y.R./.!.!.^.~.~.~.^.^.^./././././././././.^.!././.!.!.^.^.~.~.~.~..X.X^.~.3X.X3X.X.X3X3X4X6X6X6X6X6X7X7X7X3X3X3X3X3X3X3X3X3X$X.X~./.P.P.P.L.t.L.P././.^.~..X$X3X3X7X7X7X3X3X3X4X7X6X6X6XrXeXrXeXrXrXrXrXrXrXrXrXrXeX9XrXrXrXrX6X6X5X8XOXC.*.b t h &.=.X.=.j i 5 * - y M D.aXdXjXdX2XA.@.t * @ $ $ O . . O = , , 1 ~ F.dXD.Z.j.m 7 y M.VXHXaX=.E E j E %.$.g.;XdXF.jXjXM t *.g.^ / ] >.#.h = % i 2.Q.<XCXDXvXjXpXB.dXp.A.ZXJXSXHXDXVXCXpXv &.SXHXjXS.vXDXhXDXHXDXv y y &.pXvXvXvXDXVXVXvXB VXvXe.*.S.F.pXM.y + $ - n B hXDXhXMXCXCXiXn n S.DXSXSXJXHXCXhXJXKXHXZX0XcX9X4X3X4X4X3X5X4X$X3X.X.X.X~.!.^.!.^.~.~..X.X$X4X5X6X6X6X6X6X6X6X3X3X3X.X~.^.!./.Y.L.L.L.L.Y.Y.W.W.W.!.!.|.|.|.!.!.|.|.OXXXXX|.|. X X|.|.|.|.'.|.|.|.|.|.|.'.'._.).T._.'.OXOXoXoXoXoX.X X!.!.!.|.|.|.XXXX=X>X>X:X>X0X>X@XXX'.[.E.U.l.q.5.5.d.d.l.l.l.k.k.l.k.5.5.:.:.` ` ] _ _ _ _ ' [ [ [ ;.;.] ] ] ] ] #.8.B.D.F.Z.j.%.( #.2.,.<.g.Z.Z.Z.K.N.a.a.a.@.) ) ) E E g g a p d S ~ ] >.5.9.,.O.^ / ^ ] [ [ ] [ _ Q W F F F W / ^ W P W Y Y W H W G P W W K K L L X.X.+.$.$.0.0.0.0.,.,.$.^ -./ P k.Q.F ! -.,.0.,.;.$.,.<.^ / / W W H Q Y Z  . .r  .,.W K T R o.$.,.-.O.r.r.,.+.r.0.:.;.+.=.0.8.;.2.-.K $.8.D w a @.r r s j z z z l U D d d p p p w q q a a a w p a p p p P -.q.5.^ p 3 2 1 i f L o.O.O.! F p 4 3 a b.n.w > q p f f f w q 0 q s g E ",
"p K W Q ^ ^ ^ / W W P K F W Q / / / W W F F S A e e A F H H Q Q / / _ _ _ _ ' ' [ [ 7.3.l.T.).`.T.T.l.k.5.7.7.7.3.4.6.d.I.I.U.U.L.I.d.d.d.d.d.L.L.U.Y.R.!.!.!.!.!.!.!.!.!.!.W.Y.I.d.4.4.d.L.L.P.Y./.^.^.~.!.!..X!..X.X~.!.!.!.!.!.!.!.!.!.!.!.!.!.^.!.!.!.!.!./.!.W.Y.Y.P.P.Y.Y.R.!.!.!.!.~. X~.~.~.~.^.^.^.^.^.~.~.~.^.~.^.^.^.!.!.^.^.^.~..X.X~.~.~.(.$X.X.XoX.X.X*X3X4X4X4X3X4X3X3X3X3X3X3X3X3X3X3X3X3X3X.X~.^.^././.Y.P.Y././.^.~.~.$X$X3X7X7X7X7X7X7X3X4X7X6X6X6XrXrXrXrXrXrXrX6XrXrXrXrXrXeXrXrX9XrXrX6X6X9X5X-Xz.b y 6 y m m =.&.j t 6 , 5 v S.jXjXdXgXhXgXB.k & O o O O o o O * t i a R n.<XfXF.C.c.&.y u M jXVXaX=.m s s s J @.j.;X;XF.jXD.b X.Z.g.( ( ;.s.%.6 O % q ;.'.1XMXDXVXpXh h B.F.gXDXCXCXDXvXhXDXVXS.S.CXJXpXv S.VXCXhXjXjXc $ - M.VXjXjXDXhXVXVXpXM sXsX&.*.D.aXpXS.u ; + O = M jXjXCXdXCXnXe.- $ u vXSXSXSXDXCXhXvXKXJXZXNXkX9X3X3X4X3X=X8X5X$X$X.X.X.X~.!.^.^.^.!.^.~..X4X4X4X4X6X6X6X6X6X6X3X3X3X.X^././.Y.Y.L.L.Y.Y.R.!. X X|.!.|.!.W.W.R.W.!.|.!.|.OX|.|.XXXX X|.|.|.|.|.|.|.|.'.W.R.T.).).).).'.OXXXXXoXoX=X.X X!.!. X.XoXoXoX>X>X>X0XqX0X0X0X<X:X{.'.`.`.T.x.k.k.d.d.f.d.d.k.k.x.x.k.5.:.:.^ / / Q / Y / _ ' [ [ 2.;.[ >.<.<.8.h.C.A.F.F.D.B.$.#.,.,.2.8.c.Z.D.D.K.M.a.a.a.@.) ) ) ~ E U f f D d e S W ` 2.1.1.;.;.] ] ] ] [ } [ _ Y Y H H W Y Q ] ] ~ ~ ^ ^ Q Y _ Q ` ` ^ ! R J j j K o.$.0.0.0.0.0.,.o.O.O.O.-.W / 1./ ! +.0.r.$.,.O.8.9.#.^ ` / Q Y F ^ Y ( ( e g O.^ ^ -.O.,.0.0.9.w.r.r.O.$.r.+.' O.X.+.0.<.>.[ } 2.L f K ^ T j E r w g z l z U T T F F G A p a w w a p p p S p p S p P :.6.-.F p 3 4 1 a j E E g.^ P P K a 3 3 S d 4 i 3 a a L p a q r r r g a ",
"p F / Q ^ ^ ^ ^ W ! ! W W Q / / ^ / W W W K F A A A G G F H W Q Q / _ _ _ ' ' ] [ [ 7.3.k.x.).).T.v.l.5.3.7.7.3.3.4.6.d.l.I.R.E.U.U.l.d.d.d.d.d.I.U.Y.R.!.!.!.!.!. X!.!.!.!.W.Y.I.d.4.4.4.L.L.P.Y.Y././.^.^.^.!.!.~..X~.!.!.!.!.!.^.!.!.^.^.!.!.R./.!.!.!.!.!./.!./.Y.Y.P.P.P.Y.W.!.!.!.!. X~.~.~.~..X.X~.~.!.^..X.X~.~.~.~.~.~..X.X~.^.~.~..X.X.X.X~..X.X.X X X X.X.X.X*X3X3X3X4X3X3X3X3X(.3X3X$X(.$X3X3X3X3X(.(.~.^.^.^././././.^.~.(.$X3X7X7X6X7X7X7X7X3X7X6X7X6X6XrXrX6XrXrXrXrXrX6XrXrX6X6X9XrXrXrXrX9XrX9X6X6X=Xk.k 6 5 y &.m M X.j s k t h e.jXvXhXgXgXhXaX&.5 O o O O O O % @ t R #.;.b.&X1XgX;XF.F.M.h y v pXVXvXe.v t t j j X.j.F.F.pXbXG.=.B.F.j.~ ( #.<.@.< o # q <.`.kXMXvXDXpX- t C.;XhXZXnXCXDXvXD.sXaXCXhXDXDXjX- v jXCXVXD.&.- $ - e.vXvXVXvXvXvXDXN.e.iXN.&.*.e.r.vXe.= + O o $ n M.jXCXhXCXhXM = $ @ &.CXJXSXSXSXaXN.JXSXZXNXzXzX5X4X5X3XoX4X5X3X$X.X~.~.^.!.^.^./.^.~.~..X$X3X3X3X3X6X6X6X4X3X3X.X~.!./.Y.P.Y.Y.Y.Y.Y./.!.!..X X|.!.!.W.W.Y.Y.Y.Y.W.!.|.|.!.|.OXXXXX X|.|. X|.|.|.|.'.R.T.E.v.T.T.T.`.|.|. X X XoX.X.X X.X=X=X>X:X:X>X>X>X0X8X>X0X>X,X<XXX{.{.'.[.T.E.k.f.6.f.d.f.k.x.).).v.k.1.2.` / / W W Y _ ' { [ >.>.2.;.1.s.c.C.A.F.F.F.D.B.j.$.#.,.,.,.g.c.A.J.D.M.a.@.m @.@.%.#.#.#.~ T D K T D e w F / 2.1.1.1.k.k.1.>.] { } } { | _ Q _ [ [ } [ 2.s.8.o.O.>.} [ 7.5.>.;.^ T S g f J R -.0.9.0.,.$.! K ! ! ! O.O.O.w.-.$.*.r.h.$.*.O.$.8.,.-.` ` ` | / / ` 2.2.K O.-.;.:.2.9.q.z.C.z.w.G.r.! +.r.O.P $.+.$.2.^ ] 6.7.k.-.3 X.2.U e E T r s s l g D Y / W W P F A I p p p p S I K D f J a P -.' Q P F p 3 i j L E j Y s.^ 9.,.f w 3 3 d w a 3 3 J <.d i q q q r g E ",
"p K / Q ^ ^ ^ ^ ^ ^ ^ ^ / ` ` ` ` ^ / W W W P F F F F F H H Q Q / _ _ ' ' ' [ [ [ [ [ 7.5.k.v.v.v.v.l.5.3.7.3.3.3.6.d.d.l.I.R.R.E.U.l.d.d.d.4.L.E.P.P.R.|.!.^..X!.~.!. X!.W.!.R.I.L.d.6.d.L.L.P.Y.Y./././.^.^.~.|..X.X!.!.!.!.!.^.^.^.^.!.^.!.!.!.!.!.!.!.!.!.R./.Y.Y.Y.Y.Y.Y.P./.!.^.^.^.~.~.~..X.X.X.X.X.X~.~.~.~.~.~.~..X$X.X$X$X$X.X$X$X$X$X$X.X~.~. X X|.|.|.|.|. X.X.X.X$X3X3X$X3X$X(.3X3X$X(.$X3X3X3X4X3X3X$X~.~.^.^.^.^.^.~.(.$X$X3X3X3X3X3X3X3X3X3X7X7X7X6X6X6X6X6XrX6XrXrXrX6X6X6X6XrX6X9X9XrXrX9X9X9X6XrX.X1.i 5 < v &.v h l X.=.X.b e.aXVXvXhXnXnXjXN.v * X O + $ @ = @ , l j.c.n.}.<XxXhX1X;XfXpX&.v y e.vXvXN.M 5 6 m X.X.*.F.F.F.dXD.M.F.;Xp.l T R ;.%.t & 1 U c.+XgXhXjXhXN.- * *.lXCXZXDXSXJXe.y N.e.aXAXJXDXhXu 5 D.CXjXD.B $ + - *.DXjXVXVXDXsXvXaXB B v v X.&.S.pXM.y + X O $ = v hXhXZXCXdXc $ + $ * S.SXSXDXhXM.=.SXZXZXkXzXlXwX5X5X4X4X4X3XoXoX X^.~.!.!./././.^.^.~.~..X3X3X3X3X4X5X4X3X.X.X~.!.R.Y.Y.P.Y.Y.Y.Y.Y.R.!.|. X X X|.!.W.Q.Y.Y.U.U.Y.W.!.W.R.|.W.|.|. X X X XOXOXOX|.'.R.T.E.x.T.T.R.W.!.!. X X|. X XoX.X=X=X=X>X>X>X>X>X>X<X,X>X,X,X,X,X:X:X{.{.'.`.T.I.d.4.f.d.d.l.T.[.[.T.l.q.3.:.` / W W / ] [ { } >.s.1.>.g.c.A.F.F.F.F.Z.B.j.$.O.,.,.,.,.s.c.Z.Z.Z.p.a.l l ) @.%.#.#.2.^ T K W W W A w p F ^ ] ;.k.V.A.v.k.>.>.3.f.f.f.f.d.d.Q.Q.Q.d.f.s.$.R $.z.b.l.T.x.d.5.2.^ K d a S K O.9.q.9.-.! K K K K ! O.O.,.0.,.0.C.C.C.O.$.+.o.$.8.,.;.] ] ` ] / Q W / ^ O.;.2.:.2.q.V.).).q.9.G.+.F o.r.! L =.$.1.5./ Y 1.3.3.f.p +.%.e d i ) g q s j l T Y _ ^ / Q H F F A S f p I I W T J f f K W Q -.-.K S a a f g j j e ( ! K S a w I a w S a 3 3 4 f.U q q r i s w X.",
"p H / Q / ^ ` -.^ -.;.-.] ] :.:.;.-.^ / / / / W W P H P P W / ` _ ' [ [ [ [ [ [ 7.[ } [ 3.k.l.x.v.l.k.5.3.7.7.3.3.6.d.l.l.E.E.U.v.E.l.f.d.6.L.L.U.L.P.Y.R.!.^..X!.|.!.|.!.W.R.Y.P.P.L.L.L.L.P.P.Y.Y.Y.Y./.^.!..X|..X~.^.!.!.^.!.^.^.!.!.!.!.!.!.!.!.!.W.W.!.!.!././.Y./././././././.^./.^.~.(.3X3X3X3X4X4X3X.X~..X.X.X.X.X3X3X$X3X3X3X3X3X3X3X3X$X$X3X.X|.|.|.|.'.W.W.!. X.X.X$X$X~.$X$X(.(.~.3X3X3X3X3X3X3X3X3X3X3X$X$X~.~.(.(.~.~.$X(.(.(.(.~.~.$X3X3X3X3X3X3X7X6XrX6X6XrXrX6X6X6X7X7X7X6X6XrXrX9X9XrX9X9X9XeX6XrX3Xk.i 5 5 b m h m @.@.$.=.&.pXjXvXvXhXCXnXD.M u ; O + + $ = = # 1 o.m.n.}.{.gXZXCXlX:XgXjXS.M y M jXVXaXB 5 , j X.@.*.C.F.D.S.S.M.;XdXp.s f T ;.<.j i E s.s.C.C.B.pXnXM.- o k &XgXSXJXDXJXB $ u y e.DXDXvXaX7 5 =.hXhXvXe.= + - &.hXCXvXVXvXpXN.pXiXy 5 &.=.B.F.S.aX&.O X o O O 5 F.MXCXDXnXy $ $ $ @ h SXSXDXvXN.M DXZXxXcX8X0XcXqX3X3X$XoX$X.X.X!.^.^.!.!.^./././.^.^.^.~..X.X.X$X$X3X3X.X.X!.!.!.R.Y.Y.Y.Y.R.!./.R.R.!.!.!.|. X|.!.W.Y.Y.Y.P.P.Y.U.U.Y.W.W.Y.Y.W.|.|.OXXXoX XOX|.'._.T.E.T.R.W.|.|.!.!. X X!.|.|.oXoX=X=X>X-X>X>XXXXX:X:X:X:X<X<X<X:XXX@X{.{.[.'.'.Y.L.4.d.d.d.l.).[.[.T.E.k.5.:.] _ / Q ` ] } } } >.s.k.k.c.A.dXdXF.F.Z.j.p.$.#.O.,.<.#.#.<.j.Z.Z.p.a.@.E E ) ) ~ ^ ( ^ ^ W W ! ~ W D w q d F W ` z.}.+X{.A.k.f.f.P.Q.!.Q. X-X=X=X=X-X}.m.( s.V.q.z.{.}.Q.U.d.f.;.! K S S K O.w.q.q.-./ F K T K K ! ;.1.q.C.C.&X+X+X+.$.+.+.$.0.9.1.3.] ] ' ` ` Q W O.-.O.` :.1.q.v.].).q.C.G.L G P $.K ~ *.+.7.q.q.W / 7.:.1.D L R g j s a o.q s j E E ( ] _ Q Q P P P F L J p p w P T f g f f K q.@Xq.! J f j j j j f j d L K F I w a w w w p 3 3 8 d U q 3 q a a J j ",
"d W ^ / ` -.] ] ] ] ] [ :.:.5.5.:.2.-.` ^ ^ / / / / Y Q / ` _ _ ' [ :.:.:.7.7.} [ [ ] :.3.5.k.k.k.k.6.5.3.3.3.3.4.6.d.l.I.U.E.E.T.T.E.x.I.I.d.L.L.L.Y.Y./.R.!.!.!.|.|.|.!./.Y./.Y.P.P.P.P.P.P.P.Y.Y.Y.R./.^.^.^.~.~.~.!.!..X!.!.^.^.^./.^./.Y.!.W.W././.^./.!.!.^.^.^././.!.!.!.Y./.Y.!.!.~.3X4X7X5X5X8XqX=XoXoX.X!.!..X.X3X4X4X3X6X9X6X3X3X3X3X3X3X$X.X!.W.Y.U.T.U.R.!.!.|. X.X(.$X(.~.$X$X$X3X$X3X3X3X3X3X3X3X3X(.(.(.(.$X$X~.(.3X(..X~.~.~.~.~.~.~.~.~.$X$X$X3X3X7X7XrXrXrX6X6X7X6X7X7X3X6X6XrXrX9X6X9XrXeX9X9X6X3X5.k 5 5 h j j @.@.X.=.X.&.D.aXvXvXVXVXaXe.c - ; + + + $ $ # , j %.s.b.T.:XxXAXSXxXgXMXDXjXN.c c pXvXaXe.y < t E *.*.M.e.e.&.M.B.;XhXZ.t t E #.$.X.T >.k.j.#.j b D.jXe.$ o 1 ;XMXSXSXnXaXN.$ $ = h gXgXS.M $ 5 &.hXnXaXv $ $ y M pXDXVXDXiXpXN.n aXc - y X.F.B.F.jXe.@ O X X X @ *.nXCXDXMXm - ; O + y hXSXCXaXiX&.DXJXxXcX5X4X6X6X4X$X3XoX.X.X~.^.!.^.!./.!.!./.!.!.^.~.~..X.X.X$X.X.X.X^.^.!./.!.!././././././././.Y.R.!.|.!.!.!.|.W.R.R.U.U.I.L.U.P.Y.Y.W.W.W.'.'.|.XXXX XXXOX|.W.R.Q.Q.'.'.'.|.|. X X X X|.!.|. XoX:X:X:X<X<X:X@X@X{.[.{.{.{.{.{.{.{.XX{.OXOXOX'.R.U.d.L.I.I.U.E.`.'.W.T.I.d.7.[ _ ^ ` ` [ } [ } 3.g.g.A.F.F.;X;XF.Z.j.%.o.O.#.2.,.2.#.( #.s.j.s.a.%.) T T W W W / / W K K K T / / F e 3 4 w A Q b.:XfX1X&Xn.f.b.Q.!.*X-X{.0XwXwXwXW.k.{.-X0XxXkXV.C.&X-XQ.d.d.f.:.~ ~ W W O.0.C.q.:.` / P P K K ! 0.0.r.].-XuXi.{ R 0.W o.O.0.B.9.f.2.;.-.` W W H ! O.+./ ` 1.q.v.v.v.k.0.r.S w f =.+.*.o./ ' 5.5.-./ ^ -.] K j l X...) a j X.j E E +.;.;./ H H H H F F K S f a p L S g j g S w.w.bXfX-.O.K L L J f f f f f R F I I p w w 3 p w 3 3 i ) i a k i a k a ",
"d W ^ ` ;.;.;.] ;.;.] :.:.5.5.5.5.:.;.` ^ ^ ^ ` ` ` Q _ _ ` ` [ [ :.7.3.3.6.4.3.7.[ [ [ :.7.3.5.5.5.5.7.} } 3.4.4.6.d.l.l.l.U.E.T.T.T.R.U.I.L.L.L.L.P.Y.Y.Y./.!.!.!.!.!.!./.Y./.Y.Y.Y.Y.Y.Y.Y.Y.Y.Y.Y.Y.Y./.^.^.^.~.~.~.~..X~.!.!.!.!.!.!././.!.!.!.R./.^.^./.!.^.^.^.^.!.!.!.W./.Y.!.R.!..X~.5X5X9X9XwX8XqX=XoX X X.X.X.X3X4X6X3X6X9X5X3X3X3X4X4X3X.X.X!.R.U.U.U.U.Y.W.!.|..X.X~.$X.X~.$X$X$X3X$X3X3X3X3X3X3X3X3X$X3X3X3X3X3X3X(.3X$X~.~.~.~.~.^.^.^.~.~.(.$X$X3X3X7X7XrXrXrX6X6X6X7X7X7X7X6X7X6X6X6X6XrXrXrX9X9X6X=X1.s t t h j m m l X.%.m &.M.aXVXVXVXjXN.c 5 = + + O O O @ = , i ) s.k.n.&XMXAXSXCXMXZXSXVXN.c 7 e.pXpXB u 6 i j E =.=.m m m &.B.;XgXB.5 & q E %.%.%.<.s.X.l i &.D.S.v $ O i 2XNXMXCXhXe.v = + O < F.hXB.- . * D.hXVXD.h 5 5 v M M.vXVXDXN.e.iXv e.y O * X.H.F.F.hXM.5 O o O . @ S.SXhXxXCX*.7 O O + - H.KXJXe.c pXZXSXZXcX0XqX5X4X.X.X.X.X.X.X!.!.!.^.!.!./.!.!.!.!.^.^.^.~.~..X.X~..X~.^.!.!.!.!.!.!.!.R.R././.Y.Y.Y.R.!.!. X X X|.|.W.W.Y.Y.U.U.Y.U.U.U.Y.W.W.|.OXOXXXXX X XOX|.W.R.R.R.W.W.|. X X X X X X X X XoXXXoXoXXXXXXX{.[.].`.).).).`.`.`.`.`.'.W.'.'.'.W.R.Y.d.L.L.U.U.T.`.`.[._.E.k.5.} ' ` ` [ [ [ [ 7.>.9.z.A.+X;X;XF.A.j.o.R R ~ O.;.,.;.O.^ ~ o.%.%.( T U U U W W W W T F S S A T / / W e q > 4 w / T.,XxXlX-Xb.f.b.Q.tX*X!.}.wX9X*X5X Xf.'.>XlXlXzXlXfX].&X}.T.b.f.>.[ ] -.,.z.V.C.z.q.w.` / W W ! O.0.B.C.f.i.s.c.,.K +.,.$.0.0.0.z.k.,.-.O.;./ W G D o.O.O.-.w.1.1.q.z.1.h.0.S p f =.r.+.o.P Q / / ^ / W ! ^ E h l E X.X.#.i T ) =.R ~ ^ ` ^ H G A G F K D S S p p S f f D w L fXz.S w.w.-.! o.o.R L f I p q J S S I p a 3 3 8 g q 8 a T j 3 3 1 1 i i ",
"d W ` ] :.2.2.:.2.;.;.2.3.5.5.5.5.>.;.` ^ ^ ` ` ` ` ` ` ` ` ' [ [ 7.3.6.6.d.d.6.3.7.[ [ [ [ 7.3.7.7.7.[ [ [ 3.4.3.6.d.l.l.l.U.T.R.T.T.T.R.I.L.L.U.P.P.P.P.P.Y.R.!.!.!.!././.Y.Y.Y.Y.Y.Y.Y.Y././././.Y.Y.Y./.!.!.^.~..X.X.X.X.X.X.X!.!.!.!.!.!./.!./.Y./.^.^.!.^.~.~.~.~.!..X!.!.R.R.Y.!.!. X*X5X9XwXwXwX0X8X>X=X X X.X.X.X$X4X5X6X6X5X4X3X3X3X.X3X.X~.!.!.Y.U.I.d.I.U.W.!.!..X.X~..X~.~..X$X.X3X$X3X3X3X3X3X3X3X$X$X3X3X3X3X3X3X3X3X3X~.~.^.^.^.^.^.^.^.~.~.(.(.(.3X3X7X6XrXrX6X6X7X3X4X7X7X7X3X6X6X9XrXrXrX9X6X7X4XXX<.j m m h y h k j X.X.m *.D.jXVXVXVXaXM u - = $ + + o O $ - * 0 E #.2.c.-XlXMXAXSXCXZXSXVXpXM 7 M N.N.B y t t s j h h y y u h *.H.F.X.* o 1 E ( o.o.o.E t 5 < b D.pXN.y * s gXAXZXSXvXc - O o O 6 ;XgXvXM . , B.hXDXDXpX&.B N.M M.vXjXsXM M M &.&.5 . o M F.F.dXaXpX&.@ X X o % S.ZXhXCXSXjXn o O $ $ *.JXSXe.y dXZXxXxXxXzX0X=X.X.X.X.X^..X~.!.!.^.!.!.!.!.!.!.!.!.!.!.!.!.!.^.~.!.~.~.!.!.!.!.!.!.!.!.Y.|.!./././.Y.R.!.!.|. X.X X|.|.|.!.R.Y.W.W.Y.U.R.T.R.'.OXXXoXoXXX X X|.|.W.R.R.R.Q.!. X X X X X X.X.X.X.XoXXXXXXX{.[.[.`.).v.l.k.k.z.l.l.l.l.l.v.U.Q.Q.W.W.W.Q.U.L.U.U.U.E.T.)._.T.E.k.5.3.7.] ;.[ [ { [ [ ;.1.z.A.+X;X;XA.h.#.T D J E ~ ^ O.#.O.! T E R T D d g G F W / W K D S S d d F / ` / T w 4 > q W `.0XlXlX-XQ.f.f.Q.^.tX^.f.}.<X-XQ.^.Q.:X>XkXlXzXzXlX,XA.}.&XT.d.f.f.f.q.x.].+X+X].z.w.:.;.-.~ ,.z.z.C.C.s.i.n.o.$.+.L h.0.r.B.B.C.0.q.9.,.^ W ~ T J O.;.$...! ^ 2.<.,.1.C.0.L f a X.r.T E F P P F W W W K ) X.h l ) ) i j T q %.@.X.$.,.;./ H Z Z Z I G S S S a p S a a d G H :.! P w.-.-.~ ! o.X.L f p p w S I p p a a f f i j g i 8 i f a a > > 4 3 ",
"d W ` ] :.1.1.5.:.2.:.:.3.5.5.5.5.7.] ` ^ / ^ ` ` ` ` ] ] ] ] [ } 7.3.6.d.d.d.d.4.7.} } [ [ } 3.} } } } } } 3.3.3.6.d.d.d.d.l.E.R.T.`.R.R.U.U.U.I.L.P.P.P.P.P.P.Y.!.!.R.Y.Y.Y.Y.Y.Y.Y././.!.!.!./././.R.R.W.!.!.~.~..X.X*X.X.X.X.X!.!.!.W.R.R.Y.Y./././.!.!.^.!..X X.X.X.X.X.X!.Y.R.Y.!. X X4X5X0XwXkX0X0X0X8X>XoXoX.X.X.X$X3X3X4X4X4X.X.X.X.X~.~.~.!.^.!.Y.U.I.I.I.U.W.!.!..X.X~.~.~.~.~.~.(.3X$X3X3X3X3X3X3X3X3X3X3X7X7X7X3X3X3X3X3X$X~.^./.^.^.^.^.^.~.~.~.~.~.(.3X3X7X6X6X6X7X6X6X7X3X3X3X6X6X6X9X6X9X9X6X6X4X.X`.$.j &.=.s 5 < y m X.j =.S.aXvXVXVXvXN.v y u - - $ O O $ = - , s ( ,.,.n.1XgXgXAXSXCXCXSXDXpXe.v c M B M h t t s h t 5 5 * * t &.F.B.h @ @ < l U j J o.j * O * X.jXHXVXN.&.C.gXZXAXSXSXN.- O O o , H.gXjXN.$ t F.dXVXVXjXaXpXpXN.&.vXaXN.M &.M M e.5 X % y Z.F.dXC.F.S.* @ O o * S.jXAXxXAXCXm O O + $ m DXHXS.e.CXxXxXcXkXwX9X4X3X.X.X X X.X~.^.^.^.^.!.~.!.!.!. X|.!.!.!.!.!.!.~.!..X.X!.|. X|.!.!.!.!.W.!.!.R./.Y.Y.Y.R.W.!. X X X X X X X!.!.!.W.Y.Y.R.T.T.'.OXXXoXXXXX X|.!.W.R.R.R.R.W.W. X X XXX.XoX=X*X X.XoXXXOX'.[.`.`.T.l.k.5.1.1.5.5.5.5.5.q.k.d.U.Y.Y.Q.W.'.T.U.L.d.U.U.U.E.T.I.l.q.5.3.7.[ [ [ _ _ Q Q ^ 2.9.C.].+X].V.9.^ F f D T ! ~ ~ ^ ~ E K J J J S p p A F W / T S d d f d d W ] 5.f.2.T w 4 4 F T.,X0X<Xs.Y ( s.f.f.P.Q.k.g.C.+X`.b.Q.:X>XlXcXcXxXzXwX>X'.T.Q.Q.v.v.v.v.`.<XgXfXfX[.k.9.0.9.8.c.+Xv.c.F.S.C.c.Y $.G.*.*.B.r.B.r.C.0.<.2.;.^ ! ( S ~ h.k.,.$.! W ^ O.#.,.C.B.K f a =.*.T S G F F K T W ^ X.X.@.j X.%.@.R i T g s E o.*.h.<./ H G Z w w e d S I p S J w d ) P P A S 7.-.-.-.~ P R L J a p a q a a p a f f k J i 1 i a 6 k ~ a q > 2 > 3 ",
"S W ` ] >.2.:.:.[ ] ] ] :.3.3.5.3.:.] ` / Q Q / / / _ ] [ [ [ :.} 3.4.4.d.d.d.d.d.4.7.} [ [ [ } } [ [ [ } 3.3.3.3.6.6.5.3.5.d.l.l.E.T.T.R.R.Y.Y.I.L.L.L.P.P.P.P.Y.Y.R.Y.Y.Y.Y.Y.Y.P.P././.!.!.!./././.!.!.!.!.!..X X.X.XoX.X.X.X~.^.^.!.R.R.R.P.Y.Y.R./.!.!.!..X.X.X=X=X.X.X.X X!.Y.W.W.|.oX=X8X,X0XkXkX0X0X0X>X>XoX.X.X~..X.XoX*X.X.X X!.!.!.!.^.!.^.!./.R.Y.U.U.Y.Y.W.!.!.!.~.^.~.^.^.~.~.~.$X$X3X3X3X3X3X3X3X7X3X3X3X7X7X7X3X3X7X3X$X~.^././.^.^.^.^.~.~.~.~.~.~.~.(.3X7X7X7X7X6X6X7X3X3X3X7X6X6X6X6X6X6X5X4X4X*XOXg.$.*.*.s t < y h y y &.N.pXvXvXvXpXB y h v 7 7 * = = * * 5 t E #.o.$.+XMX,X2XZXSXCXCXSXDXaXD.&.c v M m h i t t t 5 = = @ $ t *.F.p.y # % , i s j E %.h $ . 5 B.hXJXDXjXdXgXgXlXMXMXJXVXc @ O o < B.nXaX7 $ M.hXCXjXDXVXVXaXM N.&.jXpXM.&.M.e.&.M u X o h H.F.C.F.F.dXy , = @ 5 Z.gXSXdXMXDX&.O $ + $ m DXKXe.=.CXNXlXlXzX9X5X5X4X.X.X.X*X.X~.~.~.~.~.~..X~.~..X.X.X.X!.!. X|..X.X.X.X.X.X.X X|.|.|.|.!.!.!.!.R./.Y.Y.Y.R.!.|. X.X.XoX.X X X X|.W.Y.Y.Y.U.T.T.`.|.OX X X|.|.W.Y.U.U.U.T.R.'.'.|. X X X.X.X*X.X X X X|.[.[.'.`.v.l.5.>.[ } 1.5.5.5.5.5.5.5.d.d.U.U.U.W.'.T.E.l.d.d.d.d.k.l.l.k.5.5.7.[ [ [ ` / Y Y H H / ] q.x.V.V.x.5.-.Q D S F T W ~ ! W K J J K K S e e G F W W F d a d D T ~ 2.l.Q.Q.b.] G q q K b.-X,X-Xn.( e e U { i.k.s.j.m.g.x.].V.+XkXxXlXxXxXlXlXeX8X-XQ.T.&X:X].+X@X<X+X;XlXfX+X#Xr.r.C.V.z.,.9.G.C.C.B.G.G.C.C.+.*.0.g.r.r.C.9.2.;.-.^ W e ( O.#.n.s.T T D ^ ^ ^ B.B.R L X.*.*.R p A F F T F W ` o.@.*.b $.*.%.,.( j s i j %.0.h.9.-.P G Z w w q p f f f J f g U ( ! +.S ! ' ` ! ! P K K L f w w a q a a a a a w a a ~ 1 i a , j U q > 2 : 2 > ",
"d W ^ ` ;.;.;.` _ _ _ ' ] [ :.:.:.[ ` Q W H H W Q _ ` [ [ [ [ :.} 3.3.4.f.d.d.d.d.4.3.3.} } [ } 3.[ [ [ } 3.3.3.4.4.3.3.7.3.5.d.d.l.U.E.T.W.W.W.R.U.L.L.L.L.P.Y.Y.Y.R.Y.Y.Y.Y.Y.Y.P.P.P./././././.!.!.!.!.!. X.X.X X X XoX.X.X.X.X~.^.!.R.R.Y.Y.Y.Y.Y.R.!.!.!. X=X=X=X4X=XoX.X X XW.W.W.'.XX:X<X,X0XkX0X0XkXkX0X>X-X=X.X!.!..X.X X|.!.!.R.W.!.R./.!.!./.R.R.Y.Y.Y.Y.Y.W.!.!.!.^.^.^.^.^.^.~.~.(.~.$X$X$X3X3X3X3X7X3X$X(.3X3X7X3X3X7X3X3X$X~.^.^.^.^.^.^.~.~.~.~.^.^.~.~.(.3X7X3X6X7X3X3X7X6X7X7X6X6X6X7X4X4X*X.XoX*X=X].B.B.j.E h h y 5 * y M B pXjXjXaXe.n v m m y y t 6 5 - 5 s E %.#.R %.+XgX;X;XCXSXCXxXSXCXjXaXN.v v B m h t t t 5 = o @ @ $ t &.Z.&.6 @ o & & < j E X.5 X o y H.jXCXSXnXMXZXgX;X;XMXSXVXpX5 O o h jXgXaXu * jXhXVXDXVXDXvXpXM M M.jXaXD.e.pXM.F.&.u - o t F.F.F.dXdXnX*.X.t 6 h ;XhXCXhXZXSXpX$ $ + $ j hXSXaX&.bXxX0XeXwXwX8X5X7X3X6X7X3X.X.X~.~.~.~.~.~.~.~.~..X.X.X.X.X X.X.X.X.X.X=X*X3X.X.X.X X X.X X X!.!././.R.!.!.!. X.X.X=X=X=XoXoXoXXXW.Q.U.U.U.T.W.`.'.|.|.'.W.W.R.U.L.L.U.R.R.W.'.'. X X X X.X.X=X.XoXXX|.'.[.`.T.d.f.7.} [ } >.>.3.3.5.f.f.f.d.l.L.L.I.R._.E.E.k.5.3.3.3.5.5.6.5.1.:.[ ' _ _ ` Q H F G Z G Q 2.1.q.k.k.5.7.' W F F F F T W F F F F T W G e e G H W W U D D T #.<.c.T.{.-X-XQ.f.Y w q F k.'.:Xn.s.U r r e U ( s.] m.n.;.g.+X;X].+XfXxXNXNXmXNXNXzXlXwX1X:X<X1X<X<XfXn.n.xXxXfX+XA.G.G.G.C.9.C.r.0.0.r.r.G.0.C.L L *.r.+XG.G.9.1.-.-.^ #.g.:X^ W s.-Xs.K K W ^ ! r.B.R X.*.X.*.o.d D F F W H ^ Q o.*.p.@.=.8.,.O.~ ( a k j *.s.<.,.^ P G I w w w p p f f f f g U g f L f O.-.P L S S S p a w 3 q a q q 3 3 3 3 a w a D E i i 1 b o.2 2 > : 9 : ",
"p K W / ^ ^ ^ ^ / Q Q Q / / ` ` ` / Q W H G G H Y Q ` ` { [ [ :.[ } 3.4.4.4.6.d.6.6.4.3.} 3.} } 7.} [ [ [ } } 3.3.3.3.7.7.7.5.k.5.l.x.E.T.`.`.W.T.U.I.L.d.L.P.P.Y.Y.Y.Y././.Y.P.Y.P.P.P././.!.!.!.!.!.!.|. X.X.XXX X XoXoXoX.X.X~.~.!.!././.R.Y.W.W.W.W.|. X XoX=X=X4X4X=XoXoX X'.'.T.`.'.`.:X:X,X,X0X0X0XkXkX0X>X>X=X.X.X~.!. X|.W.Y.Y.Y.U.Y.Y.R.!.!./././././.Y./.!.!.~.~.^.^.!.^.^.^.^.^.^.~.~.~.(.(.(.3X3X3X3X3X3X3X3X7X7X7X7X7X7X3X3X(.~.~.~.~.~.~..X~.^.^.^.^.^.^.~.~.3X3X7X7X7X7X7X7X7X7X4X4X3X$X.X.X!.^.~..X X`.c.C.h.%.l m t * = 5 c e.sXsXiXe.N n &.*.&.b b E m k < 5 E <.*.@.X.%.Z.;X+XdXZXSXCXxXCXCXCXvXpXM v n m l 6 t t * $ o O = $ 6 =.Z.&.< o o O o @ i E s @ o @ X.dXaXhXSXMXMXMXdXdXdXgXhXnXDXB O $ h ;XMXCXN.y jXhXjXDXDXDXpXn &.v S.VXvXD.M.aXD.Z.hXm - * k Z.dXdXdX;X;XdXdX*.=.A.hXMXCXCXZXCXaX= + + = m VXhXhXD.hXxX0XwX6X9X9X9X6X6X3X6X5X$X$X.X.X.X.X.X.X.X~.~.~.~.~. X.X.X.X.X.X.X$X3X3X3X3X.X.X.X=X.X.X X~.!././.Y.W.|.!..X=X=X4X8X8X8XqXqXoXOX'.W.W.).`.`.'.'.|.|.W.Q.R.U.L.L.d.I.U.R.U.Q.W. X X X.XoX=X=X=X=XoXOX'.`.v.l.d.3.3.3.} } 3.3.3.3.f.f.f.f.d.d.d.L.L.I.I.k.k.k.3.7.[ 7.3.5.5.:.;._ | | _ _ / W F F G A G W ` :.5.q.l.q.6.[ ` Q H F F F W H T W F W W F A Z Z H W / ^ #.,.g.x.`.{.:X>XwXwX-Xf.( Z q G k.`.`.b.( e 0 q r D ( { s.s.g.c.`.}.2X-X{.A.+XfXlXmXBXNXBXBXmXmXmXmXmXmXgXMXnX;XgXMXlXfX+XF.G.C.V.V.C.9.0.r.0.$.*.$.$.$.T ....m.F.r.( -.~ ! ! R g.:XO.;./ 2XnXo.L O.! K =.B.~ +.=.j X.$.J F F H W / ] Q #.0.Z.p.X.,.<.$.o.W K k k j %.-.^ Q P F A w w w p f f f a f f e I +.J F H +.K f a a w q 3 3 3 q 1 2 > > 4 3 3 3 w a a R f k j *.i # 9 # : 9 9 ",
"a J W W W W W / / W W W Y Y W Y Q W Y H G A G G H Q ` _ _ { [ :.[ [ } } 3.4.4.6.6.6.6.4.4.4.3.7.7.} } [ [ [ } } 3.3.3.7.[ [ 7.3.1.k.l.l.v.T.E.E.E.l.d.d.d.L.L.U.Y.Y.Y.Y././.Y.L.P.P.P.P.Y.Y.W.!.W.!.!.|. X X X.X X XXXXXoX.X X.X~..X^.!.!.!.!.!.W.!.!.|. X XoX>X5X=X8X8X4X=XoXOX`.T.`.T.T.`.}.:X:X<X0XkXkXkXkX,X0X>X=X.X.X.X!.!.!.Y.U.Y.U.I.U.P.R./.!.^.^.^.^.^.!.~.~.~..X.X^.^.!.!.^./.^.^.!.~.~.~.3X(.(.(.(.(.~.(.3X7X7X3X3X3X7X7X7X7X3X3X(.(.~.(.$X$X$X.X~.~.^.^.^.^.^.~.3X3X7X7X7X7X7X3X3X3X.X.X~.!.!.!.^.!./.!.|.{.}.}.A.0.%.j 6 * * * y iXsXiXB c n &.D.F.M.=.%.*.j.m 6 y ( *.E s j l @.B.Z.;XDXSXCXgXMXZXSXDXvXS.M v v h t 5 y * $ o O @ = t &.D.*.t $ o o . @ s X.5 o o 6 F.jXdXhXCXMXhXCXdXM.m F.CXhXFXsX* $ j F.gXnXaXS.vXvXvXVXhXaXN.5 y e.jXVXHXpXaXvXjXpXnXaXM M B.jXF.F.jXA.;XhXdX+X+XdXxXMXCXAXCXSXaX- $ $ * e.SXCXvXpXhXxX0X5X4X5X4X6X5X6X5X6X4X4X4X3X.X.X$X$X$X~.~.~..X.X.X X X.X.X.X$X$X3X4X4X4X5X5X3X3X5X5X$X.X.X~.^.!.!.!.|..X*X4X5X8X9XwXwXwX8X=XoXOX'.`._.W.`.'.OXOX|.W.U.U.I.L.L.L.L.I.I.U.Q.W. X XoX=XqX>X>X=XoXXXOXW.v.l.l.k.d.d.d.3.3.f.f.f.f.f.f.d.d.f.d.d.L.L.d.d.5.5.3.7.[ [ :.:.5.5.2.` Q Y Y Q Q Q W F G G F P Q ' 7.q.x.E.6.5.[ ' _ / W W W W W W W Y H W H A A G Y Q ` 2.k.v.`.+X<X,X1XwXwX8X}.f./ e w F k.v.`.l./ d q q q d U ( <.g.m.T.{.:X1XwX1X1X&XV.h.n.:XMXBXBXBXBXBXBXBXNXMXA.2X1XA.+X;XdX+XG.G.C.z.V.V.z.z.0.0.0.0.o.o.K ..J J X.e.*.W ! P P R f g O.,.2.,.*.A.$.! O.W F +.B.o.=.X.T L *.o.F W W Q ` _ ] 2.B.A.Z...#.2.+.o.! o.K j =.j -.^ Q P P I w p p p J J f f f f I S +.j P H p f f q 4 > > > 3 3 2 : 2 2 > > > 4 3 8 p j a g j &.) # # # # & : # ",
"w d A A F T W Y W W W H H F H Y W W W H G Z A G H Q _ ` :.7.} 7.[ } 3.4.4.4.4.} 4.4.4.4.4.6.3.3.} [ [ [ [ 7.} 7.7.7.7.7.7.>.7.3.5.5.f.d.U.U.l.l.I.l.l.d.d.L.L.I.U.U.U.Y.Y.Y.L.L.L.L.L.P.P.P.R.!.W.W.W.!.|.|.OX|.|.OX'.[.'.'.!. X!. X!./.W.!.!.!.R.!. X.X.X.X=X>X>X8X9X8X8X>X:XOX`.`.T.v.v.`.].].{.<XfXgXfXfXgXkX,X>X<X>XoX X!.W.Y.P.P.P.L.L.L.L.Y./.^.^.~.~.~.!..X.X~.$X(.~..X!././.^.!.!.!.^.^.^.^.^.~.(.$X$X(..X$X3X3X3X7X3X(.3X3X6X3X7X3X3X(.3X3X3X7X3X(.~.~.^.^.^.^.^.~..X3X3X3X7X3X3X7X3X$X.X~.^./.Y.Y.P.P.P.R.R.[.<XdXA.c.*.l i , @ * M aXsXB c u M D.aXdXC.h.g.c.c.o.s j E j t 5 5 i l X.&.B.nXZXxXgXMXZXSXJXDXjXN.M h h t < y - $ + @ * 5 j *.Z.p.s * o X . & g l = . @ L hXVXaXdXgXhXhXxXjXy = h dXhXhXjXe.< *.hXMXCXvXhXCXjXhXVXaXM B c v S.hXDXHXVXDXDXjXD.hXhX&.&.F.gXF.G.jXdXF.dXhXjXfXxXZXCXDXSXCXZXjX- + ; - S.SXCXHXhXhXCX<X3X$X$X3X7X6X6X6X5X6X4X5X4X3X3X$X$X3X.X.X$X3X~.~.~..X$X3X3X3X3X3X4X4X5X9X9X5X4X4X4X=XoX!.!.!.W.R.R.!.XX=X8X9X9XwXlXeXkXkX0X>XOX'.[.`.'.{.OXXXOX|.W.W.U.L.d.d.L.I.U.U.T.W.`.'.OXXX=X=X4X=X=XoX X'.T.l.l.k.U.U.L.d.f.f.d.U.d.d.d.d.b.b.d.l.l.d.d.f.5.3.:.7.} [ [ :.:.5.>.] ^ Q H H W Q / Q Y W W W W ` [ 3.d.l.l.d.3.} { | _ / / ` Q _ Q Q Y Y Y Y H Y Y | { 3.k.V.}.-X1XgXkXwXwX9X=XW.f./ Z w ^ k.x.`.f./ d d w r e A U ( ] s.k.n.}.&X&X&X-X=X=X-X{.b.9.V.lXMXMX1XBXAXnXn.i.i.m.H.gXgX;XB.B.B.B.B.A.A.].@XV.<X,X`.^ F F L f j *.b o.J R F F R j o.,.$.,.9.,.*.+.L ^ K F X.B.e.=.R F w ..8.T F H Q Q [ :.9.B.A.F.o.T 1.;./ / ! K L L k L O.P -.Q w a I d f L R f j f L W ..f Z P K R f q 1 2 > 2 1 3 2 : : : 2 2 : 2 > 1 i a a w 8 *.a., 9 9 & # # : > ",
"q p d d A D U Y W W H F G G G H Y W W H G G F G H Q ] [ 3.3.3.4.3.4.4.6.d.d.6.3.3.4.4.4.6.6.4.3.} [ } [ [ 7.} 7.7.} [ [ :.:.:.>.>.3.f.f.l.l.l.l.I.l.l.U.l.I.I.I.U.U.U.Y.Y.P.L.4.t.t.d.L.L.P.Y.R.Y.Y.R.W.R.W.W.Q._.`.T.T.T.Q.W.!.W.!.!.R.W.W.W.!.!. X XoX.X.XoX=X=X5X5X=X=X-XOX'.).T.v.x.x.x.V.V.].+X<XfXfXfXgXgX<X<X<X>XoX X!.W.Y.P.L.L.L.L.L.L.P.Y.^.^.~..X.X.X~.$X$X(.$X(.~.~.^.^.^.^.!././.^.^././.^.~.~.~.~.~.~.$X3X3X7X7X(.7X7X7X7X7X7X7X7X7X7X7X7X7X3X3X(.^.^.^.^.^.^.~.~.(.3X3X7X3X7X3X(..X~././.Y.P.P.P.P.R.W.'.<XdXA.g.@.j i & @ u N.sXiXV c c e.aXhXjX;XC.c.V.n.$.j h k 6 * @ * < t h h X.;XCXCXgXxXZXJXJXSXVXsXN.M y t 5 y 5 $ O = 5 h *.j.&.h i 5 O   o < s s $ o < B.gXvXS.&.H.hXhXhXD.- $ , m ;XnXhXhXB.dXDXCXDXCXDXhXe.pXaXS.n M n e.pXvXDXVXVXHXSXjXS.D.aXD.M.B.hXjXdXCXjXF.F.hXdXCXMXZXZXAXJXDXSXVXu $ - y pXSXSXJXSXxXNXZX.X3X3X7X6X6X6X6X5X5X6X7X4X3X$X$X$X$X3X.X.X3X3X3X3X3X$X3X3X4X6X6X6X6X5X8X5X5X5X5X8X5X5X.X!.!.W.W.R.|.XX-X8XwXwXeXzXkXlXkX0X0X:XOX'.[.'.'.OXXXXX|.W.W.R.U.I.I.U.U.U.T.T.T.`.W.'.OXXX=X4X=X=XXX|.`.).v.l.l.U.U.U.U.d.U.Q.U.U.L.L.I.d.d.d.d.l.d.d.d.5.3.1.7.:.[ [ [ [ [ :.` / W H H H H / _ ` ] ;.;.;.:.3.3.5.l.I.U.d.4.[ _ _ _ ` ` ] [ ] ` _ ] ] _ _ _ _ { f.d.v.].&X:X1X,X1XwXwX5X!.d.{ _ H A ;.k.z.x.f./ d d p r e e d U U ^ 2.s.c.v.n.b.b.d.d.Q.=X=XXXb.1.1.z.o.Z.CXgX1X&X) a.p.;XMXs.j.*.*.j.p.X.o.r.V.C.V.v.n.n.2.W o.O.~ 0.r.L ..X.D d L R W K *.9.9.V.C.+.L ;.L A L B.B.*.J e p f o.0.F H H Q ' 1.8.Z.F.A.c.S O.w.` ` ;.~ ! L k a +.+.G A A I p p L ! T j j a P 2.+.R F K ,.O.3 1 1 2 2 1 1 > : : : : 2 2 : 2 2 3 j X.d a k M.@., : 2 : 9 : 2 l ",
"4 w e w e d G F H W H F F G G G H W Q W H H W H Y _ [ 3.d.l.l.l.d.d.d.I.I.I.d.4.6.4.4.3.6.6.6.4.3.} } [ [ } [ 7.[ [ [ [ :.:.:.:.>.3.5.d.l.l.l.l.l.l.l.x.U.U.U.I.L.U.U.P.L.L.d.4.4.4.4.4.L.L.P.U.Y.U.U.U.R.U.T.U.v.x.l.l.l.U.U.Y.R.Y.Y.R.W.R.W.!.!. X.XoX.X=X=X=X=X4X=X=X-XXX{.`.T.l.k.k.k.k.z.V.V.].+XfXfXfXfX,X<X<X>X>XoX|.!.W.Y.P.L.P.P.L.P.P.Y./.^.~.~.3X3X3X$X3X3X3X(.~.~.~.~.~.~.^.^././././././.^.^.^.~.~.~.~.~.$X3X7X7X7X(.7X7X7X7XrX6X7X6X7X7X7X7X7X3X3X$X(.(.~.~.^.~.~.(.(.3X3X3X3X$X(.~.~.^./.P.P.P.P.Y.R.W.'.;XdXF.B.%.R j < , M pXiXB c c n M.jXCXgX;X;XA.A.n.<.j i t = o . O $ * 5 y h Z.CXZXMXgXMXSXFXJXDXvXpXe.v t u u u = @ < y %.B.A.=.5 5 5 * O & i i < # , @.;XhXjXB v B.Z.F.jXM.$ o @ t 2XDXvXCXhXhXDXDXDXCXDXDXS.N.N.N.M &.n e.jXjXHXVXVXDXVXjXjXF.pX&.M.S.hXhXgXjXG.aXdXF.;XxXxXZXMXCXSXCXCXCX&.$ 7 &.jXJXJXDXDXMXkXNXcX*X7X7X6X9X9X9X6X6X6X7X6X7X3X3X4X3X3X3X3X3X4X4X3X4X3X3X4X6X6X6X6X5X4X6X5X5X6X6X9X5X4X.X!.!.W.`.`.{.XX:X0X0XwXlXlXlXzXlXkX0X,XXX[.'.W.'.OXXXXXOX|.|.W.R.Y.U.Y.Y.R.Q.`.`.`.`.'.OX=X4X8X8X=XXX'.`._.V.x.l.x.T.E.T.E.T.Q.U.U.I.L.L.d.d.d.d.d.5.k.k.k.q.5.>.[ [ [ :.:.:.:.:.;.` ^ / / / ` :.3.5.k.q.5.q.5.5.6.l.I.U.I.d.7.[ _ _ [ ] :.7.3.3.f.d.f.f.f.>.} f.d.b.T.`.{.:X-X}.}.-X=X*XQ.f.[ ` / W 2.k.k.1.;.W A d f p w w p d S T ^ #.<.<.2.] _ _ _ 3.b.Q.}.-XQ.s.<.R E R Z.;XdXA.j.@.E ) m.F.*.a.s.p.j.;X1X1X;X+XZ.B.B.B.r.r.h.n.A.G.g.*.<.+...X.f K o.$.9.h.b.2.K L ;.K G K 8.h.E a w e w f 0.$.A H Q _ -.9.A.Z.Z.C.! A w.2.:.` ` / ;.+.i s O.G p A A f S P #.U J L a +.;.a q G w q q > 1 1 1 1 3 q 1 1 : : : 2 > 2 2 2 k N.M.J j &.S.M.h s i 1 1 2 1 X.",
"> w w w w e S F H W W W H F G F W / / / Q Q W W Y _ 7.f.l.E.E.E.E.E.U.U.U.U.I.d.6.4.3.3.6.6.6.6.4.3.7.[ [ 7.[ :.:.[ [ [ :.:.:.>.>.3.5.5.k.l.k.l.l.k.l.v.v.E.U.I.L.L.L.L.d.d.d.d.4.4.4.4.d.L.L.I.Y.U.I.U.l.l.x.x.l.k.5.5.5.6.d.P.U.U.U.Y.R.Y.Y.!.!. X.XoX.X=X=X-X-X=X=X-XXX{.`.T.l.k.1.1.1.<.9.z.c.A.+X;XdXfX<X<X:X:X:X-XoX X!.W.R.Y.U.P.Y.Y././.^.~.~.~.$X3X3X4X3X7X7X7X3X3X3X.X~.~.~.~.^.^./.^.^.^././.^.^.^.^.^.~.~.~.(.(.3X3X3X7X3X7X7XrX7X6X6X6X7X7X6XrX6X7X7X3X(.~.~.(.~.(.(.(.$X7X3X(.~.~.~.^.^./.Y.P.P.P.Y./.W.].+X;XF.C.%.@.l i h N.pXB n c c m M.jXCXgX&X;X+X].n.<.j 6 - $ X . X o O $ y m M.hXDXnXhXCXCXSXHXPXVXsXN.v 5 * * t < * t j *.B.p.m < , t t & 1 g i 1 1 g g.;XdXaXB v S.M.@.&.M * . o t hXDXjXDXDXhXhXCXDXvXVXHXpXN.e.N.e.N.n e.pXaXDXVXVXVXVXjXS.dXjXpXh M jXaXhXF.S.pX;XA.hXxXxXlXfXZXxXMXhXjXdX6 t F.nXJXJXHXCXxX,X0XzX9X4X4X5X6X6X6X6X6X6X6X6X7X3X3X7X4X3X4X4X4X3X3X3X4X4X4X7X6X6X7X4X4X6X6X6X5X5X9X9X8X4X.X!.!.'.`.`.`.@X:X,X0X0XkXlXzXzXlXkXkX0X:X{.[.`.`.'.OXXXOX X|.W.W.R.R.W.W.W.W.'.'.OXOX|.oX5X9X8X9X8X-X|.`._.x.x.l.v.E.E.T.T.`.R.U.U.I.L.d.4.4.6.d.6.q.k.v.v.x.d.3.[ [ >.5.5.1.5.1.1.1.2.2.:.:.3.5.l.U.v.x.l.k.d.l.l.U.U.I.d.d.3.7._ { [ 7.d.l.U.U.Q.Q.U.b.d.f.f.f.d.d.b.U.Q.Q.Q.d.b.W.OX|.Q.f.7.:.] / 2.1.2.( W G A S d d e e d d d F W ~ O.#.O.! P H F ^ 1.k.g.s.c.k.s.s.s.a.@.@.B.A.D.S.&.l l &.p.) U ) A.MXAXZXMXBXmX2XA.&XG.B.e.G.gX;X+X}.n.n.+...j #.9.8.h.C.#.K J a O.K A f ,.c.e w p w A S L r.P Z Y -.,.0.C.F.Z.<.<.! K g.s.:.` ~ P P K q g ! p w w p o.,.9.R X.L a +.O.a p w q 3 4 1 1 1 1 > 1 q 3 3 1 2 2 2 2 > 2 < B pXK.@.&.N.sXK.N.N.N.M j i j @.",
"> w w w w e A F Q / ` / Q H H W / ` ] ] ` _ / / _ ' 7.d.U.R.T.T.R.R.R.R.R.R.R.I.6.5.7.3.5.6.d.f.6.3.3.7.:.:.[ [ [ [ ] :.2.;.:.>.3.3.5.5.k.k.k.l.k.k.k.l.v.v.E.I.d.d.d.d.4.d.d.4.4.4.4.d.L.L.L.L.U.d.f.d.d.k.k.k.k.5.>.:.:.7.3.d.I.I.U.U.Y.R.R.Q.!..XoX=XoX=XoXoXoXXXXXXX{.].v.k.5.1.;.^ ^ O.$.<.h.C.F.+X+X+X+X+X+X{.'.'.OXOX!.!.R.Y.Y.Y.!.!.^.~.~..X3X3X3X3X3X7X3X7X7X6X7X7X6X7X3X3X3X3X$X~.^.^.^.^././.^.^.^./././.^.~.(.$X3X3X3X7X7X7X7X7X7X7X7X7X7X7X6XrXrX6XrX7X$X$X$X$X(.(.$X(.$X3X3X$X~.~.~.^.^././.Y.Y././.!.'.).C.B.j.j.*.%.E j X.S.N.n c c n &.F.CXMXgX&X;X+XA.c.#.k 5 = O X . . X . O 7 M M.dXnXnXhXCXCXDXDXDXDXsXN.n - $ = t i t h X.M.p.h - = 1 h i , q f J E ( #.+.Z.;XD.n n S.M =.p.h - o O , H.JXhXSXDXCXhXhXCXDXVXDXpXM e.N.pXpXM D.e.D.VXvXhXVXHXvXjXF.jXjXjXM.D.dXdXdXF.jX;X1XgXNXZX,X<XMXgXxXDXhXCXS.=.hXSXSXJXJXDXAXxXcX9XkX5X5X5X5X6X6X6X6X6X6X7X3X7X3X3X7X3X4X5X3X3X3X3X3X3X4X7X6X6X7X4X5X8X9X9X6X9X9X9X9XqX=XXX|.`.).).).[.@X:X<X,X0XkXlXlXkXkX0X,X:XXXOX'.'.'.'.'.'.|.|.|.W.W.W.|.|.|.!.|.OXOXOXoX4X9XeXwX9X8X=X XW.T.I.l.l.x.v.v.T._.'._.R.U.I.d.6.4.3.3.3.5.k.x._.].`._.x.q.5.5.d.l.l.l.k.k.k.k.q.k.5.5.l.R.'.'.`.).T.R.R.R.R.U.d.f.f.3.7.[ [ 3.f.T.W.Q.W. X|.Q.Q.U.d.f.f.f.f.f.f.3.>.5.5.l.'.OXOXT.5.7.>.;.` :.] / U A e d A d d e e e e d F T ! o.o.+.o.! T K o.<.j.j.p.j.p.*.j.p.j.Z.j.@.@.a.M.D.pXS.p.p.) ) U m.xXBXBXMXMX1X2X1X1X:X<X+XB.B.G.F.gX1X&Xg.J E Z.F.F.A.F.h.8.! K ;.W F p $.V.G d K D W T K +.0.G H -.1.$.B.Z.j.$.9.9.T R ,.] ^ *.B.$.o.J q R S a a F O.,.r.=.X.J a J f a w q 3 > 2 1 2 2 1 2 > q q i 3 4 4 4 3 1 1 8 N.aXK.N.N.sXsXpXaXaXaXaXN.m j q ",
"> w e w e d F W / ` ] ] ` / / ` ] [ 7.3.7.] ` ` _ [ 7.d.I.T.).T.`.'.'.'.'.`.T.E.k.5.3.3.5.6.6.6.6.3.3.7.:.:.] ] [ _ _ ] ] ` ] 3.3.3.5.5.k.k.5.k.5.5.k.k.l.l.l.l.d.d.4.4.4.4.4.4.4.4.4.d.L.L.L.L.f.3.3.5.5.5.5.5.5.>.:.] ] [ 7.4.6.d.L.I.U.R.R.W.!..XoX=XoX=XoXoXXXXXXX{.[.).z.9.,.#.~ W T T ! ~ ,.0.C.G.G.+X+X].].`.T.T.'.|.!.W.!.W.!.!.|.|..X~.~..X3X3X3X3X7X7X7X6X6X6X6X6XrX6X6X7X7X4X3X$X~.~.^.^././.^.^.^./.^././.^.~.(.$X$X3X7X7X7X7X7XrX7X7X7X7X7X7X6X6X6XrXrX6X6X7X3X3X3X$X3X3X7X3X3X$X$X~.^.^.^.^.^.^.^.^.^.|.).B.*.X.%.8.%.%.%.*.&.M n n n n S.jXCXMXgX<X&XC.h.2.E i - + X .   . X . O - M M.D.aXjXhXCXDXDXDXDXVXaXe.M u $ = t l j b &.M.M.y @ @ i %.l i q w J ( m.j.X.h &.&.v y &.v 5 M 5 - o O 5 F.SXDXCXDXSXhXaXhXVXVXjXpXN.&.aXvXsXM D.e.M.jXVXvXVXDXHXDXjXjXaXS.M.&.jXdXdXdXB.;X&X,XxXlX<XMXBXNXgXSXMXCXhXpXZXSXDXKXKXDXZXZXxX9X9X6X6X6X6X6X7X7X6X5X6X7X3X7X3X3X7X3X3X3X3X3X3X3X3X3X3X4X4X4X4X4X6X5X8X9X9X9X9XwXwX8X4X.X|.).).).V.).].].[.{.:X,XkXkXkXkX0X<X>XXX[.'.'.W.W.W.`.'.'.|.W.'.|.|.|.!.!.|.|.|.|.=X9XeXeXeXeX9X4X.XW.U.L.x.x.v.v.T.`.`.'.'.T.E.l.l.d.3.[ :.:.5.k.).[.{.{.XX'.T.I.l.l.E.T.).T.T.v.x.x.v.U.U.R.!.OXXX:X:XXX|.W.R.Y.Y.d.f.3.3.4.3.f.L.U.W.|.!. XXXXX!.Q.b.f.} } } >.[ { [ [ 1.q.T.OXOX'.v.1.:.>.;.] ] ^ T d e w e e d A e w w e d U T T ~ ~ o.~ ~ ) o.%.a.p.p.p.p.p.M.M.M.B.M.p.a.a.N l l e.D.pXD.Z.Z.) ) W.ZXBX&Xs.n.i.Q.b.2.<XwX1X;XG.*.dXlXgX;X2XA.*.F.<XA.F.F.].k.1.s.( ,.! ,.V.! K ~ ( O.Y W K 0.9.P ! O.o.0.j.*.8.g.z.q.! W #.*.jXDXVXF.P p s R a f ! O.$.*.=.L w q q 8 3 3 4 > > > 1 > > 2 > q i a j J f a a i q 3 i e.aXpXD.aXaXpXpXpXpXpXpXN.M.b i ",
"4 w p d A F W / [ [ [ [ [ [ [ :.7.3.6.f.6.3.] ` _ _ [ 3.d.I.R.E.R.R.R.W.`.`.T.E.l.k.5.5.5.5.5.5.3.7.3.7.[ [ ] :.` _ Q / / / _ [ :.3.7.7.>.>.2.2.2.2.1.5.q.k.k.6.4.4.4.4.4.f.d.4.4.4.d.d.L.L.d.d.d.4.4.3.3.:.>.>.:.:.] ] ] ] [ 3.4.d.L.I.U.R.U.Y.W. X.X=XoXoXXXXXOX[.{.[.].V.q.1.;.^ T K F D F T o.,.h.C.G.F.A.V.V.T.U.U.R.'.W.!.!.!.!. X X X.X.X.X3X3X4X6X6X6X7X7X6X6XrXrX6XrXrX6X6X6X6X7X3X$X~.^.^.^.^.^.^.^./.^.^.^.~.~.~.(.$X3X3X7X7X6XrX6X7X6X7X7X7X7X6X6XrXrXrX6X6X6X3X3X3X3X3X7X6X7X7X3X3X3X.X~.~.~.~..X.X~.~.!.`.c.%.X.X.%.*.*.*.*.=.m m n n M aXCXDXMXgX-X}.c.s.,.R y - O X . . X X X O - n B M M S.dXhXCXDXDXDXVXsXB V 7 $ & i X.@.&.*.&.M u @ & E C.*.j a a D ( j.*.j t i m y t m m 7 v y 7 $ $ 5 Z.DXHXnXDXJXaXe.aXVXvXpXB S.pXaXVXsXn &.M.*.D.vXVXVXVXVXVXHXvXVXS.p.=.S.jXdXF.*.C.;XgXhXNXxXlXMXAXCXZXSXSXCXCXFXSXSXKXKXSXxXZXzXqX*X3X3X3X3X3X3X3X3X3X7X7X7X7X7X4X6X3X3X.X.X.X.X.X.X3X3X3X3X3X3X3X3X4X4X5X8X9X9X9X9X8X8XoXOX[.).).x.V.V.V.v.V.'.XX<X,X0X0X>X:XXX|.W.R.R.T.T.T.R.`.'.W.W.'.'.|.W.W.W.'.R.R.!.3XeXzXzXzXeXeX9X.XW.T.I.T.T.).`.`.'.'.OX|.'.R.E.I.l.5.7.:.:.5.x.`.[.XX@X-XXXW.Q.T.T.).`.`.`.`.`.T.T.T.T.W.|. XXX:X<X>X=X.X|.W.Y.P.U.d.d.U.U.Y.U.Y.Q.!.!.!.!.!.!.}.Q.f.{ _ _ ` ` _ _ ] :.1.x.'.{.[.).k.1.2.1.2.;.] / F p e q w e A F A d e d S U W ! ~ ~ @.@.@.@.*.p.p.p.p.p.M.M.M.M.Z.p.M.p.a.a.N z z s z l &.M.D.&.i K &X&X%.g ) U s.Q.}.<X&X-X-X&X;XpX+X;XgXgXnX2Xs.$.0.dX;X<X<X;X&X`.`.v.V.].g.1.1.1.1.] Q W ! r.O.P / K o.*.8.#.9.9.9.1.W j S.vXVXDXaXS p i s J I o.0.,.=.=.j w w q 8 3 4 4 1 4 > 1 > 1 > 1 q k =.M.D.S.*.X.l s i a =.S.aXpXpXpXK.pXiXiXK.N.N.iXa.s ",
"3 p d A F T / ` [ 3.3.3.3.3.3.3.4.d.d.d.f.5.[ _ | | [ 3.3.d.I.l.I.I.U.R.R.`.T.x.k.k.5.3.5.5.5.3.7.7.7.[ [ ] [ [ ` / Q W W Y _ _ ` ] [ [ [ ] ` ` ` ;.2.1.1.5.5.3.3.4.4.4.4.4.d.d.d.L.L.L.L.L.L.d.d.4.4.3.[ ] [ [ :.:.` ] [ ] [ 3.6.d.d.I.U.I.U.U.W.!. XoXoXXX'.W.'.`.`.`.V.z.9.,.O.R K F F S D D W #.8.C.C.G.C.C.x.v.b.U.T.R.W.!.!.!.!. X.X X X.X.X3X4X7X6X6X6X6X6XrXrXrXrXrXrXrXrXrX6X6X6X3X$X~.~.^.^.^.^.^.^./.^.^.^.~.~.~.$X3X$X3X7X7X6X6X6X7X6X7X7X7X7X7X7X6XrX6X6X6X6X7X3X3X3X3X6X6X6X6X6X7X3X3X$X$X3X4X4X4X~.3X$X.X}.8.m b l X.@.X.j b m v N M N.vXDXDXMXgX-X}.c.g.,.E y = X X . . X X X O = u v c u M D.aXhXDXDXDXVXsXB c - * , i E *.M.B.e.h , @ 1 $.F.*.j g D S E p.m t 5 v &.5 t p.M.y t M v * $ 5 Z.DXSXSXCXCXD.m aXvXaXe.M pXVXjXVXsXB v M M.e.jXjXvXDXHXVXvXvXvXVXaXaXM.pXF.F.B.F.xXMXMXSXMXlXAXMXSXAXZXCXCXSXCXCXSXKXHXKXMX0XcX0X5X*X.X.X.X3X3X$X.X3X$X7X7X3X4X7X3XoX$X$X.X~.~..X X.X.X$X.X.X$X$X$X.X.X3X5X9X9X9X9X9X8X=XoXOX_.v.z.q.z.z.z.v.v.`.[.{.XXXX-XXX|.W.Y.U.U.U.R.R.R.T._.W.W.'.'.'.W.W.W._.T.Y.!.5XeXmXmXmXmXmXeXqXXXOX[._._.'.[.'.{.{.OXOXXXOX`.E.l.q.5.3.:.5.v.[.{.XXXX:XXXOXW.Q.R.W.W.'.'.{.{.'.'.'.'.W.!..X=X>X>X8X=X X!.Q.R.Q.Q.Q.!.!.!.Q.W.Q.!.^.^.!.Q.Q.Q.!.U.[ Y Y Y / ` ] [ :.2.9.v.{.XX{.v.9.1.1.9.2.2.^ W K f w w e A F W F F d d D T ~ ! ~ o.@.&.p.p.p.p.p.a.p.a.M.N.K.N.N.M.a.a.a.a.@.l z z z h h l m e.m s g ) E e e z a.i.,.s.C.C.j.B.+XQ.A.Z.D.;X<X1X2X>.X.F.2X2X1X<XkXgX,X:X;XdX+X].Q.Q.b.x.2.Y W +.r.$.W J J O.o.O.O.#.$.] / j M aXsXsXaXX.-.d i f O.O.0.$.+.=.j a a a 8 I A q q q q i 3 3 3 3 i X.pXsXvXvXaXpXK.a.E g m M.aXK.K.K.K.iXN.N.a.M.y.y.N.m ",
"q d G F P / ] [ :.5.5.5.5.3.4.d.l.l.I.E.l.3.[ _ H W Q _ [ 3.4.3.3.4.6.d.L.I.I.6.3.3.3.3.>.:.[ ] ' ] ] ] { [ [ ] ` / Q W W Y / / / / ^ ^ ^ ^ / / W ^ ` ;.2.2.[ [ } } } 3.4.d.L.I.I.U.P.L.L.L.L.L.f.f.3.3.7.[ 7.3.3.[ :.:.[ [ 7.7.f.k.l.l.E.I.L.I.U.W.|.|.OX[.'._.V.v.v.v.x.9.<.;.~ ! K F F G F F W ~ ,.8.z.C.c.z.l.l.l.U.U.W.!.!.R.!. X X X X.X.X.X3X5X6X9X9XrXrX6X6X6XrXeXeXeXrXrXrX6X7X3X3X3X3X.X~.~.!.~.~.^.^.^.^.~.~.~.~.$X$X3X3X7X6X6X6X6X6X7X7X3X3X3X3X3X7X6X6X6X7X7X3X7X7X7X3X6X6X6X6X6X6X7X7X7X7X7X3X3X3X$X*X.X.X'.k.X.h s h h y y s h b M e.aXCXCXCXxXfX:X+X}.c.*.E t $ + X . X X X X O $ - 5 u u h &.&.pXVXDXDXPXsXB 7 = * < s X.*.B.S.=.y $ O t j.F.*.E T ~ j E @.j 7 < m m 6 k *.&.7 v H.*.b i t &.D.DXSXJXVXM.&.aXVXaXB M aXVXvXvXsXn v =.M.e.pXvXjXVXPXHXVXpXaXaXaXB.pXD.aXZ.Z.F.gXCXZXDX1XCXSXMXCXSXMXMXSXFXxXZXSXLXKXJXJXDXxX0X=X3X.X.X3X3X3X3X~.$X3X3X7X6X6X4X3X3X3X.X.X.X~..X.X~..X$X$X.X.X.X.X3X3X3X3X4X5X9X9XwX9XqXoXXX'.T.x.q.q.q.q.q.k.l.v.[.[.'.OX|.'.R.R.R.U.I.U.U.U.R.`.R.'.'.|.|.W.R.Y.U.U.R.|.9XmXBXNXBXBXmXeX9XoXOX[.|.|.'.'.'.OXXXoXoXoXXX|.R.T.E.x.l.5.5.l.`.{.{.|.=XXX|.!.!.|.|.OXXX=X=XXXXXOX'.|.W.XXoX=X4X4X=X=X=X=X=X*X*XtXtXtX*X*X*XtX^.^.^.!.Q.U.U.d.d.7.Q H H Q ^ ] [ ] ] ] 1.T.{.{.`.z.9.,.8.<.2.2.#.( T d e p p G W Y Q / T D D T E o.@.%.&.M.N.M.a.a.a.a.a.p.p.M.N.M.M.a.%.a.s.a.%.) l l l l z z z z M M.M.X.r r x x r e U %.E j *.*.*.%.*.pXpXD.F.A.dXAXp.*.}.&X1X0XgXwX1X1XfXfX,X<X1X1X&XQ.f.>.^ ! ,.B.U S L ! W ~ O.^ ,.9.$.X.j &.D.sXaX%.1X/ s s +.0.0.w.=.=.X.f p p 8 j X.a a f a w q w w p a *.dXvXsXsXsXsXsXaXM.m M N.K.N.N.N.N.N.y.B a.N.y.y.y.N ",
"q S F P W ^ ] [ 7.3.5.5.3.6.6.6.d.d.l.I.l.3.[ _ Y Y Y Y _ ' ' _ _ ' [ [ 7.4.4.5.7.7.:.[ [ ] ] ` _ _ ` ` _ [ [ [ _ Q W W W Y Q Q / Q Q / / / W W F W / ^ ` ` ` ] [ } 3.4.4.L.U.Y.Y.Y.Y.L.L.L.L.L.d.d.3.3.7.7.3.3.3.3.5.5.3.7.3.3.6.d.l.E.U.I.E.U.R.W.|.'.'.`.T.E.V.v.z.z.z.9.<.,.O.~ W W H F F H W / #.<.g.z.z.x.x.x.U.U.Y.W.W.R.W.!.!. X X X.X3X4X6X9X9XeXeXeXrXrXrXrXrXeXeXrXrX6X6X6X7X7X7X7X3X3X$X.X.X.X~.~.^.^.~.~.(.~.3X3X3X3X3X3X6X6X6X7X7X4X3X3X3X$X3X3X3X6X6X7X6X7X7X7X7X7X3X6X6X6X6X6X6X7X7X6X6X6X7X3X3X*X*X.X.XT.9.l k y t 5 < < t h m &.pXVXDXCXCXMXgX<X+X&XA.$.j 7 $ + X X o X o O @ = - 5 y y y h v e.aXvXHXHXvXB u 5 5 6 s X.M.M.S.=.6 $ @ i c.;Xj.E g J a j s t h m p.m b *.p.h 5 @.H.B.B.M.X.v &.nXCXjXaXe.N.VXjXaXsXpXsXvXPXvXsXM h b M.e.S.pXjXvXjXHXHXvXe.M aXaX&.M.M.F.F.dXxXMXAXDX<XZXCXhXxXDXSXAXJXJXCXCXJXLXKXJXZXZXxXlX4X3X.X.X.X~.(.$X.X3X3X3X3X6X6X6X4X3X3X.X.X~.~.~..X~.~.~.~..X.X.X.X.X.X.X3X=X4X8X8X8X8X8X4X=XXX`.T.l.k.5.5.5.q.l.v.`._.`.`.`.R.T.R.T.R.U.R.R.R.R.T.R.R.W.'.W.W.R.Y.U.U.R..XeXmXBXAXBXBXmXeX9X=XoXXXXXOX|.OXXXXXoX>XoX>X=XXX|.`.T.E.l.k.k.l.T.`.|.|.OX|.'.W.!. X XoX=X8X8X5X5X=X X X|.OXXX-X=X5X9XwX9X9XwX8X6X5X5X5X4X5X5X*X*X^.!.Y.d.f.4.3.7.] Y H Y Q ] >.>.[ ] ] 1.).@XXX`.z.9.0.8.<.,.,.#.( E g e p p F W ^ ] ] W U U U E X.@.%.a.N.N.M.a.a.@.&.@.*.p.M.M.p.a.@.@.%.p.s.%.@.) l l l l l z s h h &.@.r r r r r r r r r g *.S.e.M.N.K.vXVXVXaXpXnXaXM *.m.`.-X2X<X-X&X;XdX,X0X1X9X<XQ.W.].8.k.#.Z.0.R o.,.;.#.! K $.D.D.M.&.@.M N.*.1 C.&XR g a =.0.0.$.X.+.S S a 8 ..+.f S p f a q f p a j X.M.vXaXaXaXaXaXaXN.N e.S.M.y.y.N.N.N N y.N V V B y.B ",
"w S F P P / ` ] [ 7.3.3.3.6.6.6.4.d.L.L.d.3.[ | H G G F H H Y H H H Y Y | _ ' ' ' ' ` _ _ / / Q Y Q / _ ' [ ] ` _ | Q W W W / Q W W W W W H H H F F W / Q Q _ [ } } 3.4.d.L.Y.Y.R.W.R.U.I.L.L.d.d.6.3.4.4.4.d.d.d.d.l.l.f.5.6.4.6.d.I.I.U.U.E.U.R.'.'.'.'.W.T.I.x.k.k.q.9.9.<.<.;.` ^ / Q Q Y Q / ` ` 1.9.x.x.E.v.U.U.U.R.R.R.Y.|.!.!.|. X.X.X4X5X9X9XeXeXeXeXeXeXrX6X6XrXrX9X6X6X6X6X6X7X7X6X7X7X7X3X3X$X~.~.~.~.(.(.$X3X3X3X7X3X7X7X6X6X6X7X7X3X3X3X~.~.~.(.3X4X3X3X3X7X7X7X7X7X7X6X6X6X6X6X6X6X6X6X6X6X7X3X3X3X*X.X Xx.O.i < y 5 @ @ * , t v S.VXDXCXCXCXMXhXfX;X&XF.*.j 7 ; + X + + + O $ = 5 t h h h y 5 5 v S.aXVXHXvXe.y 1 t i g o.M.e.Z.M.h 5 6 R ;XgXH.%.j g i t < 5 m M.Z.B.D.dXjXD.=.=.dXjXbXjXD.e.b aXDXvXe.y N.DXpXN.vXsXvXPXPXvXvXe.h b &.N.S.pXS.aXvXVXVXPXaXM M jXhXH.aXM.e.F.dXgXxXDXlXMXCXjXMXnXSXSXSXJXDXSXKXKXKXJXSXCXxXkX8X4X.X.X.X.X3X3X3X3X3X3X3X3X7X6X6X3X3X3X$X.X~.~..X~.~.~..X.X.X.X.X.X X.X.X.XoX=X4X8X8X4X=XoXXX|.`.U.l.d.d.d.k.l.v.T.T.T.R.T.R.R.R.U.R.U.R.R.R.R.I.T.T.R.R.R.U.Y.Y.U.U.!.4XeXmXBXAXBXBXmXeX9X=XoXoXoXXX XXXXXoXoXqX=X8XqX-XoXOXR.T.E.l.l.l.U.U.U.Q.T.T.T.Y.W.!. X*X8X8X8XwX8X=X.X X X|.=X8XwXwXeXzXeXeXeXeXrXrX6X6X9XwXrX5X*X!.U.U.4.4.4.3.[ _ W Y Y ] >.f.f.>.;.:.k.`.@X{.T.q.1.9.9.8.<.#.#.o.E f d d d K ^ ] >.1.#.W U g j X.%.*.M.M.M.M.a.@.@.@.X.@.p.p.p.a.@.m @.%.%.#.#.( E E l l l z l z s s s z r r r r r r 0 0 0 0 h m a.D.K.K.a.pXsXPXsXM.e.N.N.@.s.>.c.m.] s.A.;XQ.Q.-X=X-X!.XX+XC.Q.b.C.F.r.V.v.x.;.T J *.aXaXK.N.N.&.m @.i M gXb.F a h =.*.~ R $.L S f v =.,.f o.,.S a a f f f S ..M.vXaXaXpXK.K.K.y.y.B.M N N y.N N y.y.N V u u V B B ",
"q S F F F W / Q _ [ [ [ } } 7.7.3.4.d.6.6.3.` Q F A A G G G G Z Z Z Z G G H Y Y | Q Q Y Y Q W H Y W / _ [ [ ] ` [ _ / Q W W / / Y Q Q W H H H F F F W Q Y Q _ [ } } 4.d.L.L.U.Y.!.!.W.Y.I.L.L.d.6.d.4.d.d.d.L.L.U.U.U.U.l.f.d.d.f.l.L.L.U.I.U.R.R.R.'.'.'.'.R.U.k.k.k.q.q.9.1.,.2.;.] ] ] ] _ _ ] :.:.5.k.E.T.T.T.T.U.U.R.R.R.W.|.!.!.|.|.|. X=X4X6XeXeXeXeXeXeXeXrXrXrXrXrX9X9X7X7X7X7X7X7X7X7X7X7X7X3X(.(.(.3X$X3X3X7X7X3X3X3X7X7X7X6X6X6X6X6X6X4X3X.X~.~.~.~.3X(.(.3X3X7X7X7X7X6X6X6X6X6X6X6X6X6X6X6X6X7X3X3X.X.X!. XT.o.t * * @ o O $ * 5 v pXDXDXCXCXCXCXxXfXF.H.Z.@.j 5 ; ; + + + + $ * < k j X.@.m h - - y e.pXvXVXVXS.v t j j j @.S.M.F.pX*.b X.c.1XhXaXX.j j i , # 5 l =.Z.dXdXjXjXdXF.aXgXCXvXDXjXM y Z.SXDXpXv m aXiXiXvXvXvXPXvXPXvXpXM b &.&.D.pXS.M.jXPXVXVXVXpXM M.dXdXS.y 5 &.aXF.MXDXAXZXhXS.hXhXCXCXCXCXDXJXKXKXJXSXZXxXwX6X6X3X*X$X3X3X3X4X3X3X3X3X3X7X7X7X6X6X6X4X3X3X~..X.X$X.X.X3X3X.X.X.X.X.X X.X X.X=X3X8X8X5X4XoXoXoXOXW.R.U.U.U.E.T.).T.R.W.W.W.R.R.R.R.W.W.R.R.R.R.I.U.R.R.R.U.U.I.I.I.U.!.4XeXmXmXBXBXBXmXeX9XqX4X4X.XoXoX X XoX=X=X=X8XqX=X=XXX'.'.`.W.T.T.U.b.d.d.k.d.l.I.Q.!. X=X8X8X8X9X9X5X=X=X4X=X8XeXeXeXmXmXmXmXyXeXeXeXrX6XrXwXrX4X-X!.U.d.4.4.4.7.[ Q W W _ >.f.b.k.5.1.5.`.{.XX{.v.1.,.<.8.<.$.o.E ~ R J f d f F ^ 2.5.k.1.( U g j X.@.*.a.M.M.a.&.@.@.X.X.*.*.p.p.@.X.l E E ) ~ ( ~ ~ ~ @.E l l l z z s s s s x r r r r r 0 0 0 0 r x @.z g r g a.M.p.e =.pXpXpX@.U X.p w e h.c.Y s.d.Q.d.f.'.0.$.:X-X}.<XdXfX0X:Xl.^ T B.aXsXaXK.K.N.M.M.&.M.D.lX9.) s j =.X.L *...p k k B.J L r.].#.J a B.%.i a f =.sXVXaXH.K.K.N.y.N.&.< h N N v N N.N.N u y c V V N ",
"q f A F F F H Y Q / _ ` _ _ ' ' ' } 3.4.3.7.` Y F A A A G G G A Z e e e Z Z G G H H H H H W H H H W Q _ ] [ ] [ { _ ` / W W / / Q Q Q Q Q Q W W Q Q / _ | _ } } } 3.6.L.U.Y.Y.Y.R.W.R.U.L.L.d.d.d.d.d.d.I.I.I.I.Y.R.W.T.U.l.d.d.f.d.d.d.I.I.L.I.U.R.W.W.'.'.T.E.l.k.k.k.k.q.1.1.>.:.:.>.3.7.>.:.3.3.d.l.T.).'.'.|.W.W.Y.R.R.W.W.!.!.!.!.!.|..X.X=X6XeXeXeXzXeXeXeXrX6X6X6X6X7X5X7X3X3X3X3X7X7X7X7X3X3X3X(.3X3X3X3X3X3X3X7X3X3X3X7X7X7X6X6X9X9X9X9X6X6X3X3X~.~.(.~.~.(.(.3X3X3X7X7X6X6X6X6X6X6XrX6X6X6X6X6X6X3X3X.X!.!. XT.o.t = o o . o O $ * v aXvXvXhXCXCXCXgXF.A.F.p.X.h 5 * ; + + ; $ * 5 k X.+.%.Z.C.M 7 - 7 M iXsXsXvXaX&.h l X.j E B.S.F.pXZ.0.h.}.<XgXB.i j X.k & , h h &.F.dX;X;XjXjXCXCXdXhXnXSXVXt h ;XSXDXvXaXM.pXN.N.vXPXsXHXvXIXIXsXN.v &.M M.aXpX&.&.aXVXvXVXVXjXpXS.e.&.y 7 h Z.dXMXCXCXDXhXM dXMXMXxXCXhXCXJXKXLXKXHXZXzX8X$X(.3X*X3X3X4X4X4X3X3X3X3X4X6X6X6X7X6X6X5X4X3X3X$X$X$X$X$X3X3X.X.X.X$X.X.X~..X.X=X3X4X4X4X4X=XoX.X XoX XOX|.'.W.'.|.W.'.'.W.W.W.R.R.W.!.!.W.Y.R.U.I.I.I.I.I.I.I.I.d.L.I.R..X9XeXmXmXNXmXmX9X9X4X4X3X XoXoX.X X.X.X.X.X4X4X=X=X=X XXXXXXXXX|.Q.U.d.d.f.f.d.P.Y.!. X4X8X8XwXzXwXeXeXeXeXeXeXeXeXmXmXmXmXyXeXeXwXrX9X9X9X9X6X=X-X!.U.d.d.4.3.[ _ Q W / :.k.v.`.v.x.k.x.{.XXXX'.b.>.( ;.O.O.~ E T R R T D d d D ! ,.k.z.k.;.T f j l @.&.&.a.a.a.@.@.@.@.%.*.*.*.%.@.E l z z g z U E ~ ~ o.R E l l l s s s g z z x r r r r r 0 r r x e r E *.r.*.*.*.E r i r.S.&.X.m l > s w 0.0.w A Y Y Q ( f.] K <X,X,XwXgXgXMXwX-XT.1.g.Z.aXaXpXK.K.K.N.B K.N.jX+Xp.l s X.X.k ..X.a k ..h.a j r.C.J 1 i *.j 1 3 i b pXVXVXjXH.K.N.N.N.u < u u v N N a.N.N N N N.N y v ",
"q d A A A A A G G G F H Y H Y Y Q _ [ [ [ [ _ H F A e A A G A A p p w w w e e Z G G F H H H H H H W _ _ [ 7.[ } ' _ ` ` / Q _ ` _ _ _ _ _ _ _ _ ` [ [ [ [ 7.4.4.3.d.L.L.I.Y.Y.Y.Y.Y.U.L.d.d.f.4.f.f.f.d.l.l.E.E.U.R.W.W.T.U.l.d.6.f.6.6.d.L.I.I.U.Q.W.W.'.'._.T.U.l.d.d.k.q.5.5.3.3.5.5.f.f.6.f.f.f.U.U.'.'.|.OX X X X|.!.!.!.!.R.!.!.!.!.!. X X*X5X9XeXeXzXeXeXrX6X6X6X7X3X3X3X3X3X$X$X3X3X7X7X7X7X7X7X7X3X3X3X3X3X3X3X(.(.3X3X7X7X7X6XrX9XeX9X9X9X6X6X3X3X(.(.(.(.(.3X3X3X(.7X3X7X7X7X7X7X7X7X6X6X6X6X6X6X4X3X.X~.!.W.v.o.t # o o o . o @ 5 n N.jXvXVXCXMXxX;Xh.Z.B.@.m j 0 * ; ; $ $ * < t b *.j.s.;XjXS.c - - V iXiXD.aXaXM.M X.*.&.j *.B.B.S.Z.F.+X&XgXgX=.< q X.i , h m h *.S.dXgXhXCXCXDXHXhXCXVXDXVXh l dXCXVXaXpXpXS.pXN.sXPXPXPXvXsXIXsXpXe.M M M.pXS.S.=.&.vXVXjXjXnXVXaX&.B v = - h D.hXCXSXCXjXy *.hXlXhXCXhXZXJXKXKXKXHXHXAXMXlXkX4X3X3X3X3X3X3X*X.X.X.X3X4X6X6X6X6X6X4X4X3X3X3X3X3X3X3X3X3X3X3X3X3X3X.X~.~..X.X.X X X.X.X.X X.XoX%XoXoX XOX|. X X|.|.|.|.W.W.W.R.W.|.|.!.W.R.U.I.l.d.d.l.I.I.I.d.6.L.Y..X8XeXzXmXzXeXeX5X5XoXoX.X X X X.X X|.!. X X.X.XoXoX.X XXX-X>X>X=X|.Q.U.d.d.d.L.U.Y.W.|.=X9X9XzXmXmXmXmXmXzXmXyXyXeXmXmXeXeXeX9X4X*X*X*X4X6X9X8X=XXX|.T.L.4.3.[ _ _ / / ^ 1.x.).{.[.`.v.`.XX:XXXQ.f.] / ^ W T J J T ~ E E J S d A T ;.9.x.z.1.W D j l m m @.@.&.@.@.@.@.%.%.*.*.@.@.@.l l s s q s g E ~ ( ) E l l l l g s s g g z z z z z r 0 r r ) s.g r U @.*.p.B.*.p.X.q a S.j f j m s s 2 *.C.w q 4 q w G ( f.;.h.:X=XkXyXgXjXlX8X{.v.#.c.Z.aXaXK.K.K.a.h N.y.M.2XB.y.l h m j i X.q k e.j > 3 a j s X.s < & : : 6 k &.aXVXVXjXZ.K.D.M.h 0 u V V h z l N M.y.&.N.M h N ",
"3 p e e w e w w w w w e e e Z G G H Q _ ' _ Q H A p e d A A A d p p p w e w w w Z A G F F H H H P Q _ [ [ 7.3.4.[ [ [ [ ` ' [ [ [ [ [ [ [ [ [ } } 7.} } 3.4.6.6.d.L.I.I.I.U.U.L.Y.U.I.d.6.6.6.5.5.d.d.l.l.d.l.E.U.T.T.T.).T.l.d.q.f.6.6.d.L.I.U.U.W.!.W.W.W.W.R.T.U.U.l.k.5.6.d.d.k.k.l.l.l.I.U.U.U.Y.Q.'.|. X.X.X.X.X.X X X!.!.!.!.!.!.!.!.|. XoX4X9X9XeXeXeX9XrX9X6X4X3X3X3X3X3X3X3X3X3X3X7X7X7X7X3X7X3X3X$X~.~.~.~.~.~.~.(.3X7X7X6X6X6X6XrXeX9X9X6X6X7X3X3X3X3X3X3X7X7X7X7X7X3X7X7X7X7X7X7X7X6X6X7X7X6X6X6X6X3X.X.X|.v.$.j < % o o o @ = 5 n N.jXDXDXCXhXjXB.*.*.@.l j k t 5 * = = * 1 i a @.B.C.C.fXMXjX&.7 - c B iXN.D.D.M.=.=.B.M.m m =.e.&.p.;XfX;XfXH.b , 1 s s s &.M m F.pXD.jXMXxXSXJXSXCXhXvXJXPXpXB.dXhXvXN.N.N.e.iXsXIXIXPXPXPXsXsXsXsXe.&.n M.aX&.N.D.m S.vXvXjXhXVXaXN.B n - $ $ M CXhXCXCXjXu b gXfXMXnXjXCXKXKXJXSXZXNXZXMXkX0X8X5X4X3X3X.X.X~.^.!.!.~..X3X3X4X3X4X6X4X7X7X3X3X3X4X4X3X4X4X4X3X4X3X.X.X!.!.!.!. X|.!.!.~..XoX4X4X4X4X=XoX XXXXX X X X X|.|.|.|. X.X X X!.R.R.I.6.6.5.6.d.I.d.6.6.d.U.!.*X8X9XeXeX6X6X3X4XoXoX.X.X|. X X X!.W.!.|.|. X X X X XoX-XqXqX=XXX'.R.U.U.L.I.Y.W.!.|.5XeXzXmXNXBXBXmXmXmXmXyXeXeXeXwX9X*X*X*X^.Q.!.XX=X=X5X=X=X|.W.U.4.[ { { _ ] ] -.2.k.).[.@X{.{.'.{.:X:X{.T.3.] / W P F J T T ~ ~ ! T D d d D o.,.g.x.s.~ T j l l l m m m N m ) @.%.%.o.@.E X.@.l l s 0 0 0 s z E ~ E E l l l l g g r g g g z E j.A.&Xm.w g 2X&X$.T ) E j E E @.*.M.$.j M.r.p i s g k 6 *.+Xa.a > > > q G :.1.#.z.`.+X<X;XG.fX<X}.c.Z.p.@.p.H.aXpXK.M.x y.y.y.Z.dXa.a.z l m s j t 8 =.q > q 1 : h *.< & # # # 1 t s N.vXVXjXH.H.D.&.h h x x x x h h z N N N N N y.y.",
"3 a w w w w w q q q q q q w w w Z G H Y | Q H H A e e A G F A A A A d d d e e w w e A G G H H W Q / [ } 3.6.4.4.} } [ :.[ [ 7.7.4.4.4.3.3.3.3.3.6.6.3.4.d.I.d.I.U.d.d.I.U.I.L.U.U.I.L.d.4.6.5.5.5.k.l.x.l.f.d.l.U.T.E.v.T.E.l.d.d.k.f.f.d.l.U.R.R.'.|.W.W.W.W.R.R.R.T.E.l.q.6.d.l.l.l.U.U.E.R.R.W.W.W.!.!.|. X.X.X.X.X.X X X|.!.!.R.W.!.!.!. X X.X=X5X9X9X9X9X6X9X6X4X4X3X3X3X3X3X3X3X7X3X3X3X7X7X3X3X3X3X3X~.~.^.^.^.^.^.^.~.~.3X3X3X7X6X6X6XrXeX9X9X6X6X6X6X6X3X3X3X7X7X7X7X7X7X6X7X6X6X7X6X6X7X7X6X6XrX6X6X9X7X3X4X{.v.8.X.t * o o % % % , N S.hXDXDXVXjXF.&.@.@.m h i 6 < 7 * * < < a j T j.A.A.F.gXMXjXe.v - C V e.N.D.D.N.*.*.B.M.M y t v b &.H.jXdXA.@.< & 6 g ~ *.M.=.S.jXaXe.F.gXMXFXJXHXDXdXjXSXKXDXhXCXnXaXvXsXpXe.M pXPXvXvXvXvXvXiXsXsXiXM M e.aX&.M pXS.N.D.aXjXVXVXVXvXsXiXc ; O t G.MXhXxXjX7 i gXlXCXhXB.dXJXLXJXSXCXzXzXwX6XrX9X5X3X3X.X.X!.!./.!.!.!.!.~..X3X3X3X4X4X3X3X3X3X3X4X3X.XoX4X4X$X=X.X.X X X|.!.R.W.W.!.!.!..X.XoX4X5X6X5X4X=XoXXX XoXoXoXoX XoX.X X.X X X!.R.R.l.6.5.3.5.6.d.6.6.6.f.L.Y.!..X*X4X4X.X3X.XoX XoX X|. X X|.!.!.!.!.!.W.!. X X XoX4X>XqX8X=XXX X|.W.Y.U.Y.!. X*X4XeXeXmXBXBXNXBXNXmXmXeXrX5X5X=X*X*X!.Y.P.d.U.W. XXX=X=X-XOXW.U.5.[ { ' [ [ 3.5.5.k.).{.{.<X:X:XXX:X:XXX'.b.k.>.^ W W T E R T R ! ~ T D d e f ! #.g.l.g.#.E j j z z l l l z l ) ) ) R E l l l l z z s 0 < < t g U U T E z l l E j s g q s s s s E s.fXAXgXR j.A.E 8.g.8.0.o.e p f U %.Z.iXpX+.X.e q a j =.C.jXB.4 3 3 a D -.-.#.W 7.V.V.b.2.0.gX;XZ.p.N z z a.M.H.K.Z.z M y.y.B jXD.B N z &.m m v v l a 3 2 # & t < & # % @ # , 1 i =.aXnXjXjX;X@.m N.M.y.z x x V N N N N N z N B y.",
"4 w p w w q 3 3 4 > > 4 4 4 q q w e Z H Y H H A e w e e A F G G G A A A A p p p p p A A F H H / | ' } 4.6.d.6.4.6.3.[ } 3.5.4.3.d.6.6.6.d.d.d.d.l.6.l.L.L.d.L.U.U.U.L.d.d.d.d.d.L.L.d.d.6.5.5.f.5.k.l.l.d.5.5.f.d.d.l.x.v.l.k.k.6.d.d.l.l.U.T.T.W.'.W.!.!.|.|.'.|.|.'.R.I.I.I.I.R.I.R.R.R.R.R.R.R.|.|.W.|. X.X.XoX3XoX.X.X X^.!.!.!.!.!.R.W.!..X.X.X3X4X7X4X4X3X5X3X.X.X$X$X$X3X3X7X3X3X$X$X$X7X3X7X3X3X3X$X~.^.^.^././././.^.^.(.3X3X7X6XrXrXrXrXrX9X9X6X6X6X7X7X7X7X7X7X7X7X7X6X7X6XrX7X7XrX6XrXrX6X6XrX6XrXrX6X3X X'.`.c.%.j 1 @ o o . @ 5 e.aXVXDXVXhXaXM.m l h t 5 - 5 5 6 5 6 6 s R ~ ,.V.{.+X<XgXhXdXM.M 7 - c V e.N.S.r.*.M.S.S.M.M 7 7 s m B.+X;XZ.h & < i i o.D.S.e.pXvXpX*.G.dXxXDXKXHXDXpXe.vXHXDXVXDXDXpXvXHXvXiXV iXPXvXIXIXsXIXUXiXsXIXe.M &.D.iXv M.pXaXS.S.aXdXvXpXe.N.B n N c 7 B.AXMXhXpX; y nXCXDXe.y F.JXHXSXZXxXzXzXzXzXcX6X6X5X3X*X.XW.U.Y.U.P.P.R.^..X$X3X3X3X7X7X7X3X3XoX.X X.X X X X.X*XoXoXoX X X!.!.W.W.W.W.!.!..X3X9X9X9X8X4XoX XoXOX X XoX.X.X.XoX X X XOX|.'.E.l.k.5.5.6.d.6.6.6.4.3.6.L.Y./.|.oX X X XXXoX X X!.|.|.OX X|.|.!.!.'.'.'.|..XoXoXXX=X=X8X8X=X=X=X X~.*X=X=X5X6XrXrXzXmXmXmXmXmXmXeX8X*X!.^.Y.P.f.f.3.3.4.d.Y.W.|.OX=XXX!.U.d.4.[ ' [ [ 3.f.l.x.T.T.XX-X:X,X,X,X>X=X-XXXQ.U.f.7.] ` O.o.~ E U T ~ ~ T D A d d D ^ 2.q.1.( T E l l l l z z z z z z z g g h h z l z z s t 0 t t s g g g j l l l l g s t t r q i i s ) A.gXBXA.w g i *.A.8.C.,.T f J J J o.B.F.p.p.@.b b k j R *.*.j k a L R ! <.#.T 0.0.9.1.( j pXsXD.N.a.N h z z M.D.N.@.x a.y.N N.jXM.y.z m y.M N.m q , & # 6 s < & # % % @ & : 1 j m D.jXjXjXM.&.pXK.K.N.y.N N N y.y.N N N N V N B ",
"4 a d e w q 3 3 > > > 4 3 4 q q q w e Z H G G Z e w w w A A G F G A A F A A A A A A F F H W Q / ' [ 3.6.d.L.d.d.6.4.3.3.6.q.d.f.l.l.d.d.L.L.L.I.I.I.I.U.U.U.U.U.U.d.f.5.3.3.4.6.d.d.d.d.6.5.5.5.k.k.k.k.k.5.3.>.} >.3.k.k.k.k.k.k.l.l.E.E.E.T.`.'.'.|.|.|.OXOX|.|.|.|.'.W.R.R.R.R.R.R.R.R.R.W.W.!.|.|.|. X.XoX=X*X3X3X=X.X X X!.!.!.|.|.!.!.!.|..X.X.X.X3X$X.X.X3X.X.X~.~.~.$X$X$X(.(.3X3X$X$X3X3X7X7X3X3X3X~.^.^./.Y./.P./././.~.(.3X7X7X7X6XrX6X6X6XrX9X6XrX6X7X6X7X7X7X7X3X3X3X$X3X7X7X6XrXrX6X6X6X6XrX6X6XrX6X5XoXXX@XA.*.j 1 # o o o = c N.sXVXDXVXhXaX&.y t t - = $ * 5 t t i s T ( %.k.`.+X<XgXfXgXdXD.&.y - 7 V B N.e.e.*.&.&.M.D.N.c * t k E c.;XZ.y * < i 1 s p.D.S.S.iXe.*.S.dXCXSXJXHXDXjX&.pXHXHXVXDXJXvXDXKXHXvXB e.vXPXvXsXiXIXUXe.iXsXpXM e.M iXM M S.aXpXD.D.D.S.Z.j.X.m = O - 5 B.CXSXDXaX- 5 hXDXSXb < D.KXHXCXMXwX6X9X6XrXrXeX9XrX6X3X.X!.Y.I.L.L.P.Y.^.~..X$X$X3X7X3X4X3X.X.X.X|.!.!.!.|. X X X XoX X X X|.!.!.!.!.!. XoX4X8X9X9X8X4XoX XOX!.OXOX.X.XoXoXXXoX XOX|.OX|.R.U.k.5.5.6.6.3.3.4.6.6.6.6.L.L.Y.|. X X X X X X X|.|. X XoXXXOX|.|.'.'.'.|. XXXXXXXoX=X8X8XwXwX9X9XrXrXwXwXeXeXeXeXeXyXyXmXyXeX9X4X!.U.f.} _ | _ [ [ [ 3.d.U.W.|.OXOXW.U.f.7.[ { { [ 7.f.x.`.[.OXXX=X=X>X,X,X>X>X-XXX|.Q.U.d.3.>.2.;.#.#.~ T T W ~ T D A d d A W ;.k.k.;.~ E l l l z z s s s s s g s s s s s h z h s t t u t s s g g g g l E E g s t 0 0 0 1 q j j ~ n.lXMXn.#.g g 8.8.b.A.0.E ~ / T ~ +.@.X.X.l a.p.@.o.,.,.L L X.m =.+.-.2.( ~ 0.C.0.K a *.aXvXaXpXD.N.N.N x y.a.M.K.h B y.N @.j.F.M.a.j M.&.b X.: % @ # y a.h : @ & # , , < i j b =.pXaXe.&.J.pXK.K.K.a.N N y.y.y.y.y.y.y.N N V ",
"3 f D S d a q 3 4 4 3 3 q q q q q q w Z G G G Z e w w w p A G F F F F H H G F F F G H H W Q Q _ [ } 4.d.I.I.I.I.6.6.4.6.k.l.l.d.I.l.L.L.I.U.U.I.I.U.I.U.U.U.U.U.l.d.5.5.5.3.3.6.d.d.d.l.l.d.5.5.5.5.5.5.5.>.[ ] ] ] :.>.5.k.k.k.k.l.E.E.E.E.T.).'.'.|.|.|.|.|.|.|.|.|.|.|.!.W.Y.R.R.R.R.R.R.R.W.!.!.!.!.!. X.X.X3X4X4X3X=XoXoX X|.OX XXX X X X X X.X.X.X~..X.X.X.X.X~.^.^.~..X.X~.~.(.(.$X$X(.(.3X3X7X3X3X3X~.^.^./.P./.P.P././.^.(.(.3X7X7X7X6X7X7X6X6X6X6X6X6X6X7X7X7X3X(.(.(.~.~..X3X3X6X6X6XrXrXrXrXrXrXrXrX9X6X3XoXXX].8.j i & @ @ @ 5 M pXvXvXVXjXaXD.v - - - = + O $ 5 t t t g ) ( <.n.}.].gXxXgXfXgXdXe.n 7 - c M M M M.M.m h e.pXpXM = * 5 i %.*.h * @ < < & i M.D.pXpXN.m *.jXMXCXDXKXJXvXjXe.pXHXKXHXHXJXLXLXKXPXvXiXiXvXsXIXsXiXsXB B iXe.vXN.N.y n B M M.D.pXS.t y @.A.Z.*.&.< o X O @.CXJXSXDXc < hXDXjXv < S.HXKXCXZX0X8X6X6X6XeXeXeX9X6X7X*X!.R.U.L.L.P.Y.!.~.~.~.$X3X7X3X3X3X.X.X X!.W.R.R.W.W.|.|. X X X X XoX|.|.!.!.!. X=X4X5X9X9X5X4XoX X|..X|.|. XoX3X=XoX.X X|.|.OX|.W.v.l.k.d.f.6.4.4.f.6.6.6.6.d.L.R.'. X X.XoX.X XOX|.|.|. XoXoXXXOX|.OX[.OXOXXXXXXXXX=X8XwXzXzXmXmXmXmXeXeXeXeXrXrXrXrX6X9X9X9X=X~.^.f.} Y Y Y Y _ _ _ [ 7.4.U.W.'.'.Q.U.3.[ { _ ' { [ 3.l.T.{.:X:X-X>X-X>X0X:X:X>XXXXXQ.U.U.U.d.f.k.1.,.,.#.^ W W W F G A e e A W ^ 1.k.1.%.) l l z h s s s s s s s t t t t s s s s s u u u u s s s s s s l l E h s t < < 1 1 r j a g T m.lXBXAXgX,.j R Q.-Xg.#.! Y ~ #.o.L X.+.j E ) E J S $.0.8.o.J X.=.=.0.$.~ E E E D f $.B.aXaXpXD.S.iXiXy.y.M.M.K.N h a.N.N X.].M.a.m h &.s v y = & & 5 h &.M.M.t , , 1 1 i l X.j e.N.N K.K.D.D.K.K.N N N N N y.y.y.y.y.N N N ",
"a K ! T K f a w q q q q w w w w w q w w A A A Z e w w w p A G F H H H W H H H H W H W Q Q _ _ { [ 3.6.L.I.U.I.l.6.4.4.4.6.l.l.I.l.l.d.L.L.U.U.I.U.U.I.I.U.U.U.I.l.l.k.k.5.5.5.d.d.l.l.I.l.k.d.5.5.5.5.5.1.>.] ` ` ] [ >.3.k.l.x.l.I.E.E.E.E.T.).[.'.'.|.'.W.W.W.|.|.!.|.|.!.!.!.W.W.R.Y.R.Y.Y.!.!.!.!.!.!.|. X X=X3X=X=X=XoXoXXXOXXXXXXXXX-X=X=X.XoX.X.X.X.X~.~.~.~.~.^.^.~.~..X~.~.~.$X$X.X~.~.(.3X3X3X3X$X~.~.^.^./././.P./././.^.(.(.3X3X3X7X7X7X7X7X6X6X6X6X6X7X7X7X3X(.(.~.~.~.~..X3X7X7X7X6X6XrXrX6X6XrXrXrX6X4X=XOX`.h.R g 1 < 6 t j &.pXjXaXaXpXD.M.u = ; ; ; O O $ - 5 t i j ( #.s.c.v.V.fXMXgXfXhXhXD.B c - u c M M M.M.v 5 m M.N.B - O * t X.m , o o @ @ * h S.aXaXS.M j S.hXCXCXSXJXKXjXN.N.aXDXKXJXHXKXLXLXLXPXsXiXsXvXpXsXsXiXiXB M iXB aXsXiXy 7 n N.N.M.D.jXb h B.*.s.h.aXh * & & *.MXSXDXVXn 7 dXjXM - 7 D.DXHXDXCXfXqXwXeX9XeXeXeXeX6X6X4X*X!.W.Y.Y.Y./.^.~.~.~.(.3X7X7X4X3X3X.X X!.R.Y.Y.W.!.|.OX X X|.|.oXoX X X|.!.|..X4X5X5X9X8X5X4XoX X|.|.!. XoXoX*X*XoX^.!. X X X'.W.T.E.l.k.l.d.d.d.d.6.6.6.L.I.U.W.OXoXoX=X=X.X X XOX!.|. XoXoXXXXXXX@X@X@X:X>X>X8X8XwXzXzXmXmXmXmXmXmXyXyXrXrX5X3X*XtXtX~.~.~.Y.f.} { _ Q Q W Q _ _ _ _ [ 3.d.I.U.U.U.f.[ { _ _ _ _ [ 5.E.[.XX=X=X>X-X:X=X=XXXXXXX{.OX'.T.Q.U.U.d.k.1.1.2.>.] _ Q W W G Z e Z A W ^ 2.k.s.<.@.E l j s s g z s s s t u u u t t s s s s h h h h h h s i i h j l E j s t t < < 1 g g i d w R A.gXnXlXkX&X~ *.1X-Xm.1.O.,.^ ^ -.O.8.j.@.T J a i a E B.G.0.+.R X.=.=.*.@.j s 0 X.%.@.) &.Z.Z.p.*.e.e.e.M.M.K.M.h @.a.h =.1Xa.N N s b y.V V u , 6 e.N B aXVXVXe.i i a s j b X.M.v N.K.K.D.D.K.K.N N N N N N y.N N N N N y.",
"a K O.O.! T S p a a a p p p p a w w w w Z A A A e e e e A A F F H H W W W W Q Q / / / _ _ ' [ [ } 3.6.d.I.U.I.I.f.4.3.3.5.k.l.l.l.l.d.d.L.I.I.I.U.U.I.I.I.U.E.I.l.l.l.k.5.5.d.l.l.U.R.R.U.l.k.d.3.3.3.3.3.7.[ ] ] ] [ 7.3.k.l.E.U.U.U.U.U.E.T.T._.`.'.'.'.W.W.W.!.!.|. X X X!.!.!.|.W.R.R.Y.Y.!.!./.!.^.!.!.|. XoXoX.X.X.XoXXXXXXXXXXXXXoX>X4X4X4X4X4X3X3X3X.X~.~.~.~.^.^.~.~..X~.^.~.~.~.~.~.~.(.3X3X3X3X3X$X~.^.^.^././././././.^.^.(.(.(.(.3X3X3X3X3X3X7X6X6X6X6X6X7X3X$X~.^.^.^.~.~.3X3X3X6X6X6X6X6X6X6X6X7X6X6X5X4XXX`.g.X.j i t i h m M.pXpXpXiXe.M v 7 ; + + + X O + = * < i R %.#.2.g.k.v.,XMXxXgXMXCXjXN.M c 7 y n &.e.&.v - y N M n - @ * t s t = O o X . # h M.aXsXN.M k *.gXAXAXSXKXKXaXn N.jXDXJXKXHXKXLXLXLXPXsXiXsXsXiXiXsXiXiXB M e.iXB sXiXc - y S.M.S.D.jXjXD.j.;X+XC.F.F.Z.X.j z.MXMXDXnXc 7 dXF.v $ 5 S.DXDXhXhXxX<X=X4X9XrXeXeXeX9X6X5X*X.X!.!.!.^.!.~..X.X.X3X7X7X7X7X4X3X.X X!.W.R.W.!.|.|.OX X X|.|.oXoX.X.X.X.X.X3X4X5X8X8X5X5X4XoX X X!. XoX.X*XoX.X.X!.!. X X X X'.`.T.E.l.l.I.U.U.I.I.I.I.U.U.R.|.XXoXoX=X.X X XOXOX|.|. XoXXXXX@XoX>X<X0XkXkXlXzXzXeXmXmXmXBXBXmXmXyXeXrX7XtX^./.Y.Y.P.f.f.f.4.4.4.} [ ` ] ] ] ' _ ' { [ 7.f.d.d.d.3.} { _ _ Q | _ [ 5.E.[.OX=X=X-XXXXXOX|.|.'.'.{.|.{.XX|.W.W.T.v.z.s.1.>.[ [ ` ` ^ T A e A G H ^ >.k.k.g.%.R l j s s z l j h s u u u u t t i s s s h h u h h h s i i s z l g g h s 0 < 1 q g a a f a f X.c.;X1XMXAX2Xo.X.F.+Xc.<.! O.O.,.9.,.h.G.C.0.$.,.K a i *.F.C.w.,.M.&.M.&.m 0 < : r ) q , m S.X.@.E &.Z.M.&.&.M.a.h l M B MX;XN y.z t z V N h t y N.iXB K.sXVXVXaXj f j j X.@.N N y.iXK.pXD.K.N.a.y.y.N N N N N N N N N y.",
"a R O.O.O.~ R J f d p A G G A p p w e w A A G G A A A G F F H H H H W Q Q Q / / ` ` ` ` ` [ [ } 4.4.6.d.I.I.I.d.4.3.3.3.3.d.l.l.l.l.d.d.d.d.I.I.U.I.L.d.I.I.I.I.l.l.k.k.5.5.k.U.I.R.T.T.U.I.l.d.3.3.3.3.3.3.7.7.7.7.3.3.6.d.l.E.U.U.U.I.I.U.U.U.T.T.R.W.W.R.R.R.!.!. X X X X!.!.!.!.W.Y.Y.Y.Y./.Y.Y.R./.Y.R.!.!.OX|. X X XXX X|.OXOXOXXXXX-X=X4X5X5X5X4X3X3X3X3X.X~.^.^.^.^.~.~.^.^.~.~.~.~.~.~.(.3X3X3X3X3X$X(.(.~.~.^.^.^.^.^.^.^.~.(.3X3X3X3X3X3X3X3X3X7X6X6X6X6X6X7X3X$X~.^.^.^.^.~..X3X3X4X6X6X6X9X6XrXrX6X6X9X4X3XoXv.o.f s i t 1 i j *.D.D.N.e.v u 7 - ; + + + X X X + $ * i @.o.o.<.x.v.T.,XMXhXgXCXDXvXpXN.B u - y M e.&.n - * y u 5 = @ < s 6 * O o .   . & &.D.N.iXe.h h *.jXCXCXSXJXKXaXv M vXHXHXHXJXKXLXLXLXPXsXiXsXIXiXB iXUXB iXM e.iXe.iXsXB - h M.D.S.pXD.aXH.*.j.A.;X;XZXfX+X<XfXlXMXSXjX7 u jXnXn * y S.VXSXCXfX+X<X8X5X3XrXeXeXeX9X5X4X4X*X.X!.!.!.!..X.X.X$X3X7X6X6X6X4X3X*X.X!.!.W.!.!.|.|.OX X X X XoXoX.X.X$X3X3X4X4X5X9X9X8X9X5X3XoX=X*XoX=X=X3X3X.X!. X!.!. X.XoXXXOX'.).T.R.R.'.'.'.|.W.R.U.R.W.|. X XoX.X.X X|.|.|.!.!.|. XoX:X<X0X0XkXzXmXNXmXmXmXmXmXmXmXBXmXmXyXeX9X*X^.P.L.} } { { [ 3.4.4.4.4.4.} ] [ 3.3.7.[ { ' ' [ } 3.3.3.[ ' _ Q Q _ _ ' [ 3.l.E.W.|.OXOXOXXX'.W.'.'.W.'.{.XX:XXXXXXX'.T.x.z.k.>.:.7.5.k.,.~ D d A F W ^ 1.z.z.g.$.~ E j g g z l h h s t u u u 0 0 i s j s s t s h z h s 0 0 s j j j j =.l 0 0 t a E g a L f j E @.j.&XgXgXgXA.=.=.=.=.g.~ ! ,.r.q.9.9.B.F.r.+.O.K K i 1 f B.G.pXM.a.m s s h h h m E &.t 7 B pXaXs q a.Z.p.K.pXK.N h N.y.D.hXa.N N x s z h N s i N.pXN.pXaXsXVXVXM.j j X.%.l h N y.iXiXK.K.K.M.a.N.N.y.N N N N N N N N N.",
"a R O.-.,.O.! ! J D G G F F F G A d p e G G F F G F F H W H W Q W W Q Q Q / _ _ ` ] ` :.] [ } } 4.4.6.d.I.I.d.6.3.3.3.7.3.5.d.k.k.d.d.f.6.d.d.d.I.d.d.d.d.d.d.l.l.d.5.5.5.6.l.U.I.U.R.R.U.U.I.I.f.f.f.f.6.6.6.6.f.f.d.d.l.l.I.I.U.U.U.L.d.d.d.d.l.I.U.R.Y.Y.Y.Y.W.!. X X X X X!.!.!.W.R.Y.Y.Y./.R.W.!.R.W.R.!.!.!.W.W.!.|.|.'.'.'.`.[.[.OXXXoX3X4X6X6X4X4X4X4X3X$X.X~.~.^.^.^.~.~.^.~.~.~.~.~.(.$X3X3X3X3X3X3X3X(.(.(.$X(.~.~.~.~.(.(.(.(.(.3X7X3X3X3X3X7X7X6X6X6X6X6X7X7X3X(.~.~.^.~.~.~.$X4X7X6X6X6X6X6X6X6X6X6X6X4X.X'.g.X.s k k s i j j X.&.e.M c - - - - ; + + O X X X + ; * t E ~ o.g.}.&X&XgXMXMXxXCXSXCXhXaXiXB u u v e.M.M - $ - $ @ = & t j 5 * = O .   . # @.F.N.iXN.v =.dXCXCXCXSXJXKXvXM M jXHXHXPXHXLXLXLXKXPXsXiXiXsXsXB B iXc e.e.&.N.e.e.iXiXn M &.pXpXvXpXM.D.l 0 , i A.gX1XxXlXMXCXCXJXnXv y DXDXn * v pXVXvXCXxX+X[.'.8X8X5X6X9X9X5X4X3X*X*X.X~.^.^.!.~.~.~..X3X7X6X6X6X6X3X5X3X.X!.!.|. X X X XXXXX X XoX=X$X.X$X3X3X3X4X5X9X9X8X5X5X4X4X4X=X*X*X=X=X*X~.|.OX|.!. X.X.XoXoXOX|.|.|.|.XXXXXX@X|.Q.R.R.'.|.|.XXoX=X=XoX X X X X XoX>X8XkXlXlXlXNXBXBXBXBXmXmXmXmXmXmXyXyXeXrXtX~.P.uX} ' | Q _ { [ } 4.4.d.d.f.4.4.4.3.} } [ [ ' _ ` ] [ [ ] Q Q Q _ _ ` ] [ 7.4.f.d.U.R.'.'.OXOX'.W.'.'.W.W.'.XXXXXXOXOX[.`.v.z.5.:.7.l.).V.0.$.E d A F W ` 1.z.h.s.$.E E T E E E j s s s t u u t 0 t s j j s s s s s h s i 0 0 t h X.@.@.M.@.i i s E o.E o.#.R X.X.~ o.m.;X;XjXF.;X2XA.r.+.$.$.,.w.9.q.<.-.0.C.X.f a a J i 3 a &.D.z 0 s s r 0 h B N.N p.g 6 e.N.a.l < z ) X.D.aXD.K.N z a.M.jXK.N N N u x h v s l M N.N.iXiXsXIXVXVXD.l +.T j l N y.y.iXK.K.N.M.N.N.y.y.N y.N N N N N N.K.",
"q K O.O.-.O.O.O.T K F F H P W P F G A A F H H H H W W W / H / _ Y Q _ _ _ _ ' ' ] :.:.:.:.[ 7.3.3.4.d.d.I.L.6.3.3.3.7.:.7.3.5.5.5.5.5.5.6.6.d.L.d.d.f.d.d.d.d.d.d.f.5.5.6.k.l.I.U.U.U.U.U.U.U.I.d.d.d.d.d.d.d.d.f.d.d.l.I.I.U.U.U.U.U.I.d.f.4.3.f.d.L.U.Y.Y.Y.Y.Y.!.!.!.|..X.X X|.!.!.!.Y.Y././.R.!.W.R.W.Y.Y.!.!.W.Y.R.W.'.'._.Q.T.T.[.'.OX X=X$X3X4X4X4X7X4X3X4X$X~.~.~.~.~.~.~.~.~.~.$X$X~.~.3X3X4X4X3X3X3X3X3X3X3X3X3X$X~.~.(.(.(.3X(.3X3X3X$X$X3X7X7X7X6X6X6X6X6X6X6X6X3X3X~.~.~..X~.3X6X7X6X6X6X6XrXrX6XrX6X3X3X XT.h.*.m j j j j j j l l v y - - - - - ; ; + O O X X + + = < s ) $.C.<XkXkXxXZXMXMXCXSXDXCXvXsXiXM y h &.S.e.7 O = O o = , s j 5 * * O . . . # m Z.M.iXiXM M.jXDXDXHXJXKXKXVXe.e.vXHXKXHXKXLXLXLXLXPXsXsXiXsXsXB n N.n M pXM N.N.&.M B iXN.M S.aXaXD.&.m - o o o , 0 #.mXNXZXZXAXCXhXM c DXvXc , &.sXHXHXhXxXcX@XoXW.4X4X*X3X3X*X~.~.~.~.!.^.^.^.!.!..X.X.X$X7X6X6X6X6X6X6X4X.X.X.X=X=XoX*XoXoXoX X XoX3X3X.X.X.X.X.X3X5X5X5X4X3X3X3X4X=X*X4XqX4X*X.X.X.X|.|. X X X X.XoXXXXXoXoXoXXXoXXX@XOXW.Q.Q.W.W.!.*X=X=XqX>X=X=XoX=XqX9XzXzXmXNXNXNXBXBXBXBXBXBXmXmXyXyXeXrX6X3X~.P.f.} { | | _ _ _ [ } 7.3.f.f.d.P.f.f.f.d.4.3.:.[ _ / Q ^ ` / Q Y Q _ ` ] :.7.:.7.3.} } d.R.'.W.'.'.|.|.'.'.W.W.'.|.{.{.OXOX[.].V.z.1.:.5.T.`.V.B.0.R f d F / 2.1.g.g.8.%.E R R R ~ R j s s t s u t 0 0 t s g j j s s s s s i 0 1 0 0 t X.a.%.a.m s g l *.$.o.g.s.#.$.O.$.$.$.j.A.&XA.&X1XAXMXg.=.0.<.1.2.-.-.! f R B.f > > 3 j L R @.&.z z M N s r s h N m s & 1 e.X.0 h 6 1 e @.M.D.F.J.K.y.N a.aXaXy.N N x t h h z m &.D.N.iXiXIXVXVXIXVXM.j a ~ #.m N y.y.N.N.N.N.N.y.y.y.N y.y.y.y.N y.N.K.",
"q f T ~ ^ O.^ W W W F F W W W / P F F H P W P P P W Q Q Q ^ ` _ _ _ _ ` ` ' ] :.[ :.:.:.:.:.[ 7.7.3.4.d.L.I.d.4.4.} [ [ [ :.7.3.3.4.4.4.3.4.d.f.6.4.4.4.6.f.6.3.d.6.5.4.4.d.L.L.L.U.I.L.I.U.U.U.L.I.d.d.d.L.I.I.d.d.d.d.L.L.I.U.U.U.I.d.d.4.4.} 3.d.L.I.U.Y.Y.R.R.W.!.|.|.|.OX X!.R.Y.Y.Y.Y.Y./.|.!.W.W.R.Y.Y.Y.Y.P.P.Y.Y.Y.Y.R.R.T.T.T.W.!. X.X.X.X3X3X3X3X7X7X3X3X$X.X.X~.~.~..X3X3X$X$X$X3X7X3X3X3X3X7X3X7X7X3X3X7X7X7X7X7X3X7X7X7X7X3X7X7X3X3X3X3X3X7X7X6X6X6X6X6X6XrX6X6X7X3X3X(.~.$X3X3X7X6X6X6X6XrXrX9X6X8X3X.XY.k.0.*.X.h h j j E g j h y - - - - - - ; ; ; O X X X O + @ * s %.9.v.1XMXMXCXZXAXMXMXSXSXHXDXvXsXe.y t &.M.&.5 O $ o o * < y h t 5 5 O .   . # E D.e.B e.e.aXvXDXDXDXJXKXPXaXe.e.vXHXHXHXLXLXLXLXPXIXpXsXsXiXiXiXc e.M n aXe.r.S.e.B n iXpXN.N.D.aXe.n $ + O o o * - 5 a.MXNXAXZXZXDXm c DXpXc * e.dXCXHXxX<XxXcX-X:XoX3X.X.X.X.X!.!.!.!././.^.^././.^.!.~.3X3X7X9X9X9X9X6X6X6X4X5X5X5X4X3XoX.X X~.~.~. X.X.X~.~.~.~.*X3X4X5X3X.X3X3X=X5X4X4X3X*X*X=X.X XXXXXXXXXoXoXoX>X=X>X>X=XqX>X:X:XXX|.'._.T.T.'.!. X=X4X8XeX9X9XeXeXzXmXmXmXmXmXmXNXNXAXBXBXBXmXmXeXrX6XtX~./.P.f.} } [ [ [ [ { { } 7.5.4.4.I.I.L.Y.I.L.L.d.6.5.3.[ _ Q Q W W W / / ` ;.5.f.3.3.7.} } 4.f.d.U.W.`.|.OXOX|.W.W.T.T.T.T.T.T.).[.[.].V.z.2.[ 7.k.V.C.C.0.X.J f K ;.1.g.g.*.o.~ E ~ E ! ~ ! J f s i s t 0 0 t i s j j j f g a i i 0 < : 0 1 t i s E R j j X.*.g.#.#.c.k.$.$.<.2.^ J j @.n.A.B.;XSXSXgX+X0.0.-./ / F A I d l *.a : : f R X.a.N M.K.M.l g r r r z x z h j *.Z.t y X.h v &.N.N.&.Z.K.pXN.z e.nXM.y.N x u s h h m =.D.M.N.iXsXsXsXsXaXM.i j o.~ E N y.y.N.y.N.N.N.y.y.y.l l y.y.y.B y.K.pX",
"1 a D T W ~ ! W W T F F H W W W W P H P W W W W W W W Q / ` ` [ [ [ ] ] [ ] [ [ [ } :.[ [ [ [ 7.5.4.4.f.d.d.6.4.4.7.} } [ [ } } 3.3.7.7.7.3.4.3.4.3.3.4.4.3.3.4.6.d.d.d.d.d.L.L.L.L.L.L.U.U.U.Y.L.L.L.L.U.U.I.I.d.d.d.4.4.d.L.L.I.U.I.d.6.4.4.3.3.4.d.L.U.Y.Y.W.!.!. X X X X|.|.!.R.Y.R.Y.Y.R./.!.W.W.R.R.Y.Y.Y.P.L.d.L.U.U.Y.Y.Y.U.U.U.Y.!.!.~..X.X3X3X.X3X3X3X3X3X3X3X3X3X$X$X3X3X3X3X3X3X3X7X7X4X3X3X3X3X3X3X3X3X3X3X7X7X7X7X7X7X7X7X7X7X3X3X3X3X$X$X3X4X6X6X6X6X6X6XrX6X9X6X6X4X3X3X3X3X7X6X6X6X6X6XrXrX9X9X9X6X3X!.k.O.l j j h j j T j j k u - - - u - - - - ; O X X X + + @ * h %.8.V.1XMXZXCXZXCXMXMXSXJXJXHXVXsXe.y 5 v &.M u * @ o & 1 h t 6 y s 6 @ . . o 6 B.hXpXM M M VXVXvXvXVXDXHXPXiXe.e.vXKXPXPXKXLXLXLXIXPXsXiXsXe.B iXn B B M iXpX*.S.D.M n N.iXiXiXe.N.n - o . . . O 5 M , * %.1XmXZXAXSXe.7 jXN.u y =.dX<XMXAX<XXXkX0X>X=X*X*X.X!.!.Y.R.!.!.R.R.R.Y.P.Y././.~.3X7X6X9XrX6X6X6X6X4X3X3X4X4X4X3X=X.X.X!.^.!. X.X.X~.~..X.X*X4X4X5X4X=X4X4X3X5X3X4X4X4X4X4XoXoX X X XXXoXoX=X=X>X8X8X8X8X>X:XXX'.W.T.T.I.I.R.R..X4X9XeXmXmXmXmXmXmXBXNXBXBXBXBXBXBXBXBXmXmXeXrX5X*X^./.P.L.f.4.} } } } } 3.3.4.4.6.d.d.d.I.U.P.U.U.L.L.d.6.5.7.] _ / / / Q / / ] :.>.l.U.b.l.l.L.f.f.d.d.U.Q.Q.`.`.W.Q.Q.U.U.x.x.x.x.l.l.T.).V.C.9.] _ ] q.V.C.B.0.@.j S ! 2.g.g.8.o.E g D T J R o.+.o.T g s i s s s s s j j E L f g g g a 1 2 : 1 1 i i i a X.$.@.$.<.g.,.#.] ;.^ O.#.^ ! g j l ) s.$.;XDXSXxXZXgX8.$.+.f p w d s.4 s j.4 2 s e s l z g l @.a.z s l t 1 s x x l m M.N.h s h N.N.N.N.y.N.D.aXaXa.m hXjXM N V u 0 z y m =.M.D.B iXsXsXvXjXp.h j T X.X.E l N y.y.y.N.N.N.y.y.N z l y.y.y.y.N.K.K.",
"2 q e d D F W W W K F F F H P P F W W W W W W W W W H W / ` [ [ 7.7.[ ] ] [ [ [ [ } } [ [ [ [ [ 3.3.3.4.4.6.d.4.3.3.} } [ [ 7.3.3.4.4.4.3.7.3.7.3.3.3.4.3.} } 3.3.5.6.4.4.6.d.d.L.L.L.L.U.U.U.Y.Y.U.I.U.Y.Y.I.L.L.d.4.4.3.3.4.f.L.I.I.I.d.4.4.4.4.4.d.L.U.R.!.|. X.X.X.X.X X|.!.R.Y.Y.W.R.Y.R.W.!.!.!.R.Y.Y.I.L.L.4.4.4.d.L.U.Y.P.L.L.L.P.Y.^.^.~.~..X.X~.$X3X3X3X3X3X3X3X3X3X7X3X3X3X3X3X3X3X7X3X3X3X3X3X3X3X7X3X3X7X7X7X7X6X6X6X7X7X7X7X7X3X3X3X$X~.~..X*X=X4X4X5X5X6XrX9X9X6X6X4X3X3X3X7X7X6X6X6X6X6X6X6X6X6X4X7X3X$Xv.o.s j X.j j g j j s t - - 7 c c c c 7 - ; O O X X O + $ = s R $.A.1XxXCXCXCXMXMXMXSXJXKXJXDXjXN.h 6 h M m h 5 @ @ 1 j E m y 5 t t 6 & o % i F.DXvXe.&.N.jXHXjXjXVXDXVXpXB e.pXvXHXPXPXHXLXKXLXIXsXsXiXiXB c B B M e.e.S.pXr.r.S.=.m N.pXpXe.v B c = . . . O $ c pX&.- : l 1XBXSXJXDX&.D.N.5 v e.dXlX8XNXZX<X|.qX6XtX4XoX.X X!.!.!.!.R.Y.Y.Y.Y.P.Y./.^.~.3X7X6X9X9X6X6X6X6X4X3X$X3X4X5X4X4X3X*X.X.X.X.X~. X!.!.!. X.X=X=X4XoX.X=XoX.X4X4X5X9X9X8XqX=XoX=X=XoXoX=X.XXX=X=X=X8X8X=X-XOX'.).x.l.k.f.I.R.!.*X9XeXmXBXBXBXBXBXBXBXBXBXBXmXmXyXyXeXeXeXrX6X3X^.Y.P.L.L.L.L.d.f.f.4.4.4.4.d.L.U.R.R.U.U.T.).W.Q.T.I.I.d.d.6.5.:.:.:.:.[ [ [ [ 3.d.x.T.{.'.'.'.`.T.U.U.U.U.U.U.v.l.k.l.k.5.f.1.5.5.5.5.5.q.x.z.9.,.^ ^ ` 1.z.C.B.*.X.j R $.9.g.s.@.l a a f f f R o.+.+.o.E j j s g g g g E E E R L J J j a q 1 > 3 q a a a a X.h.$.E E $.~ W F D T T R R R j j =.g l E j.dXNXlXCXZX;Xj.=...a > > a 1 t &.g.a s s < 0 r g i 2 g ) E i k k g g j &.t s S.aXm N B N &.N.iXS.H.D.a.N x p.hX&.N.N x x x m v S.D.aXN.N.aXaXaX*.s s a f m l E z N y.y.y.N.N.N.y.y.z z z N y.y.y.y.y.N ",
"2 3 q w e A F W K F F F G K K F F F F F W H F H W W H H Q ` [ [ 7.7.:.] ] [ [ [ [ } } } } } [ } [ } } 3.4.4.d.4.6.3.7.} } 7.4.f.4.d.6.6.6.3.3.} } } 3.3.3.} } 3.6.6.6.f.f.d.L.L.L.L.L.L.P.P.P.Y.R.Y.Y.Y.Y.Y.L.L.d.d.6.4.3.} 7.3.d.d.d.d.d.6.4.4.4.4.4.L.U.W.|. X X.X=X=XoX.X X|.R.Y.Y.R.R.R.W.W.W.R.R.Y.Y.U.I.L.L.d.f.L.L.P.P.Y.L.L.L.L.L.P./.^.~.~..X.X~..X$X$X$X3X3X3X3X3X7X7X3X3X3X3X7X7X7X7X3X3X3X3X3X3X3X3X3X3X7X6X6X6X6X6X6X7X7X7X7X3X3X3X~.~.^.^.^.!. X X.X*X*X5X6X6X6X5X4X3X.X$X3X3X4X7X7X6X7X7X6X6X4X6X4X3X~.!.q.o.j l E l E g f g i t - 7 v M M M n c - = $ + + X O + $ $ t j %.A.dXgXxXCXCXMXMXMXSXJXKXHXvXpXN.v k j m &.v y < < a o.j.*.t t y i s s 1 i R F.DXDXpXN.aXVXDXVXaXvXHXPXiXn e.vXPXHXVXPXHXLXHXPXIXiXiXe.N.B 7 n e.B iXS.pXpXe.S.r.b &.pXiXN.B = c - o o . O 7 n pXD.m t 6 , < &XFXJXSXMXVXN.c M S.gXxXxXwXNXlX8XoX*X3XoX.X.X.X.X!.!.!.W.W.W.W.!.W.^.~..X.X3X3X4X6X6X6X5X3X4X3X3X$X3X4X4X7X4X4X4X3X.X.X.X.X.X.X X X X X.X*X=X.X XoX.X.X3X8X9XwXwX8X8XqXqX8X8X8X4X=X.X|. X=X=XqX=XXXOX'.v.k.d.k.k.f.U.|.*X9XeXmXmXBXBXBXBXBXBXBXBXmXmXeXeXrX6X4X*XtX~.~.~.!.Y.L.L.d.d.d.d.d.d.4.4.4.d.L.U.W.[.'.'.'.[.[.[.'.W.R.I.l.l.l.6.6.5.5.d.f.f.f.f.d.U.T.OX:X:XXXXX'.T.T.U.U.U.l.k.f.;.;.;.` ] ;.;.;.;.2.;.;.2.1.9.$.#.O.^ -.<.g.h.B.*.X.X.%.8.g.h.%.E i q q a a g L +.*.8.%.o.J f f g T T E E ~ ~ o.o.o.o.R j a q i i s a r d f E *.%.g s E R R J a p d p f +.%.g &.j h m E m.;X].AXSXxXc.%.X.j 3 2 i i N v s C.z 0 u t 1 2 1 : < g q 1 6 i j J *.=.a q t &.M.h N m v N.N.M.M.&.@.p.m.l pXM.&.h < h h z y B K.N.K.M.&.X.s t < i q i @.Z.Z.l v y.y.K.iXK.N.y.y.y.y.N N N N y.y.N z ",
"2 q q q w p G F F G G G G F K D G D F F F F F F K W W W Q _ [ :.7.7.:.] ] [ [ [ [ } 7.7.7.} [ [ [ [ [ 7.4.4.4.4.d.3.3.3.7.7.3.4.3.6.d.d.d.4.3.7.} } 7.7.3.3.3.3.4.4.6.d.L.L.I.I.U.U.U.U.Y.Y.P.Y.R.R.Y.Y.Y.P.L.L.d.d.6.3.3.} [ [ 7.7.3.f.f.6.3.7.3.3.4.d.U.W.|.|. XoX-X-XXXXX XOXW.R.Y.Y.R.R.!.!.Y.Y.Y.Y.Y.U.I.L.L.L.P.P.P.P.P.Y.P.P.L.P.P.Y./.^.^.~..X.X~..X.X.X$X3X3X3X3X3X3X3X3X3X3X7X7X7X3X7X7X7X7X3X3X3X3X3X3X3X3X7X6X7X7X7X6X7X7X3X3X3X3X$X~.^.^././.!.W.W.W.|. X.X*X*X*X*X.X.X.X.X~..X3X3X3X3X3X4X7X4X4X4X4X$X~.W.9.o.X.X.l X.X.R T j j t y M e.M.e.&.M b 7 - = $ + O + + @ = t j o.B.F.dXgXMXMXMXMXMXSXJXKXHXvXpX&.k k l m &.m h i i j %.A.F.m h m X.o.o.R $.}.gXDXHXvXaXvXHXPXPXsXvXHXPXVXN.N.sXPXVXvXPXKXHXHXPXsXiXiXB e.B - c e.N.pXpXdXpXS.S.r.h e.pXiXc 7 o ; ;   O + y e.aXD.m = h X.b 1 j.ZXSXJXAXSXaXM e.*.@XlXxXkXlXwX8XwXoX~.=X=X3X=X.X.X.X.X.X X!.|..X.X.X3X4X4X4X3X3X4X6X5X4X4X3X$X$X$X.X3X4X3X3X3X4X4X3X$X$X$X.X.X.X.X.X.X.X*X*X.X X X X.X3X9XwXwXwX8X8X8X8X8X8X0X8XqX=X|.|.XX=X-X=XOX|.`.x.k.d.l.U.Y.Q. X*XeXeXmXmXmXBXBXBXBXmXmXyXeXrX6X3X~.!.!.W.W.W.!.|.!.Y.U.L.d.d.d.L.d.d.d.d.l.U.Q.|.}.XXOX X|.'.'.'.'.`.T.I.L.I.I.l.d.d.d.d.d.d.U.U.P.Q.|.XX>X=X-XXX'.T.U.U.U.l.5.2.( ~ ~ ~ ~ ^ #.( ^ ^ ~ ~ ! o.$.#.O.o.O.O.$.8.g.B.B.*.*.%.%.8.g.8.o.g i i g J J E X.$.*.0.,.O.T D D T T / ^ ^ ^ O.,.<.8.,.$.O.R f j g E f e d f f E *.j j E j k j i i J j a E *.g X.l l p.l j o.B.CXAXNX:X#.d j b =.AX@.h h < l m.s t N N h s 2 < & : , < q U $.0.b a q q i X.j s j t m p.m h D.hXCXnXD.aXaXi 6 y V x 0 v B a.N a.p.l a s 1 i 1 > i g @.p.p.v N y.N.K.y.y.y.y.B y.y.N N N y.y.N s ",
"> q w w e p A G F F G G A G G D S S A A F F F K W ^ ^ ^ _ [ [ 7.7.5.5.:.:.] [ [ :.7.7.7.3.7.[ [ { _ ' [ } 4.4.4.4.} } 3.3.7.3.3.5.d.d.d.d.4.4.3.[ } } } 3.4.4.4.4.d.d.L.U.Y.Y.U.Y.Y.Y.Y.Y.Y.Y.R.Y.R.Y.Y.Y.P.P.P.L.d.4.4.3.[ [ { [ [ [ 3.3.3.7.7.4.3.4.d.U.R.W.'.|.XX-X@XXXOXOX|.W.R.U.Y.Y.Y.!.!.Y.Y.Y.Y.Y.U.L.L.L.L.P.Y.P./././.Y.Y.Y.Y.Y.Y.!.~.~.~.$X.X.X.X.X$X$X3X3X3X3X3X$X$X$X3X3X3X7X3X3X7X3X7X7X3X3X3X3X3X3X3X3X3X3X3X3X7X7X7X3X3X3X3X3X.X~.^./.Y.P.Y.U.U.U.Y.R.W.!.^.~.!.!.!.!.!.~.~.$X3X3X3X3X3X3X3X.X3X$X~..XR.1.L j j j E %.#.#.X.l h v e.D.pXpXS.&.m y 5 < * $ + + + $ * t j %.p.B.C.dXgXhXhXxXMXSXFXJXHXDXaXM t i l X.&.=.X.X.E @.*.C.aXS.e.B.$.8.h.g.v.gXMXCXHXvXjXvXHXPXPXaXvXPXPXPXvXaXvXPXvXsXPXHXHXPXPXiXB pXM v B 7 v M pXpXjXdXG.G.G.=.h e.e.B u $ o + +   $ y &.S.&.h = $ < m.n.A.A.;XAXZXDXFXDXS.M.+X[.0XeXcXwXkX>X=X.XoX4X4X5X5X3X3X4X4X5X*X.X.X3X4X5X6X6X6X4X3X3X3X4X4X3X5X3X$X$X$X3X4X6X6X6X6X6X6X9X9X9X6X6X5X5X4X4X3X3X4X4X3X=X=X=X4X5XwXzXzXlXwX8X8X8X8X0XwX9X8X=X.XXXOXXX=X=XoXXX|.W.W.Q.Q.W.^.tX*X3X9XeXmXmXmXmXmXmXyXeXrX6X3X.X^.!.Y.R.R.R.W.|.|.|.W.!.W.W.W.'.W.W.Q.Q.W.W.'.'.XX=X-X:XXXXX'.[.`.Q.`.T.R.I.L.U.U.U.Y.P.Y.Y.U.U.U.U.U.Q.'.{.:X:X|.Q.Q.b.d.d.f.5.2.;.O.~ o.$.$.O.#.O.! ~ R T J R o.X.O.O.%.$.*.h.B.Z.S.B.r.*.$.<.<.o.E g f X.$.h.0.0.8.8.<.<.#.~ T W T W ^ ( ;.;.;.2.9.h.C.C.C.z.,.! D ~ <.~ J K R ..j =.=.*.%.a 1 i i i X.%.E r s q r x x l s i a r.hXAXNXfXz.U s t H.nXh m h h 0 h D.h u u h z 0 : & & , , a q i X...J f a q a E h g a U g j A.AXFXSXCXjXpXaXm < h V V h v N N Z.N.a.o.f r t a 8 q r f i z D.M.v y.y.y.y.y.y.N B y.y.y.y.y.B N l l ",
"1 q p e d p A G F F F F G A A S A A A A A G F P Q ^ ` ] [ [ 3.5.5.5.5.3.:.[ [ [ 7.5.3.3.3.7.[ ' _ _ _ ' [ } 4.4.3.} } 4.3.7.} } 5.f.f.d.f.4.4.3.} } [ } 3.4.4.d.L.P.Y.Y.!.!.!.W.W.!.W.R.R.R.R.R.Y.Y.Y.Y.Y.Y.P.P.P.L.d.6.5.7.[ ' ' ' [ [ >.7.7.7.4.3.4.d.I.U.R.R.'.OXOX{.{.[.'.'.R.U.U.Y.Y.Y.Y.W.Y.Y.Y.Y.Y.P.L.L.L.P.Y.P./.!.^.!.!.Y.Y.Y.R.!.!.!..X.X3X3X$X3X$X3X3X3X3X3X3X3X3X$X~.$X3X3X3X3X3X7X3X3X3X3X3X3X3X3X3X3X3X3X7X7X7X7X7X3X3X3X3X3X$X.X~.^./.P.P.L.L.L.L.P.P.Y.Y./.^.!.W./.!.^.~.~.3X7X3X3X3X3X3X~.~..X.X~.^.d.-.L g s a j o.#.$.o.l h M D.aXjXjXH.B.X.j i t 5 * = $ $ * < 6 m j.p.*.B.F.aX;XgXxXMXSXJXJXJXHXsXe.h i h X.&.=.*.$.%.j.j.A.dXaXS.B.h.h.C.V.A.,XxXDXJXVXvXvXHXPXvXsXpXPXHXVXPXsXVXPXPXvXPXLXPXIXIXiXB iXn u M n v M pXF.jXdX+X+X*.&.M n n - + - X O $ - n N &.u - O O $ # o.A.n.+XX.l Z.&.A.SXvXS.V.XXqX>XqX>X0X<X.X!..X.X.X4X3X3X4X5X4X5X4X3X4X5X6X9X9X6X9X6X3X3X3X3X3X3X4X$X.X3X5X6XrXeXeXeXeXeXeXzXzXmXmXmXmXzXzXeXeXeXeXeXeXeXeXeXeXzXmXmXmXmXzXeXeXwXlXzXzXeXeX9X4X4X4X8X9X9X9X8X4X=X=X*X X XtX*X3X3X5X6XrXeXeXyXeXeX5X3X~./.Y.Y.U.U.Y.W.R.R.R.W.W.OXoX>X>X>X>X<X:XOXOXXX:X:X:X:X:X=X<X:X@X{.{.[.`.`.T.E.U.U.U.Y.Y.Q.Q.Q.Q.Q.Y.Y.Y.P.d.b.T.`.'.'.b.d.f.7.} 3.3.3.1.,.8.8.h.h.h.8.*.$.O.o.o.E E X.=.@.+.%.*.*.p.B.S.F.F.S.M.$.#.#.o.R T X.$.B.+X+X+XA.B.h.,.2.^ ! F W ^ ;.2.1.2.2.2.;.9.9.C.V.G.V.h.,.W R o.~ *.B.B.e.*.@.X.=.*.E j k i i j E ) r 0 q 0 ) p.m t t s *.jXAXMXdXF.&.=.m 2Xj.l m m h u - u M.N u C 0 0 & & : : , 1 : 2 *.B.h.j g g a g b s E s s &.B.2XSXFXJXFXjXH.pXm N N N N N B N.pXD.Z.@.g s j j f q a f g &.N.M.N B y.y.y.y.y.N N N y.y.y.y.N l g @.",
"1 a d d d p d G G F F F F G p G A A Z Z G G F W Q / -.:.[ [ 3.5.q.5.5.>.:.` ` [ 5.5.5.3.5.7.[ ' _ _ _ ' { } [ 3.4.} 4.4.7.[ [ } 7.3.5.d.d.6.6.3.3.} 7.3.3.4.d.L.P.Y.R.!.!.|.|.!.!.!.!.W.W.W.Y.Y.P.Y.Y.Y.Y.Y.Y.Y.Y.U.d.d.5.7.[ ' _ _ _ ] [ [ } 3.4.} 4.d.d.U.T.R.Q.W.`.`.`.'.`.R.T.U.U.Y.P.P.Y.Y.Y.Y.Y.Y.Y.P.L.L.L.U.Y.P./.~.~.!.!.Y.Y.Y.R./.!.!..X.X$X3X$X3X3X7X3X3X3X3X3X3X3X$X~.(.3X3X3X3X3X7X7X7X7X3X3X3X3X3X3X$X3X3X7X3X3X3X$X(.(.3X7X3X$X.X~.^./.P.P.L.d.d.f.L.P.P.Y./.^.^.^.^.^.~.~.$X3X7X3X3X3X3X3X~.~..X^.(.^.Y.v.C.8.*.X.X.@.~ E E l m M.pXjXhXhXdXF.*.E j s y 5 5 * = * < t X.Z.*.*.S.F.D.F.dXxXCXSXJXJXKXKXsXe.v i j X.@.=.=.*.*.Z.F.;XhXhXD.B.G.A.c.;X;X;XxXDXJXDXVXVXPXPXvXvXpXVXLXHXHXHXPXPXPXIXPXHXHXIXsXiXB N.M y u n y M N.dXdXdX+XC.*.M B n u O X ; + - u u y 7 = o O X @ * $ j &X&X<XdXt @ 5 < p.CXB.V.@X[.oXXXXXQ.|.XXOX|.~..X3X.X.X4X5X5X9X7X4X6X6X9XrXrX9X6X6X7X3X.X.X$X4X3X~..X3X6XrXeXyXmXmXmXmXmXBXBXBXBXBXBXBXNXmXmXmXmXmXmXmXmXmXmXmXNXBXBXBXmXmXmXzXNXNXmXmXzXeX9X9X9XeX9X9X9X9X6X9X8X3X*X.XtXtX~.~.~.~.3X6X6X7X3X~.!.W.P.L.d.L.U.U.L.U.U.U.Y.Y.!.=X0XkXlXkXkXkX,X<X:X<X,X0X0X0X,X,X<X<X:X X!.Q.Q.Q.U.U.U.U.Y.Y.Q.Q.Q.Y.Y.Y.P.U.f.f.f.f.l.z.b.b.>.[ _ _ _ [ 7.3.k.k.C.C.A.A.C.B.h.0.*.$.+.X.X.$.$.%.@.%.*.p.M.S.D.F.D.S.M.$.#.~ R ~ $.B.G.dXgXgXgX;X].c.2.#./ W W ` :.5.k.k.1.2.;.^ O.,.0.C.C.C.9.<.o.J L =.B.D.aXjXm.a.) z j m e.M.E l E g r e E E i @.aXaX&.m l e.hXnXnXpXpXpXM.e.mX) 0 s N s u u t z D.N < 0 0 & & 0 & < i j +.8.=.g.~ D D L J X.j k k J *.@.p.1XSXJXKXAXaXpXK.N.N.N V B N.N.y.y.a.@.i s R K J R ..R f X.D.K.N N y.y.y.a.a.a.N z N N y.N m z g z ",
"3 d S A S d d d G H H G F G A A A A A A G G H W / ^ ] 7.7.7.3.3.5.3.:.] ` _ [ } q.5.5.5.5.3.} ' _ | | _ { [ } 3.3.4.4.3.} [ { ' [ [ 7.3.3.4.4.3.3.3.3.3.3.4.d.L.Y.Y.!.!.!.!.!. X!.!.!.W.Y.Y.Y.U.P.P.Y.Y.Y.Y.Y.Y.Y.Y.Y.U.I.4.} { { ' ' ' { [ } 3.3.3.d.l.l.l.l.U.I.l.x.v.T.`.`.`.T.U.U.Y.Y.P.U.R.Y.R.Y.U.I.L.L.L.L.L.U.Y.!.!.!.!.!.W.Y.Y.Y./.!.~..X.X4X3X$X3X3X3X3X7X7X3X$X3X3X$X3X3X3X3X3X3X7X3X7X7X7X3X3X3X7X3X$X$X3X3X3X$X$X3X.X3X3X(.(.$X$X.X~.^././.P.L.L.f.L.P.P.P.Y.^./.!.^.!..X$X3X3X(.7X7X7X7X7X3X(.~.^..X~.~.~.|.{.+XC.8.<.$.( E j j m D.jXvXCXhXjXaXM.X.j E j t < 5 5 5 * < X.p.&.M.S.D.S.M.D.jXhXDXJXKXKXKXvXe.M h l @.=.l X.e.r.B.F.dXCXhXB.*.A.A.A.,XfX1XZXSXJXDXPXPXvXvXVXvXvXVXHXHXHXLXPXvXPXHXPXPXHXsXIXiXiXB n c 7 u y X.*.F.dXdXF.e.=.v M n $ o O = - - - - O .   . . $ y y y @.F.`.`.gXB.& $ o < nXdX].T.Q._.Q.R.T.Q.W.W.R.!.|..X~.~..X3X4X5X3X4X6X6X9X9X9XeX6X6X7X3X3X$X$X3X$X.X3X4X6XeXmXmXBXBXGXGXGXGXAXAXAXAXAXAXAXBXBXBXBXBXBXBXBXBXBXBXAXAXAXBXBXmXmXmXBXBXBXBXmXmXyXeXeXeXeXeXeXeXrXrX7X3X*XtX~.^.^.^./.P.Y.Y.R.Y.L.L.I.L.d.d.f.f.L.U.U.U.I.I.T.{.>X0XlXlXxXxXlX1X,X<X:X,X0XwXlXwX1X,X<X:X-XXX!.Q.U.U.P.P.P.Q.!.!.^.!.Q.Q.U.U.b.d.f.f.f.>.2.1.1.:.` ^ Q W Q 7.6.l.v.V.G.F.F.F.G.C.B.j.0.*.$.@.%.*.*.*.@.%.*.*.M.B.Z.C.Z.B.*.O.~ T ~ ,.B.G.;XgXgXgXgX<X].h.,.^ W F W ,.x.).).E.k.;.W F D T ~ O.O.#.$.#.R j j j l E m.J.p.p.X.s s 0 m @.z ) s > s E ) %.s s l a.M.N.&.iXjXjX;XA.dXgXJ.p.5X( 2 6 u u t l @.m m D.&.s t = : 0 0 0 J g.%.R I A R X.X.R R ~ *.i i o.0.@.T s.gXAXFXJXnXpXpXM.m N N v N N N V e.H.m j / +.-.+.O.O.X.m S.K.p.m y.y.y.N.y.y.y.N v V V N m j k h ",
"q D F F G A A A G F F G G G A A A G F H W / / ^ ` ` ` [ } 3.3.3.7.:.] ] [ [ [ 3.q.k.k.d.f.4.3.[ ' _ _ ' [ 3.3.4.4.4.4.3.} [ [ _ [ [ [ 7.3.4.4.3.3.3.3.3.4.d.L.L.R.!.!.!.^.!.!. X!.!.!.W.Y.Y.P.P.P.P.P.Y.R.R.!.W.Y.Y.R.Y.U.L.4.} [ [ [ [ } } 3.4.d.d.I.l.l.l.d.d.6.5.3.5.b.v.).`.T.T.R.U.P.L.U.R.Y.R.Y.U.U.U.U.L.L.L.U.Y.W.!.!.!.!.!.R.Y.Y./.^..X.X$X4X3X3X4X4X4X4X3X3X$X$X3X3X3X3X4X6X6X6X6X9X9X6X7X7X7X3X3X3X3X$X3X3X7X7X3X3X7X3X3X3X3X3X$X$X3X~.~.^././.P.P.P.P.P.P././.~.~.~.$X.X$X4X7X7X7X7X7X7X7X7X3X3X$X$X3X3X3X*XoX<X<X+XC.c.h.$.~ J X.&.pXjXVXDXCXhXjXB.=.o.o.l k i t t 5 * , h @.=.*.S.M.S.M.M.F.dXvXHXJXKXKXsXM M b l *.&.m m =.*.p.M.F.hXhX*.*.B.A.gXhX;XgXSXJXJXHXHXVXvXvXvXsXPXVXHXHXKXLXHXPXPXLXLXPXIXsXsXsXB N.c c 5 5 7 b *.B.+X+XB.=.b v n c - = 5 c c - o O +   X   O c M.*.*.A.dX;X&X-X+Xt O O @ Z.SXF.`.x.f.d.l.d.d.U.U.Y.W.!.!.~..X$X3X4X4X7X7X7X6X9X9XrXrX6X6X4X3X.X~.$X3X4X3X3X6XrXeXmXBXBXAXAXAXAXAXAXAXGXGXGXGXAXBXBXmXBXBXBXBXBXBXBXBXBXBXBXBXBXmXmXmXBXBXBXBXBXmXmXmXeXeXeXeXeXeXrXrX5X*X!.!.Y.P.P.P.f.f.f.4.4.4.4.4.d.4.4.4.4.6.l.E.U.T.U.U.'.XX>X0XlXcXcXkX1X<X<X:X>X8XwX0XwXwX1X,X>X=X*X.X~.!.U.U.P.P.U.Q.W.W.W.Q.T.T.b.v.x.l.d.d.k.k.1.1.1.2.] ` ^ / ` 5.E.T.`.].].A.A.A.V.C.c.c.0.*.$.%.%.$.$.$.o.+.*.*.p.j.B.B.B.*.O.~ ~ #.2.k.].+X+X:X:X:X+XA.g.#.~ T D A W q.[.@XXX`.k.^ S p w w p p f J E L j j j k i s E l E *.$.X.j l j s t t 0 < s s j ) w 1 t l M.sXpXN.aXS.j.B.F.MXgXs.n.,.U r 2 & < @.E j t h Z.p.l > < 0 0 r T X.E w q a #.a s $.#./ X.j i j 8.%.~ P 0.fXdXjXSXVXnXZ.h h N N z h u V y.K.M.l ! O.+.$.9.0.$.j &.D.D.M.N y.N.N.y.y.y.N V u h m l f j N ",
"w K W H F G A A G F F G F F F F G H Q / ` ` ` ` ;.` ` ] [ [ [ [ [ ] ' ] :.:.3.f.k.k.k.k.d.4.3.} [ [ [ 7.3.6.6.d.4.4.4.3.3.} [ _ _ ' ' [ 7.3.3.7.7.} } } 4.d.P.Y.R.R.!.!.!.!.!.!.!.!.!.Y.Y.P.L.L.P.P.P.Y.R.!.!.!././.R.Y.Y.Y.L.6.4.3.4.4.4.4.d.I.U.U.U.l.x.x.l.f.3.7.:.1.k.b.T.).[.).R.I.L.L.L.U.Y.Y.Y.Y.U.U.U.I.d.L.Y.P.R.!.!.W.!.!.R.Y.Y./.^.~.~..X3X3X3X4X4X5X6X5X4X3X3X3X3X3X4X9X9XeXeXeXeXeX9X5X3X7X7X3X3X3X$X3X3X3X3X3X3X3X3X3X3X3X3X3X3X3X$X(.~.~.^.^./././.^.^.~.~.3X3X3X3X$X3X3X7X6X7X6X6X6X6X6X6X7X7X7X7X7X7X3X3X0XfX;XA.C.g.$.E E @.M.aXvXDXDXCXhXjXS.B.g.o.E j i i t < * * t h b =.*.M.M.&.&.S.aXjXDXHXHXHXsXn n b X.*.&.m v h b m =.*.dXhXS.M.e.S.dXjX;XdXSXJXJXDXHXPXvXsXVXvXPXHXPXHXKXHXPXPXPXKXLXPXsXsXsXsXB B c - u - * b r.G.C.C.B.e.y y B n v n M u c $         . . * M.hX;XgXfX<XlX,X&XC.*.5 $ @ k SXhXr.q.} >.>.5.d.l.l.U.'.!.!.~..X3X3X3X3X7X7X6X6X9XrXrX6X6X7X4X3X.X.X$X4X4X3X3X6XeXeXmXBXAXAXAXAXAXAXAXAXFXGXAXGXBXBXmXmXmXmXmXmXmXmXmXmXmXmXmXmXmXmXmXmXBXBXBXBXBXBXmXmXeXyXeXeXeXeX6X3X3X^.R.Y.L.L.d.4.} } [ [ [ } 4.4.4.4.3.4.f.I.R.[.OX X|.OXoX>X0XkXxXlXlXkX<X=X-X-X=X8X8X>X>X,X=X=X=X=X*X*X~.^.U.d.P.P.Y.Q.W.W.'.T.T.v.x.v.v.v.v.x.x.x.k.5.1.>.>.:.] ;.2.k.`.'.].].`.V.c.c.z.z.c.c.g.*.O.o.+.%.%.+.#.O.%.*.$.8.0.0.8.o.R o.,.1.z.V.:X+X].c.9.<.,.O.~ E J f w w W E.XX<X>X'.q.W p q 3 3 3 3 q i a a j j j X.m E ) E <.O.o.$.o.C.*.1 5 h t < 1 > 1 a 3 t b R j.D.p.@.=.j j R G.gXA.m.A.$.T U r q 1 0 e 0 0 < t p.a.r 2 0 0 0 a i i p i a P 2.q 6 %.E f L j 0 j p.o.K K g.Z.S.iXS.hXaXN.h h z x x V B y.y.N.&.X.o.*.<.1.0.,.g @.D.K.pXN.a.a.y.y.y.N N N h h X.X.X.m N ",
"w W ^ W P G A A A F F F F F F F W / ` ;.:.;.] ] -.` ` _ _ _ [ [ [ ' ` ] :.3.5.d.k.k.k.d.d.4.3.4.3.3.3.6.6.6.6.d.6.6.4.4.4.3.[ ' _ ` _ _ [ } [ [ [ [ ' [ } 4.P.Y.Y.W.!.!.!.!.!.!.!.!.Y.Y.U.L.L.L.P.P.P.Y.R.R./.!././.W.R.Y.Y.Y.P.U.I.I.I.L.L.U.Y.Y.U.T.T.T.T.v.l.3.3.3.>.5.k.v.`.[.T.E.I.L.L.L.I.U.Y.Y.Y.U.U.U.I.L.L.P.P.Y.!.!.R././.R.R.R./.!.^.^.~..X.X4X5X5X9X9X9X8X5X4X3X3X3X9XwXeXlXzXzXzXzXwX9X4X4X3X$X$X$X$X$X3X3X7X3X$X3X7X7X7X3X3X3X7X3X4X$X(.(.$X.X.X$X(.3X7X6X6X9XrXrXrX6X6X6X6X6X7X7X6X6X7X7X6X6XrXrX6X7X7X3X5XwXgX;X].C.s.#.~ o.@.*.F.VXDXCXnXhXdXA.A.h.~ j s i i < = * * * 5 y h m &.N y v M.pXaXvXDXHXHXaXn v h m *.&.v u 5 < y v j D.jXpX&.m &.=.M.hXhXDXJXJXVXVXPXvXpXvXPXVXHXHXHXHXPXPXHXHXHXKXLXsXsXiXiXiXV c - 7 - 5 k B.G.C.9.C.=.7 n M M M &.M 7 7 X         O - e.hXhX2XfX;X<.Q.:X].;XF.X.6 & t nXHXjXr./ / ] 1.5.5.k.I.I.Y.R.!..X.X3X3X3X7X6X6X6X9XrX9X6X6X7X4X3X$X3X4X5X7X6X6X6XeXeXmXBXBXAXAXAXAXBXGXGXGXGXBXBXmXmXmXmXeXeXyXyXyXyXyXeXeXeXeXeXeXyXmXmXBXBXBXBXmXmXmXeXeXeXeX9X6X5X*X!.^.P.P.L.d.4.4.7.} [ [ [ } 3.4.4.6.6.d.I.Q.OX>X0XkX0X8X>X>X0XkXlXlXlXlXkX0X>X*X*X*X4X=X*X*X X}.!.~.*X*X*X~.Q.Y.d.f.f.d.U.U.W.T.T.v.l.l.x.v.V.V.V.V.v.b.k.>.>.>.3.>.>.1.k.T.`.v.v.z.k.g.g.g.x.c.z.g.#.E J R o.o.o.~ ~ o.~ ( #.O.O.~ J K #.g.v.}.@X<X;X].<.J d p d f g i 1 2 3 W E.>XwX0X'.1.K w 3 3 4 3 q q 1 1 1 j X.X.*.=.o.~ O.s.,.^ 2.,.].n.E M &.0 s w q r z 0 i *.Z.C.l 0 i < : 1 l %.8.A.aXV.h.;X1.Y F U r > < 0 * & 0 E U 0 : * t 1 & # 2 3 w P 1.A.j 1 j ~ ! O.j 1 X.@.T ..@.M.N.N.N.aXnXN.M.h s x N B y.B N.N.N.M.p.Z.p.9.C.$.D @.M.N.iXaXM.a.@.a.y.y.N N &.=.@.X.m N y.",
"w W ^ / T D A A A F F F H H H W Q / ` ;.2.2.2.;.^ / / Q Y Q _ [ ' _ _ ] [ 7.5.l.l.k.l.d.d.6.4.4.4.4.6.6.l.6.d.d.f.6.4.4.4.3.} ' ' ' _ _ { [ _ _ _ _ _ ' [ 4.L.Y.W.!.!.!.!.!.!.W.W.Y.Y.U.U.P.L.L.L.P.Y.Y.R.R.R.!./.R.W.!.W.Y.Y.W.R.R.R.Y.Y.R.R.R.Q.R.E.T.).v.x.x.5.3.>.1.5.k.v.`.'.T.U.l.L.L.I.I.U.Y.Y.R.R.U.U.I.I.L.U.Y.R.R.!.!./.R.R.R.R./././.~..X.X.X4X8X8X9X9X8X8X5X5X4X5X9XwXeXlXNXNXNXNXzXlXwX5X3X3X$X$X$X$X$X3X7X7X7X7X7X3X7X7X7X7X6X6X7X5X7X7X7X6X9X9XeXrXeXeXeXzXmXmXzXeXeXeXrX6X7X7X7X3X3X7X7X6XrXrXrXrXrX6X6X9XwX0X<X}.A.s.( E E X.=.F.CXDXhXnXhX;XF.A.g.( T j i i - $ $ $ O $ - 7 y v y - u &.S.iXaXVXDXVXN.v h h b &.M.c * = $ - u i M.pX&.u u y 5 h H.jXDXJXHXvXvXVXsXaXsXPXHXHXHXKXHXIXvXHXKXHXHXHXsXsXiXB iXB c $ u 7 7 k 0.+X+X].F.k t n v v b M M 7 + X X   X $ y N.jXCXMXdXA.@.q a b.n.2XfX,.B.*.M.HXVXjXhXC.,.;.1.5.5.f.d.d.P.Y.R.!..X$X3X3X7X6XrXeXeXeXeX9X6X6X4X4X4X5X6X9X6X9X9X6XeXeXeXmXNXBXBXBXBXBXBXBXmXmXmXyXeXrX6X4X5X5X5XrXrXrX6X7XtX3X7X6X9XeXeXeXmXmXmXmXmXeXeXeXrX9X6X4X.X!.W.Y.I.d.L.U.L.d.d.4.3.} [ } } 3.4.d.L.Y. X=X8XwXzXmXNXmXzXwXwXwXzXmXlXzXwXeXeXwXwX9X5X5X3X*X^.Q.Q.Q.!.tX*XtX!.Q.b.f.f.f.f.d.U.U.Q.b.k.k.5.k.l.x.v.V.V.v.b.f.3.>.3.k.3.5.2.1.f.f.s.1.<.<.8.g.h.c.C.z.g.$.R T T ~ ~ R T J D U U F K K D d D #.k.`.{.<XfX<X+X0.J q > q 3 1 < & : 3 ! _.0XlXwXOX1.F q 3 3 q i a q > > 3 R g.h.r.0.h.z.V.c.V.v.v.h.9.c.*.&.s g ~ E *.g 0 > s o.1.T 1 r s < 2 0 E g a.D.S.c.MXZX}.W W ^ e d i < i l E q g ) z s y < : # # : 4 K K 2.`.j : L +.O.O.j i E z z &.&.N y.N.N.hXN.N.m x N y.N y.y.N y.N.N.a.M.p.$.h.o.g s.B.pXaXaXK.p.p.&.&.M.&.%.g.0.,.X.X.N N ",
"d ! ^ W T S d A S F F F H H W W Q / ^ ` ;.2.;.^ ! T F F H Y _ _ _ _ _ [ [ 7.5.d.I.l.d.d.d.d.4.4.4.4.4.6.d.d.d.d.6.6.6.6.6.4.7.[ [ [ ' _ ' _ _ | Q Y Y _ [ 4.L.Y.R.W.W.W.W.W.W.W.W.Y.Y.Y.U.U.P.P.I.U.Y.Y.Y.Y.R././.R.!.!.!.W.W.!.!.!.!.R.W.!.W.R.R.l.l.x.x.z.z.v.d.5.>.>.5.l.).[.|.W.T.l.l.I.I.I.U.U.T.R.R.T.Y.U.U.U.Y.Y.W.W.!.!./.R.Y.Y.R.!.!.!.~..X.X=X4XqXqXqX8X8X8X8X8X8X9XeXkXlXzXNXZXAXNXNXlXwX5X*X.X.X$X$X$X3X3X7X6X6X9X9X9X6X6XrXrX6X6XrX9XrXrXeXeXzXzXmXmXmXmXmXmXmXNXmXzXeXeX6X7X7X7X(.3X3X3X7X6XrXrXrX6XeXeXeX9X9X<X:X+Xn.s.( U g j &.dXVXvXhXhXhXfXdX}.s.o.R j s t * $ + O O O + $ - - - = - c B e.N.vXHXVXe.y i h b e.S.y O O O @ - t m &.t @ @ @ O 5 m Z.CXHXVXVXvXsXpXsXsXvXKXKXKXKXKXPXvXHXHXPXPXPXsXiXiXB B B c $ = v y j C.+X<X+X0.k y 7 7 - v e.v = o       o 5 e.pXhXCXCXhXX.5 = @ < j.2X<X;X2XlXZXKXKXB.r.dXV.q.1.k.l.f.d.Y.Y.Y.R.!..X.X3X3X6XrXeXeXeXeXeXeX9X9X9X9X9X9X9X9X9X9X6X6X6X9X9XeXzXeXeXzXzXeXeX9XeXeXrX6X7X*X!.Q.!.^.Y.!.^.^.^./././.^.^..X*X4X5X9XeXeXeXeX9X6X6X4X4X*X XW.Y.U.P.U.U.Y.Y.U.L.L.L.d.d.6.6.4.4.U.W.*X5XeXzXNXNXZXAXZXBXNXmXmXzXmXmXmXmXmXmXmXzXeX9X6X7X*X^.P.P.P.Y.!.tXtXtX!.T.x.l.f.f.f.d.d.U.U.d.5.3.>.>.k.k.z.x.x.k.k.f.f.5.f.v.d.f.>.] ] _ / W o.o.,.z.C.h.C.C.c.g.,.#.^ ~ ~ ~ D d p p e w a a w w f O.k.V.{.:XfXfXfXA.X.i > 1 2 : & # : i O.OX0XlXwXXX1.G q 3 q f f a i q a S ;.v.A.G.A.[.].+X<X+X:X+XA.8.j.*.i 1 l p.c.Z.a & 6 X.l T X.@.m.e 1 < 0 d l N.y.&.].gXZXgXs.Z e G q s i 1 R s.e 1 0 N p.@.X.m y * & : q J ! ] Q.o.1 k L $.%.z q h m a.N.K.N.N.iXaXjXaXN z N N N y.N h N y.N.N.M X.$.%.l l n.B.pXpXiXK.M.B.0.M.B.%.<.A.C.B.&.&.N N ",
"f ~ ^ / W F G A S G F F W W W W W ^ ^ ^ O.O.^ ! R J D F H W Q _ _ _ _ [ >.7.3.6.d.d.d.6.6.d.d.d.4.4.4.4.4.4.6.d.f.f.6.6.6.6.4.3.7.} [ ' ' _ _ Q Y Y Y Y { } 4.L.Y.Y.Y.Y.Y.Y.Y.W.Y.Y.Y.Y.U.U.U.Y.Y.Y.Y.Y.Y.Y.Y.Y.R.Y.R.W.!.!.!.!.!.!.!.!.!.!.W.T.I.d.1.1.9.9.k.z.k.5.1.1.k.l.T.[.OX'.`.T.T.E.E.T.E.T.T.W.W.W.R.R.R.Q.W.W. X|. X|.^.!.R.R.W.!.!.!.~..X.X=X=XoX:X:X=X8X8X9XwXwXwXwXlXlXmXMXZXZXNXNXlX0XqXoX.X.X$X3X3X7X6X6X9X9XeXeXeXeXrXrXeXrXeXeXeXeXeXmXmXmXmXNXmXmXNXNXNXNXNXNXmXzXeXrX6X7X7X7X3X3X7X7X6XrXrXrXrXeXzXeXeX8X:X{.A.j.#.R g q h &.jXvXhXhXhXhXgXdXA.s.o.E j i < = + O X O O + + ; $ ; ; ; - u V N iXVXVXe.v i j m M &.u O O o o * h &.&.u $ X . . o * @.dXvXvXVXVXpXaXvXvXvXHXKXLXHXLXPXPXHXHXvXsXIXiXB UXB B V c - - y v R V.@XkX<X$.h , 7 $ - B &.u = . .   o = v S.F.dXCXCXhXM.5 @ o o & 0 s.;Xm.<XAXLXKXdX-.,.).`.T.d.I.U.Y.Y.!.!.!..X.X.X3X3X6XeXeXzXzXzXzXeXeXeXeXzXzXzXzXzXeXeX9X9X9X9X9X8X9X8X8X8X9X9X6X5X9X9X6X3X.X!.!.!.R.U.U.U.Y.R.R.Y.R.R.W.!.|. X.X=X3X4X4X4X4X3X*X.X.X X|.!.R.Y.U.U.Y.Q.R.R.R.R.R.R.W.!.!.W.Q.W.=X8XmXmXNXNXZXAXAXSXAXAXNXBXmXmXlXlXmXmXmXNXBXmXeXrX5X.X~./.P.d.d.d.R.^.^.~.W.R.E.l.d.d.d.L.d.U.l.d.7.[ ` ] ] 2.2.1.2.2.2.5.z.x.).`.T.v.k.>._ Y F A J R <.z.C.c.V.].].].v.1.2.#.^ W S p w q q q q q q q p ! g.x.n.'.,XlXgX;Xh.j q 1 1 2 < 2 1 f ;.OXwXzXlXXX1.G w a J o.+.X.R R ~ ,.5.x.A.+X+X<X,XgXcXcXgXfXgX;XA.B.j s @.) *.C.X.s S.aXl 1 j z ( U 1 & & 0 l u N l j.F.;X:Xs.Y d K p r z l z a.a.t u u b &.p.M.M.m 0 : 2 q ! ;.7.{.8.i i R *.Z.l t N.aXsXaXpXN.B N.VXaXK.N V y.N V N x N y.y.&.&.X.R g s X.c.j.D.iXpXiXN.D.G.C.Z.h.8.Z.F.M.&.N V N ",
"f ~ O.Q W P F F S G G F F W T W W W ! W ! ! T T J D D K W W Q _ _ _ _ [ [ 7.3.3.3.4.4.3.3.4.4.4.4.4.3.4.4.4.4.d.d.d.d.6.d.d.d.4.3.[ [ ' _ _ _ Q Y H H Y | { 4.d.U.P.P.P.P.P.P.P.Y.Y.Y.Y.P.P.U.Y.R.Y.Y.U.P.P.P.P.Y.Y.Y.R.W.!.!.!.!.!.!.!.!.!.R.R.f.>.] ^ ^ #.2.,.2.1.1.1.5.k.v.).W.'.'.[.`.`.`.).T.T.`.`.'.'.|.|.Q.!.oXoX>X=XoX X.X.X!.!.!.!.^.!.~..X.XoXXXOX:X:X=X8X8X8X8XwXkXkXlXlXmXMXZXZXMXzXzX0X=XoX.X~.$X3X6X6XrXrXeXeXzXzXzXeXeXrXrXeXeXeXeXeXmXNXNXNXNXNXNXNXNXNXAXNXNXNXmXzXeX6XrXrX7X3X7X7X7X6XrXeXeXeXeXmXmXzXeXeX:X].h.o.J j a 1 i =.pXjXhXnXxXhXdXF.A.<.%.X.l i * $ O X X X X + + + + + ; ; + ; - c M pXsXiXM t j M y y u O X O o * m S.N.n $ X X . . o t D.vXvXvXPXsXpXVXVXvXPXLXKXHXHXPXvXPXHXsXiXsXsXV B V B n c $ 5 v X.*.+X<X:X+XX.h 5 u $ V c y y @ O X $ $ $ y *.B.F.hXCXDXD.7 o o X o o i s.n.xXAXKXSXdX`.U.v.{.XXQ.W.!.|.|..X.X.X*X3X=X3X4X6XrXeXzXzXzXzXzXeXeXzXzXmXzXzXzXzXeXeX9X9X5X4X*X!.|.XXXXoX=X4X4X9X9X6X3X.X.X!.!.R.W.|..X.X.X.X X X X.X=X=X=XoX.XoX.X X.X X X!.!.XX|.|.|.W.Y.U.Y.R.'.'.'. XoX4X8XeXeXwX9X8XwXzXmXZXAXAXAXAXAXSXSXAXAXNXmXmXeXwXwXlXzXmXmXmXmXeX9X4X~.^./.P.4.4.f.P.P./.^.W.R.E.l.d.d.U.U.U.U.E.q.[ _ Y Y Y Q W W ^ ] 1.k.V.{.@X@X@X'.T.d.[ Y F S f ~ 9.v.v.V.+X+X:X@X[.v.k.1.-.W D f f f g a a a f a d E ,.1.k.b.{.kXlXfXA.$.E g a s s i a K 1.|.0XlXwXXX5.W J ~ ,.B.C.C.B.z.z.x.).].;XdX+X:XlXxXcX<X,XgX1X2XZ.) ) ) %.( W T j.c.a.a.i r ( g r ) i , @ u &.m N h Z.;X<Xn.v.8.T ;.>.K X.;X%.X.*.) t < u c h z l p.a.o.K 4 q f K >.Q.k.D a X.N.aXN u K.N.M.aXN.h M jXaXZ.a.N y.y.N N a.t h *.&.$.R J e q @.g.g.B.N.pXpXN.S.S.C.h.Z.h.@.B.B.&.N V N ",
"p T W W W W W F K F F F T W W W W W W K D D T T K T T K W / _ _ { _ _ ' [ [ [ 7.[ [ [ [ } } } 4.4.7.} } 3.3.4.d.d.4.f.d.l.I.6.6.4.} ' [ [ _ _ _ / H H H | [ [ 4.6.6.d.L.L.L.L.L.P.U.I.I.U.Y.Y.Y.Y.Y.U.L.L.L.L.L.P.Y.R.Y./.!.W.W.W.!.W.!.^.!.R.E.5.` W F D D T ~ #.^ ^ ] :.k.l.v.T.].{.{.+X].].].].`.[.{.{.XXXXOXXX:X:XqX0X8XqX4X=X.XoX X|.!..X|. X XoXoXoXXXoX:XqX8X8X8X0XwX0X0X0XkXlXxXxXxXlXwX0XqXoX.X~.$X4X5X5X9XeXzXmXmXmXmXNXmXzXeXeXeXeX9XeXeXmXmXBXNXBXBXBXBXNXNXNXNXNXNXmXzXeXrXrXrX7X6X6X6XrXeXeXeXzXzXmXmXmXNXmXeX>XV.*.j s s i < < h M.aXvXnXnXgXdXZ.j.*.@.E l t = + X O X O + + + ; ; + + + + ; ; - c B iXN.=.h h m i 5 5 = . o O t *.pXK.B $ . . X o o $ M.jXaXaXVXvXsXvXPXvXPXKXHXPXPXPXvXsXIXsXiXiXiXB c n n c c - * v X.z.@X:X].C.9.E t 7 - u X - 7 $ = X ; = = 7 y i @.hXCXnXjXv O o O o X @ s g.}.SXFXDX+XT.XX|. XoX=X*X.X$X3X4X4X5X4X=X=X*X=X6X6X9XeXzXzXzXeXeXzXmXmXNXNXNXzXzXeX9X9X5X=X X|.Q.T.E.T.W. XoXoX5X5X8X4X=X*X.X!.|.=X4X8XwXwX5X5X=X4X5X5X4X4X=XoX.X.X!.!.!.!.|.OX'.'.'.'.W.Y.Y.W. X|. X=X8XzXmXBXBXNXNXNXmXmXBXBXAXAXSXSXAXAXBXBXBXmXmXeXwX8X5X8X9XeXzXmXmXzXwX8X3X.X^./.P.} { } } uXP././.Q.Q.T.U.U.U.U.T.T.l.5.[ Q F D D D D D / ;.k.`.{.:X:X<X:X:XXXQ.d.:.^ W K ^ k.v.).].{.{.@XXX`.T.l.>.:.` K ! O.$.$.$.$.*.*.o.T T ^ ^ ;.1.`.,XxXlX;XC.g.<.*.8.8.*.%.$.z.`.0XwXwX:XV.0.0.h.z.F.dXgX<X{.`.[.'.{.{.<.( `.lXlX<X`.].;X}.n.) s j X.o.j.n.U ( m.r E f q ( s.E i a i , N.N.N &.M.H.pXCXBX;Xz.w.F.;X*.X.p.@.z s 0 t l & = & t j s z a.j.*.j 3 w U ^ x.<XJ 8 j &.K.v 0 s f }.a.s v D.CX=.h N y.y.V M.gX( 1 m h.8.E f q s %.<.2.*.N.iXiXN.K.M.B.%.a.a.z Z.m.M.m u h ",
"w K W W W W W W W W F F W W W W W W T D S D J E o.o.o.! W / _ _ [ [ [ [ [ [ [ [ [ [ [ } } } 4.4.3.} [ [ [ } 7.3.d.d.d.d.I.I.d.d.4.} [ [ [ ' ' ' _ Q Q Q _ { [ } 4.4.6.d.d.d.4.d.L.d.L.L.I.U.Y.Y.Y.Y.U.L.L.d.d.d.L.U.Y.Y.R.W.W.!.W.W.!.!.!. XW.T.q.-.! S f f J J E T W / ;.9.v.).).].+X+X+X+X+X+X+X].[.XX@X@X>X-X>X>X,X0X0X0X8X8X4X=XoXoX.X.X.X.X.X XoXoX=X=X-X-X>X8X8X0X0X0X8X>X>X>X0X0XkXkX0X>XoXoX.X.X.X$X3X7X6X9XeXzXmXmXmXNXNXmXeXeXeX9X9X5X6X9XeXzXNXNXZXNXBXNXmXmXNXNXNXmXmXeXeXeXrXeXrXrXrXeXeXeXeXzXzXzXmXNXmXNXzX9XoXV.=.j j h 1 , & t &.D.jXCXCXhXF.B.j.@.j j h t $ + X O X + ; $ ; - - ; ; + ; ; ; - - V B e.m k h m k t 5 $ o o O t M.N.N.N.- .   . o o @ y D.pXpXvXsXvXVXPXVXVXKXHXPXPXVXvXiXiXiXiXB e.n 7 c v c n 7 5 m +.V.`.'.`.V.z.f k * - O o $ - $ o     . o $ = < &.hXhXhXjXv $ $ @ o o o : U {.AXKXnXA.>X X4X5X8X9X6X6X6X6X9X9X9X5X=X.X|. X.X*X5X9XeXeXeXeXeXzXzXzXlXmXzXlXlXwX8X=XqX>XXX!.Q.T.U.U.Y.!. XXXoX4X8X9X5X4X3X.XoXqXwXeXlXcX9X9X4X4X4X3X3X3XoXoX.X.X~.!.!. X X|. X X|.!.!. X.X=X8X8X8XeXmXNXBXAXAXAXAXAXBXBXAXAXAXAXAXAXBXBXmXeXwXwX8X>X-X X X-X8XwXzXzXzXzXwX9X4X.X!.Y.L.[ | ' } uXP.Y.~.XXOX'.R.Q.Q.W.`.`.E.5.[ _ H F A d A K ^ 5.x.{.:X,X<X<X:X<X=XXXQ.f.>.] ;.2.l.T.).].].].'.`.x.x.l.k.5.1.9.z.V.F.+X+XG.F.G.h.,.^ W W W ] v.:XlXlX,X;X;X:X;X;X;X].C.h.V.].>X0X9X>X{.C.C.A.V.+XgXZXNXlX@XXX'.T.n.<.T j.hXhXdX+X+X+Xn.s.l l *.*.<.~ #.n.,.n.%.#.,.( ( ( E r p f v pXiXN.Z.dX2XZ.jXFXNXfXA.F.G.r.G.B.a.l = h D.p.& $ * t j j f j E @.@.X.j f p ,.fXgXp.0 < X.p.s 0 6 O.f.U v &.hXZ.u N y.N 0 &.hX&XX.7 e.j.*.L T E *.<.,.%.&.N.N.N.iXD.j.@.l x s p.m.*.m h u ",
"q D F H F W W W W T K K W W W W W W W F D E o.+.$.*.,.O.^ ` ` ` [ 7.3.:.} } } [ } 7.7.7.3.4.4.6.7.} [ [ [ [ 7.3.6.d.d.d.I.I.L.d.4.3.} } } [ [ [ { _ _ | _ ' { [ 4.3.4.4.4.4.4.4.4.4.d.d.L.L.U.U.Y.U.I.L.L.L.L.d.L.L.P.Y.Y.Y.Y.W.R.R.W.!. XXXXX[.).z.,.R J J L J D D K T O.9.C.A.A.].+X+X+XdX;X+X+X[.{.@X@X>X<X>X,X0X0XwX0X8X8X5X4X=XqXqX=X=X4X4X=X=X=X=XqX=X=X=X8X8X8XqX=X=X=X=XXXXXXXXXXXXXXXXX!.!.~.~.(.3X3X3X9X9XeXzXmXNXmXNXNXzXeX9X9X9X4X.X.X.X=XwXzXmXNXNXmXmXzXeXzXmXzXzXeXeXeXrXrXeXeXeXeXeXeXeXwXlXzXzXzXmXmXmXzXwXoXC.*.X.m s < * * - h M.jXCXVXjXD.M.p.X.k i i < $ + X X + ; ; = - 7 5 5 - ; ; ; ; - - c V M m h s j j i 5 $ @ o o 5 &.n c e.-     . . X = 5 e.pXaXjXsXvXVXPXVXVXPXPXPXvXsXsXiXB B e.UXB n y v M y M n t %.9.[.'._.T.E.d.^ i 5 $ o O + O O         . o 5 M D.jXjXjX&.t 5 = O o o < s ( 0XAXJXdXC.>XrX9XeXeXeXeXeXeXeX9X9X9X4X.X!.Y.U.P.!..X5X9XeXeXeXeXwXwXwXlXlXlXlXkX0X8X8X8X0X8X8X=X=XXXOX XXX=XqX=X4X5X5X4X3X3X.X4X8XeXlXlXcXwX8XqX=X=X4X4X4X=XoX3X3X3X3X3X3X3X3X.X.X.X.X4X6X9XeXeXeXeXmXBXBXAXAXFXFXSXAXAXZXAXAXAXAXZXBXmXwX>X=X-X-X!.Q.Q.U.'.XX>X0XzXzXeXeX8X8X4X.X!.Y.4.{ | _ [ f.P.^.=X,X>XXX'.'.'.'.[.).v.k.} [ ` W F d D ! 2.z.].XX:X:XXX{.-X>X=X|.Q.d.d.d.k.5.l.l.v.v.v.z.f.5.5.k.x.v.V.V.].+XfXfXdXdX+XdX+X].k.;./ W Q ( v.:XlXlXlXgXlXxXMXxXxXfX;XA.V.].XX8X8X>X@X].F.F.+X].gXSXSXCX,X'.`.`.v.x.<.j.dXjXjXdX}.j.a.E g %.C.[.C.z.9.F.A.X.~ 2.3.f.>.<.( d f f j M aXJ.H.MXmXA.M.jXnXZ.Z.X...pXm.s.) x u z h z * = * t l g E E j j *.j.%.*.=.+.9.}.gXp.> 2 a l s : 3 E %.@.N M.p.u V N H.A.t h p.Z.l y e.r.E D O.0.,.<.8.&.N.N.iXD.M.a.l l l X.B.c.@.l h V ",
"p D F F F W W W T K D D K K T W W W W W T ! +.*.r.0.8.<.;.-.` ] ] :.3.3.3.3.3.7.3.6.6.6.6.f.6.6.7.} [ ' [ } 3.4.4.d.d.d.d.I.I.d.d.4.4.4.4.} } } } [ { _ ' ' { [ [ } 4.4.4.4.4.d.4.4.d.d.d.L.L.L.I.I.I.L.L.L.L.L.L.L.L.L.U.U.Y.R.W.W.|.XX-X>X<X:X{.V.z.,.#.o.~ R R T E R O.8.B.G.G.F.F.F.+X+X+X+X].].[.{.@X<X,X8X,X0X0X0X8X>X=X=X.X=X>X>X=X=X>XqX8X8X8X8X8X8X9X8X8X8X8X4X=X=X X!.!.W.Q.Q.Q.R.R.!.!.!.~.~.~.(.3X3X4X9XwXeXzXzXzXmXzXzXwX5X4X*X!.W.U.P.Y.!.5XwXeXeXeXeX9X9X9XrXrXrXrXrXrXrXrXrXeXeXrXrXeXeXwXwXwXwXwXzXzXlXzXwX{.h.&.m j t * = @ @ < &.jXVXvXaXS.e.*.m k t 5 = + O o X $ ; - - 7 y h h u - - - - - - C c M M j s j j s 5 @ O O @ - v u = n y X     . . $ 7 e.vXvXsXsXvXvXVXVXvXvXsXVXvXiXiXN.e.n M UXB B v b &.M M n v 0.x.|.oXOXW.R.I.k.X.5 O o O + X o   X X . o * b pXF.F.aXM @ < h 5 * @ < o.%.( -XAXSXS.dXwXrXeXeXyXyXyXmXmXzXeXeX9X3X!.R.I.d.L.Y..X5X9XeXeXeXwX8X8X8X0X0XwXwXwXwXwXwXwXlXzXzXzXlXlXwXwXwXeXeXlXeXeX9X6X9X9X9X9XeXlXlXlXlXwX4X-X-X=X8X8X8X8X8X4X4X4X4X5X6X9X9X9X9XeXeXzXmXmXNXmXmXmXmXBXBXAXAXAXAXAXAXZXNXNXNXNXMXMXlX0X-X|.Q.U.b.d.f.f.l.].:X0XkXzXeX9X8X=X=XXX X!.Y.d.} ' [ 4.P.^.4XwXlXkX:X'.'.'.'.`.).T.v.U.d.5.;.^ W ! ,.k.V.{.<X:XXX'.{.'.XX!.Q.U.U.T.T.U.f.f.5.5.5.1.,.;.2.k.v.V.V.F.+X+XdXgXfXdX+X+X<X+X`.k.:.] ` ^ ] b.=XlXlXlXkXlXMXMXMXxXlX;XA.V.].@X0XeX0X>X+X+XF.A.V.<XSXJXFXMXQ.[.[.l.z.k.2.s.j.%.) e e U E f 8.G._.].`._.*.gXF.R <.s.b.v.b.k.{ J f z M X.o.l A.Q.gXJ.N a.@.M M.=.r.A.m.0 & * * * < * * = * s g l g a L +X&Xs.$.X.o.j.B.C.gXA.s > 1 i > : i d L &.Z.@.z x u B.J.z , m H.&Xs t m s f $.B.z.s.g.%.&.F.dXA.z z E X.@.@.*.@.z z z N ",
"q S A G G F H H T F D D K F F W W / ^ / / ~ $.0.B.B.0.<.;.` ` ` [ :.5.5.5.3.4.6.5.6.6.f.f.f.f.6.4.7.[ { { [ 7.3.4.d.L.d.d.l.l.6.L.L.4.f.4.4.4.3.3.7.[ [ [ { } } [ } } 4.4.4.d.L.d.4.4.f.f.d.d.d.d.L.L.L.d.d.d.d.6.d.d.L.U.R.W.R.'.'.OX:X>X0X0X,X:X].V.z.g.,.$.O.O.o.R o.$.*.B.B.G.G.G.B.C.G.F.A.V.).T.`.{.@X:X>X<X<X>X-XoX X X!.W.OXXX:X-X-X>X>X=XqX0X0X0X8X8X8X8X8X4X=X.X X!.R.R.Y.Y.Y.U.U.P.Y.W.^.~.~.~.~..X.X3X3X5X9X9XeXeXeXwXwX8X=X X!.U.d.} } } f.Q.=X8X8X9X5X4X3X3X3X3X7X7X6X6XrXrXeXrXrXrXrX9X9X8X8X8X8XwX9X9XwX9X=XT.0.&.j t * % o o o * M aXVXvXpXe.&.=.h t 5 * $ + X o + ; - - t h b m m m v y 7 - - - C c c &.m j j j j k < @ o o $ u * O u N $ . .   . $ 5 M vXvXvXaXvXvXvXvXsXsXiXsXvXN.e.M e.n M iXN.e.v b =.e.M M M G.@X|.oXoXoX!.!.T.r.6 - O O + X X   X o O 7 m M.F.F.D.M * o = j X.t t X.k.c.~ }.ZXDXr.+X=X6XrXeXyXyXyXmXmXmXzXeX9X*X!.R.l.k.d.Q.*X5XrXrXeXeX9XqX=X=X=X8X8X9XwXwXwX9XeXzXmXmXmXBXNXNXmXmXmXmXmXmXmXmXmXmXmXzXzXzXzXlXlXlX0X=XXX=X8XwXeXzXlXwX6X5X4X8X9XeXeXmXmXmXBXBXBXBXBXBXBXBXmXmXmXBXBXBXBXNXNXNXNXMXMXlXlXlXgX,X:X}.x.k.>.3.>.1.k.x.`.@X0XkX0X8X=XXX XW.Q.W.W.Y.L.4.7.4.L.W.=XkXzXlXkXXX'.'.{.{.[.`.`.'.'.`.E.k.>.] ;.5.x.`.XX-XXX{.`.'.`.'.T.U.U.R.W.T.U.d.f.>.;.;.^ O.#.9.V.].A.].F.F.+XA.].A.V.c.z.c.b.l.f.3.3.3.2.2.b.:XkXlXlX,X,XkXlXlXkXfX;XC.z.T.XX0XwX0X>X+XA.C.C.z.{.CXJXJXZXT.x.).V.k.1.,.^ W g r r r z ) #.x.].#XT.{.[.n.F.C.*.*.h.A.{.-X>X}.%.L U a.m g e R A.x.s.g 0 2 < m B.@.F.p.r 0 u 5 - 0 * = = & : g E j j X.C.c.V.V.$.q j *.B.fXAX2Xg > # % # > d 3 X.*.z x 0 < 2 & 0 < m vXnXp.< t h s $.Z.C.z.z.$.&.B.o.%.s 0 l X.l s x 0 0 h x x ",
"q S F F F F F W T F F F F D F W Y / ` ` ` ^ ,.9.B.h.0.<.,.;.` ] 3.5.k.5.f.f.d.d.d.l.k.d.f.f.f.5.4.3.[ { { [ } 3.4.d.d.f.6.6.6.6.f.d.4.d.d.4.4.3.7.7.7.} } [ [ } } } } 4.4.d.d.L.d.d.d.f.f.d.d.d.6.d.d.d.f.4.4.4.3.4.d.l.T.'.{.'.].'.{.:X:X,X0X0XfX+X].A.V.h.9.9.,.O.o.O.*.0.r.B.B.B.r.0.h.h.z.z.k.l.d.U.T.'.OXXX:X-XXX|.W.Y.Y.P.U.W.|.XXoXXXoX>X=X>X0XqX0X5X8X8X5X=X X!.!.!.!.!.Y.Y.Y.Y.Y.Y.P.Y.Y.!.~..X.X.X~.~.^.~.~..X3X4X4X8X5X5X4X.X!.R.L.6.] _ _ [ f.Q.OX.X.X.X~.~.~.~.(.3X7XrXrXrXeXrXeXrXrXrX6X6X4X*X*X4X5X6X5X5X5X.X'.C.=.y < @ o . . O 5 M aXVXaXN.M N v t * * $ + + + O $ - 5 6 k m X.&.*.*.&.m c c C C C C c &.=.b j g E b y * @ @ = - $ o = m 7 o . . X $ u &.sXvXVXvXvXvXpXpXpXN.e.e.sXiXe.M e.=.m N.iXe.M b =.&.e.e.=.+XcXqX*X4XqXoX.X>XC.b y $ o .   X   . o < m =.j h &.v $ $   % > %.X.%.`.n.c.}.;XnXD.*.lXlX5XrXrXeXeXyXyXmXmXeXeX9X=X|.W.E.v.U.W.*X6XrXrX9X9X4X=X.X.X=X=X5X5X8X8X9XeXzXmXNXBXBXAXAXAXBXBXNXNXmXBXBXBXBXAXBXNXmXzXzXzXlXkX>X-XXX8XwXlXlXzXzXzXeX9X9XeXmXmXBXBXBXAXAXAXBXBXBXBXBXBXmXmXzXzXzXzXzXzXzXkXlX0X<X:X:X&X+X+X}.x.1.2.:.>.k.k.l.x.T.{.XXoXOX|.|.R.R.U.U.T.W.U.L.d.d.I.U.OXwXzXNXNX0XOX`.'.{.{.{.+X{.@X:XoX'.R.d.7.3.d.v.T.W.Q.Q.W.T.`.`.`.T.U.R.'.'.W.Q.U.k.:.^ ^ / ^ <.9.V.].].].A.C.c.9.1.,.^ ~ ~ ~ ;.>.f.d.U.b.l.l.v.:XwXwX8X{.`.V.}.}.{.+XV.g.1.b.[.0X8X>XXX).z.8.9.9.1.;XSXJXCX+X9.9.h.0.8.O.L +.~ g z z g f ,.c.z.C.`.F.F.h.X.B.fXMXhX+Xz.{.;XdXB.+.E ) @.g s i j.%.q ~ q < s s h.%.=.E i v aXV < * = = = * , : f +.L $.n.m.%.X.m X.s i l *.F.MXhX*.s & % # 1 q q j h M.@.: : < & 0 0 &.aXsXa.< y h j p.B.C.c.s.M N.@.h b h t s 0 0 < 0 x 0 0 < ",
"q D T W D S A F F T W W W W W W Q ^ ;.:.] ` ;.,.8.9.8.,.,.-.] :.5.k.l.k.5.d.d.d.x.E.T.l.d.f.3.7.7.[ [ { { [ 7.3.4.4.4.4.3.3.3.} } } } } 4.4.4.} } } [ } } [ } [ } } 3.4.d.d.L.L.L.I.I.E.E.U.I.L.d.d.d.d.f.4.6.3.3.3.d.v.`.{.@X+X].].].{.@X:X:X>X@X+X].V.V.z.z.z.9.,.$.$.,.0.r.r.0.*.$.%.#.#.;.2.:.7.} 4.d.U.T.W.'.|.!.Y.P.L.d.4.L.U.Y.R.!. X XoX.XoXoXXX-X=X4X3X.X.X|.!.|.!.!./.Y.R./.Y.Y.Y.Y.P.Y./.~.~..X.X~.^.^.^.^.^.~.~..X.X.X.X X X!.R.I.6.-._ Y _ [ f.U.R.!./.^.^.^.^.(.7X7XrXrXeXeXrXrXrXrX6X6X4X3X.X.X.X.X3X3X4X3X*X{.C.m 5 = o . . . @ = v pXjXpXM v v u = O + + + + O + - 5 t k m *.*.*.B.j.M.&.M M n c c c c M X.X.X.E X.l h 5 * - 7 - - O . u h - o . . - M S.pXsXVXVXsXvXpXB e.B B e.aXpXn c v M m =.S.N.&.b e.e.iXiXG.:XzXcX8X5X4X0X8X8XV.&.v * % . . X . O * y y y = @ O O O X . . : U c.g.:XC.+X&XdXgXS.*.n.xXwX9XrXeXeXeXeXeXeX9X8X8X-XXX{.'.'.{.-X=X6XrXrX9X5X*X.X XXXXX=X>X=X8XwXeXeXlXNXBXBXAXAXAXAXAXAXAXAXNXBXAXAXFXFXFXAXNXBXmXzXwX8X:X-X>X8XwXlXzXNXmXzXeXeXeXmXBXBXGXAXAXAXAXBXBXBXBXmXmXmXzXwX8X8X8X8XwXwX0X,X<X:X'.T.x.x.v.V.V.k.2.] [ 3.5.k.k.k.l.U.U.U.I.T.R.R.T.I.E.T._.U.I.L.d.U.T.OXlXzXmXlX>XW._.'.{.{.@X:X<X,X0X8XoXW.I.f.6.d.l.U.f.f.f.x.v.).T.T.T.W.|. X X|.T.U.k.:.^ ^ ^ ;.q.z.`.A.V.V.z.1.;.^ ^ / H F K ! ;.q.v.T.Q.T.b.v.).XX8XwX=Xv.1.#.2.s.k.s.,.^ #.g.`.:X-XXX'.v.1.^ o.O.~ 8.hXJXSXCX+Xc.,.$.$.X.j X.o.f j E z l h.A.A.;XxXMXp.B.gXfX:XF.CXFXgXfXfXgXV.+.@.j > q s 0 X.Z.s r @.s 0 b e.F.M.&.t N pXy.& & = = = - y i < s R j.%.s 0 5 * u =.j i j m X.D.S.=.i 2 # # 3 r i h aXVXs & & & t M.m N.IXVXN < s 0 m dXC.o.s h M M.M B N.x & & = = 0 z 0 = - ",
"i K W T D f d A G W / ^ ^ ` ` ` _ ] :.7.:.` ] ] ,.<.<.$.O.^ ` >.5.k.k.k.k.k.k.k.x.).).T.l.d.3.:.[ [ ' _ ' [ } 3.6.6.4.4.3.[ { { ' [ } } [ [ } [ } } { [ } } 4.3.} } 3.4.d.L.U.U.U.T.)._._.T.U.U.E.I.l.d.6.6.5.3.3.3.l.T.].{.+X+X+X].A.].].].`.{.].`.`.x.l.l.x.z.z.9.1.,.$.0.*.*.$.X.E E R W W / _ { { [ 3.f.l.T.R.W.W.Y.P.t.4.4.} f.d.L.Y.W.W.!.!.|.XX|. X X.X^.~.!.!./.!.!.!.!././.!.R.W.W.R.Y././.^.~.~.~.^.^.!.!.^.^.^.~..X$X~..X X!./.Y.L.6.} ' | | [ 4.U.W.!././././.^.(.(.7XrXrXeXeXrXrXrXrXrX6X7X4X$X.X.X~.~.~.3X3X.X`.*.h * @ . . . . $ @ u M.D.e.c u u - O O + + + O X + - 7 h m =.B.B.B.A.B.B.B.e.e.e.B c c c m =.*.X.%.*.@.m t & * 5 u 7 + . - m n 7 + o 7 M.pXjXsXvXPXpXsXpXc u n c B e.iXB - 7 n M m &.pXe.M e.N.aXjXfX<X9XeXkXwX7X8X9XqX@XS.M y , % O X . * h y * = $ X . . . . . X o i k.1.s.T E *.Z.Z.j A.:X}.0X6X6X6XrXrXrX6X4X=X=X:X@XXX{.[.{.XXXX*X*X6X6X4X~.~.~.XX-X-X>X8X,X0XwXwXwXzXNXNXNXBXAXAXAXAXAXBXZXNXNXAXFXFXFXFXFXNXNXzXwX8X=XXXXXoX>XwXlXNXNXNXmXmXmXmXBXBXGXAXAXGXBXBXBXmXyXeXrX5X,X=X-X-X=X=X-X-X-X:X{.{.T.l.5.1.1.k.v.v.q.2.] [ 7.5.d.l.d.f.4.} } 6.I.R.|.W.R.`.[._.E.l.d.6.d.T.{.lXlXlXlX:XQ.`.'.{.{.@X<X,XkX0X8X=X!.I.L.6.4.3.4.[ [ ] :.5.V.`.{.OX-XoX X|.W.E.l.5.:.` ` ` 2.5.d.).`.v.x.k.5.1.2.5.5.5.2.-.O.,.9.v.`.'.'.T.T.x.'.<X0X:Xb.] W ^ ;.;.^ T D K -.k.v.U.U.l.1.^ D J R #.~ A.CXJXJXMX:X{.V.8.$.o.E l g a j l l Z.xXCXDXJXKXJXSXdXE 1 &.JXJXZXlXeXwX,X+.X.) t s U & j &XT 6 s ) s &.sXVXH.@.z &.K.y.0 & = = = u m l 0 , h m t - - = * = u m t 1 k m =.j.B.e.X.k : & 0 1 M N.sXpX0 : > s M.M.&.e.iXiX@.< y t p.A.s * s M.M.&.N N.x & = = 0 5 N V - = ",
"a K W W J f p d F / ^ 1.5.1.q.1.2.:.5.5.:.] ` _ ;.` ;.^ O.^ 2.2.1.5.k.k.5.3.3.f.x.T.).v.v.k.2._ ` / Q _ { [ 7.7.3.4.4.3.3.} { _ _ _ _ _ { [ [ [ { { [ } } 3.6.6.4.3.4.4.d.L.U.Q.`.`.'.OX|._.T.T.E.l.l.d.6.3.3.3.3.k.l.V.A.].].].V.C.z.z.l.l.b.U.b.d.f.3.3.5.5.k.k.5.1.;.;.O.O.o.R K S A F H W / ' ' [ } 3.4.d.L.I.P.P.P.P.t.4.4.4.4.L.L.L.L.P.Y.Y.Y./.!.!./.^.^.^.^.!././.!.!./.!.!.^.^.!././.P././.^.~.~.~.~.^.^.!.^.^.^.^.~.~.~.~..X!./.Y.P.L.4.} } } P.P./.^.~././.^.^.^.~.3X6XrXrXrXeXeXrX6XrXrXrX6X7X7X7X4X X~.~.~.~.!.v.$.h 6 & @ o . o O O u &.e.n - - ; ; + O X O + O X ; 7 6 k X.*.B.C.A.F.C.F.;XF.D.D.N.B V c b X.*.*.*.j.*.@.j * @ + - - $ . @ =.M.M.7 $ v e.aXvXvXvXPXpXiXiXn - - c n M e.pXy 5 7 v M M e.e.e.N.iXjXDXxX8X7X9XcXwX6X6X8X8X@XB.&.M i 7 5 & t h y 5 % O o X .   . . . X % 0 a 1 1 = @ < h t 6 0.,X`.!.*X*X3X3X3X*X.X!.Q.Q.W.'.{.'.T.T.Q.T.Q.W.^.^.!.W.Q. XXX-X>X8X>X,X0XkXlXlXxXlXxXNXNXNXZXAXAXNXNXmXmXNXAXSXFXFXSXAXBXmX9X4X.XW.W.'.|.oX8XwXzXzXmXmXmXmXBXBXBXGXGXBXBXmXmXeXrX3X^.!.W.W.`.'.[.XX>XqX=XXX`.E.l.U.d.3.;.;.2.k.k.1.;.` _ [ 7.f.d.L.L.4.{ [ 4.Y.|.XXOX[.{._.x.k.>.` ;.3.x.{.,XkXwX>XXXU.U.Q.`.{.:X:X,XkX0X-XXXW.R.I.4.} 4.} { | H Q ` x.|.kXlXlX9X4X XW.I.6.5.[ _ _ [ 6.3.6.l.E._._.'.'.T._.`.'.'.U.5.;.,.9.v.`.{.{.].V.).].@X:X@XC.<.$.O.o.! R f a f T Q ~ ^ ` ] / T L j +.*.0.A.xXJXKXSXxX1X>X'.[.].A.F.C.$.L E @.dXSXKXKXKXLXLXKXCX;X6 ..NXNXxXcX8X{.{.<.T @.l s s # # j r * 1 g a.M.M.D.&.h &.y.y.y.0 = = & 0 v a.x = @ @ u - = - - = = - u t * , q j 0.fXgXD.*.&.y 1 i l 5 UXVXj q z g s n M @.s h N.u < s z s 0 u z %.l M e.N.h = = = * V pXIXaXN ",
"a E ~ T S f p d W ;.1.k.v.x.v.x.z.k.q.5.:.:.] ] ;.;.;.O.O.O.2.1.q.q.q.5.5.3.5.6.x.T.).V.x.q.2./ W W Q _ _ [ [ 7.7.3.4.3.3.7.[ _ Q Q Y Y _ _ [ [ [ [ [ [ [ } 4.4.4.6.3.d.d.L.U.T.`.`.'.[.|.'.R.R.I.l.f.f.6.5.5.5.5.5.9.c.V.V.V.V.z.9.1.2.:.[ } 3.3.>.[ [ [ [ :.3.1.1.>.>.;.^ ! W P F A G H W Q _ ' [ } 3.4.4.6.L.L.P.P.P.P.d.4.4.d.d.L.L.L.L.Y.Y.R.W.!.!.!./.!.!.^.^.!././././././.^./.^.!././.Y././.^.^.~.~.~.^.^.^.~.~.^.^.~.^.~.^.~.!.!./.Y.Y.Y.P.P.Y./.^.~.*X.X~.^.~.(.~.~.3X7X6X6XrXrXrXrX7XrXrXrXrX6X6X6X3X.X~.^./.!.!.T.B.&.b 5 @ . o o o O 5 v n u ; + O + + O X X X X O = 5 t j X.p.B.Z.;X<X;X;XgXdXdXdXaXiXB n M &.*.B.j.B.Z.X.b 5 $ O O $ O . $ &.pXjXe.y N.aXpXjXvXvXvXpXiXe.e.y - c v M M M.M y t t X.&.&.e.e.iXsXvXDXxXqX4XqX8X5X9X6X9X0X:XG.e.&.b b b j j j h 5 O O O     X O X . o * h @ o o . o % o O 6 s.=X<XR.|.|.!.!.R.Y.U.d.d.6.f.l.v.l.k.k.f.5.d.d.d.U.U.U.Q.'.{.:X>X,X,X,X1XkXlXlXxXlXlXcXxXNXZXZXAXNXzXzXzXmXBXAXAXAXNXmXzX8XXXR.I.l.l.T.R.|.oXqXwXeXeXeXmXmXmXBXBXBXBXmXmXeX9X*X^.Y.P.d.U.U.E.R.'.oXqX0X=XXXT.x.l.d.f.3.2.] 2.1.1.1.O.^ ` :.3.6.l.R.I.6.3.3.6.Y.oXoXXXXX`.).k.1.^ W ^ :.q.`.:X<X>XXX'.U.E.T.`.[.XX>X>X0X8X=XXX'.Q.U.U.U.L.d.3.[ _ Q ^ 5.>XNXAXZXNXlX>XR.U.R.l.:.} 3.} 7.6.I.R.R.'.OXXXoXXX:X>X0X8X-XT.5.;.1.z.).[.XXXX{.[.[.{.@X{.].z.9.8.$.O.E g a a a w w q e U Y U T O.z.+X<XfXCXJXKXJXSXNXxXfXkXcXMXSXSXCXj.l B.CXJXJXJXKXKXJXSXjXSXH.2 R -XlXlX>XV.k.1.~ a.a.z < 0 , & & & q 0 r @.m l X.=.p.N y.y.u & * = 0 &.a.0 = = @ = C 5 = * = - u u 5 - - * > a X.;XgX}.E m s s 2 < =.jX*.k ) a i m M.&.b M t s t 5 h & - iXp.i t h h @.m.0 5 u y v B iXsXaX",
"a ! ^ W S f d A W 2.9.v.).).].].).x.k.q.1.2.;.:.;.2.,.O.O.^ ;.1.q.5.5.:.:.:.7.3.k.v.T.v.x.q.;./ G H W / _ _ { [ [ 7.3.3.3.3.[ ` Y Y H H Y _ [ [ 7.7.7.} } 4.d.d.I.l.k.d.d.d.I.T.W.W.`.`.[.W.R.U.L.d.6.d.k.5.5.d.5.1.1.9.z.z.g.k.1.2.] _ _ ' { { [ [ [ [ [ [ [ [ 2.:.] ] ] ` ^ / W H H H Y _ ' [ [ 7.4.d.L.L.L.L.L.L.P.P.L.6.6.4.d.d.I.U.U.Y.R.W.W.!.!.!.|.|.!.^.^.^.^./.Y./.Y./././.^.^.^.!.^././.^.^.~.~.(.~.~.~.~.$X$X~.~.~.^.^.^.!.!.!./.R.W.!.~..X.X*X3X4X4X4X3X.X$X(.(.3X3X7X7X6X7X7X7X7X(.7X7X6X6X7X7X3X(.^././.R.!.|.`.C.B.m 5 @ . O O o o $ 5 u - ; + + + + O X X X X O $ * s l @.B.B.A.<X1XfXgXMXhXjXhXvXaXiXB e.&.@.B.B.j.Z.&.h y - + O X X o @ l F.vXjXM.D.hXjXjXvXdXvXsXsXe.e.M y v M b =.&.&.v t k b m &.e.N.pXvXVXDXxX0X4X5X4X4X9X9X8X>X>XF.e.e.m j X.X.j j j < * - $ . + - O . $ * h y o X X X o o . o i T.W.8X:XXXXXOX'.U.I.4.} >.[ :.>.1.1.>.1.>.>.1.1.>.>.f.f.v.`.[.:X<X,X,XkXgXlXlXxXxXgXfXfXlXxXNXZXZXNXzXlXwXzXzXmXmXlXwX8X:X'.l.5.7.3.k.l.R.'.OXoX5X9XeXeXmXmXmXmXmXmXmXyXeX9X*X^.R.Y.I.6.f.d.l.T.|.-X8X8X>XOXT.l.f.f.f.>.2.;.;.2.1.,.O.#.,.q.k.v.T.`.R.R.L.L.U.W.oXXX[.[.T.x.q.2.^ ! -.5.q.v.T.'.'.W.W.R.`._.[.{.:X8XwXwX9X=X-X'.T.Q.T.'.'.'.W.T.k.>.:.f.,XZXSXFXSXZXzX8XXXXX|.Y.L.4.3.l.OXoXoX|.|.oXqX8X8X8XwXwXwX8XOXl.:.;.1.T.XX>X0X,X:X[.[.{.@X+X].V.9.,.$.R f a 3 1 > > 1 f o.<.z.V.@XgXMXAXSXSXKXKXKXJXSXZXxXxXxXNXSXJXFXH.) B.CXAXCXMXNXMXMXA.s.A.<Xo.2 a <XmX@Xk.1.9.*.N.N.y.u * * t , , 1 l 0 g ) E *.&.N N B aXN & & & & z @.%.t & = = - 5 * = - u u t t c u < * 2 i o.C.gXj.s 0 0 < q i R o.j z 6 j F.M.e.t h i # v v 5 y * y l j @.< y &.M.M y.M M.&.V y.N.N.",
"S O.;.^ K D A F W 2.k.V.`.].].].).x.k.5.2.^ ^ ^ ` ;.;.^ O.~ ^ 2.>.>.:.] [ [ { [ 3.d.l.x.x.q.;.Q H H H / ` _ ' ' [ [ 7.7.3.:.] ] / Y Y Y Q _ [ } } 3.4.4.d.L.I.I.U.l.k.d.f.d.d.x.U.U.E.T.T.U.L.d.uXf.d.l.l.k.k.k.k.q.1.2.<.2.2.;.` ` _ _ _ ' { { [ [ [ [ [ [ [ [ [ ] ] _ ] ] ] ` _ _ _ _ ' [ } 4.4.L.L.P.Y.Y.I.I.I.L.P.P.L.d.4.4.d.d.I.R.T.W.|.|.XXoX.X XoXoXoX.X~.~.^.!././././././.^.^.^.^.^.^.!.~.~.~.$X(.~.(.~.$X3X3X3X3X3X~.^.^.!.!././.!.!..X3X5X5X9X9X6X6X6X4X3X(.(.(.3X3X3X3X3X(.3X7X3X(.(.(.$X$X~.~.^./././.Y./..X~.W.V.j.m < @ o . . . . o $ - - + + + + + X X X + X X O * h X.X.j.C.+X;X<XlXMXMXCXCXCXCXvXsXiXN.&.X.*.B.j.B.M.v u u - = O + $ * j F.VXVXaXjXvXvXjXaXjXjXjXjXiX&.N.&.h &.m X.X.=.m k j b M e.S.pXaXvXVXCXCXlX5X3X5X5X4X8X=X-X:X+XN.e.=.X.X.=.X.X.X.j b v 7 7 u - O $ $ t M.k % o . . . . X @ ..@X|.*XXX.X=X=XXX|.U.f.} [ ] ` ` ` ] ] :.>.1.q.9.1.1.1.s.z.v.`.@X:X,X,XkXfXgXlXgXfX<X:X:X>XkXlXzXNXzXwX8X9XwXwX0X,X>X-XOX[.T.5.7.:.7.5.d.W.XX8XwXeXeXeXeXeXeXeXeXyXyXyXeXwX9X4X.X^.R.L.4.3.3.d.R.OX:X8X8X:X'.l.f.3.f.3.>.2.^ ;.;.;.#.O.#.9.V.`.`.).[.'.'.!.!.W.|.OX[.).x.l.q.5.2.;.;.9.z.k.x.U.b.l.I.R.W.Q.Q.`.[.:X0XcXzXzXwX=XOX[.[.[.XX=X>X,X>XXX`.l.v.,XZXSXFXJXFXSXNXlXkX0X5X.XY.T.@XcXkX0XoX.XqXwXeXwX8X8XwX9X9X=XT.5.:.1.T.oXwXlX0X,X{.{.:X:X:X:X].k.<.$.o.R j a i k b +.G.dXgXxXMXCXSXJXJXKXKXKXKXKXJXSXAXMXxXcXxXZXMXMX2Xc.g.;XfX}.n.`.+XA.#.D ( d.`.R : R 0X@Xk.s.z.*.&.y.V u = = s *.+X8.@.l q e ( X.y h N B pXN & 0 & & < l j.%.i & = = - * * 0 t < < < < t 0 - , : i L X.Z.j.t : < > 2 6 %.R < = h J.a.m h > 2 < v VXN < M m i =.a.5 e.iXB N.N.N.N.iXN.y.y.N.",
"J O.2.;.^ ! F F W ;.1.z.v.).`.`.T.l.5.:.^ K F F F ! ! T W T W ^ _ ] ` Q _ _ _ _ [ } 3.k.k.q.;.Q W H W / ` ' { { [ [ [ ] [ :.:.:.` _ / _ ` [ } 3.3.f.d.d.I.I.I.I.I.k.5.5.f.d.d.b.d.l.l.k.k.3.} } } f.L.T.).).v.l.x.z.9.;.^ ^ / / Q _ _ ' [ [ [ [ [ [ [ [ ] [ ' ' [ [ ] [ [ [ [ [ [ [ [ } 3.3.4.L.L.I.Y.Y.Y.Y.Y.Y.Y.U.L.L.L.d.4.3.k.k.l.E.T.`.'.|.XXoXoXoXoX=XoX~..X.X~.!././././.^.^.^.^.^.^.^.^.~..X.X~.(.~.~.~.~..X3X3X7X5X7X3X~.~.!.!./.^.^..X3X6X9X9X9X9X6X6X6X7X3X(.~.~.(.(.~.~.~.(.(.(.(.(.~.^.^.^.^./././././.P.Y.^.~.!.'.C.*.k = o . . . . . + - ; + + + + + X X X + X X O * i X.%.j.A.&X}.&XxXZXCXZXSXDXDXDXVXsXN.&.X.$.p.p.Z.S.M 5 y c v - * 5 5 @.dXDXvXjXvXvXpXpXpXaXjXjXaXpXM M e.m &.e.b X.m b j j b =.e.S.pXsXVXCXlXxXzX9X3X6X9X4X=X=XXXXX+XS.e.e.e.=...X.j J X.=.=.=.v c = - 7 y M.B.j * O o . . . o 6 C.cX<X|.qX*X*X=X-XOX`.l.5.:.] ` ^ ^ ` ;.>.5.k.z.z.z.z.k.k.z.x.`.XX:X,X,X0X,X<X<X:X{.`.`.`.'.XX,X0X0X,X-XXX4X4X>X>X<X:X:X:X[.T.q.3.7.7.I.'.>XwXmXmXmXmXzXwX9X5X5X6XrXeXeXeXeXeXrX3X~.^.L.} } 3.d.Q.XX>X8X8XoX`.l.5.3.3.3.1.1.;.;.#.O.~ O.,.C.+X:X@X{.OXOXXXoXXXOX|.'._.x.k.l.l.q.1.1.9.z.l.l.l.f.f.d.I.W.!.Q.Q.U.W.OXqXwXzXzXeX5X.XOXOXoX=X,XwXlXlXkX<X'.'.<XMXZXSXJXJXJXFXAXNXzXzX0X>X0XcXxXlXlX0X0X0XlXlXwXwXwXwXwXwX=XW.6.5.k.`.oX0XlXlXkX:X:X,X,X1XgX<X{.V.V.C.C.C.B.G.F.jXhXDXSXSXSXFXFXJXKXKXKXJXJXJXFXAXZXZXZXxXfX1X:X}.`.`.b.<.z.C.8.o.$.j.%.T S / 5.x.v.E 2 8.:X0.9.V.&.M 0 = - C * h dX<XlXZ.g 0 2 a C.@.u V B N.u * * @ @ : m N ) z u u = = 0 5 t * @ @ @ X O $ = = * : 3 i E z ,.J : : & 5 m Z.s & t ) l t u 0 < < 0 M H.s 5 N i =.pX&.n y.B y.y.y.N.iXN.iXN.iX",
"f O.2.2.;.-.! K W ^ 2.1.k.l.v.v.v.k.:./ F d a w p S S D S S G F W / / Q W Y Q / _ _ _ ] >.1.] Q Q Q Q _ ` [ [ [ ' ' ] ] ] [ :.:.>.[ :.7.3.7.4.d.l.E.I.U.U.U.U.d.l.5.>.>.7.3.f.f.d.d.5.>.:.[ [ [ { 3.U.`.[.{.[.).V.z.1.;.^ Q W Q _ ' 7.7.} } [ [ :.7.7.:.[ ] [ ] _ _ _ _ [ [ [ } 7.3.3.4.d.d.L.L.U.Y.Y.Y./.!.!.R.Y.U.L.P.I.d.6.4.k.k.l.x.E.W.|. XOXXX.X.XoXoX X^.|.|. X~.!.!.^.!.^.^.^.^.^.^.^.~.~.~..X.X.X~.^.^.~.~.~..X4X7X7X7X3X.X.X~.^.~.~.$X6X9X9XeXeX9X6X3X3X$X~.~.~.~.~.~.~.^.~.(.$X$X(.(.~.~.^./.Y.P.P.P./././.^.~.(..X:X;Xp.y $ o . . . . . + - ; ; + + X + + X X + X + $ * t E 8.C.].+X&X;XMXAXCXCXSXSXSXHXDXvXiX&.=.%.*.*.F.D.M u y e.pXM y h v &.dXCXVXVXvXD.e.&.e.pXdXdXaXS.y * y y 5 m m m m h k j j m e.N.sXvXPXDXcX0XwXeX9X4X8X>X*X=XXXXX+XS.N.e.&.=.k j X.X.X.X.*.=.m m y u n M Z.A.=., = O . . . % Z.0XXXcXcX4XqX8X0X>X@X[.).z.5.>.] ;.:.1.k.v.v.).`.).`.T.v.x.b.x.T.XX-X,X8X>X:X{.`.T.T.E.R.U.E.`.XX{.{.[.`.`.Q.|.XX<X,XgXgXfX:X`.k.l.U.'.>XzXBXBXBXBXBXmXzXwX5X*X*X4X9XeXeXeXmXeXrX6XtX^.P.uX4.d.U.'.oX>X8X8X:X`.l.k.5.5.5.1.1.,.2.;.^ ^ #.9.].,XkX,X:XXXXX=X>X>X-XXX'.T.x.l.R.R.l.5.1.z.z.k.l.d.3.4.d.U.W.|.W.R.l.I.U.|.5X9XeXeX9X8X=X*X=X-X>XlXmXmXlXkX@X@X>XkXcXMXSXJXKXJXFXSXZXNXlXkXxXxXxXxXlXkXlXlXlXlXzXwX0X8X=X=XXXT.k.5.k.'.>XwXlXmXzXcXlXlXlXMXMXxXxXxXxXxXMXCXDXSXJXJXJXKXKXKXJXFXFXFXFXFXFXSXAXZXMX1X<XMXZXNX1X}.f.~ o.%.%.8.r.B.r.X.X.p.m.l f O.V.).@X0Xj 6 g.V.#X0.&.y u - * y t +.V.A.n.%.i 6 = < g m.h n N.iXN.h h < , i h c x 0 u B N u < < u @ o o O o O @ = @ @ * 5 &.M.s U 1 @ @ < X.%.%.&XE h *.z 0 0 u h = @ & < s * 5 v M N.p.y h N N N.y.N.iXiXpXiXiX",
"p ! ;.:.;.,.! F T / ( ;.2.5.k.l.k.5.;.W A w 3 4 3 q q a w p d A H / ` / Q W W / / Q Y Q ] :.] _ / _ _ _ [ [ [ [ _ _ _ ] [ [ } } 4.4.6.5.5.d.d.L.E.E.I.E.U.I.f.3.>.] ^ / Q _ [ >.5.5.3.:.[ [ [ [ [ 5.v.'.+X@X@X[.).x.5.>.] ` _ ` ] 7.3.3.3.7.} } } 7.7.:.[ [ [ ` _ _ _ _ _ [ } 3.3.4.4.d.L.L.L.Y.U.Y.Y.Y./.!.!.R.U.L.L.L.I.I.d.d.6.k.l.l.E.W.OXXXXXXX.X.XoX X|.!.!.!.!.!.^.^.!.!.^.^.~.^.^.^.~..X~.^.~..X~.~.^.^./.^.^.^.$X3X4X6X6X3X3X.X~.~..X3X6X9XwXzXeX9X5X3X~.^.^.^.~.~.~.$X$X(.(.3X3X3X3X(.~.^.!./.P.P.P.P.Y./.~.~.3X7XoX{.Z.j * o . . . . . X + ; ; ; + O + + + X X O X + $ * i R c.F.A.+X<XgXCXSXDXDXSXJXJXJXDXVXpXe.=.*.%.0.F.D.e.v v F.VXaXe.&.&.=.dXCXDXVXjXb M M v pXdXF.aXe.7 O $ @ o = y h v y t h s m &.N.sXPXPXCXlX8X5X9X9X5X4X=X.XXXXX@XdXS.e.*.*.*.j j *.*.*.*.B.*.&.m v u u y R A.B.X.y O . o o t gXkX=X:XfX9XkXkXkXkX0X>X+X].x.l.5.5.k.U.`.'.XX:XXX{.{.'.T.T.U.Q.'.XX=X8X8X8X-X'.R.R.R.R.R.U.l.E.E.x.k.q.k.l.x.T.{.:XfXlXxXxXkX:XOX>XkXNXAXSXFXFXFXAXBXmXeX5X4X=X*X4X9XeXeXzXeXeX6X3XtX^.Y.P.U.Q.|.XX>X>X>X>XXX'.v.l.k.k.5.1.1.,.1.,.-.O.,.z.+XkXkXwX>X>X:XqX0X0X0X>X:X|.R.T.W.R.L.3.2.8.<.2.:.:.7.4.L.U.W.W.Q.U.k.5.d.U.W. X3X9XwXeXzXlXlXlX0XkXzXzXwX-X`.'.:X>X0XlXZXJXKXKXKXJXFXSXMXkXlXxXcXkXkXkXlXlXlXlXkX0X<X-XXXXX|.`.x.k.x.{.0XzXNXNXAXAXAXAXZXAXSXSXSXSXJXJXJXJXKXKXKXKXKXKXKXJXFXFXAXBXNXNXMXgX1X,X&Xv.V.&XlXlXkX:Xb.~ f f D +.0.Z.S.r.X.E Z.Z.m =.B.&X<XgXgXi 3 g.].%.l m h y m j g ~ 2.g.( l < * 5 t 2 g a.N N.pXy.B a.i t s u u u u u N v h u u u u O o O O @ = = O @ o c IXD.s r * O @ # : s s B.2X0...l s 5 0 s z & & & = u < 7 M B @.t 7 y h M N.N.N N.N.N B ",
"q F / ] ;.O.K D S F W W / ` ;.1.1.1.;.W S i 3 > 2 > > q 3 w p S Y ] :.] ` / / / Q Q Q Q ` :.:.` / Q _ { } 3.3.:.] ` / / _ [ } 4.d.d.d.5.5.d.L.L.b.b.l.l.l.q.:.:./ W F F F Y ^ ] 5.3.3.[ [ [ ] ] :.5.v.[.@X@X@X+X`.T.k.5.3.3.3.7.3.4.6.6.4.4.4.} 3.3.3.7.>.>.[ ] _ _ _ ` ` ' [ 7.4.4.4.L.L.L.L.P.L.P.P.P.Y.Y.Y.U.L.d.4.d.L.l.l.d.k.k.l.l.x.T.|. XXX X!.!.R.R.Y.P.U.Y.Y./.^.^.!.!.~.~.~.~.^.^.!.!.~.^.^.~.^.^.!./.P.P.Y./.~..X3X6X6X3X3X.X~.~..X$X4X5X9XwX0XqX=X.X~.^.^.^.~.~.$X3X$X$X3X3X3X3X3X(.~.^./.Y.P.P.P.P.^.^.~..X3X3X!.q.m 6 % . .     . . X + - - ; ; ; ; ; + X O O O + = < j o.C.+XC.+X<XxXZXSXSXDXSXJXKXKXHXDXaXe.*.*.s.B.G.H.D.n e.gXCXDXjXB.m y M.aXVXvXS.5 n B c pXdXC.F.M - O . O X . @ * 7 5 5 t 5 v M N.sXIXHXCXcX0X4X5X6X9X5X*X XOXXX@XdXS.N.M.e.=.X.X.E X.@.%.r.=.h 5 O o O o i A.F.A.o.5 O o % Z.SXgX=X=X0XwXkXwXkXkXkX0X<X{.'.W.R.U.T.`.{.XX>X>X>X-XXXW.W.`.W.OXXX>XqXwXwXwXqXoXoXoX X!.!.R.U.I.6.3.:.` [ f.T.`.{.@X,XxXxXxXzXzXzXNXAXAXFXFXFXFXFXAXBXzX9X3X=X*X=X5X9X9XeXeXwX6X4X3X*X!.!.W.W.|.oX>X>X>X>X=X:X'.).V.x.k.k.9.9.9.z.z.9.1.k.).@X0XkX0X0X0X0XlXwXlXlXlX0XqXoX X XR.d.} ^ ! ~ / / _ [ 3.6.L.Y.Q.Y.d.d.k.k.l.E.R.|.=X8XzXZXAXSXAXNXNXmXzX=XQ.f.k.v.'.XX8XMXSXJXJXKXKXKXJXAXmXlX,X:X:X:XkXxXxXlX0X:X:XXX{.|.XXOX'.).).`.:X0XmXNXAXSXFXFXFXFXFXJXJXKXKXKXKXKXKXKXLXKXKXJXJXFXAXNXMXxXgX1X1X&Xn.A.}.V.z.z.z.c.`.,X1X&Xb.W f J o.s.c.B.B.*.E X.M.jXjXB.j.&X2XlXn.2 q c.&.h M M M e.X.a L E T f k u < 1 , < 0 s M.N.@.u N t = u u u x u u V u u u u V y.N.& % o o O $ 1 * @ ; iXVXa.s > # & % % @ * & t B.nX@.5 t 0 & 0 a.l # = 0 u z t 7 N M.m M &.M.X.z t 0 u u u N ",
"4 e D W W K S f p d d S K T W ^ ;.;.^ ! S a 3 1 2 : 2 > > q e F ^ :.7.:.] ' _ / ~ W W Q ` ` ` ` _ Y | [ 3.4.4.} [ ] ] _ _ [ 7.7.d.d.d.4.4.3.3.f.f.d.4.4.7.[ ^ W F A e p d D W ^ [ } } [ [ [ ] ;.>.1.z.`.[.{.{.{._.T.v.l.d.5.k.k.k.5.d.d.d.d.f.4.3.3.f.f.f.5.1.2.:.` ` ] ] [ } [ } 4.4.d.L.L.L.L.L.d.L.P.P.Y.R.l.d.3.3.4.4.6.d.I.l.6.d.I.U.R.!.OX!.!.Y.U.L.d.3.3.3.d.L.Y./.^.^.^.~.~.~.^.^.!.^./.P.P.Y.!.!.!.Y.Y.P.P.L.P.P.^.~.3X5X4X$X.X~.^.^.~. X=X=XqXqXoX|. X^.^.^.^.~.~.3X3X3X(.~.~..X(.~.^.^.^./.Y.Y.Y.~.^.~.(.$X4X3X~.T.h.&.k @ o . . .   . o ; - - - = - - - $ O o O + + * t j o.n.A.A.].,XMXZXSXSXDXZXFXKXKXHXVXaXS.M.*.C.F.A.;XdXB.pXDXDXCXhXD.y $ v B.vXvXN.$ c n h &.Z.B.S.m @ o   X X . . o O + O O O - - c N.sXHXHXxX0X4X3X4X4X$X X^.'.[.:XpXN.N.=.=.&.b =.X.=.*.*.p.h @ o .   o . * p.}.@X+X*.< % , dXAX;X>X>XqX6XwXlXlXlX0X>X=X=X=XoXXXXXoX-X>X>XkXwX8X8XXXOX'.'.'.XX5X9XeXzXlXlXlXwX9X8X9XqX.X XR.U.6.] / / 1.v.`.{.+X].:XlXMXZXAXAXSXFXFXFXJXJXFXAXGXmXeX4X.X X.XoX>X0XwX8X8X8XwX8X=X*X^.!.!.'.OX-X>X=X-X:X:XXX{.`.).v.l.l.x.V.k.v.).).x.k.x.V.{.<XkXcXkXkXlXlXlXzXzXlXlX0XXX[.Y.L.7._ H F F F H Y _ [ 3.l.R.Y.W.`.T.T.).).].).`.XXkXNXSXJXKXJXSXSXNXmX=XQ.l.U.U.Q.Q.{.<XlXZXSXJXKXKXKXJXAXlXXX+X].;XfX,X,X:X{.{.{.{.XX>X8X8XwX8X0XkXlXNXNXAXSXFXJXJXKXJXJXJXJXJXJXKXKXJXFXFXFXSXAXMXMXlX1X:X{.'.n.A.:Xn.s.m.#XA.V.V.g.,.2.b.,XwX<X}.g.$.,.g.z.0.B.M.X.e.iXsXsXsXZ.m.n.`.].R 2 j 8.j &.&.=.e.M.j j f g j m z 0 0 0 & < 0 r X.y - h u - s x u u u u u u C C c V N M.u @ o o . # 2 @ O - pXK.h g < > 1 < o * l & @ , e.CXM.h ) t n &.s & < 0 r z K.v 5 p.&.&.M.M.N.@.t h N v V V ",
"2 3 q w d p a i q q q w p d G F W W W T D p q 3 1 2 2 2 1 w d F ` >.5.3.7.:.] ` O./ Q _ ] :.:.:._ Q _ } 3.4.4.3.[ ` _ _ ` :.7.6.l.d.f.3.7.7.[ 7.7.7.[ _ / Q F A d e w e d A F Q [ [ 7.7.[ [ ] ;.] >.1.z.v.T.T.`.).T.x.l.k.k.k.k.k.5.d.I.d.d.d.f.f.f.d.l.l.x.x.z.q.1.1.1.1.3.5.3.4.d.d.d.d.d.d.4.4.4.L.L.L.U.I.6.3.} } 3.4.d.L.L.d.d.d.L.Y.Y.!.|.!.!.Y.L.6.3.7.} [ 4.L.P.Y.^.^.^.^.~.~.~.^./.P.P.P.P.P.!.!.!././.P.P.L.P.P.P./.~..X~.~.~.^./.Y.Y.!.!.|.|. X!./.!./././.^.~.~.$X$X~.~.^.^.^.^.^.^./.^.!.!.!.^.~..X4X7X7X4X3X3XXXG.B.h @ o . . . . . $ - 7 u 7 7 u u - = $ + + + + * t j R m.C.C.A.<XMXSXSXSXSXSXFXKXKXKXDXaXS.M.*.F.;X;XdXjXbXhXDXJXSXDXaX7 $ h F.vXjXN.* 5 v u h *.X.&.v @ . . X . . . . . . .   . + O - 7 N.VXDXxXcXqX5X.X.X~.~.^.E.|.<XpXe.M h b m b X.=.*.M.m y 5 $     X . O * %.:X@XfXZ.l k B.AXCXfX|.*X3X9X9XwXeXwX8X8X8X8X8X8X8X8X8X0XwXcXlXlXkX0X:XOX'.W. X=X8XwXlXzXzXzXzXzXzXzXzXcXqX.X|.R.5.:.` :.T.XX:X:X{.[.<XmXZXSXFXFXFXFXFXFXFXFXAXBXzX6X*XXX XXXoX>X,XkX0X0X>X0X,X>X:X|.W.R.`.'.OX:X>X>XXXOX'.T.x.l.k.k.k.k.z.x.].[.[.).v.k.z.x.[.>X0XkXkXwXlXzXzXzXlX0X,XXX`.T.f.:./ F G A p A F / [ 7.5.k.T.`.XXXXXX@X@X:X@X+X[.XX,XMXSXJXJXJXFXSXZXNXlX<X,XgXkXgX,X,X,XgXlXMXSXFXJXKXJXFXNXlX+X].{.&X:X:X:X:X:X:XfXlXxXMXBXZXAXAXAXAXAXAXAXFXFXJXJXJXJXFXFXFXAXAXZXAXAXNXMXkX<X&Xn.m.g.g.1.2.1.1.c.].c.s.s.C.V.V.v.1.2.2.k.'.8XwXlXkX<XA.g.g.<.*.*.m v N.aXaXZ.p.@.*.g.%.$.q : E X.m X.b =.B.*.X.X.s g h h g g 0 & * z r 0 ) m h 5 < t 0 0 t 5 - * 0 u 5 u C t @.t * @ @ o : # . o - N.M.h &.m z m x @ @ l & % @ & &.VXjXX.v iXN.s , @ O < v N N < * y h M N N.N.a.v M.N c V ",
"2 > 3 3 q q q 3 1 > > 3 q q e A F F W T K S p w q > > 1 3 w A W ` 3.5.5.3.7.:.:.2.` _ _ ] 3.5.:.] _ [ 7.6.d.d.6.] / Q / ` ] >.f.6.6.5.7.[ ] _ [ [ ] / Q H F S p d p p d A F W Y ] :.3.3.[ [ ] ` ] ] ] 2.1.k.l.v.v.v.l.l.d.l.k.k.5.5.d.I.l.I.l.d.f.d.l.T._.].].].V.V.z.z.z.z.l.l.d.I.I.L.d.L.4.} 3.4.d.L.L.U.l.5.:.[ { } 4.d.L.L.P.L.L.U.P.Y.!.|.!.!.Y.L.4.7.} } [ 3.L.P././.^.^././.^.^././.P.P.L.L.P./.^.!././.Y.Y.P.P.P.P.P.Y./.^.^.^./.Y.Y.P.Y.Y.Y.Y.P.P.P.P.P.P./.^.~.~.$X~..X~.^.!./.Y.Y.Y.Y.Y.!.!.!..X.X3X3X7X6X6X7X3X[.B.X.5 o . . . .   o - u c n h v v h u - = = $ + $ 5 s E ) c.A.C.A.;XlXZXSXFXJXSXJXKXKXKXHXsXN.e.*.A.F.dXgXCXCXDXDXJXJXJXpX- - h dXCXjXe.- - 7 5 * t 5 6 5 $ . . X       .     . . . X o O $ M hXCXxXcX0X4X.X!.!.Y.Y.R.'.[.e.c - * < h m m =.&.M m - $ . . X X . . 5 Z.1X&X1XA.c.A.ZXSXxXlX8X~.^.4X5X9X9X9X9X8X8X9XeXeXeXeXeXeXzXzXzXzXzXlX0X>XXX|.oX=X8X0XlXzXNXmXNXmXzXzXzXzXwX4X|.W.I.7.5.E.:XlXlXlX0X8XeXmXAXSXFXFXFXFXFXFXAXBXmXeX9X=X XXXOX'.[.>X<X<X,X<X@X>X:X@X{.`.T.v.].{.@X>X>X>XOXT.l.5.>.>.>.5.k.l.).].:X:XXX`.l.5.1.k.).{.>X,X0X0XlXlX0X0X>XXX'.T.l.k.2.^ F d d w w S / :.d.6.5.l.).XX>X8X0X0XkXfX<X:X@X{.{.,XMXSXFXFXSXAXZXNXmXmXNXAXAXAXZXNXMXMXxXxXMXAXSXJXJXFXAXCXkX,X<X:X-X0XlXlXlXxXMXAXAXSXFXFXFXFXFXFXFXAXSXSXFXFXFXSXAXNXlX<X&X}.}.-X<X<X}.v.k.] W T ~ ~ ~ ~ ` 9.C.m.) z g ~ 5.d.d.3.5.k.T.[.>XlXBXNXNXgX+Xn.g.=.N N y u h N.l N N.aXj.~ f s 1 > R q 1 i f =.h.#.r 1 6 k j j T s * s z s , r a.%.i 0 0 q g > t v N N u u u C s i $ = * * @ > & o . * M.a.u h u < = * * O % g 6 # & & h dXjXM.M N.&.6 * y V h c z < @ # # y &.h y.M.M &.N V V ",
"2 q q 3 4 > > 1 1 > 2 > > > q e D F W W W W F G f a q q q p G W ` 7.3.7.7.[ [ [ :.` _ _ [ >.7.[ [ [ [ 3.d.d.f.3.] Q W Q / ` ` >.3.5.3.[ ] _ _ _ [ _ Y W H F D D D K K ! / ^ ` ] :.3.5.3.} [ ` ` ] ` ] ;.2.k.l.x.v.l.l.d.6.6.6.5.3.3.5.d.k.l.d.5.3.d.E.`.+X+X+X+X].A.A.].V.).T.T.E.R.R.I.L.L.4.} } 4.d.L.U.U.I.d.7.[ { [ 4.6.L.L.P.L.L.P.P.P.R.!.!.!.Y.P.d.4.4.3.4.4.L.Y./.^././././././././.P.P.P.P.P./.^.^.^.^././.Y.P.P.P.P.Y.P./././.Y.Y.P.Y.Y.P.P.P.L.L.P.P.P.P././.^.~.$X.X~.!.!./.Y.P.L.L.Y.U.W.!..X=X$X4X7X6X6X6X7X~.v.=.h * o . . . . . @ u v M &.M M &.v y 7 5 * ; $ * t j R o.n.A.C.].;X;XgXCXFXJXJXJXKXKXKXKXvXiXN.*.B.F.;XhXCXnXCXDXSXSXKXpX- 5 *.gXhXpXM - - * - $ $ o O O $ o . X .     .         . X . . O v jXxXxXfX>X X X!.!.P.I.T.'.].h O O o $ 7 v b v m u $ O   . . . O o = &.dXA.}.<X{.V.:XSXSX,X:XcXoX.X$X6X9X9X9X9X5X8X9X9XeXeXeXeXzXzXmXNXNXNXzXcX0X8X=X4X4X8X8XwXlXNXmXNXNXmXzXzXzXwX8XoXoX|.R.R.>XlXBXAXAXBXmXBXBXGXAXFXFXAXAXAXAXBXNXmXeX9X8X>X-XOX'.].+X+X@X@X[.].[.{.].V.v.x.V.+X<X<X,X0X0X:X'.l.5.>.:.5.k.x.V.].:X<X<XXXT.d.1.1.9.V.].{.@X:X<X0X>X<XXX`.l.5.1.1.,.O.~ K d e q w F 5.T.'.R.E.T.[.>X8X8X0X0XfX,X<X@X@X].V.V.{.fXMXCXMXNXNXkX0XlXZXSXFXFXFXFXSXSXSXSXAXZXAXSXFXFXFXSXZXMXMXlXlXmXNXNXBXZXAXSXFXFXFXFXFXFXFXSXAXAXZXZXBXBXlXgX&Xk.( U U T ( k.n.`.V.V.x.,.! R E E T T ^ B.F.a.e 0 0 A [ 3.4.3.6.U.'.@X*X8XmXNXNXNXlX&X#.X.&.&.B n h v a.N.N D.Z.j L &.N : q g > q a X.c.g 1 < j f a j E < 0 ) s i i : r E E j y M m h R h v N N V V V h t # & & 5 q > O o . - a.x 0 = = = = = & * $ X.) 6 0 & % t S.nXS.V N.V u B N s * < 0 < % # % 1 g s m X.&.M u h ",
"> w e w q q q q 3 1 > > > > 3 w A F W W / ^ ^ W T D f d p S F W _ [ [ ' _ _ ] [ ' _ _ Q _ [ } [ [ [ [ 3.d.d.3.:.` Q W H W W Y _ ] >.3.:.] ` ` ` ] _ _ / / W W ! W ~ O.;.1.5.5.5.k.k.k.5.7.[ [ ] 2.2.2.1.1.k.x.x.x.l.k.5.3.3.7.7.} } >.3.f.d.f.5.f.d.U.`.{.:X<X<X@X+X].[.{.{.'.'.'.`.`.R.I.d.3.} 4.4.L.I.Y.R.U.d.6.7.} } 4.L.P.P.P.L.L.L.P.P.Y./.W.!.R.Y.I.L.d.d.P.P.Y././.^./.Y././.P././././.P.P.P.P./.^.^.^.^././././.Y.P.L.P.P.P././././././.^./.Y.P.P.P.Y.Y././.^.^.^.~.~.~.~.!./.R./.Y.Y.U.U.L.W.|.oX3X$X4X7X7X6X6X3X.Xx.=.y $ o . . . . O * v e.S.S.M.B.M.m b h y 5 * * < i E ~ ~ m.C.C.+X;X;X+XgXSXJXKXJXKXKXLXLXPXiXN.M.C.+XdXhXDXCXhXCXDXSXJXaX7 y F.fXhXpXM - - @ $ $ O . O . . X . . X .   .           X   X O v jXxXcX,XXX XR.!.Y.Y.Y.W.|.V.5 . o . O $ $ u 7 $ o . X X X . . $ @ h H.D.=.l ( &X`.0XJXJXfX-XcXkX=X=X5X5X9X9X9X8X8X8X9XeXeXeXeXeXzXmXNXNXNXzXzXlXlXwX9X8X5X8X8XwXzXzXzXzXzXzXzXzXwX5X8X8X4X4X0XNXAXAXFXFXAXBXBXBXBXGXBXBXmXmXmXBXNXZXNXmXzXwX8X>XXX_.V.x.V.V.v.z.x.k.x.z.k.z.V.].<XkXlXlXlXkX0X:X'.v.d.d.l.v.V.V.].@X:X:X'.b.k.5.q.x.).].].].[.{.XX{.{.`.z.9.,.,.<.<.1.;.^ T D e A ^ l.XX>XOXQ.`.'.@X-X:X:X:X@X{.].`.].`.v.z.k.x.{.<XfXgX>X|.W.=XzXBXGXAXFXFXFXFXFXJXFXFXAXZXAXSXSXSXSXSXAXNXNXBXAXAXBXZXAXAXAXGXAXAXGXBXBXBXmXmXlX1X-X}.V.c.#.g q q f K ] k.v.).[.+X_.z.,.o.R J J K ~ G.aX%.0 : 2 A 3.f.} [ 6.Y..X8X=X>X1XgX1XlXMX<Xj.#.o.@.N.iXe.m N N l m &.L *.M.h t , g g s X.T s , 6 j g i i j g i l z 0 t 1 6 < 0 z @.M &.l &.L j m b m M e.N e.z : & * & r & @ . o - a.N u - = = = & @ * t , r 1 1 i # < < m jXjXM 5 u u u , : 0 < 0 & % % * J 1 i X.~ l u - ",
"3 p d e e p w w i q q q q q q w A F W / / ` ` ` ^ W T K K K F W W Q Q Q Q Q _ _ _ _ Q Q Q _ [ [ [ [ ] :.5.5.:.:.Q W F F F H H Y _ :.3.5.3.:.] ] :.:.:.:.] ` ` ` ] ;.1.5.k.x.x.x.l.l.k.5.6.3.3.f.k.k.z.z.z.x.x.x.v.k.5.5.7.[ [ [ [ [ >.3.5.f.f.3.3.f.U.`.{.:X:X:X@X@X{.{.XX:XXXXX:XOX|.'.R.L.4.4.4.d.L.Y.!.!.Y.U.d.6.4.d.L.Y.Y./.Y.P.L.L.L.L.Y.Y.Y././.!.R.Y.Y.Y.P.Y./.^.^.^./.Y.Y.P.P.P././.P.P.L.L.P./.^.~.^.^.^.^.^.^./.Y.P.P.P.Y./.^.^.^.^.^.~.~.~.^.^.^.^.~.~.~.~.~.~.~.~.~.~.^././.^.!.!.Y.P.P.W. XoX=XoX4X3X7X6X9X6X3XV.=.7 @ o o o o o $ y M.aXaXF.pXdXG.=.X.X.j i 5 < t s E o.o.s.0.Z.F.F.dXF.aXDXJXJXJXJXKXLXKXPXpXN.e.G.dXdXhXDXDXvXCXDXSXSXaXc b dX@X:XG.v - * O O O o X o X   o   . .             . X     o + v hXxXfX>XoX X!.W.R./.!.oX>XB.* o . . . . . o o . .   .   . O $ 7 v e.aX&.5 @ i }.Q.1XKXSXgX0XlXwX8X>X3X4X8X9X9X8X8X8X9X9X9X9X9XeXzXmXmXNXNXNXNXmXzXeX9X5X*X*X=X=X8X9XeXeXeXwXwXwXwXwXzXzXzXzXBXAXFXFXFXFXAXBXBXmXyXeXrX5X5XwXmXNXAXAXAXZXNXmXlX0XXX).x.2.2.1.2.2.1.:.1.2.>.k.].+XkXxXlXzXzXzXlX0X:X{.`.`.`.).).V.V.].`.`.l.k.5.k.T.[.+X+X].V.).].{.'.].V.z.z.9.z.z.z.x.k.1.;.] / / :.U.-X0X-XQ.U.T.`.T.T.T.`.V.v.z.x.v.`.].).l.l.`.@X:X<X>XOXQ. XwXmXmXBXAXFXFXFXJXJXFXFXAXNXNXNXZXAXSXFXFXAXAXAXAXAXBXBXmXmXmXlXwX0X,X=X=X=X=X=X-X'.x.z.z.0.o.g i j ! ^ :.5.k.v.).`.x.k.;.~ T J E ! %.F.jXa.2 # : S b.k.Q / 6.R.=X8X=X}.+Xc.%.c.2XfXn.<.W g M N.&.t t s s l o.) m N &.l < 2 g E j 1 : i jX%.h M M M &.@.r < > j i < 0 & < z %.E R R j &.iXN.&.M.D.pXsXp.0 5 5 * , # & * o $ K.N c - * * @ & = @ 0 t v t i i & & 5 6 j M.l 0 0 < 5 < 0 : < s s 1 o $ a E b +Xg.l z * ",
"q d S A S S f d p p p p a a e e F H / ^ ^ ` ` ` ;.` ^ / ! ! K T H W W W Y Y Y Q _ | / Q W Y _ ] :.:.:.:.>.>.:.] / W W K F F F W _ [ 5.6.5.5.5.:.5.5.d.k.5.>.:.;.:.1.5.5.l.v.E.l.l.l.k.k.d.d.I.U.T.T.).V.V.v.x.x.l.k.5.3.:.[ [ [ >.5.5.k.k.d.3.7.7.3.d.T.'.{.{.[.{.{.{.{.XX:X:X:X:XXXOX|.R.U.d.6.d.L.Y.R.!.!.Y.R.I.L.L.L.Y./.!.^.Y.Y.P.L.L.P.P.P.R.!.!.!.!.!.W.R./././.^.^./.P.Y.P.L.L.P.Y.Y.P.L.d.L.P./.^.~.^.^.^.~.~.^.^./.Y.P.P.Y./.^.(.$X$X$X$X4X3X$X3X3X3X7X3X3X3X$X(.$X$X~.~.~.^.~..X3X.X/.P.L.U.!.oX.X.X=X.X4X6X9X9X5XV.b , @ o o o % # < m aXvXvXjXhXhX;XB.*.$.X.j i 6 s j ( %.o.o.@.j.Z.Z.H.F.pXhXSXJXJXJXKXKXKXPXsXe.=.G.dXdXhXDXnXhXCXDXJXDXjXe.*.fX@X:X+Xy - - @ @ O . . . .   o . . . .             .   . . $ y hXcXfXoX>X.X X!.!.!. X X>X$.% . o   .   .         .     + * c N.pXvXaXy O . @ g &XMXJXZXcXfX0XlXlX0X5X4X4X5X5X5X8X9X9X9X8X4XqX8XeXzXzXmXmXBXBXNXzX9X8X=X X|.|. X=X4X8X8X5X8XwXlXzXmXBXBXBXAXAXFXFXFXFXFXAXmXeX9X*X^.!.Q. X8XlXBXAXAXAXAXNXNXNXlXkXXXx.2.` ` -.2.1.3.:.>.>.l.].@XkXlXlXzXzXzXlXkX,X:X@X{.`.V.V.V.V.v.l.l.5.5.l.T.OX>X:X@X[.'.[.{.:XXX@X[.].].V.).).T.T.l.k.5.5.>.:.>.l.'.XX{.T.l.l.x.k.k.x.v.z.k.k.l.'.:X,X<X:X:X,XgXlXlXzXlXwXwXmXmXBXBXBXAXFXFXFXFXFXAXBXmXmXmXlXmXAXSXSXAXAXBXAXBXBXmXzXwXwX8X:X'.).l.l.U.T.[.{.].v.x.z.9.O.J j L O.^ ] [ 1.z.x.b.b.k.2.^ W E T ! $.Z.J.@.2 # : f s.#.d S 2.T.|.|.T.A.Z.@.g T g.A.m.$.~ T j &.M < 0 > > r D @.N V m l l q 2 E > # : 8.hXM.e.iXy.y.N.a.l > > r 1 r 1 % % : g %.C.V.j.B iXN.K.D.pXdXaXj a M m y q 0 0 0 @ o &.u C - - * @ @ @ & & < y &.m s k i i 8 s < 0 < 0 < < u 0 2 0 i i l < % < @.@.1 i j s < ",
"q d S S S f f d f S S S f d d d F F W ^ ` ` ` ] ] ` ;.^ ! ! K W W W W W Q W Y Q | Q / / W Y Q ` ` :.:.] ;.;.` ` ` / ^ ! W F F Q _ [ 3.d.l.k.q.q.k.k.l.x.l.5.2.:.-.2.1.1.k.l.b.d.l.l.k.l.d.L.U.Q.T.T.).).).V.v.l.d.5.3.3.:.] [ [ 5.k.x.x.x.k.3.[ 7.3.6.d.U.T.).).).].].'.{.:X:X:XOXOX|.'.R.R.I.d.L.Y.Y.!.!.!.Y.Y.U.I.P.Y./.!.~.^.~.!.W.R.Y.P.Y.Y.!.!.!.!.!.!.R.Y.P././.^./.P.P.P.P.P.L.P.P.P.P.L.L.P.P./.^.^.~.~.~.(.~.^.^./.Y.P.P.P./.^.(.$X3X3X3X7X3X3X6X7X7X6X9X6X7X3X$X3X3X3X~.~.3X3X6XeX5X.XL.4.} d.R.W.!.!./.~.3X5X9X5X9.t * * * $ = < 6 k M.vXVXVXVXCXhXdXA.h.g.@.j k i E E %.%.X.E j *.B.M.S.pXF.dXDXSXSXSXHXHXHXVXpXM M C.dXgXCXhXhXhXCXSXJXHXCXjXG.@XXX X;Xh = - * @ $ O . . .   . O X O .             . . . . @ t ;XcXcX,XoXoXOX|.!.~.!..XW.k o . o   .           .     . $ u S.aXdXdXm = . X o # m.AXKXZXlXzXlXlXcXwXwX8X4X4X4X5X9XeXeX9X8X4X4XqX9XeXeXzXmXmXmXmXzX9X=X XW.R.R.'. X*X8X5X5XeXzXmXNXNXAXAXAXAXFXFXFXFXSXAXmXrXtX^.!.!.`.'. XqXeXmXNXAXBXAXAXAXAXZXlX>X).k.:.] 1.k.k.d.5.3.3.l.`.+X,X0XkXkXkXkX0X0X,X:X@X'.x.k.z.z.v.b.k.k.q.k.E.`.XX>XoX-XXX:X<X,X0X0X>X@X@X@X[.[.OX[.`.E.I.l.k.d.5.5.5.l.T.v.k.l.v.).v.v.V.V.V.z.x.v.-X,XkXlXlXmXNXNXBXBXBXBXBXBXBXBXBXBXAXAXAXAXGXGXBXmXeXeXwXwXwXeXmXZXAXAXAXAXAXNXBXmXmXlXwXwX<X{.V.z.f.l.v.`.{.].'.).V.k.,.#.O.O.1.:.[ 3.x.].].].V.V.x.5.2.#.#.#.o.) l r : # & q U g > q O.q.T.l.x.+XF.@.g g E o.<.C.B.p.@.X.h t t i < 0 a t N @.) l &.z : 1 0 1 l *.&.M y.y.B m a.p.r g R k 8 q 1 : & # 2 s i o.*.m N.iXD.D.pXaXaXM j e.sXN.U 1 @ @ @ * t u C C - - * = @ = : & * n M.B...a g j i 1 * = u u < t a 1 s s n N.m & % y %.1 3 R i 0 ",
"q d d A A d d A d S F T K D S d D F W Q Q / ^ ` ` ^ ` -.O.W K K K / / ` Q Q W W Q Q Q / Q P H Y / / ` [ >.2.2.1.2.9.9.,.O./ W Q ' [ 3.5.k.5.5.d.l.l.x.x.k.5.7.' ` _ ] [ >.3.3.3.3.7.>.:.5.d.I.`.'.T.T.v.x.x.E.U.f.3.3.5.5.:.:.3.d.v.T.T.v.E.q.7.5.3.3.3.6.d.d.6.d.l.U.T.'.'.'.`.W.W.Q.W.R.R.U.I.U.Y.!.!.!.!./.Y.Y.L.P.P./.^.^.^.~.~.^.^.^.^././.~.!.!.!.!.!.R.Y.Y.P.P.P.P.P.P.P.P.P.P.P.P.P.P.P.P.P.P.P.^.~.(.(.3X(.~.~.^./.P.P.P.P./.^.(.$X3X$X$X3X3X3X7X7X6XrX9X9X9X4X3X7X7X3X(.7X6XeXeXeXrX~.d.{ Y _ [ 3.4.4.L.U.W.(.3XT.b 5 5 y y t i h j X.S.jXVXVXVXhXgX;XA.C.h.o.l j j X.o.@.X.X.j s &.M.&.e.D.S.S.jXDXSXHXDXHXPXsXB n m B.;XjXhXhXhXDXDXCXSXDXDXCXdX@XoX:X;Xm * - - * u - . . . X . O = @ + X             . . . O 6 +XwX>XwX4X X|.!.W.!./.!.d.i o . .                     . @ b D.dXaXM.* o . . o o b MXJXMX,XwXwXlXzXkX0XwXwX9X9XeXeXzXeXeXeX9X9X9X9X9XeXeXmXmXmXmXeX8X|.T.l.I.I.Y..X4X8XeXeXeXmXmXBXBXBXBXAXGXGXAXAXAXBXNXwX=XW.!.!. XXX=X0XlXzXmXBXmXmXBXSXFXSXAXZXlX:X`.l.k.6.R.R.U.U.d.5.k.l.T.OX:X=X=X>X>X>X,X,X:X{.V.k.5.5.V.].V.x.k.k.E.`.'.OXOXoXoXqX0XkXlXwX8X8XoXXX@X:X:X-XXX[.[.x.x.V.).V.c.b.v.v.T.x.).{.XXXXXXXXXX[.).).].-X=X>X0XlXNXAXBXBXBXGXGXGXBXmXBXmXmXBXBXmXmXeXwX5X=X>XwXlXwX8X5XlXzXNXAXBXBXBXNXNXBXmXzXzXlXkX0X:XXX|.|.|.{.:X0X0X,X:X'.`.n.V.v.`.Q.Q.}.<XkXlXgXfX<X{.'.b.b.x.k.) e r > & # # & 1 2 > f ,.V.A.C.F.dXF.*.X.@.%.o.*.j.A.}.c.@.b t q i i i t & , < 0 > < , : : q j.@.m N.e.e.N.B m a.l s E ~ a R U G D e w 2 & & < q 3 =.K.pXpXpXpXsXD.e.iXsXM.h = o X & x r h u u u v t 5 & & & : * t &.B.i : a E b k 1 u N.z t i s j s h e.N.a.h @ # X.J q j s s ",
"q p e d d A d A A F W W W K D d d F W W Q / / ^ / / / / W W W F P W / ` _ Q W W Q Q / / P G G G F W Q ` :.5.k.k.z.V.C.9.,.^ / ` ' [ 3.5.5.5.5.5.d.d.l.l.5.3.[ _ _ _ Q _ ] ] [ [ [ ] ] ] 7.6.d.U.W.U.b.k.k.k.l.d.k.5.d.d.5.5.3.3.k.T.`.`._._.E.6.3.7.} } } 7.7.7.3.3.d.I.T.`.`.T.U.U.U.U.U.U.U.U.Y.W.!.!.!.!./.Y.Y.P.P.P./.^.~.~.$X$X.X~.~.^.~.~..X~.~.~.!.!./.Y.Y.P.P.P.P.P.P.P.P.P.Y.Y.Y.Y.Y.Y.Y.Y.P.Y.^.~.$X$X$X$X$X(.~./.P.L.L.L.P./.~.$X$X3X$X$X(.3X7X6X6XrX6X5X4X3X3X7X7X7X6X6XeXeXeXeXrX~.d.| Z Z H _ _ _ ' } P.^.!.o.k v X.=.X.E E X.X.@.M.F.hXVXhXjXdX;X].F.B.@.E j j E o.E j j s s X.*.M &.D.S.e.N.aXDXHXVXPXPXiXn y h B.F.dXhXjXhXDXDXvXCXSXDXCXdX@XqXoXfX*.5 5 h v &.c $ o o o + o $ - - - . .           X   O t V.zX0X8X=X|.!.!.R.Y.R.|.k.6 o . .                     . 5 =.S.pXD.m @ . . . o . , gXSXxXkX8X9X8XkXkXkXeXwXwX9XeXzXzXzXzXzXeXeXeX9X9X9XrXeXeXeXeX5XXX'.T.U.E.U.W..X9XeXzXmXmXmXBXBXBXmXBXBXBXBXBXBXNXmXzXwX>X X|. XoX5X9XeXzXNXNXNXmXmXAXFXJXJXFXAXlXkXXX`.E.R.'. XOX[.l.1.:.2.k.T.OXoXXX{.'.'.@X<X:X'.x.5.5.x.[.{.].[.`.W.T.T.T.T.T.|.qX0XlXzXzXlX0X>XXXXX@X>X:X:X:XXX[.).).].+X@X@X].[.[.[.OX-X8XwXwX0X>X<X>XXX[.{.XXXXXX:X0XmXBXmXmXmXmXmXmXeXeXwXwXwXlXwX8X*X-X-X:X:X>X,X>X=X-X.X>X8XzXmXNXNXBXmXmXmXeXwXlXlXwXwXwXwX8X8X=X>X0XlXmXmXlXkX0X1X1X0XeXeXeXmXmXBXBXBXmXwX0XwX-X&X&XQ.s.U e q > : & # & : 8 X.C.dXdX+XdXgX;XC.j.0.0.$.#.<.h.A.A.*.v u t j E $.%.t & @ % # # & 0 1 : g &.B e.Z.M.e.&.s h l l X.k i f D G H W ^ O.1 # # q f j M.S.*.&.M.N.@.&.&.e.@.< @ o   O < < h a.u v y u h 0 & : : & 6 s < 2 2 1 8 i j +.*.&.N y t f c.A.j.a.N B M < % < ( q k j h ",
"q f d A S J D S D F W ^ ^ ! K G p G F W W / / / W W W W K W W H W W / ` ` Q W H W Q / / P F G A G F W _ >.l.v.v.V.V.C.C.9.2.` ` [ [ [ :.:.:.;.:.7.3.3.f.3.7.[ [ [ _ Q | _ ` ` _ ] ` ` ` [ } 4.d.b.l.k.1.1.k.k.l.x.k.l.l.d.6.6.d.l.T.'.OX'.'.Y.L.4.3.} [ [ [ [ [ [ 3.4.d.I.U.R.U.L.d.d.L.I.Y.Y.Y.W.!.!.!.!.!.!.Y.P.P.P.P.Y.^.~..X$X3X3X$X$X~.$X3X3X$X$X.X^.!.!.Y.Y.Y.P.P.P.P.P.P.P.Y././././.^.^././././.!.~.(.(.$X$X$X~.^./.P.P.t.t.L.P.^.~.(.$X~.~.(.3X7X7X6X5X4X3X.X~.$X7X7X7XrXrXeXeXeXeX6X~.L.' Z Z Z H Y H | { } P.x.*.=.*.Z.Z.B.h.*.*.*.*.M.F.hXVXhXhXhXdX+XF.Z.*.E j j E ) l s h t i m =.&.&.N.N.B M e.jXDXDXVXvXN.c y k 0.A.;XhXhXMXnXVXvXjXSXDXMXfX{.oX4XkXF.k j B.B.S.M.v 5 = - - ; - c c u O . .       . . O O y A.zXlX0XqXoX|.!.!.Y.R.R.;., . . .     .       .   . O $ v e.D.D.&.5 o o . . . o & dXZXxXxXkX8X5X8XwX8XwXwX8X0XeXeXeXeXzXzXzXzXeXeX9X6X6X6X6XrX6X4XoXoXXX|.|.W.!..X9XzXmXmXmXmXmXmXmXyXmXmXmXmXmXNXzXzXwX>X-X|.W.|.XX4X8XwXzXmXNXNXNXNXFXJXKXKXFXZXzX0X:X[.T.|. X>X<X@X).2.Q W ] l.`.XX{.[.).).:X,X,X{.v.5.x.`.XX:X@XXXOX'.T.l.k.k.f.T.-XlXzXmXmXzXkX8XoXXXXX@XXXXXXXOX[.'.'.[.:X,XfX<X<X<X<X8X0XzXlXwX8X>X,X,X:X@X{.@X@X'.'.XX8XwX9X*X*X=X-X~.^.~.~. X-X=X=X|.W.{.:X:X:XXX{.W.U.d.d.T.|.=XeXmXBXBXmXeX9X=XwXlXwX0X8X-X=X=X=X*X-X8XzXMXMXlXlXkXkXlXmXBXBXGXGXGXGXGXGXmXyXmXmXyXwX9X1X-XQ.i.Y Y U q 2 : q j O.h.A.].F.].F.C.j.g.*.%.o.E E ) p.B.*.s < t i E o.E 0 t u u u c V h s t , b B N m N m E r g E q h M h i k J F D P ;.X.1 2 & a a E E E j m l t i j s s & o X X . o # b H.h t s 0 t < j & % , s 0 , i s j *.j 1 j *.p.N m 0 1 j @.@.z u V h 0 @ % j j t &.n ",
"q J K K K T T K F F W / ^ / P D S D F F W W W W W T K F F F W W / / ^ / / Q / P H Q / / W K F A D G F ^ >.l.v.T.V.V.V.C.q.2.:.` [ _ _ / Q / ^ ] [ [ 7.3.7.7.} } [ [ ' ' ` ` ` [ ' _ ` _ ' [ 3.3.5.5.>.2.1.k.l.v.V.l.l.L.d.d.L.L.I.R.|.|.|.!.Y.U.L.4.} } } [ } } } } 4.4.d.L.L.d.L.4.4.4.L.P.Y.Y.W.!.!.|. X|.!.Y.P.L.P.P.Y./.^.~.$X$X3X3X$X$X3X4X5X4X$X.X^.^.^.!././.P.P.P.Y.Y.Y.P././././.^.^.^.~.^.^.^.~.~.$X$X$X~.~.^.^./././.L.L.P.Y./.^.~.(.(.~.(.$X$X$X.X X!.!././.^.~.$X3X7XrXeXeXeXeX6X~.L.} Y H H H Y | ' { } P.z.*.r.B.B.A.F.A.c.g.g.j.B.H.jXhXhXhXhXjX;XA.A.j.X.E j T E j h s 5 t h m &.e.e.M V V n pXVXPXvXiXV y u h *.F.gXhXdXhXaXN.e.D.VXCXdXkXoX.X4X0X<X%.@.+XF.B.D.S.e.M B v n c n M v 5 o           X O $ k +XeXzXeX9X4X X!.|.!.!.R.#.* . .     .         . . . = c M M.&.v 5 O . o o O o . * hXMXgXxXlX0X8X*X3X5X8X8X8X8X9X9X9X9XeXeXzXeXeXeX9X6X5X4X4X5X6X9XeXeX9X4X.X|.!..X9XzXmXmXmXmXmXmXzXeXzXmXNXNXNXzXwX>XXX|.Q.T.x.U.T.{.-X>X0XwXzXmXBXAXFXJXJXFXAXmX>X>XXX[.).|..X0XkXfX+X9./ H _ k.'.@XXXXX[.@XfXxXcX,X{.T.].{.>X>X<X@X'.v.k.,.O.O.1.x.@XlXNXNXNXzXlXwX>XoXXX{.[.T.T.T.T.T.`.'.XX:X:X<X0X0XwXzXlXzXzXwX>X>X0XkX,X<X<X:X@X'.T.U.Q.Q.Y.U.b.n.v.f.k.U.Q.U.U.Q.W.T.`.XX,X<X{.T.l.f.6.3.3.f.U.W..X9XeXmXzX5X X-XkXlXlX0X>X-X!.Q.U.P.d.U.Q.}.}.Q.Q.Q.^.*XeXyXyXBXGXGXGXBXyXyXyXmXmXyXyXmXyXyXrX/.uXY.Q.( r e ~ 1.2.] ] 2.<.%.o.T T T E f g j j j X.+.T r 0 6 s &.M.m h m l V V N N N N ) < 2 z M v h l T g E j i v v v h y v j g F / F > W > : a E E f j j s < 6 j s < = o . X . o # s @.l 0 u < < t r # % t i < : 1 i 1 X.C.l 1 6 m z 0 : & = u 0 - 5 * 0 t & % , *.X.k 5 ",
"i E ! ^ ! o.! K D D F W W W K K D K T K H F P W W K K F F F W W ^ ^ ` / / Q / W W Q / W W W F A G A G Y ] 5.l.v.b.z.z.k.:.:.;.` [ ' _ Q Q Q _ ] [ [ 7.7.3.7.7.7.7.} 7.[ [ [ [ ] [ _ ` _ _ [ [ :.:.2.;.;.1.k.l.v.E.l.d.d.d.L.L.d.L.U.Y.W.W.W.R.Y.R.L.4.4.4.4.4.4.4.4.4.d.d.L.L.d.L.4.4.4.d.P.P.Y.!.!.|. X X X!.!.Y.Y.Y.P.P././.^.~.(.$X3X3X(.(.3X4X$X.X~.^.~.~.^.^././.Y./././././././././.^.^.~.~.~..X.X.X$X$X3X~.~.~.~.~.^.^././././.^.^.~.(.(.(.~.(.$X.X~.!.R.L.L.L.P./.!.~.~.3X6XeXeXeXrX6X~.Y.t.} { ' ' { [ } } L.Y.v.B.B.h.B.+X;X].C.h.j.j.*.B.F.jXCXCXhXjX;XA.A.B.%.l s j s y y t - 5 u u v n V c - u V B sXPXPXpXu = 5 h 0.;XhXhXpXF.M.y 5 v aXCX+X<XqX4X=X,XgXc.,.+XdXG.Z.G.pXS.N.N.e.e.M &.&.v 5 . .       X . * =.:XeXwXeX9X5X3X.X.X.X~.oXg.& o . . .         X . . $ n M y 7 = @ o . . o o o X o < MXxX<XlXzX0X8X.X~.*X=X=X=X4X4X4X5X6X9XeXeXeXeXeXeXeX9XwXwXeXeXzXmXzXeX4X X!.!.-X8XkXzXmXmXmXmXmXmXzXmXNXNXNXNXzX8XXXQ.T.l.x.k.k.k.l.l.T.-XkXmXBXAXAXFXFXFXAXmX0XXX-XXX[.[.OX>X0XlXlXfX`.2.` :.U.oX,X,X,X,XkXxXMXxXlX8X:X@X@X:X-X:X{.v.,.! J f D ! 9.+XlXNXmXzXeXwX8X>X-XXX`.x.5.>.3.f.l.U.x.x.T.[.{.,XkXlXzXzXzXzXlXkXkXlXlXcXfX,X:X{.T.f.1.2.>.6.x.v.V.z.1.1.l.v.f.5.d.U.T.'.XX@X{.v.k.3.7.:.:.1.3.5.l.U.!.*X8X,X^.Q.-XlXMXMXlXlX,X|.U.d.d.} { { { { { { { i.U.^.P.^.rXyXyXyXrXrXtX7XrXrXrXtXtXtXrXtXuXuXP.U.{ Z W 5.U.f.] _ ] 2.#.~ T D J D f p f f D K f d w g b &.N.iXiXN.N.N.B B B N N n N 0 & < v M l j @.l j m m N N j s h b b f F Q ^ G A g 2 2 a o.J L L l m X.R s * + . . . o @ 5 0 < h u u v 0 j g 2 # & & < < & < 1 s $.E : O < s 5 - 5 5 u - = = = = = * @ o k X.< # ",
"a T ^ O.;.,.O.T S d d A F F K K K ! ^ ^ K G F W P K K K F F W W / ` ` / / / / / / / W W W / / W K F F Y Q :.f.d.f.3.5.1.:.] :.] [ [ ] ` _ _ ` ] [ 7.3.3.3.3.3.5.4.7.7.7.7.7.:.[ [ _ ] [ ' [ [ [ ] ;.-.;.1.5.k.k.6.4.4.4.6.d.l.6.d.L.L.U.Y.W.!.R.W.U.I.d.d.d.d.d.d.L.L.L.L.L.L.L.L.6.4.4.d.L.Y.R.!.!. X X X X!.!./.Y././././././.^.~.~.(.(.~.~.~..X.X.X~.^.~.~.!.^.!./././././././.^.^.^.^.^.~.~.~.~..X.X.X$X$X3X~.~.(.(.(.(.~.~.~.~.~.~.(.$X3X3X3X3X$X.X~.!.W.Y.4.4.t.P./.^.~.~.(.7X6XrX6X6X3X.X~./.P.P.L.L.P.P.P./././.).j.B.A.;XgX<X].C.B.j.B.*.@.S.hXVXhXVXVXdXF.Z.B.*.j h i t 5 5 5 = $ = = * 7 - - ; - u c e.sXPXsXu $ - b 0.;XdXjXjXM.y = $ - D.CXfX>X5X3X8X0XlX{.g.+XfX+XG.F.pXD.S.D.D.S.&.e.S.=.v - o   . .   o * *.<X8X8X9X5X5X9X5X3X7X6X8Xg.* X . .     . . O = = - n e.u @ o . .   . O o . . o @ X.MXxX@X8X9X4X=X X X.X.X*X.X*X*X3X5XeXeXmXmXmXmXmXzXeXzXmXBXNXNXNXNXmX9X*X!.R.W.-X>XlXlXlXzXNXNXNXNXNXNXNXNXNXNXzXwX=XXX{.'.{.`.T.x.L.U.'.0XNXAXAXAXAXGXGXBXmX8XqX-X:X:X@X>X>X0XkXlXlXlX:Xv.k.k.'.8XlXlXlXzXzXNXNXNXzXwX>X@X{.[.'.{.).z.~ a q q a D ,.].kXlX0X-X!.!.|.XX{.'.T.k.] _ _ 7.d.k.1.;.:.x.[.fXlXzXzXzXlXlXlXlXlXlXNXlXcXfX:X`.k.;.^ W ^ 5.).{.:X@X]._.[.[.T.T.T.'.OX{.`.x.z.9.1.1.2.;.;.9.q.5.f.f.d.U.U.P.f.3.W.lXNXBXmXmXkXXXW.Q.Q.f.] _ Q Q Q ' 7.R.'.E.{ { U.=XwXwX-X^.P.P.P.Y.d.} { { uXd.} | Y | | Y Y / ] ( Y / _ [ { [ } >.>.>.] Q _ ] ] ^ S j l X.M.Z.D.aXpXpXiXiXiXiXN.N.N.N.N.N t , y pXM.M.a.) j 0 t n y i h y j o.F / ;.1.( ! ~ a 2 1 j *.0.0.j.B.%.E r * O o . . - < 0 & * u 7 h m b h i 2 & @ = & & : t j a i t & o & > c V n t 0 u 5 = - - - u u & @ * # # ",
"w K ^ ] 2.<.O.W S p w e A F W W / ;.1.1.O.F G F K K W W W P W / / ` ` ` ^ ^ ^ ^ ^ ^ / Q / ` ] ] ;.` ^ / / ] 7.3.} >.>.:.] ] [ [ 7.3.3.7.>.[ [ [ 7.5.5.5.d.6.6.6.6.3.3.5.6.6.3.} [ _ ] ] [ } 3.7.:.` ^ ` ] [ >.3.7.[ [ [ } 3.6.3.4.6.d.L.I.Y.Y.R.R.Y.U.L.L.L.L.L.d.L.L.L.L.L.I.I.L.d.d.4.d.L.Y.Y.!.!.|. X X X!.!.^././.^././././.^.^.^.^.^.^.!.!.!.!.^.!.!.!.!.|.!.^.^.^.^.^./././.^.^.^.^.~.~.~.$X$X~.~.~.~.3X3X3X3X3X3X3X7X7X3X(.$X$X(.$X3X7X7X7X7X3X.X.X~.R.Y.4.4.t.P./.!.^.~.(.3X7X6X6X7X3X$X$X~.^.^././././.^.~.!.|.v.*.B.dXgX1X+XA.V.C.B.B.*.X.B.jXjXjXVXVXjXF.j.*.X.j h 5 - $ $ $ + + + + + $ ; ; ; ; - C c N.sXiXc ; * b B.aXS.D.F.M = $ $ - D.hXdX@X.X=X=X0XlX{.x.+X;X;XS.G.F.F.D.S.G.pXe.r.e.&.m v * . .   . O , =.:X'. X*X*X4X9X9X7X7X6X=X#.@ . . .   o o 5 c v n M B c O o . X . . O O .   o o < dXCX<X:X*X3X.X.X.X4X4X5X5X5X5X6XeXeXmXmXBXmXmXmXmXzXmXmXNXBXBXBXBXBXmX9X!.Y.Y.W.:X<XkXlXlXzXNXNXNXNXNXmXzXzXzXzXzXeX9X0X0XkXkXkX0X8X8XkXNXZXAXAXAXAXBXBXBXmXwX8X0X0X<X>X>X0XkXlXlXlXlXkX<X{.[.`.XXeXNXNXNXNXmXmXzXzXwX0X>XOX[._.].[.].V.$.f q q a D <.).:XXXT.3.[ ] >.x.`.[._.l.:.` ` 1.l.z.q.;.<.z.@XkXxXxXlXkX0X0XkXlXlXlXkX0XkXkX:Xv.9.,.O.o.O.1.`.<XxXMXxXxXcXcXkXkXkXlX0X:X`.9.0.h.V.A.V.C.A.+X].V.n.b.l.k.3.3.} 7.U.<XwXwXwXwX,X-X{.XX{.b.] Y F G Y } U.=X8XOX>.^ ;.`.<X1X&Xv.k.z.x.b.1.Q F H Y ] ;.U e Z / ^ A e w r q r e G Z  .Q _ { f.f.f.P.Q.d.>.O.*.&.M a.@.@.B.B.Z.pXpXaXaXaXpXZ.p.S.pXM.s h K.iXJ.a.t g : @ , k *.&.v E O.! $.<.0.$.O.O.a > 1 1 ~ c.*.) E q q s & O o X o $ # & 5 u = # : , 2 , < & # @ & < # & < , 1 v M y @ % , - V N * u 5 y u u u u u t < @ % # i ",
"q F / ` ;.2.O.! J d w e A K / ^ 2.5.x.v.9.^ F G H H W ! W P P W ` ` ` 2.] ` ` 2.-.;.] ] ] :.3.3.k.3.:.] ` _ { [ [ >.5.5.:.[ [ } 7.6.f.f.f.f.f.f.f.d.d.d.d.d.4.4.3.3.6.6.6.6.3.3.7.` ] [ [ } 4.3.>.` / / Q | { [ [ ' ' _ ' [ 7.3.3.4.4.4.d.L.L.P.L.L.L.L.t.L.L.L.d.L.I.L.L.L.L.I.L.d.4.4.4.L.L.Y./.!.!. X X|.!.!.^././.^.^.^.^./.Y.Y./.^.!././.!./././././.!.|. X^.^.^.^.^.^.^.^./.^.^.^.^.~.~.~.~.~.^.!.^.~.$X3X3X7X7X6X6X7X7X(.7X3X3X$X3X7X6X7X7X7X3X$X$X~./.Y.Y.Y.P./.~..X.X$X(.3X3X7X6X7X7X5X3X3X3X3X~.~.(.~.~.~.!..X[.F.hXCXhX;XA.`.n.g.s.%.@.X.*.pXjXhXDXDXjXZ.*.X.j h t * ; o o O + + + X O + ; ; ; ; - - c n N.N.c - - j S.aXM.&.m y $ + $ - pXgX@XcX.XqX=X0XlX{.x.}.;X;XB.*.j.B.D.S.S.pXD.M.e.r.X.m y $ O . O O 6 B.[.T.W. X4X5X9X9X6X7X3XOXE @ . . . X $ y M m =.&.B v $ . X X . . . O o . X . # o.AXCX-X=X X%XoX*X4X9X9XeXeXeXeXeXmXmXBXBXBXBXmXyXyXeXeXmXmXBXNXmXmXzXeX=XR.U.U.'.:X,X<X0XkXlXNXNXNXNXlXwX=X5X9XwXeXeXeXzXlXzXzXNXNXNXNXAXFXFXFXFXBXBXmXzXzXlXlXlXzXwX0X>X0XlXzXzXmXlX0X0X>X@XXX'.oXeXNXNXNXNXmXzXeX9XqXqXXX`.).].#X@X:X@Xz.! a q p K 2.k.v.k.] Y Z Z F 2.v.[.XX`.5.] ` q.v.V.V.z.h.].:XlXcXfX,X{.[.`.XX,X,XXXT.T.{.:X{.x.k.z.h.9.,.1.T.,XMXAXZXZXZXMXxXMXNXNXlXkX@XV.F.dXhXhXhXhXhXxXxXgX<X:X}.b.U.T.U.l.x.'.XX-X-X:X}.!.XX:X&Xv.;.T d w F [ b.=X8XW.} Q / >.b.}.'.v.x.V.V.c.1.^ T ! ^ ( ( T f T #.( j i 3 1 2 2 > 4 4 4 4 4 w H / ] } f.:.{ <.j.M N &.X.i R k.v.c.j.*.*.@.@.l X.jXFXnX@.1 h p.@.h v < % $ 8 8.F.Z.l m E R @.c.<.+.,.g.$.2 > q q E z q 1 2 , g & @ + o O o @ $ y u u &.h * - 5 u t < * : 1 & # = & : 8 &.&.y - V B h u c u u y n u 5 < < = % % % i ( ",
"q D W / ;.2.;.-.! K D S T ^ ;.2.l.T.`.`.v.;.W Y F W / ^ / W P W Q ` ] [ } ] ] } 1.1.>.3.3.3.f.L.I.d.3.7.[ ] { [ } 3.f.3.7.[ [ } 6.d.I.U.U.l.l.l.l.d.L.d.d.4.6.3.6.4.6.d.d.d.6.7.:.] ` _ ' 3.l.x.5.:./ Q Q _ [ _ _ _ ' ' _ _ ` [ [ [ } } 4.d.d.L.L.L.L.4.4.4.d.6.f.d.L.L.I.I.I.L.L.d.d.6.4.4.P.Y./.^.^.~.~.~.~.^.^.^.^.^.^.!./.Y.P.P.P./.Y.Y.Y.Y././././.Y.!.!.!.!.!.^.^.~.~.!.!./.!.~.~.~.~.^.^.~.~.~.^.^.^.~.(.3X7X7X7X7X7X7X7X7X7X$X$X(.(.7X7X7X7X3X3X.X~.^.^.^.^.~.(.3X3X$X$X3X3X7X7X7X7X7X6X7X7X7X7X3X3X3X3X(.$X3X4X<XhXDXCXgXA.+XF.g.( R X.l j @.F.jXVXDXVXpXM.=.j s t * + X X X O X X + + X + ; ; ; ; ; - C c B B 7 * t =.M.D.N.v u - + + ; - D.gX:XqX8X>XoX'.:X&Xk.:X+XF.*.h 6 b M.B.B.S.B.e.&.&.X.X.b y y - $ - 6 x.'.+X|.XX4X9X9X6X4X3X.X'.L * $ O * 7 k m b M M y * @ . X   . . . O O X O . % 1 n.SXCXoX X~.3X5X9XzXmXmXmXmXeXyXyXyXmXmXmXmXyXeXrX6X4X4X5X6X9X9X9X6X6X9X.XY.U.x.T.{.:X:X:X:X>XkXzXzXlX0XOXR.!..X9XeXeX9XeXlXzXmXmXNXNXAXFXFXFXFXBXmX8X=XwXlXlXMXNXzXkX-X=X8XzXNXNXNXlX0X:X[.].T.E.|.8XzXzXzXzXzXeX8X=XXXOX|.R.R.OX>X0X0X>X].,.D p S K ;.>.>._ W A e a S O.v.XX<XXXv.5.9.V.+X:X@X].V.].<X<X:X+X].x.>.[ k.`.{.).1.Q ( s.k.1.1.g.z.g.1.1.v.,XmXNXNXMXcXcXcXxXxXxXxXlXfX;XjXvXCXDXZXMXMXZXCXMXlX,X>XXXXX-X{.'.[.[.[.'.|.|.'.'.OX:XXX`.k./ S S ! ;.>.l.Y.f.Q Y Y W 2.v.].+XF.A.x.>.;.( E #.#.#.~ %.~ T ~ ( j q q q > 3 q 3 2 2 2 2 3 a ~ #.%.D e w f M N M *.p.j t +.T.d.f.#.U g R T B.DXnXS.l s E @.h h u o % t j.B.B.B.*.%.@.@.) Z.j.E *.%.%.q 9 > > 1 l < 5 i 6 z < @ @ o X O @ = N x c N N.m * * - t t h h : : < # @ & & s g j 7 M y.B c c V B C v h = < & % o @ j :Xi.",
"q F P Q ` ] ] ` ^ / ! ! O.1.k.k.v.].XX{.).q.] / / / / W / / W H Y _ [ >.3.} } 5.5.5.d.d.d.L.U.R.!.W.U.f.7.[ [ [ } 3.f.3.3.7.} 3.3.f.d.U.U.U.U.U.U.U.I.d.d.6.6.6.4.4.6.d.d.L.d.3.:.] ` ` [ 4.I.E.k.5.` _ Q _ ` _ ' ' _ _ _ _ | | _ { [ } 3.4.4.L.L.L.d.4.4.4.4.4.4.d.d.L.P.U.U.L.L.d.d.d.4.d.P.P././.!.^.^.~.~.~.~.~.~.^.^.!./.Y.R.Y.Y.R.Y./././.Y././.Y.Y.Y.W.W.W..X~.~.~.$X.X$X~..X.X~.~.~.^.~.~.~.^.!.^.^.~.~.3X3X7X7X7X7X7X3X3X(.(.(.~.(.(.3X7X3X$X.X~.~.(.(.~.$X$X3X7X7X3X3X$X3X3X7X7X7X7X7X7X6X6X7X7X7X7X6XrX5X3X5XlXCXDXxX;Xn.+XA.o.g j h t t X.D.jXVXVXvXD.&.m h t 5 $ O X X X X X X + + + + + ; ; ; ; - C C c c - * h &.*.S.e.7 - - + + ; - M.dX{.oX4X-X=X{.x.}.b.&Xc.*.i & % @ t m M.D.e.e.S.=.h j m h e.N.n C b V.).[.XXoX=X8X9X9X4X.X|.).+.5 y v h v b m &.M 7 @ o . X . .   o * % $ - = @ t 8.h.hXMXqX9X4X6XeXmXBXBXBXmXmXeXeXeXyXyXyXeXrX6X3X~.!.Q.R.R.!.R.Y.Y.R.^..X!.U.f.5.k.v.].[.'.'.:X0XlXlXkXqXXXOXXXqX0XwXwX9X9XwXeXzXzXmXNXBXAXFXFXGXzX*XW.oX0XkXzXmXmXzX0X|.|.>XzXNXNXzX0X{.v.z.k.1.5.U. X8X9X9X9XwX8XoX|.'.!.R.Y.!.=XwXlXwX0X{.9.W F W O.] ] ] _ _ W D S ! 9.`.@X,X<X{.T.V.{.<XfX<X@X{.@X{.].V.c.z.9.1.1.x.].+X].1.W F K / W T ~ ;.,.1.z.'.0XmXmXkXXX`.`.[.:X:X:X,XgXgXgXgXxXMXxXlXkXkXxXlXxXkX0X0X0X0X8X<X:X@X{.{.XXoXoX-XXXOXoXXX[.T.k.,.;.k.5.>.>.[ _ _ ^ W ~ 1.A.dXhXVXdX8.O.$.$.#.#.,.2.<.1.#.T U U g q f J D K J d a q q q a +.9.z.V.O.d q s m M &.R g E ..i J 2.^ ` 5.2.K R =.B.m.%.o.z s z l * o O @ X.0.f E $.%.*.*.E s l @.s k i i j i : : : q E k l j q j * $ O o O O 0 u - C C &.K.5 $ * & @ u h & * v = O O o = s t 5 u V y.y.v u V V 5 t 0 : % % @ 0 S.@X) ",
"w K Q Q _ ] [ [ ] ;.;.,.1.k.x.x.v.].{.{.`.x.5.:.2.-.^ / ^ -.` ^ Y _ [ >.3.f.f.d.d.U.Q.Q.Q.R.!.^..X.XW.U.f.>.} 7.7.3.4.3.3.7.[ 7.} 3.f.d.d.d.U.I.U.I.l.d.d.6.6.6.4.3.6.d.d.L.6.3.7.] ] [ [ 3.I.E.T.l.:.` ` ` ' [ [ [ [ [ [ ' _ | _ [ [ } 3.4.4.L.L.d.4.4.4.4.4.4.4.d.L.P.Y.Y.Y.U.L.d.6.d.d.L.L.P./.^.^.!.!.!.!.!..X.X.X.X.X!.!.Y.Y.R.Y.R.!.!.!.!./././.Y.Y.Y.Y.R.W.oX3X7X7X6X4X4X4X4X$X.X~.^.^.~.^.~.^.!./.!.~.~.(.$X3X3X(.(.(.~.^.^.^.^.^.^.~.$X(.(.(.~.^.~.~.(.~.$X$X$X3X7X7X7X3X3X7X7X6X6X6X6XeXeXeXeXrXrX6X6X6X6X5X9XxXCXDXhX+Xn.&XA.j 0 s t < < m M.pXVXVXsXS.&.h y 5 - + o X X X X X X + + + + ; ; - ; ; - C C C - ; * h =.&.M.n $ $ - $ + ; 7 e.hX,XXXoXoX|.'.v.}.b.:X*.< 5 o o . O * h M.S.S.pXe.j i s h &.pXsXiXiXG.{.@X>X:XXX=X=X3XoX X'.[.*.M e.&.=.=.X.=.M y - $ X X + X + $ 7 5 * v e.6 k j.#.k B.lX=XeXeXzXBXAXAXAXBXmXyXrXrXrXrXrX6X3X3X^.!.Y.U.U.U.U.U.d.7.7.4.L.W.!.Y.6.7.5.l.T.T.`.[.:XfXlXxXxXcXcXcXlXxXNXzXlXwXwXeX9X8X9XwXwXeXmXBXBXmX5X!.!.XX>X0XwXzXzXwXoXY.R.oXlXzXlX,X{.x.2.^ ^ ^ :.f.R. X*X3X4X4XXXW.U.I.U.Y.Y.!.9XzXmXzX0X`.9.;.2.1.1.5.1.:.5.5.2.#.O.9.V.].@X<X,X>X@X@X:X,X,X:X+X[.{.'.V.z.g.9.z.v.).).`.].`.z.] W P T D G F W O.k.).:XkXzXeX-XU.5.5.l.x.x.v.'.:XfXfX:X{.}.b.f.b.`.XX<XkXkXkXkXkX0X8XqXqXqX>X>X>XqX>XoX X XoXXX'.'.`.x.x.).v.l.f.>.] >.2.] ;.g.F.hXHXHXaX#.#.9.0.g.1.k.c.n.v.k.#.F S a d ! -.O.;.^ W P ! -.-.z.q.z.v.z.9.T j m p.M.%.f a *.*.b s 3 k S x.|.3.D @.p.) @.h s 0 s 1 m t O # b 9.T d R #.X.X.E l j t : & 2 i j z l < 1 > a o.E i 6 g & o & @ o @ u - C u - j &.N 5 < = = * & # 5 N v = O o * < * , t = c N m y u V h 1 2 @ o * 0 t 0.&Xz ",
"w K W Y _ [ [ [ :.;.;.,.1.9.k.z.v.x.V.`.T.v.l.5.5.5.>.:.>.k.k.5.[ :.:.} 3.f.d.L.Y.W.!.!.^.^.~.~.*X=XXXW.d.7.7.3.3.4.4.3.3.7.[ [ } } 3.f.d.d.d.f.l.l.d.d.l.I.d.d.6.4.4.6.d.d.4.4.3.7.:.:.[ 3.d.U.R.l.7.` ` _ ' ' [ [ 7.3.} [ [ [ [ } } 3.6.d.L.L.U.L.d.4.4.4.6.d.d.L.I.Y.W.!.!.W.L.L.L.L.L.L.P.Y./.^.^.R.Y.Y.R.!.!.|..X X.X!.!.Y.Y.R.R.R.!.!.R.!.^.^././.R.Y.Y.Y.|.oX4X6X6XrX6X6X6X6X4X.X^././.^.^.^.^.!.!.!.^.~.~.(.(.~.^.^.^.^./././././.^.^.(.(.(.(.~.^.^.^.^.~.(.(.(.$X3X7X7X3X7X7X7XrXrXrXrXeXeXeXeXeXrXrX6X6X9X9X9XcXCXCXhX;XA.;XB.h 6 t , = * v M.pXvXvXpXM.N y u - - + X X X X + X X + + + + ; ; - ; ; - - C C - ; * h &.&.N.y + + - ; + ; u M.xXcXoXOX|.U.k.v.}.v.+XX.# $ o . . . O * y M.e.S.M.*.b b b =.pXIXPXPXjX>X<X>XOXW.Y.Y.W.|. X@X+XpXpXpXe.X.=.X.&.M v n y 7 - - u M n M e.e.pXpX*.C.A.g , +.mXmXmXmXBXAXAXAXAXmXeX5X3XtX3X7X3X3XtX*X.X X X|.XX-X=X|.T.d.3.6.L.W.|.!.U.d.l.T.`.|.OX:XfXxXxXMXMXxXMXZXZXAXZXNXNXmXzXzX9X3X.X XW.!.eXmXBXmX6X!.|.|.oX=X=X=X4X.X!.Y.R.XX<X<X{.`.k.,.~ E T ^ 2.5.I.R.|..X X XR.I.6.d.I.Y.!.5XeXmXNXmX0X[.).).'.'.T.x.k.5.k.l.k.q.k.V.].+X+X@X<X,XkXfX,X<X:XXX'.`.`.`.T.x.5.5.v.XX>XXX'.v.U.U.d.5.:.` / W F W ;.k.V.{.:X8X8X=XW.I.l.U.I.l.d.v.'.{.{.T.1.^ D A W :.).{.<X,X,XkX,X:XoX X.XoXXXXX-X=X.X X X X X'.'.|.'.`.l.T.T.XX{.d.f.f.k.s.g.c.F.jXDXCXA.~ ,.z.x.k.5.].<X<X}.T.k.^ W A W 2.2.;.>.:.] 6.R.E.T.,Xz.2.k.J o.E X.@.E E j ..*.B.*.=.f q 1 a o.:.{ g l z s M.M.m h 2 # a.m @ * k h.k.2.c.s.,.,.s.s.%.j i 1 q q > 1 h *.1 : 2 s m v &.&.n u - $ @ 5 v u C C - h p.M.l * @ @ # & # , n M.0 % * * & # * i % # * @ - u N @.< % O u c C 0 0 r i ",
"q D H H Q ` ` ` ` ^ O.#.,.,.,.2.<.,.1.l.l.l.l.l.k.v.T.U.Q.'.'.T.U.5.3.3.f.6.d.L.Y.!.!.!.!.!.~.~..X=XXXW.d.3.} 3.3.3.3.3.3.7.[ :.[ [ 3.f.d.d.d.6.k.k.l.I.U.U.I.d.6.6.4.4.6.d.6.6.4.3.5.5.:.3.f.d.U.I.3.[ [ ' [ [ } 3.4.6.4.4.3.3.4.4.4.6.L.L.U.Y.Y.U.L.d.d.6.d.L.I.U.Y.W.!.|.|.W.Y.U.P.P.L.P.Y.P.Y././.P.P.L.P.Y.R.!. XoX.X.X!./.Y./.R.Y.R.Y.P.P././.!.!.R.Y.Y.Y.W. X.X4X4X6XrX9X6X6X7X.X^././.^.^.^.^.^.^.^.^.~.~.~.~.~.^.^.^.^./././.^.^.^.~.~.$X$X$X~.^.^.^.^.~.(.(.$X3X7X7X6X6X6X6X6XrXrXrXeXeXzXmXmXeXrX6X6X6X6X7X5XkXhXCXhX;XF.A.X.5 5 * $ @ $ u N.pXpXaXS.e.v 7 - - = + X O + + + X X X + + ; ; - - - - - C C C - - - m &.M M u + $ - $ ; - c S.gXfX0XoX|.OX@X:X&XQ.+Xm @ $ O . . . o O @ y =.&.S.m b k m e.aXPXLXHXhXfX<XXX'.I.d.d.I.!.XX@XfXjXsXpXM.=.X.=.r.e.=.e.e.e.B e.N.pXpXpXpXjXjXdX+XfXC.s , j.BXBXBXBXBXBXBXBXmXzX5X!.!.^.~.3X3X3X6X9X9X8X9X9X9XwX0X8XoX'.R.R.W. XoX=X X!.W.|. X=X>XkXlXxXMXCXMXZXZXZXZXZXNXNXNXNXNXmXeX=X|.R.U.Y.9XBXGXBXeX^.W.!.!. X|.|.|.W.Y.P.R.[.).z.1.,.,.O.! T ! ,.5.q.6.I.!.~..X|.T.E.I.U.R.|.4XeXzXmXNXzXlXqX>X<X0X>XOXx.x.k.5.1.1.q.v.V.A.V.V.`.'.:XkXcX0X<XXX{.).E.E.l.l.I.d.3.L.XX8X,X{.T.U.Y.Y.R.R.k.:.] ` ;.1.g.g.q.l.`.=X8X>XOX[.'.'.U.d.d.U.U.k.[ W D a w F -.x.T.`.].+X{.'.W.W.Q.!.|.'.{.XX|.W.W.!.W.R.R.R.OXOX`.5.5.l.oX-XI.f.k.k.z.z.c.c.A.;XF.g.,.,.2.;.2.k.gXMXcX:XQ.d.5.:._ :.2.2.1.k.5.3.d.Q.T.{.].o.f h.Z.0.E g r r l *.&.@.p.&.*.*.l l j i f J s 1 s s m h h M t & s M.N * 6 B.gX:X:X`.].v.}.A.s.#.R S E E D i i &.M.u : < h aXvXB B iXpXN - B N.5 = @ 5 m p.M.a.< @ o & & , e.dXH.s @ @ @ s 0 @ < % % @ O * l e 2 % @ - V V u 0 & & 1 ",
"q f A G Y ` ` ` / W W W T T U U F T ^ 2.5.d.U.T.`.OX-X=X>X8X=XXX[.U.3.5.5.3.f.d.L.R. X.X!.!.!.^. X X|.U.f.[ [ } 3.3.3.3.3.3.7.7.} [ 3.6.d.d.6.6.d.d.l.R.R.R.U.I.6.6.3.6.d.d.d.I.6.6.6.k.5.3.4.f.d.d.4.} [ { [ } 3.3.4.6.d.L.d.6.d.L.L.L.d.L.I.R.Y.U.I.L.d.d.L.L.Y.R.R.!.|.W.'.W.Y.Y.Y.Y.Y.Y.Y.Y.Y.Y.Y.L.d.4.4.L.U.R.!. X.X!.!././././.Y.Y.P.P.P././.!.!.Y.Y.L.L.L.U.R.~.~.3X4X4X7X7X4X.X^././.!.^.^.^.^.^.^.^.~.~.~.~.~.~.~.~.^./././.^.^.^.^.^.3X3X3X.X^.^.~.~.~.$X$X$X7X6X6X6X6X6X6X7X6X6X9XeXzXmXNXmXzX9X6X3X3X*X*X3X,XhXnXhXF.B.p.t * * = $ o $ u e.iXiXN.e.N u $ ; = + O + + X + + X X X O O ; - - - - C C C C C C 7 7 m e.N u - + - - + ; - n F.fX0X0XoXoX>X:X&X:X}.].=.5 $ O . . . . o o @ 5 b =.m m b =.e.pXPXLXHXgXkX>X XR.L.d.L.Y.|.oXfXxXvXvXaXM.*.&.=.=.e.S.pXpXD.pXpXpXaXpXaXhXbXhXfX:X<XC.6 , ;XAXBXmXmXmXmXmXwX5X=X|.!.!..X.X*X*X4X9X9X9X9XeXeX9XeXeXeX8XoX.XoX*X5X8X9X9X8X4XoXoX=X8XkXxXxXxXxXxXxXxXxXxXMXzXNXBXAXAXBXeXoXR.U.I.W.6XBXAXAXmX~.U./.Y.R.R.W.|.W.Y.Q.W.T.k.2.O.,.9.9.,.O.O.1.k.l.l.I.R.!..XOX'.`.'.R.R.!.oX8XwXeXlX8X8X0X0XkX0X>XOXv.).l.2.^ ^ 2.z.C.V.z.k.k.k.T.:X<X@X'.`.T.k.5.5.q.I.R.R.L.L. X9XkXqX|.Y.L.d.L.I.I.6.3.d.l.l.k.<.-.1.T.=XwX0X@X[._._.T.I.6.f.f.>./ / / ! ! -.5.b.b.5.1.1.k.5.>.:.5.5.q.k.x.v.E.E.U.R.Y.U.T.XX>X=XT.1.] :.R. XR.l.l.v.V.V.v.1.#.%.~ o.+.o.D F 9.fXZXNX:XT.d.3.d.x.d.5.^ W #.1.5.6.d.d.`.1.S 3 i B.+Xb.U g %.) z @.N.m i b e.M.e.M.=.b M.&.s h m v N n iXsXsXN < @.p.M y X.CXNXMXgX+XA.;X+Xc.$.E d T $.].&X) M sXN.0 & 2 b D.sXB v y.N.u v h @ @ @ y l s &.M.N * = : # b hXA.h.) 1 @ @ t 0 % < 6 t $ # < s : % * < u V C u 0 @ = * ",
"3 f A A H _ ] ' Y W F K D d d d e A W _ } d.U.'.XX:X>X0XwXwX8X=XXXU.f.5.7.[ } 3.} L.W.!.!.Y.Y.W.Q.Q.U.d.>._ ' [ :.7.7.7.3.3.3.3.3.} } 3.3.6.6.6.d.l.U.R.W.W.R.U.d.d.6.6.I.I.I.E.L.l.l.x.l.4.4.4.4.4.} } [ { } 4.4.4.d.d.L.I.I.I.L.I.I.L.d.d.L.U.U.I.L.6.6.d.L.L.Y.R.R.W.W.W.W.'.Y.Y.Y.Y.Y.Y.Y.Y././.Y.P.L.4.4.} L.L.I.Y.R.W././.^.^.^./././.R.Y./.!.!.!.Y.Y.L.4.4.4.d.P.P./.^.!.~.$X.X~.^././.!.!.!.!..X.X~.~.$X~.~.~.~.$X(.~.^.^.^./.^.~.~.~.^.4X4X3X3X~.^.~.(.$X$X$X$X7X7X7X7X7X7X7X3X3X3X6XeXzXmXNXzXeX9X5X3X3X.X3X4XfXhXVXdXM.@.m 5 - - $ + . $ - M N.N.B V u - + + + X X + + + + + X X X + $ - - 7 c c c c c C C - 7 7 h N.M u $ $ u y $ ; - n +XqX0X>XoXoXqX,XfX&Xc.].B.v = @ O o . o O o O - v m m v M e.S.vXHXLXHXxX@X@X!.R.Y.Y.Y.!. XoX<XfXvXvXaXM.=.e.&.=.e.M.S.pXpXpXaXaXaXpXjXjXdXgX<X&X:Xg.6 , &XBXmXeXwX5X=X=X.X!.'. X.X=X4X3X.X.X*X4X5X5X5X6X9X6XeX9X9X6X4X4X5X5X9X9X9XeXeX9X4X.XoX>X0XlXcXlXkXkX,X,X,XkXkXlXNXNXAXAXmX8X|.R.R.U.R.3XmXFXFXBX3XU.P.P.Y.Y.!.|.|.'.[.'.`.x.z.q.x.v.x.k.q.q.x.T.`.`.R.!. X.X.XOX|.|.!.Y.U.U.R.W.W.U.d.U.W.OX-XoXOX`.v.).v.2.W K ^ 1.z.z.q.1.2.2.k.`.'.v.k.l.k.7.[ 7.k.R.XX>XoX|.=XeXmXeX8X!.d.} 4.f.d.5.6.T.`.`.).z.x.).XX0XkX0XXXT.x.x.).[.T.l.5.7.5.T.[.'.{.XXoX|.b.5.:.1.:.^ W F F K ! O.;.,.1.q.R.'.|.|.|.-X0X>X'.k.:.` k.[.).q.z.V.V.v.z.2.T D j j j j J $.+XMXNX1Xb.>.[ / -.k.E.x.;.F W ;.3.6.3.3.T.;.F d f E R { U m aXm.r s l 0 t i i h &.D.e.M K.a.& = u N.pXpXiXsXIXK.: q z j b h j.2X;X;XA.A.A.F.A.Z.*.g q K &XAXdXN.iXN.N.h , 2 s aXaXM.N v u v 5 * c B B g j &.M.D.v y q # L c.+.$.) X.j k X.X.t & h z = # 3 : % @ u u = u h u * @ $ O ",
"q S G G Y _ [ { _ Q W P K S d f G F W _ } P.Q.'.{.-X>X0XwXwX9X4XOXT.k.3.[ ] ] ' } 3.L.R.R.U.U.U.U.U.d.3.] Q | _ [ ] [ } 3.6.6.6.3.} } 3.3.3.5.f.d.l.T.W.|.'.W.T.I.I.L.L.U.E.U.R.U.I.E.T.E.6.4.} 4.3.3.4.} } 4.4.L.P.P.L.L.L.U.U.Y.Y.I.L.L.d.d.I.l.d.4.3.3.4.d.L.P.Y.Y.R.R.W.W.|.R.R.!.^.!.!.!./.!.!./.Y.P.P.f.4.4.3.3.4.L.Y././.^.!.^.~.!.!.!.R.!.!.!./.Y.Y.L.4.4.} [ } 4.P.Y.Y.P.Y./.^.^././.~.|.|. X X.X~..X$X~.~.^.~..X.X.X~.^.^.^.^.~. X.X~.3X3X3X3X3X~.(.$X3X3X$X3X7X7X3X7X3X3X3X~.~.~.3X9XeXzXzXlXwX9X9X4X4XoX3X8XfXnXvXF.=.s t 7 u - + X X O $ c e.M c - - ; X + + X X X + + + +     o ; - 7 7 v M M B B V c c c u 7 y M N u O o u v - ; - M +XoXqX8X0X>X4X>XxX:XV.c.*.m u $ $ $ . X + $ $ $ 5 &.&.y v &.pXvXKXLXvXbX@X`.W.Y./././.!. XoX:XxXDXVXaXD.r.&.e.S.e.r.D.D.D.pXpXS.G.B.bXdXxXgX{.n.'.Q.i k n.0X8X!.*X*XQ.W.|.!.|.=X4X4X4X3X*X*X3X3X3X3X3X3X3X4X5X6X6X4X3X3X4X5X4X5X8X9XeX9X=X.XoX>X0XlXlXlXkXkX<X>X>X0XcXNXAXAXAXBXmX=X|.|.|.W.Y.^.mXAXFXBX9XY.U.Y.R.R.R.!.'.OX@X@X{.[.[.]._.W.).`.[.[.XXXXoXXX>X5X4X5X5XoX X|.Y.L.} ' _ _ Q H H Q >.f.d.d.x.).T.[.`.q.^ W ^ ,.9.9.1.2.;.] 2.l.l.1.2.:.:.' _ [ l.-XcXcXkX0X0XeXlXlXlX0X'.T.T.T.k.5.k.[.@X:X<X@X:X<X0XkXlX0XXXE.k.k.`.>X:X'.l.6.).0X0XwXeXeXeXoXY.L.I.E.5.] W D D D ! O.#.2.5.l.OXoXoXOXR.|.=X=X[.l.7.:.l.{.].8.$.8.g.1.1.#.R j j L T o.0.].<XlXkXQ.>.>.` A A O.x.{.v.! K ` f.d.f.7.6.W.Q.] ~ ~ q O.p.l g U E a i k t & % < y h &.@.j i & 5 N.N.iXsXsXsXsXsX&.< r q & 0 r U T j ~ <.,.h.c.B.B.%.g p ,.fXD.B B N.iXN : : , b &.e.S.z h m M.N.iXiXN.h m sXD.M.pXZ.t , E j &.Z.M.S.B.=.=.=.s @ X . & 1 : % @ t < = & & s x & = = ; ",
"q D W Y Q _ } } [ ' _ ` ^ / W Y ` :.5.5.7.d.Q.W.W.'. X*X*X=XXXW.T.d.3.:.:.` ` / _ ] 3.d.l.l.l.x.l.6.3.[ | Y Q _ ' [ } 3.d.U.E.I.d.3.} 3.4.4.6.I.x.E._.'.|.'.W.R.E.U.I.U.U.R.R.R.W.U.R.'.R.Y.L.4.4.3.7.3.3.4.f.d.R.'.'.R.U.I.Y.Y.R.Y.I.L.d.d.d.6.5.:.[ [ 7.6.d.I.U.P.Y.W.R.!.'.!.!.!.!.!.~.~.!.!.^.!.!././.P.L.L.6.7._ ' } d.P./.!.!.^.^.~.~. X!.|./.Y././.Y.Y.L.t.4.4.4.t.L.P.P.P.Y./.^.^./././.|.!.R.W.!..X.X~.$X~.~..X~.(.~.~.^.^.~.~.~..X.X.X=X5X6X7X3X$X$X(.3X$X$X7X4X3X$X$X~.~.~.!.!.!. X=X9X8X8X8X=X=X*X*X*X3X.X,XxXhXdXr.v 5 - - - = o . o . O u V c - - ; + + + X X X X O X + +   . O - 7 y k m e.S.N.e.B M n c y t t u h 7 + O y M.v ; - *.fXfXoX6X6XqXqX0XlX<Xn.l s y v - * - o O O = u - * b &.k t v S.VXKXLXDX+XXXoX|./././.^.|.|. X>XxXPXVXaXpXS.*.e.S.e.M.D.M.M &.M m &.B.jXdXgXfX`.n.'.&X%.J T.W.-XW.Q.W. XOX X X:X>X8X4X3X3X.X*X.X3X5X5X5X5X4X5X7X6X7X3X.X.X.X.X-X=X4X6X9X9X3X.X-X0XlXNXNXNXMXlX0X,X0XlXzXNXSXSXAXNXzX9X4X3X XW.Y.Q.wXAXFXGXeX!.U. X X.XOX|.OXXX@X>X,X<X:X@XXXOXOX@X<X<X,X0XkXkXkXcXcXwX9X4X|.U.L.[ | H G G G G A F / [ 7.7.4.L.b.T.).k.] Q ^ O.;.,.,.;.^ ^ ` q.x.x.k.k.k.:.` 7._.8XeXzXzX8X9XwXwXzXeXwX0XwXkXXXx.k.).@X<X,XfX<X>X<XkXlXlXlX,X|.v.x.`.kXlX:Xv.q.T.XX>XoX=X9X5X XP.6.6.6.d.} ' ` -.1.k.z.z.5.6._.|.!.R.L.4.t.|.|.T.d.>.;.<.v.v.;.T J T T T T f L o.8.B.G.+X].`.).Q.l.5.] W p a D V.:X`.~ W ] l.l.6.1.k.Q.I.q.O.( *.%.@.s 1 1 i o.g > & @ $ * y * 5 s E j t a.D.&.p.a.N h M M.Z.a.< g m r 0 0 s N.M.h 1 i a l E R D q l M.B V N a.m 1 : & & : 1 i j j g , 5 M N.B iXK.h iXaXK.pXD., 6 ! ..e.K.N.N.N.N.N.N.B c = * 6 & % * , & 7 < < # < : @ = $ = ",
"p W _ | ' [ } f.d.f.} f.k.q.k.k.l.v.T.T.l.U.W.T.x.x.U.U.U.Y.U.f.5.5.:.] ` ` ` / Y Q _ [ 3.5.k.l.l.f.3.[ ' _ ] ] :.3.5.l.E.T.R.I.d.f.4.4.6.6.I.U._._.'.OX|.'.R.U.R.U.U.U.U.R.R.R.W.R.'.|.!.!.R.L.6.3.3.3.4.d.L.U.'.OXOX'.R.U.R.R.Y.I.L.L.L.L.d.5.7.[ [ [ 3.6.I.I.U.L.U.U.Y.Y.Y.!.!.!.!.!.~..X.X X^.^.!.!.^.^.Y.P.6.} ' ' [ 4.P.Y.!.!.^.^.^.~.~. X!./.Y././.!.!././.Y.Y.Y.Y.Y./.!.!.!.^.^.~.~.!.W.Y.L.L.L.Y.!.~.~.~.^.^.!.^.~.~.~.~.~.~.(.$X3X3X$X3X6X5X5X4X3X$X3X3X3X$X$X.X~.~..X^.^.^.^.!./.R.!..X=X4X*X!.Y.Y.!.~..X.X<XgXgXF.=.t * $ $ = $ .   . X o - - - - ; ; + + X X   X X X X + + X X o = y j X.*.S.pXaXN.N.e.M v h h y - u ; + @ h D.e.- - *.xXfXoX6X9X4X9X0XlX1X8.: & * v v - - + O - $ * u 7 y b h b &.D.VXLXHXCXfX'. X X!.!.!.!.|.|..X<XhXHXVXjXaXS.r.r.X.=.=.m y = @ @ @ t B.bX;XlXgX`.v.|.<XF.r.[.Q.XXOX-X>X:X>X<X0X0X0X0X8X=X=X4X5X5X6X9X9X9X9X5X4X5X5X5X5X=XoX.X X X X.X4X8X8X4X.X>XwXzXNXAXAXAXNXlXlXlXzXzXNXAXAXBXNXmXzXeX9X4X|.R.W.eXAXFXFXBX5X.X5X8XqX:X{.{.{.:X<X0X0X=X X X|.:X<X0X0X0X0XkXcXlXlXzXeX9X4XW.U.6.3.:.` / ` 2.2.-.;.:.7.:.:.>.3.q.T.`.x.1.] ^ ^ O.O.~ ! K F ^ k.).`.[.`.T.5.:.6.@XlXmXzXlXwXeXwX9XzXzXzXeXzXzX8XT.E.).[.<XkX0X{.`.OX>X0X,X0X,XXXT.x.`.0XlX,X'.x.d.I.d.L.R.^.R.L.6.3.3.7.7.} 3.5.5.T.'.).x.f.3.L.L.4.f.6.6.6.W.|._.k.` K ! 2.1.^ f a d d d f f X.h.A.+X+X+XV.k.1.{ / ^ ;.;.L a J q.`.1.S W 5.l.I.l.U.6.L.6.q.<.+.@.E E X.m i q a L i * = @ # v M M.F.=.e.M.K.p.h m 0 > i h h X.%.1 1 a.s < 0 0 l N.aXD.u @ & : 1 1 , t a.N v t M $.i , = & & , g D 3 s 5 n N.N.N =.j v sXpXaXsX@.$ e.F...b M.N.B e.M.Z.K.N.B m 3 & @ % < l h 5 z s = s < @ @ + O ",
"A _ } [ } 4.4.d.U.b.x.v.V.].].V.`.].[.'.`.`.`.v.k.5.5.5.3.7.[ [ ] ] ] ` ` ` ` / W W Q ` :.5.6.k.f.3.} [ [ 7.5.k.k.l.l.T.).`.T.U.I.L.d.d.d.I.U.U.|.|.'.OX'.R.R.I.I.L.L.L.U.Y.R.R.R.R.|.|.|.|.|.E.I.6.3.4.6.L.Y.W.|.oXXXXX'.R.R.R.Y.U.L.d.d.d.l.6.3.} [ } 4.L.I.I.L.d.d.d.L.L.P.Y.R.!.!.~..X.X.X.X!.~.~.~.~.!.!.R.L.4.[ [ } } P.Y.Y././././.!.!.~./.Y.Y././.^.~.~..X X!.!.!. X.X.X.X.X.X.X.X X|.W.U.4.[ } 4.P.!.|.^./.P.Y./.^.~..X.X~.~.~.$X4X6X6X9XeXlXzXlXlXwXwXwXwXwXcXkX8X8XqX$X.X X^./.P.P.Y.!. X X!.Y.L.L.P.^.(.3X,XfXjXF.j * @ O O O o . . X X X + ; ; - ; ; + + O X X X X X X X O X X o * h X.j.Z.F.gXhXjXiXS.e.n v b h - - $ + $ =.D.e.- 7 *.kX0XoX3X4X3X=XqXkXgX$.# @ * h B n c - $ c C O $ - t v b e.S.dXPXLXHXbXkXoX=X*X.X.XOX|..X.X4X,XCXHXPXjXpXe.=.j k k 5 @ o . X . o * X.F.;XgX;X`.T.Q.,XCXhXcX,X>X>X0X0XkXxXlXxXcXlXcX,X:X@X:XqX9X9X9X9X9XrX9X4X5X8X9X0X0X0X>X=X.X.X XoXoXoX X.X=XwXzXNXZXAXAXZXzXlXlXzXwXwXzXzXmXmXNXmXmXwX.XR.E._.wXAXFXJXFXmXeXeXwXwX,X>X<X>X<X:X=X=X.X X XXX=X>X>X@XXXXXqXcXlXzXzXzXeX=X|.W._.[.[.).v.[.@X:X@XXX`.k.7.2.:.2.q.T.[.T.k.9.,.;.,.O.o.J d A ^ k.T.W.`.[.T.k.5.U.0XNXNXzXwX0XwXwXwXzXzXeXeXzXzX8XT.x.).{.,XkX<XT.5.U.W.T.T.'.{.W.x.x.`.>X0X>XOX`.R.I.I.R.oX XR.k.k.k.5.3.[ 7.k.v.[.XX|.R.I.f.3.3.:.:.l.R.R.R.OXXX'.l.^ K K T ^ ^ f d d d K O.8.B.].+X].].A.z.2.` W I D ~ O.o.R S ! ,.J w ~ 5.4.I.I.U.6.E.z.( g k 0 s @.M.B.&.E > 6 E i @ O & t h J.a.iXiXm l p.M M.@.6 6 c.o.b E l < U r < h l e s a.aXpXN < % , 1 , j s s 1 X.;X1XB.h y y < : : > a a 5 M M y m *.i c K.*.=.D.1 - pXaXo.8 i v N m t h m &.@.1 # o # & # 0 s , & : < < & = O = O ",
"G >.U.Y.Q.`.`.`.'.{.:X+XdXdXdXdX+X+X@X@X@X@X{.).q.5.:.5.>.;._ Q _ Q / ` ` ` / / W W W ` :.3.3.5.3.7.[ [ } d.U.T.T.T.T.).`.`.T.I.L.L.L.L.I.U.E.U.'.|.'.|.|.[.'.T.L.d.6.d.L.I.U.R.U.U.R.Y.!.!.|.R.l.d.6.6.I.Y.|..X=XqX0X0X>XXXXXXX!.Y.I.d.4.6.I.I.d.4.7.} 3.6.d.d.} 3.[ } } 4.f.L.U.Y.!. X.X.X.X.X.X~.!.~..X X!.W.Y.L.L.L.4.L.P.Y.P.Y././././././.Y.Y.Y.Y./.!.~.~..X~.!.~.~. X.X$X4X5X8X8X4X=X XR.l.4.[ [ } P./.!.^.^././././.^. X~.$X4X8XwXzXzXzXNXNXZXAXNXNXNXNXNXZXAXAXAXNXNXNXzXcX8X=X|.Y.P.P.Y.^.|.|.R.I.L.P./.$X5X,XfXdXB.y @ o O O o . . . o . . O ; ; - ; + + + O X X X X X X X X X X @ 5 m B.A.dXjXxXDXDXvXpXD.&.m &.s - $ $ $ * M.S.M c 7 *.:XkX=X4X$X.X|.qXxXlX%.* o = v N.pXiXB c B e.7 * * * t v M e.aXPXLXHXfXoX4XqX6X6X9X5X3X7X5X9XlXCXHXVXaXD.B.X.t 6 = o . . . X X o @ t B.dX2X;X].`.Q.1XSXCXxXxXlXkXkXlXxXNXMXMXxXxXxXfX:X+X{.:X8X9XeXeXeXeXeX9X8X8X0XlXlXkX0X8X5X5X3X=XoXXX X XqXwXeXzXmXZXZXNXlX0X0XwX4X X4X9XzXzXmXmXlX>XW.I.v.).>XBXFXKXFXGXmXeXwXwX8X0XkXcXqX5X5X8X0X0X0X>X-XXX[.'.'.OXqXkXzXzXzXeXwX8X>X<XfXkXkXfXfXcXNXNXNXxX0X[.k.5.q.q.x.).T.x.x.V.v.x.).V.9.~ D F ` 3.f.3.5.l.T.E.E.OXwXNXNXeX*X X=X5X8XwX8X=X=X8X8X=XT.).{.0XlX0X{.k.3.3.5.5.:.q.k.6.T.[.XXXXoX=XoXXX XXXoX0XcX>X[._.`.).E.I.4.U.|.:X,X>XoXOX|.R.I.R.E.R.-X>X=XoXOX'.[.z.^ $.0.O.W ` #.O.^ ,.`.fX<XV.A.A.c.g.8.O.O.;.^ K S f J O.o.d J E a 1 f W / :.3.,.B.G.p.w q B.X.X.0.0.$.o.T q 6 ( B.F.M u l s s M sXsXM.@.l h v M.m h *.*.M.D.p.: 2 i 0 : t j.j.s l K.jXS.6 6 h l g t , i E C.hXgX@.M &.s : & < : a L X.h y &.N M e.p.=.j l # 7 iXM.m M B M m h t , t i t 6 * t * < 5 i < @ $ & < 0 & * 5 0 = ",
"W b.{.:X,XgXgXgXgXgXgXgXfXgXgXgXfX;X+X@X:X>X@X].k.5.:.5.5.2.` / / Q / ` ` / / W W P W ` :.7.3.3.5.7.[ [ [ d.Y.R.T.T.T.T.T.T.U.d.d.d.L.P.I.l.l.x.I.R.U.W.'.`.'.T.I.6.4.4.d.L.U.U.U.I.U.U.Y.R.!.|.W.T.U.U.W. X=X4XwXwX0XkXwX0X8X>XoX'.I.d.f.d.L.I.U.I.6.3.} } } } } [ | | _ { } 4.L.Y.!..X.X X.X.X|.!.!.!.!.|.!.!.Y.U.P.P.P.P.P.Y.Y././././.Y.Y.Y.Y.Y.Y.Y./.!.^.~.~.^.^.^.^.^.~.3X5X9X8X8X5XqX XR.k.6.3.4.L.P./.!. X~.~.^././.^..X8XwXzXNXNXZXZXZXAXAXAXNXwXzXNXAXSXSXSXJXSXAXZXAXZXNXMXzX0XoX|.U.Y.!. X.X XR.Y./.^.3X4XfXbXpX&.5 O o O O . . . . . . o + ; ; ; ; ; + + + O X X X X X X X X O = t &.G.+XhXCXZXSXJXHXvXaXN.&.*.k * $ @ = v F.D.e.n c B.@XwXqXoX.X.X>XkXzXlXh., @ * M pXpXaXiXN.N.iXe.n - = * h v M iXPXLXKXCXkXmXNXmXmXzXeXeXeXwXzXlXCXHXVXjXD.X.h u - @ O . . .     O o , *.dXdX;XT.`.{.MXFXCXMXMXxX0X0XkXcXxXxXxXlXlXlXfX].c.c.].:X0XlXlXeXzXeXwX0X0XkXcXcXkX0XwX6X5X5X5X5X>X=X4X0XwX9XwXeXzXNXzXcX>XqX8X=X X=X8XwXzXlXkX>X'.`.`.`.E.W.wXFXKXKXGXmX8X5X8X9XzXzXNXzXNXNXNXNXNXlX0X:X{.`.'.XX>XwXeXzXzXzXeX0X>X,XkXkXlXlXlXxXMXZXZXZXZXlXXXT.E.v.x.T.x.5.q.V.+X+X{.>X>X{.k.-.` 7.4.3.} 7.l.OX:XXX>X9XzXwX XU.k.T.W.OX{.'.Q.R.'.|.|.|.OX<XkX0XXXE.k.5.:.5.q.q.q.q.l.XXqX0XXXW.|.XXXXQ.'.OX>X>XXX'.'.[.'.R.R.Y.|.=XwXeXwX9X9X5XOX'.OXoX>X0XqXoXoX!.!.+Xv.$.G.fXV.2.x.:X:X{.<XlXNXkXT.z.h.$.T g f +.C.=X-X2.F R O.O.L g j i 2 1 D T P Y %.M.M.*.S S 8.,.;.1.F T U > : 1 ( ( ( ) l a.N h M N.iXaXa.y pXaXK.N.e.F.dXsXK.< & # g %.0 & s R g 1 k pXjX*.X.@.m b B B z 0 j @.a.M y.N.< 2 & # # & > g X.M.y.0 7 S.S.e.&.r % t b X.N.aXM.X.j i 2 < s 5 @ 5 M Z.M.5 & * % $ @ O * : @ * t t < ",
"#.`.<XkXMXCXCXCXxXCXCXxXhXgXhXxXgXdX+X+X@X>X>X+XE.5.5.5.5.5.2.;.] ;.2.2.` / / W W W Q ` ] 3.3.3.5.5.:.[ [ 3.d.d.l.d.l.U.U.x.d.4.4.4.d.L.d.5.3.5.3.5.5.l.U.U.T.x.l.6.4.4.L.U.Y.R.R.Y.U.U.Y.R.!. XXXXX X X=X4X8X9XeXeXwXlXzXeXlX0X>XOXR.L.4.4.L.U.R.Y.L.4.} { { { ' | | H Y | { } d.U.W..X X.X X|.!.!./.Y.!.!.!.R.Y.Y.Y.Y.Y.Y././.^.!.!././.Y.Y.Y.Y././././.!.^.~.~.^.^.^././.!.~.3X4X=XoXXX XW.U.5.6.6.L.P./.^.!..X~.~.!././.*XkXMXZXZXZXZXMXxXMXZXSXAXMX>X0XMXSXJXJXJXJXJXAXAXSXSXAXAXAXNXzXkXoX_.T.Q.^.!..X X X3X3XoX<XbXS.v * @ O O o . . . . . o o $ - - - ; ; ; ; ; + O X X X X X X O @ & i &.+XdXhXDXSXSXJXKXHXvXpXM.*.m t $ @ * M pXjXpXN.e.F.XXqX8X~..X.X0X>XlX1Xg.1 = 5 e.pXpXaXpXpXD.N.D.M h y 6 t B e.pXPXLXKXJXSXFXFXFXAXAXmXmXeXzXlXlXMXDXvXaXe.h y 5 = = O . . . . O $ o % j gX;X+XT.`.{.ZXJXDXZXMXkX{.'.T.[.{.@X<X<X<X<X+X0.! ~ 1.].<XlXlXkXlXlXkX0X0X,X,X<X:X:X>X9X9X9XwXwXlXlXzXzXcX9X8X5XwXzXwX9X8XwXwX8X>X8X0X0X0X>XXX`.T.'.oX-XT.d.-XAXKXKXFXmXwX8X9XzXNXAXAXFXFXFXFXSXBXlX=X[.[.'.oX8XwXeX9XwXwXwX8X<X{.{.:X<X,XfXcXxXMXMXxXMXNXlX>X-X'.U.k.l.5.2.h.+XfX@X[.oX<X:X`.k.3.4.L.I.I.U.|.0XwX>X=X=X-XOX`.U.l.k.x.v.T.T.E.E.`.|.XX-XXX{.`.b.k.5.q.l.k.T.`.].).T.'.0XlXcXoXW.W.W.T.d.k.x.v.T.`.'.[.).R.R.OXoX=X=X8X9X6X4X~.^.W.R.R.|.OX'.R.R.W.R.!.<X{.x.fXxX:X[.fXzXlX0XkXlXwX8X|.z.<.R a a L $.C.lXBX8Xv.k.9.o.f 1 q s 1 1 q d f d s j E d._ G a e T o.a 1 1 : , & , < 5 v N B B N.iXN.aXVXZ.5 M.VXaXaXjXM.Z.M.t 5 & # 1 g s s s E X.X.$.l @.a.s x u N K.N v s 6 h m v B V u < @ o % @ # # , v y.s * m &.N a.0 % j ,.+.m *.T q j q : # y h * - y N M.z @ o @ @ & $ < & @ @ = < & ",
"<.}.<XlXMXCXDXCXCXCXCXCXMXxXxXxXhXfX;X+X[.@X:X@XT.k.5.5.5.5.5.5.q.z.k.5.2.` ` / W W W Q ` ] 7.7.5.3.:.] [ [ 7.7.7.7.3.d.l.k.6.7.} } } 3.7.:.` ` ^ ` ` [ 7.d.U.U.l.k.d.d.U.Y.!. X X X!.W.Q.Q.!..X=X=X=X4X8X9X9XwX9XeXeXwXeXeXeX0XoX|.R.I.4.4.L.Y.Y.Y.L.4.[ ' { { ' | | _ ' [ 7.} 6.L.Y.!. X X X|.!.!.Y.Y.Y./.R.Y.Y.Y.Y./.^.!.^.^..X~.^.!././.Y.Y.Y.^.^./.!.!.!.^.^.^.!././.!.!.!.!.!.W.U.L.d.4.4.3.4.d.P.Y./.!.^.^.^.~. XoX8XzXZXSXSXAXNXNXxXlXMXZXZXAXZXcXlXZXSXJXJXJXSXAXNXNXAXSXSXSXAXAXZXNXcX+X].T.W.W..X4X4X9X4XoX@XF.M.v 5 * @ o . . . . . . o O $ 5 7 - - - - - - ; + O O X X + + O * < j *.;XxXCXSXSXFXKXKXLXPXvXpXB.e.m - $ * &.jXhXVXvXhXfX@XqX6X$X4X6X=X>XgXF.E i t b S.aXvXdXjXpXpXS.D.=.v e.h b e.pXvXHXLXLXKXKXJXFXFXGXGXmXeXwXwXzXcXxXDXvXiX&.b 5 $ @ @ . X o   . $ o o O t Z.V.`.'.].:XAXJXDXMXlX<Xv.>.] >.k.z.V.V.V.c.8.R f f ~ z.{.,X8X>X0X0X0X,X:X&X+X+X].{.XX8X9XeXeXzXmXNXNXNXzXwX8XqX0XwX8X9XwXzXzXwX8XwX8X0XqXoXOX`.[.XX>X=XOXl.W.mXFXKXFXNXmXmXBXZXAXFXFXJXJXFXFXAXmX8XXX`.'.-X9XwXwXoX!.R.|.XXXX'.V.z.z.v.`.XX0XlXlX0XkXlXlXkX8X=XW.k.2.9.V.+XdXxXfX].).{.:XoX`.U.d.d.I.'.OXoX=XwXwXoX XXXXX:X>X>XXX).E.).[.{.`.T.'.XX>X>X:X).q.1.1.1.,.1.q.T.'.[.[.).'.>X0X0X-X X X|._.x.x._.).).'.[._.E._.|.oX0X>X|.W.Y.Y.d.} } 3.7.[ 6.6.' _ [ 5.k.v.@X:X{.<X<X{.:XfX0X0X0XwX=XQ.T.U.k.;.O.,.9.9.$.$.`.wXmXlXkX{.1.f 3 q f a 3 q w a f g i e Y H p > 3 J L k k =.X.6 < 5 B sXpXiXiXpXD.aXnXaXp.s k h e.aXN.D.B.j @.@.m m l < > 1 & t j *.F.;X@.> 2 2 0 & & < 0 < t j v j m n e.iXM n v 5 $ % @ % , < y y h t y h < @ 5 8 1 & , 2 , < > : # % = - u * * u 0 & @ & @ @ & : # @ O O @ @ ",
"O.v.{.<XxXCXCXCXMXMXMXxXlXgXkXlXhXfX;X+X_.`.[.[.).x.5.3.>.>.k.l.].V.z.x.q.:.-.^ W W W W / ' ] [ ] ] ] _ _ _ ` ] ' ' [ 6.k.k.5.7.{ [ [ [ ' ` / W F G H Y | 7.d.I.T.E.I.U.U.W. X=X=X8XoXXXW. X X X5X4X8X8X8X8X=X=X3X5X8X8X8X8X=XXX|.R.U.L.4.4.6.L.P.Y.P.L.6.4.3.3.} } 3.4.4.L.6.f.d.d.U.Y.!.|. X.X X!./.Y.Y./.Y.P.Y.Y././.^.~.~.~..X.X~.^.^././././.!.^./.!.!.!.^.!.!.!./.!.!.!.W.Y.L.4.3.7.[ ' | } } d.Y././././.Y.^.*X8XcXNXAXSXSXSXZXMXzXlXkXlXmXMXZXZXNXNXZXSXSXSXZXMXlXwXeXBXSXAXAXZXZXAXNXcXgXfXkXfX@XXX8XrXwXwX8X+XZ.M.=.h 5 $ o . . . . . . O @ * u u - - 7 7 7 u 5 = + + O + + ; $ , i X.h.<XMXZXSXSXJXKXLXLXKXvXaXS.e.m - $ 7 D.VXnXCXDXMXkXcX0X3X6X9X9XrXeXgXX.2 i &.S.pXjXjXjXjXpXpXiXS.&.m b M M.N.aXPXLXLXLXKXKXFXFXGXBXmXeX4X.X*X3XcXCXVXiXe.e.v 7 5 - $ $ + X . + O . + $ & w <.T.'.'.8XAXJXHXxXlX{.k.` _ _ :.1.1.9.,.#.~ J p S ! 2.x.`.T.U.W.XXXX+X].V.V.C.V.).{.=X8X9XeXlXNXNXNXNXmX0X8X>X0XcXwX9X8XwXeXeX9X8X8XwX8X>XoXoXoXqX8XqX>XT.R.eXAXJXFXSXAXAXFXFXFXFXJXJXFXAXBXeX-X@X:X>X>X4X4XoX|.E.6.6.I.`.OX[.V.z.9.z.v.[.>X0X=XQ.!.=X8X0X8X=XQ.2.O.z.fXZXSXAXlX[.].XX<XXXR.U.I.l.k._.XX>X-X=X4XXX X>X8XkXlXzX9X!.T.].{.@XT.x.W.OX>X,X-X'.T.v.z.-.K ! ` k.x.`.'.E.E.T.'.'.XXoXoXXXXXXXXX>X:XOX X|.E.'.oXoXXX:X`.3.' | _ ' _ Y Q Y Y ' {  .Z H 5.x.V.).{.:X<X[.[.:X`.v.<XmXBX-X] _ ] Q Q w.].fX{.<.o.O.b. X0XzX<Xc.8.$.! ~ J L ! ! R L J a q p W w 2 1 q f E *.m.f 3 , v sXsXiXN.e.&.B.+X{.`.E S.pXa.s h D.J.a.r a D.M.&.a.s # J o.6 , , y X.=.j j s r : * @ = & & k l X.j n iXaXiXB N.y.B h @ % & @ o & u m 0 % # # # % % % # # # # # # % o O O . @ & 5 m v - = @ . & & & = O O $ @ ",
"R 9.v.T.{.<XfX,X<X:X:X:X:X:X>X8X>X:X+X).l.l.E.`.T.l.k.5.7.[ 5.k.x.v.v.l.5.7.[ ' / Q Q H W / / _ Q Q Q Q / ` _ _ _ _ _ [ 3.3.[ { ] ' ' ` ` / Q H F F G G Y _ 3.U.T.R.W.R.R.R.|.=X>X8X>XXX X!.!. XXX X X*X=X=X X|.^.!.!.^.!.!.!.Y.P.L.L.L.d.4.t.L.P.Y.P.P.P.L.L.L.P.L.L.L.U.I.I.Y.L.4.d.L.U.W. X=XoXoX|.R.R.!.!.R.P.P./.^.^.~..XoX.X X~.~.^.^.~./././.!.~.^.!.!.^.^./.!.!.|.|.!.!.P.4.} ' ' [ [ } 7.6.I./.!./.R.Y./. XkXMXAXZXZXZXAXZXzXlXwX8X8XeXwXkXlXlX0XkXNXAXAXAXCXkX8X4X5XeXMXMXZXAXZXNXNXlXxXZXZXCXgXfXkXkXcXxXgXdXF.G.*.s 5 = % o o o $ @ O $ * t y u 7 c c h h b u - = * = $ $ $ $ 5 j X.x.<XgXxXSXFXSXKXKXLXLXVXpXS.D.&.- - m dXCXDXHXDXxXcXlXcXwXeXeXeXeXeXv., @ < S.D.F.jXdXjXjXaXD.e.&.e.m h &.e.pXvXHXLXLXKXFXFXGXyXeX9X*X|.R.R.XX0XNXMXjX&.B e.M v v h y c 7 o ; =   o - ; o & E l.A.Q.fXJXDXDXCXxX=Xx.q.:.7.3.5.5.1.;.^ W W ^ -.1.,.1.5.5.3.5.v.).).c.g.9.B.C.V._.XXqX%XoX4XeXmXmXmXzXwX0XkXlXlXkXlXkXeXeXeX9X9X6X9XeXwXwXwXwX0X8X8X9X5X=X0XZXFXFXFXFXFXFXFXGXAXAXAXNXeX4X.X.XoXkXcXwX3X!.d.3.[ } k.T.XX8X8XOX).V.V.].].{.'.x.f.d.Q.XX X!.W.5.;.1.>XSXLXLXFXlX:X;X<X>XXXW.U.d.b.l.l.Q.!.W.W.'.{.'.@X>X0X0XwXqXoXXX'.OX'.l.5.5.x.'.>X>X{.:XXXx.W d P 9.v.[.fXfX`.q.1.q.E._.|.XX@XfX8X>XXXR.P.uX} L.Q.:X].F.].q./ A I A H Y / A q w A H H Z d <.`.XX{.{.:X@X{.@X@Xz.].ZXFXBXb.W W / O.-.k.@XfX].8.~ O.<.k.'.{.z.z.V.A.b.d.] ' d.x.1.D d a a W ~ i : 1 R ( D a o.^ Y / l B N.M.j.~ / / q t i j R $.g.O.E Z.@.z < & h D.&.j U : 1 }.*.k i : , 6 < t t 5 & & & & & & < b @.s h &.S.pXN.N B B N.N = o o % % % & @ o o % % o % % @ @ $ @ % % o * 5 = $ @ & , 5 M a.@.5 o & & : : % $ C u ",
"f O.2.>.k.c.c.z.x.z.b.b.l.l.T.Q.Q.Q.v.k.5.k.l.E.T.E.k.5.3.7.3.5.5.k.k.5.>.[ [ [ ] _ Q H Q / Q Q P H H W / / _ _ _ _ _ ` ` ` _ _ _ [ } [ / / Q H F F G F Q [ 3.I.R.W.|.W.I.d.U.!.=X=X-XOXW.U.L.U.Q.Q.W.W.!.W.Y.L.L.d.d.d.L.P.L.L.L.4.4.L.L.L.L.P.P.Y.Y.Y.P.L.U.Y.!.!.!.!.!.!.!.!.P.t.6.6.L.R.!..X3XoX X!.!.!.!.!././.^.^.~..X~.~..X~.~.^.^.~.!././.!.~.~.^.!.^.^.^.!.!.!.|. X.X|./.L.4.3.} 4.L.I.Y.Y.!.!.!.|.|.W. X,XMXAXSXZXMXMXMXNXzXcXkXwX8X6X9X0X0X:XXX=XmXBXSXSXZXMXxXxXxXCXxXxXZXZXZXNXzXmXAXAXAXAXCXCXCXxX,XfXfXgX;XF.=.h t < < , , 5 5 < * < t s y c c v n M &.X.v 7 5 5 * < < * , i j X.c.;XfXxXAXSXSXJXKXLXKXVXS.M.pXS.y c D.vXxXDXKXDXfXkXlXzXeXeXeXzXeX9X$.% o & p.dXF.dXdXjXaXjXS.e.v v t h m &.pXvXKXLXLXSXmXwX6X5X*X~. X X XXXqXwXzXZXvXiXiXiX&.h b v M e.c - - + + - u o o * a b.`.W.CXJXDXCXMXcX0XOXT.k.6.5.q.l.x.q.1.,.k.).[.{.).q.;.] ] :.k.v.z.9.#.$.8.9.z.`.XXqXqXoX!.!.qX0XlXcXcXlXlXzXzXzXzXzXzXzXeX9X5X5X5XwXzXzXzXzXwX0XwXeXzXzXNXNXAXFXFXFXFXFXAXBXmXmXzXzXkX4X~.~.oXcXkXwX=XW.I.l.l.U.T.'.=X9X8X:X{.[.].].{.[.v.5.:.5.l.R.W.L.7.] ,.].ZXKXLXLXFXzX8X,X:XXXW.U.I.E.T.x.l.l.f.6.l.T.T.5.k.T.OXXXOXXX8X8XXX'.`.T.l.5.l.[.0X0XXX@X[.<.! #.z.XX0XlXMXxX<X`.k.q.q.T.|.XXOXXX|.W.I.7.Q H H / T.@XA.v.l.] H Z a w A F F G I w w H H A e ` v.].+X@X].x.b.'.{.:XNXFXAX-X[ ` 1.5.].V.l.l.z.h.8.o.$.1.5.5.k.1.9.V.).z.^ G G / ` O.$.o.K O.f.;.3 k g.~ J a 1 > > q D ~ g E ~ i 6 t h y y 5 y B M.&.@.X.i 3 4 3 8 j B.@.: t 1 # %.c.k f g k 7 7 5 , , < @ & < < : & < i i j b 6 c B &.v h h v u 5 % % @ o o @ % % % O % & u - * c = .   O - u 5 - = : : # , t h t 0 0 * & # & & u u ",
"a T / / ^ #.#.^ O.^ ^ / / ^ ;.5.f.3.>.` ` [ 3.d.I.U.l.k.6.3.:.;._ ` ` ` _ { [ [ [ [ _ _ / / Q / Q H H / / / _ _ _ _ _ / / Q Q Q _ } 3.' Q W W Q H H H Q ] 5.I.R.|. X XW.I.3.4.P.Q.|. X|.R.L.d.d.d.d.L.L.P.L.L.d.4.4.3.} 4.f.L.L.4.4.4.L.L.P.P.P.Y.Y.Y.Y.P.Y.Y.Y.|.|.|.!.!.^.^.^./.Y.L.L.I.Y.!..X.X.X.X~.!./.W.!.W./.^.^.~..X~.^.~.^.~.~..X$X X|.!.!..X.X~.^.~.~. X X|.!.|. X.X.X^.!./.Y.Y././.|.~..X3X3X4X8XqX:X:XkXZXAXAXZXNXMXMXNXzXlXlXkX0X8X0XkX0X>X>XlXNXAXSXSXSXSXSXSXJXJXSXAXAXAXAXZXMXNXNXBXAXBXZXAXSXCXfX+X+X;XF.B.=.b j j j j l m j t t t h h y c c n M M.B.*.m h t t t i t 6 t j E %.n.;XdXgXCXSXSXJXJXKXKXHXpXM.dXpXM e.vXCXCXJXKXDXfX0XeXeXeXeXeXeXrX*Xj @ o * m F.dXdXaXdXpXaXD.&.y * $ 5 h N.aXVXKXLXKXxXqX.X!.6X4X5X8XwXwXwXwXeXlXZXHXvXsXN.u < m &.M.N.e.n c c c B 5 . O @ j s.'.-XAXSXhXbX<XkX0X:X|.T.I.d.l.).[.).z.x.{.,XlXlXfX).:.[ >.5.v.).V.9.o.R R ~ 1.'.8XkXkX>XXX XqXqX8X0XkXlXxXNXzXzXxXNXmXzXeXwX5X4X5XwXeXzXzXeXeXwXwXeXmXBXNXNXBXBXBXBXAXAXNXzXzXzXzXzX9X3X.X!.XX<XkXlXqXoX=XqXqX>X X X.XoX=XoXXX'.).).{.@X{.].V.x.l.6.6.[ ` ;.z.<XZXJXKXFXBX8X=XXXQ.U.f.} 5.E.x.x.x.l.k.k.E.`.x.;.[ k.[.[.E.[.0XwXoXoX>X0XoXU.U.{.<X<XXX{.].x.x.'.-X8XkXzXNXxX@X{.`.).).@XqX=X=XOX[.T.E.6.Q A p f ;.].`.k.7.| G e i w d K / -.q.5.9.5._ Z w ! 9.g.z.V.z.,.;.`.lXAXFXBX<XT.E.OXXX{.fXfX`.1.<.$.+.$.,.9.q.1.9.k.V.{.E.;.p w q 4 3 ,.+XA.z.k.-.S f g.L : i q 1 1 # & 1 : 2 i 1 < y M m h N h < h &.t M e.t 2 : 1 I +.0.I q L q 9 > E *.@.h v v M M - %.z # @ & * 6 y < & 6 m N u - N &.M v u h h @.0 @ % o o % & & & % o t M.N = u N +     o = 0 u u 1 & < < 6 t t t < < t 5 & & , y ",
"3 S F F W ! ! W W W T F A A P ^ [ [ ` W W Q ] 5.4.f.d.l.l.6.7.` Y W W W Y _ 3.4.7.[ [ ] _ / / ` ^ / / / ^ ` ` _ _ ^ ^ / W H W W _ [ 3.' Q H H W W W W ` >.d.U.T.|. X X'.l.7.} } L.Y.!.!.Y.L.d.6.4.6.d.d.d.L.L.d.4.4.4.} } d.L.L.L.d.d.L.P.L.P.P.Y.Y.Y.Y.P.P.P.P.!.!.!.!./.^.^.^.~.^./.Y.Y./.^.!..X.X.X.X!.!.!.!./././.^.!..X~.~.~.^.~.$X4X9X8X>X X X X X.X~..X$X*X.X.X.X.X.X.X$X(.~.~.~.^.~. X.X3X9XeXeXlXlXwXqX<XgXxXMXNXNXzXzXzXlX0X8X>X,XkXcXxXxXMXMXMXAXSXSXSXSXSXJXJXJXJXJXJXJXSXSXSXSXAXZXNXmX>X=X0XlXMXMXxXdX+XF.B.B.&.=.*.*.*.*.*.@.j t 5 5 7 u v n n B e.D.F.B.=.X.h h j j j i k E E %.A.fXdXdXCXSXSXSXJXKXKXJXjXS.dXjXS.aXDXCXDXJXKXDXcXkX9X9XeXeX9X9X4X<Xa % o & e.M.pXpXjXaXpXdXD.e.v - $ @ < M.pXPXLXLXKXCX@X>X8XwXwXeXlXzXzXzXlXwXMXSXHXPXiXv * $ y b =.e.S.N.iXiXe.M $ o o % 1 a k.-XAXSXF.].&X}.oXqX-XXXW.T.).{.@X[.).].:XkXlXmXzX<XT.l.l.T.{.XX[.x.,.! D T k.>XlXzXlXlXxXxXlX0X4X-XXX:XkXkXwXwXlXlXzXzXwXwX9X5X9XeXzXeX9X8X8X8XwXwXwXwXkXzXeXeXzXzXmXNXNXzXlXkXcX8XoXoXoX@X,XlXZXMXkXeXzXzXzXqX X|.|.|. XqX8XXX).`.@X,XkXcXfX+X[.l.l.5.l.`.+XfXlXNXmX,X}.`.`.T.5.:.` Q _ ] ] >.z.x.l.l.v.).x.q.l._.{.@X{.<XlXcX9X0XkXzXkXOXl.5.3.f.l.[.[.>X0X=X8X=X>X,XkX<Xx.9.V.[.@X0XlX0X0X0XcXcXcX0X`.;.W K ~ g.v.v.f.[ Q G p K / :.x.`.XXqX8XoXR.-.F F O.;.^ ! <.9.v.kXBXmX1XW.T.XX>XcXlXfXcXxX{.C.C.*.+.,.8.C.V.z.V.].].+Xb.` S p p e p G.gX<X+Xq./ K ^ 3 # < 8 1 1 5 6 t 2 9 * u u u N h s i 0 < & & # & @ $ = < , : : 2 > w w a { : # : f j.1 j A.Z.;Xh.&Xn.%.@.l j s j ..v v y.N N c N &.m h u y y y t & @ O o o % % & o % 6 h h @ . c h o . . & : # < < & & 1 t m N N t , > i s 5 * < ",
"3 d G A D J J K K W W D d d F W / / W D A F / ;.} 7.3.6.l.l.6.:.^ / W Q Q [ L.U.d.7.:.` _ Q Q Q W / / / / ] [ _ / / W W W Y Y W Q _ [ ] Q F G F Q Q / ` >.k.l.T.'.|.OX'.E.5.[ [ L.U.R.R.Y.I.L.6.4.6.6.4.4.4.4.4.4.4.4.} } 4.d.I.L.L.4.4.d.L.P.P.P.P.P.P.P.P.P.P.Y./././.Y.Y./.!.!.!.^.!././.^.^.~..X.X.X~.!.!.!./.Y.Y.Y./.^..X.X!.!..X4XwXlXlXkX5X X|. X.X.X$X3X4X4X3X$X$X$X3X3X7X(.(.(.~.~..X4XwXzXNXNXzXlXwX>X,XkXlXlXlXzXeXeX0X4X.XXX>XkXxXZXZXMXCXZXSXSXSXDXAXSXAXAXSXSXSXJXJXSXZXAXSXSXSXZXCXgXG.0.,.z.+X<XhXgXdXF.S.M.M.F.G.C.h.B.j.l t 6 * $ = 5 v B e.iXpXdXaXB.B.*.@.X.j E E s k l X.*.A.jXjX;XMXSXSXSXJXKXKXKXvXD.pXhXbXvXDXCXSXKXKXHXcXzXeX9X9X9X6XeXeX:Xj % @ 5 D.S.M.&.e.pXpXpXe.e.&.n * o & M aXPXLXLXHXCXdX:XkXeXzXzXzXzXlXlXwXwXkXCXHXPXB = * * y =.&.r.S.S.aXsXiXc $ O . @ % @ J &XFXnXB.q.1.v._.>XqX=XOX'.[.:X<X@X[.@XfXlXlXNXmXlX0X>X{.'.XX=X:XOXT.5.-.1.[.cXxXzXzXNXAXAXNXzXqXOXT.v.].XXXXoX>X8X9X8XqX5X8X5X9XeXzXzX9X4X=X8X9X9X=X|.W. X*X6XeXzXmXmXNXmXwX>X X'.XXqXkXlXMXAXSXZXlXzXmXeX9X.X=X X.XqXwXzXzX0X@X:X,XfXgXlXgX<X[.[.OX@X<XcXxXxXcXwX Xk.z.h.9.2.^ W / W F Z Z / q.l.v.x.x.x.).[.XXqX0XqX0XzXzXkX8X>X,XkX0X'.] G Z H -.).cXxXkXwX0X>X[.).).V.,.W ,.`.0XeX9X8XcXzXZXNXNXmX0X'.k.1.^ 1.].<X}.1.;.^ / 5.T.T.R.T.|.>X6X5X<X{.z.,.;.;.P A ;.).<XzX>Xi.H ] k.).].[.,XkX1X@XV.G.F.B.8.#.$.V.+X@X:X].v.l.[ W F H _ ^ J 0.;X:X+X{.}.9.~ j X.j i f f i 6 # : 1 m v y h @.x s 0 & = = * & & % o * v 0 t 1 : # q 2 # m.i % < 1 1 r r q K <.2.] >.z.V.n.z.~ o.o.X.X.) l M B M.m v v m m v u = O o @ o o o o # % o * * = o . o t 5 @ 5 t t o % @ @ : i q s h N v 0 q q 1 1 o @ ",
"3 p A A f f J K P ! W T K J K K P A e a p p F / _ [ [ 3.d.I.I.k.:.-.` ` ` f.Q.|.T.7.` ` Q Q H H H P W / / _ ` ` Q W P W Q Q _ ` ] ] [ ] / F F H Q / / ` :.>.5.l.l.E.W.T.E.q.3.[ 4.d.U.R.W.W.W.T.d.d.6.d.d.6.4.4.L.L.d.4.7.7.6.l.L.4.4.} } } L.L.P.P.L.P.P.P.P.P.P.P.P.P.L.L.P.P.Y././.!././.!.!.!.~. X X~..X|.!./.Y.Y.P.Y./.~..X|.!. X4X0XlXlXlX9XoX|..X$X$X$X3X7X7X7X3X7X3X3X3X3X3X4X5X5X5X6XeXmXNXZXZXzXkX8X8X0X0X<X-X=X8X8X8X:X<XfXxXCXZXSXSXSXCXxXZXCXMXMXMXxXMXMXlXMXCXCXCXZXxXlXNXZXZXZXMXhXhXhXdXB.8.C.r.h.+XF.G.pXD.D.;X;XA.C.A.p.s , * = O O = y B iXaXjXjXaXA.Z.B.*.+.X.@.@.j s l %.p.B.dXdXF.jXDXSXDXJXJXKXKXVXpXF.jXCXDXDXDXHXKXHXDXxXzXeX9X9X6X5XeXzXcXk $ * h F.F.h , & m S.pXS.e.&.M 5 % @ h jXPXLXLXVXF.[.{.0XzXzXlXwX8X8X8X8X8X,XMXHXvXe.v v m b S.S.S.pXjXjXjXpXB 7 $ O @ o o : c.CXhXh.9.] k.k.OX>X:X[.`.`.:X<X:X{.:XcXxXzXmXmXzXzXzXfX[.R.!.OX XXX{.'.XXkXzXxXkX8XzXZXAXZXlX:X`.k.k.x.).OXXX.X=X3X.X.XoXoX3X4X9XeXeX9X4X4XwXwX8X8X|.U.I.R.4XwXmXBXBXmXmX0XoXW.XX8XzXNXAXAXZXAXMXlXlXeXeX4X.XoXoX8XzXNXNXlX0X,X,XfXfXgXgX<X].V.].@XcXxXMXZXMXcXkX@XV.G.B.$.W T F W T S w I -.E.T.T.E.E.l.T.OXqXwX9X4X8XeX9X>XW.l.k.v.T.5.P w q p ! C.fXxXxXkXkX:X).q.q.9.2.^ -.[.0X9X X'.@XfXlXlXlXlX0XXXI.5.7.d.&XgX;X+X].v.k.x.T.k.5.d.`.@X0XlXNXMXcX].1.` K ,.<XmXzX}.Q q 4 G ^ ;.,.q.[.[.v.g.9.C.G.C.$.J #.x.].:X&Xk./ Y Y F Z Y | G p X.C.c.C.z.O.f <.0.C.9./ ( J 3 2 2 , 6 m h v &.m m s i t 5 u u t < @ o @ y < 1 t , # # & * 2 , * : 9 # : : > : : : & & # : 1 8 3 8 i 1 q 1 0 t k j z i l &.M M m h y y v t # o o @ % o # & O   . . o < 0 @ @ o . . o % 1 r r > h &.N z s , # 0 o   ",
"3 d G A S S K W Q / / W W ! W P K G e p p d F W Q Q / [ 4.L.I.l.6.7.7.7.[ d.'.{.W.3.` / Q W W W W W W W Q Q / / W H P / _ [ 7.6.6.3.7.` / H H / _ ` ` / Q Q / ] ] 3.d.x.x.l.l.k.d.U.|.=X>X0X0X0X|.Q.U.R.W.Y.U.L.P.Y.U.d.5.7.3.5.4.4.3.[ } } 4.L.L.L.L.L.L.P.P.L.L.4.d.L.L.d.4.4.L.P.Y./.!.!. X~..X X~.~.~.~.!.!.^.Y.Y.Y.P.Y.^.~.!.!.!.oX8XwXkX0X5X.X.X.X$X$X3X3X7X7X7X3X3X7X7X4X5X8XlXNXzXlXlXzXMXMXMXxX0X=X-XoX-XXX'.`.OX<XkXcXxXMXDXSXSXSXSXSXSXZXZXZXxXxXlXlX0X0X0X:X<X;X+X<X,X:X>XwXzXzXlX<XA.Z.dXCXMXdX+XG.0.C.+XpXaXaXF.;X;XF.A.j.X.t @ @ $ o o = u B pXjXvXvXpXF.A.C.h.*.@.@.X.j m l @.*.p.F.dXF.F.hXDXDXJXJXKXHXvXpXF.gXCXDXDXDXHXKXDXxXNXlX9X5X6X5X6XzXBXZXX.@ < *.;XZ.t o o = v S.S.e.e.&.v y 7 y pXHXLXLXVXG.k.'.wXwXwX8X9X8X9X9X0XwXxXCXDXPXsXpXM b =.M.S.aXjXdXjXdXaXpXe.7 * @ o o @ p.B.dXV.2.5.k.k.).:X<X:X[.v.`.[.'.Q.{.0XcXlXwXeXeXlXcX:XE.l.l.R.W.|.oX-X0XzXzXwXoX X8XzXNXNXwXOXx.k.x.T.OX>X>X=X4X4X3XoXoXoXoX=XqX8X8X8X=X=X8XwXwXzX0XOXl.I.OXwXmXBXBXBXmXeX4X=X9XzXBXAXSXAXNXNXxXzXzXzXwXoXoXoXqXlXNXAXMXfX@X+X+XdXfXfXdXV.9.,.,.z.`.:XgXxXMXMXcXfXfXdXC.o.F F D D K K P -.V.oX|.U.d.6.6.I.W. X5X3X!.!..X.X.XY._ G W 2.2.O.P L K -.9.F.dXdX+X{.+X].].].z.9.,.;.v.XX'.R.T.[.{.{.:X>X:X>XoX'.R.W.Y.T.].&XfXgXfX{.x.k.q.x.].+XfXMXFXJXAXmX:X`.z.G.xXAXmX X_ e q q G / ] 3.5.E.q.<.O.<.z.V.h.R a $.,.^ 1.<.U q w A A I ` 1.o.R ~ #.^ ,.k.f o.( R O.;.T J j j g q < &.B &.K.a.m h l h t < t v v v y * @ , 6 , 5 = = $ 5 5 5 M &.c * c c u y 7 y n n v 7 = @ # # # & # % @ % @ : : & & & < < 1 s 0 < h m l t * o @ % o # & . .   . o @ < @   X . . o & & & , < 5 m h l < @ # 2 &   ",
"q G H W W W / ` -.` / / ^ ^ / Q P P T U F F H H W W H Q { 3.d.I.L.4.4.3.7.d.`.`.Q.>.` ^ Q W W W W W W W P Q Q P Q P Q ` [ } 6.I.l.6.3.:.^ W Q Q _ ` ` / H H W / :.f.U.Q.{.:X:X:X-X,XlXmXmXBXBXNXzX8X=X=X=X|.W.Y.W.W.R.I.6.7.:.:.4.4.3.} } } t.L.U.Y.Y.I.L.L.L.L.d.4.4.4.6.6.4.4.f.P.P./.!.!..X.X.X~.^.^.!.!.!.!.|./.P.P.Y.Y././.^.^.!.~..X4XqX:X.X.X.X.X$X3X3X3X3X3X3X3X3X6X6X9X0XcXNXAXZXMXxXlXxXxXcX,X|.Q.T.V.T.v.v.).@XlXCXCXNXMXNXNXlX0XcXZXDXZXZXZXCXCXxXcXfX:X{.XX@X].@XkXzXlXkX0XwXkXkXdX].C.8.A.xXZXZXZXxX:XgXdXD.aXjXfXA.C.j.@.h * @ O o o o $ u B pXjXvXvXdXF.+XA.G.h.*.@.E X.*.X.m m =.M.F.D.M.aXCXDXJXKXKXPXsXpXaXhXCXDXDXCXJXJXxXlXlXwX8X$X X*XrXmXAXZX=.6 h B.F.*.* o o $ = m N.e.S.e.v B e.n iXPXLXLXPXbX_.:X=X8X8X=X*X=X3XqXqXqXcXxXvXHXvXpXS.X.e.D.pXpXdXjXhXdXjXjXaXe.y * o o O 1 j ;X:X`.'.[.).T.:XkXcX+Xk.k.q.l.d.E.XX<XwX9X5X3X.X|.Q.T.{.@X@XXX-X=X=X=X8X9X5X X|.5XeXmXzXcXQ.k.5.R.|.>X9X9X0X8X8X8X8XqX=X4X0X0X0XwX8XXX|.OX:X0XlXkX:X)._.@XwXzXmXmXBXmXzXwXrXeXmXNXAXAXNXNXNXzXNXzXlXwXoXoX0XmXAXAXZXxX@Xv.C.A.+XdXdXC.$.! T S F P #.V.<XxXNXcX>XlXfXA.! A S d A W ;.k.T.|..X!.P.4.6.6.6.d.R. XOX!.R.|..X.XW.] H ;.x.).).V.q.x.T.x.A.G.C.x.x.].].@X@X`.z.,.W ;.l.E.).@X>X>XqXkX>X`.].[.T.Q. XR.L.d.v.`.&X2X;X;XfXfXgX<X;XZXKXLXFXlX0X0XkXfXCXSXNX&X_ F d f d P 7.} 3.:.2.2.#.K ! 1.z.z.o.f L f 3 R o.f 3 3 G w q O.A.C.,.#.$.2.] i.D j U 3 3 a 8 1 J D q 2 < &.p.m v N N l m z r : & v v h t y u @ & * - = - u h b v &.N.B B N.N.N.S.iXpXaXB.&.M N y u * 5 m s t 6 , < < O O @ @ O % o * # o % & & & & % % % o # : % o . . o * o o .   . @ $ o O O o = * * h v t @ o @ & @ ",
"p F F Y | _ ] :.>.] 2.` -.:.` ] ] :.;.>.;./ W F F G A F Y [ 6.l.4.4.4.4.6.q.x.E.l.1.2.-.` ` / Q / ^ / / Q Q W P W / Q ' 7.4.6.f.4.3.3.7.` _ _ [ 5.5.5.5.1.k.c.A.+X;X,X1XlXlXmXlXNXNXZXAXAXAXAXAXNXlXwX8X=X XQ.T.R.W.R.L.4.} [ [ } 4.4.4.6.6.U.|.XXOX'.Y.U.I.L.f.4.4.4.L.L.L.6.6.L.P.Y.Y.R.!.!.^.^.^.^././.Y.Y./.P././././.Y.Y./.^.^.^.^.~.^.^.^.^.~..X.X$X$X3X$X$X$X7X7X8XlXxXMXxXMXZXZXZXMXxXNXMX,XXX'.U.f.>.f.l.v.].+X;XfXgXxXxXMXzX8X|.W.=XlXCXnXCXAXCXCXCXMXfX@XXXXXkXxXMXNXZXBXNXlXkXkXlXxXgXdXC.8.+XNXNXAXAXxXhXjXH.jXhX+XA.B.%.h t 5 $ @ O o X $ - c S.jXvXvXhXjX+X;XA.*.@.@.j X.Z.@.j h m M M.S.e.e.jXDXDXKXJXDXsXpXpXhXDXDXDXDXHXKXCX,XzX0XoXoXoXoX8XmXBXZXB.R 0.C.F.X.$ o o X O * M N.e.&.b M e.iXUXsXLXLXHXhX,X=X5X5X4XoXoXqX8X8X0XkXkXxXDXHXvXaXpXS.M.S.G.dXpXdXjXjXjXjXjXD.M * o o o @ i ].>X0XlX>X).k.[.kXcX@Xk.;.[ 3.3.7.d.Q.XXXXXXW.b.5.l.OX0XzXzXwX8XXXT.R.|.5X0XqXqX8XeXzXeX4XU.l.U.!.4XwXkXkX0X>X>X9X8X5X9X9XcXlXlXwX8X.XW.OX>X0XzXlX>XOX<X0X8X8X9XeXeXeX9X6XeXeXmXmXNXNXMXxXeXzXkXlXkX0XkXMXSXJXSXAXNXgX+XG.C.h.Z.D.M.X.j K K p q q a ! V.xXlX,X@X<XkX].,.! ! ^ / / 3.U.Q..X XR.Y.Y.U.d.3.7.I.oX0X@XoX X/..X XL.6._.OX'.XXOX|.OXkXlX0X<X).0.h.C.V.`.'.{.].0.K ~ 9.[.qX0XxXlXkX<X{.T.q.:.] k.T.I.!.oX_.1.9.C.`.dXMXMXgX^.gXKXLXJX1Xb.>XlXlXxXmXNXlXx.T w p p K 2.4.3.2.~ / ^ W K K ^ C.C.g.$.j a i +.*.J i f _ P w a O.B.0.1.,.;.Y | H W g < , : 6 X.p.s 1 1 1 , , 5 t M y.y.m l < # # < 0 & @ = 5 c - @ 5 u y `.k.@.J X.&.p.N.M.M.B.D.M.B.dXD.@.b e.e.N N N l z l l s s 6 # * y c u @ $ t 6 & O . . X . o % % o % 2 # % o . o O . + X . o $ ; o o O @ & & O 7 z x O   o # 9 ",
"K O.W Q ] 5.k.E.T.x.x.q.5.5.3.3.l.x.b.b.f.] W G A e w Z G Y ] 4.7.7.3.4.6.6.d.f.k.q.q.5.2.;.` ^ ` ` [ ] ` / Q H P Q _ [ 3.4.6.d.k.k.x.l.5.5.k.T.{.:X,X,X,XgXlXxXMXMXMXNXNXNXZXAXBXBXBXAXAXGXBXBXNXeX9X5XXXQ.Y.l.I.U.I.d.4.7.7.[ } 4.4.6.d.L.W.=X0XqXoXW.Y.U.I.P.L.L.L.P.L.L.L.I.L.Y.Y.Y.Y.Y.Y.Y././.Y././.Y.P.Y.Y././.Y./././.^.^.^.^.^.^.^.^.~.~.~.~.$X$X3X3X3X$X4XeXzXMXZXZXZXCXMXMXMXMXMXZXZXkXXXR.R.q.:.5.).@XfXxXxXfX;X:XfXxXNXkXXX!.OX,XMXZXCXCXCXxXCXxXhXfX@X:X:XkXlXlXcXlXmXNXxXfXkXNXNXxXgX+XC.V.gXMXMXAXZXxXhXjXjXdX+XA.j.X.j y 5 * < = O o @ = y e.aXvXvXvXhXdXfXF.%.@.l h m M.@.y t y v M e.B M S.VXDXHXHXHXvXS.pXhXDXSXDXSXKXKXZXkX0X0XqXoXoXoXqXzXmXSXjXh.C.C.C.h * o o o $ O 5 b =.m m e.e.B B iXPXKXHXxXcX9X5X8X8X8X0XkXlXlXlXxXxXCXHXHXvXpXS.S.B.B.S.dXjXhXdXvXjXjXhXpXm $ o o @ $ X.<XlXNXzXzX{.x.x.[.@X[.l.1.7.3.:.] :.6.T.'.'.T.x.k.l.XXwXmXmXzXeXXXl.5.I.oXwXwXwX8XqX4X=X5XoXoXoXqX8XwXlXlX9X8X=X5X5X8XeXzXzXzXmXzXwX5X=X>X8XwXzX8X-X-X8X8X>XXX X X!.R.^.tX(.3XrXeXeXzXwXwX0X0XkX0X0XlXAXJXKXKXSXMXkX:X[.].k.,.*.*.=.j f K ^ K p w f T ,.].,X[.k.k.'.{.l.2.q.q.q.q.x.).'.!.|.!.!.Y.L.3.[ } Y.qXzXcX0X4X!.R.U.W.|.OXOX_.XXwXqXoXcXmXzXwX{.x.z.z.9.q.v.].].z.,.z.fXxXkX0XkX].v.{.[.v.l.;.H W :.3.W.4X|.1.9.k.k.c.n.A.s.d.FXKXKXBXb.q.{.kXwXkX,X,XcXfX#.w a f -.q.6.:./ F J K L L o.,.G.G.9.0.K p O.z.,.F I 2.-Xl.! 3 a #.<.;.W Z Z Z p q f S , i *.N.N h b m m < 2 i y N.y.N z ) t # # : , : % o - B N 5 = , h n.X.E d i y j m m m m l @.%.%.j.m.p.&.a.y.y.N z < y v h h t < 7 u h s : , s s t & o O o o o # # o % 1 2 # % % & < * - = @ @ $ = # , 5 5 1 # @ % y m *   . @ @ ",
"0.C.9.1.l.`.:X<XfX:X@X].v.U.d.U.Q.!.W.U.d.[ Q G Z Z A G G G Q ] :.[ [ 3.d.l.d.f.k.x.v.x.5.2.` ` _ ' [ 7.:.:.;.` ` ` ` [ 3.4.d.T.`.{.:X@X[.'.{.0XxXMXZXNXMXNXZXZXAXZXZXNXNXNXNXBXBXBXmXmXyXeXeXeX8X*X^.!.U.d.4.7.3.3.4.4.4.3.3.7.} } 4.6.L.Y.XXwXlXcXqX!.U.U.Y.Y.R.R.Y.Y.Y.L.I.I.I.Y.P.L.P.L.L.P.L.P.P.Y./.Y.Y.Y.Y.Y.Y.Y././.^.^.^.^.^./.^.^..X$X.X.X$X$X$X.X4X8X8XkXxXCXZXZXZXCXCXCXZXMXNXAXAXxXqXR.l.x.l.l.`.<XxXMXZXCXCXxX<XkXlX,X'.U.W.XX,XgXxXhXhXhXjXdX+XG.z.k.`.:XgXlXgXfXcXfXfXfXfXgXMXZXMXfX].V.].,XxXMXZXAXMXhXdXdX;XA.C.j.X.j h y i h 5 = = = $ 7 e.aXjXVXVXhXhXjXF.X.l j h h v h 5 - - u u n B M B aXVXDXHXHXvXS.pXhXDXDXDXJXKXKXSXNX0XwXwX8X=XqX9X9XwXZXxX}.V.A.B.y c O . + $ * 5 v =.m =.M.pXiXiXiXPXHXDXxX8X4X4X8XkXkXlXmXNXZXNXNXZXDXHXPXvXpXB.*.B.*.pXdXjXhXvXvXjXjXjXF.=.# $ = & = *.lXNXmXmXzX:X'.[.'.'.'.R.R.U.l.k.6.6.l.E.v.T.T.T.l.5.T.-XwXzXeX8XW.l.k.R.=XwXzXwXqXoX XoX9XeXwXzXzXzXzXzXzXzXeXwXqX5X8XwXzXzXzXzXeX9X9X9X8X4X5XeX9X>X X X XOXOX|.W.d.3.L.!.7X~.^..X5X9X5X=X<X>X>X=X0XMXJXKXKXSXMXgX<X@X[.).2.W L ....L W ;.7.2.^ ! O.O.O.9.@X`.k.5.U.W.U.5.k.E.OXoXXX).k.l.I.Y.P.4.[ ' 7.P.R.=XeXzXzX9X=XR.5.R.E.x.E.R.|.8X4X X8XwX4X|.l.:.z.z.<.$.,.9.z.`.@XgXxXcX0X=X`.5.,.q.V.V.z.1.;.W H _ 3.f.>.Q ^ ,.#.o.T W ( gXKXKXFX&XQ q.@XwXeX=X-X8XlXgXh.f f ! k.T.k.2.` ! J i i j X.,.C.V.,.! K F G ^ 2./ ;.>X!.'.@X$.f D S f q Z Z w 2 < l J m j.H.D.M M N.y.m z 1 1 t M M.@.@.@.l s < & , # o = v M M N u = j >.h X.U < u v N N.N M h , < < , : 0 m m N N z x & h N N N v y c u u t t t t t 5 = @ @ & @ o # : o o , > # # # : < 6 6 < , , < 6 6 6 5 1 : # @ o 5 m s $ o O o ",
"G.dX+X].+X,XlXlXxXgXfX@X`.T.Y.Y.R.!.Q.d.} _ Q Y H H ` ` / F Y _ [ [ [ 3.l.T.v.l.z.x.).v.5.:.` ` } } 7.5.6.l.q.:.:.:.] } 3.6.T.:XfXkXlXkX,X<X<XlXMXZXAXNXMXNXNXMXBXMXlXlX0X8X9XwXwX8X4X*X^./././.Y.L.uX4.4.} [ } } } 3.3.6.6.3.7.[ 7.4.d.R.|.>XlXzXlX0XXXW.R.!.!.|.|.Y.U.L.L.L.L.I.L.d.} L.P.P.P.P.P.P.Y./././././././.!.^.^.~..X$X$X(.~.~.~.$X$X$X$X(.$X3X8XlXzXlXxXxXCXCXCXCXCXMXZXZXZXZXAXNXlXXX).).:XgXlXxXNXMXMXMXkXkX<X`. X@X`.T.T.T.{.:X@X:X;XdX;XG.B.0.$.~ O.k.+XfXfX<X,XhX+XV.].:X,XxXCXxXfX@X[.].].&XfXxXZXMXjXdXdX;XA.j.*.X.X.l j j l h t y t * u e.aXvXVXVXVXhXdXS.m j h 5 - - 5 = $ - - - - V M V iXsXVXVXVXvXpXpXCXDXDXSXJXLXKXJXZXzXwX8X9X4X4X8X5XwXZXfX].x.;XB.v n y + O $ 7 5 M &.=.=.=.pXsXvXPXHXHXxXcX4X5X8XcXlXNXNXMXNXNXNXNXCXHXHXPXvXpXS.X.*.*.G.G.jXvXVXvXjXjXjXF.B.h < < h 5 *.:XXX0XzX8X<X<X0X>XoX=X4X4X-XXXXX-X=X=XXXT.l.k.z.1.;.1.T.'.=XXX!.U.U.'.-XwXzXzXlX0XwXwXwXzXeXzXzXNXNXNXNXmXzXmXmXwX0XwXzXzX9X4X5X5X3X5X5X=X=X8XzXzXkX'.)._.|.|.|.U.5.5.R.-X=XQ.P.Y.!.W.U.U.l.f.f.l.-XNXAXAXBXwX-XXX{.@X`.b.] Q K ..X.R ^ :.5.5.2.w.9.z.9.q.@XXXOXW.d.>.] ` / 3.T.OX{.b.2.] q.I.d.7.7.5.I.P.U.!..X4X4X.XW.q.-.z.V.x.).[.'.U.3.d.'._.5.:.7.1.z.V.1.R X.0.+XkXxXxXxXfX:XQ.2.~ ! ! O.O.T o.$.S w P :.[ ` W ! o.o.R R W A.KXLXJX0X2.W [.0X=X*XXX=X-X`.k.1.K / 2.q.1.;.;.5.1.o.j E *.8.1.;.;.W w 3 p S O.k.v.:X@X7.[.ZXlX<.i 2 2 p H Z w 2 : h n S.jXD.D.aXS.&.V 6 t 1 1 h m &.B.M.&.N @.m t 7 * @ t j X.0.*.B.D.F.U , k r # O = v e.M v 5 # @ 5 y u 5 < 0 0 t z s s h y y h N u u y c u v h 0 1 7 $ @ & & * @ # & o o # 1 9 # & # , < , < , , < 2 : * & 2 & @ o . $ s z * o * o ",
"G.hXgXfX<XfXlXlXxXfX<X{.T.U.U.P.Y.Y.d.[ _ _ _ _ _ ' 5.k.q.^ ` 7.d.5.3.5.x.).).x.l.k.l.l.5.:.[ [ 3.6.6.k.E.E.k.q.7.:.7.7.4.d.'.,XlXxXxXkX,X:X-X,XlXMXmXlX0X1X,X=X-X}.!.Q.Y.P.uXP.!.!.Y.P.4.} 4.4.6.} } 7.3.3.7.7.3.3.6.6.6.5.7.:.:.5.l.'.XX>X0XlXzXlX0X>XXX|.!.|.OXOXW.U.d.4.4.d.4.4.} } } L.P.Y.Y./././.^.^.^.^..X.X.X$X3X3X3X3X6X6X6X6X7X7X7X4X3X.X~.$X6XeXzXlXcXlXxXxXgXlXxXxXMXNXNXMXzXlX9X5X-X:XfXMXSXSXSXZXZXZXZXMXdXdX@X@X).x.k.q.:.k.T.`.`.].A.C.0.X.X.R K o.h.A.].C.z.C.+XV.9.1.x.}.gXhX<X<X<X{.x.k.1.b.@XgXgXdXjXgX;XF.M.X.E %.%.E j m l i b h y v e.aXVXVXVXvXjXD.M.m j t = O + ; = $ ; * - ; u c c B iXsXVXPXjXaXjXCXDXDXSXJXLXLXJXAXzXwX-X.X.X.X.X=XkXAXfX`.v.+XF.e.n v - - 7 y y b X.X.=.&.pXaXPXLXLXHXxXlXeXzXlXzXzXNXNXzXzXlXlXxXxXDXPXPXsXpXG.&.X.B.B.F.dXjXvXvXvXjXdXF.C.C.E X.B.m C.XX'.{.|. X>X0XzXeX5X9X6X6XwXwXwXlXeXzXcXXXf.;.^ / ^ 2.q.k.I.d.4.4.U.OX-XwXzXzXzXzXmXmXzXeXeXzXmXNXzXzXeXwXwXzXzXeXzXBXAXBXwX X!..X.X5X8XoX=X8XmXmXlX:X'.T.`.'.Q.d.>.:.>.3.>.[ [ ] ] ^ Y F G A e G ` W.8XwX8X.X XOX_.E.f.{ 7.] ` ~ ! F H P ^ 2.q.q.z.V.).].oX>X-XT./ w q w Z >.T.x.k.1.2.k.].{.`.`.@XfX<X|.E.R.R.R. X=X`.1.0.].fX<XfXkX:Xq.,.9.V.z.q.x.[.{.@XfX`.O.0.+XcX,XdXdXfX:XT.2.! K S ! K p f J R J K <.k.] / ! o.o.! K J o.bXLXKXMXT.1.x.@X:XT.l.x.1.T S d D F ^ / H F K / :.5.9.8.A.].V.k.F A S p a X.9.k.x.:X'.#.Q v.xXNX:X+.3 1 H  .Z I a a t M Z.K.N.M z h N t * t j ..&.M m B.B.B.M.M.B.j.m.( W ( U U U D a X.j.i # % o X X o $ y N y O o - V V N n u 0 & & & * k h m a.m M N m m v v N y 1 1 t , & < & < & < # o . o , : @ - # @ # # # # & # & @ % % & & O * * o * j 0 @ 7 - ",
"Z.dXdX:X{.:X<X:X:X`.v.k.3.3.3.3.3.} [ _ _ _ _ [ [ 7.d.`.[.k.5.d._.T.l.k.x.T.U.d.5.:.3.3.7.7.} } 5.6.l.l.l.l.k.q.:.:.>.3.6.5.l.].:X<X:XXXQ.b.d.U.'.Q.Q.b.d.d.d.d.3.4.6.6.3.[ } } L.P.Y.Y.L.d.6.6.4.} } 5.q.6.4.6.4.d.I.l.l.k.q.5.k.V.{.:XfXkXlXlXxXlX0XqX:X.X.XoX X XR.U.d.3.3.} [ [ { { } } L.P./.~.~..X3X7X6X6X9X9XeXeXrXrXrX6XrXeXeXrXrX6X3X$X.X=X4X9XeXzXlXkXcXcXkX<X+X:XfXxXlXxXlXwX8X=XOXXXxXxXZXSXSXJXJXSXDXSXHXDXhXdXjXhXfX+XV.9.^ F W >.k.z.h.8.%.X.f w f O.0.h.,.^ W ^ 2.2.9.9.,.g.;XgXgXfX,XXXv.k.1.1.9.C.F.dXdXdXA.C.p.X.E %.%.E j m j i j m =.M e.aXVXDXVXjXpXS.e.m y - O o X O + ; + $ = ; ; - - c B iXvXPXvXaXvXDXvXDXHXKXKXKXJXZXkX8XXX X X.X=XoX:XZXgX`.+X+XdXD.e.M c c n v h y b m &.S.jXvXPXLXLXKXCXlXeXeXwXzXzXzXxXcXlX0X0XkXgXbXvXaXiXD.S.&.b B.B.S.pXjXvXvXjXjXdXdX].].].+XfXdXjXkX,X{.x.5.k.T.=X*X.X*X3X6XwXeXwX8X4XqXqX[.f.] / ^ 2.z.x.z.5.3.} [ 7.f.d.Y.XX>XeXlXzXmXzX8X4X8X0X0X=X.X!.Y./.~.3X6XzXFXJXFXmX=X.X4X5X9XwXwX*X=X9XeXeX=X|.U.L.U.f.] F A e w w w e e e A e w w w 3 w A ` L.!.XX|.!.R.L.7.' ' q.6.7.;.^ Y W P W -.z.V.V.].[.[.OX.XW.>.A 4 > > p k.`.x.9.O.,.v.+X<X<XkXxXNXxX,XoX=X=XoXqX9XoX).].fX<X@X:X<X+X+XbXdXfXfXfXkXkXlXfX<X].z.V.:X:XV.A.G.].[.z.~ D K K O.o.K J J +.0.h.V.v.] W W R K T W f J vXLXCXQ.`.].+Xc.z.k.1.w.J q q i a J ! S p ! ,.;.` 1.9.0.V.k.v.1.Y F S D <.+X@X5.5.5.G w K s.f.@XfXcXA.$._ G w ..S.N.M v Z.M.v k g t y k m S.Z.j.j.m.g.s.%.s.s.@.E j E g k j j f > , & * & 6 t & O . X . X   = - $ - V N V v n B N 5 # @ % 1 h m m M B N c h t < & & 1 6 s m j i : 1 1 1 1 % o % 2 6 , 5 5 @ % % % o o . o O o % : & o * j X.&.X.s 5 7 - ",
"$.h.z.z.k.x.T.x.1.:.] ` ` ] :.` Q Q _ _ ` ' ' [ 7.} 3.'.:X[.l.d.[.`.x.5.5.l.d.3.7.' ' [ } 3.4.6.l.x.x.k.5.5.:.2./ / _ [ 3.7.7.f.k.l.x.l.f.3.[ [ [ [ _ _ _ [ 3.4.6.6.6.6.6.3.3.3.6.L.U.Y.Y.Y.I.6.7.7.7.q.E.l.d.6.L.I.R.T.v.x.x.x.V.].:X<XfXgXkXcXfX,X:X@XXXXX.XoX XW.L.L.6.} } } 7.} } } d.P.Y.R..X5X9XeXeXzXeXeXzXzXmXmXeXeXeX6X6X6X6X7X3X~.~.~.=X8XzXmXmXNXlXlXlXkX:X}.].:XgXlXcX0XXX'.{.,XxXMXZXCXCXZXZXZXZXCXMXZXDXCX<Xk.5.{.MXCXxXfX+X$.K K ] ,.O.! o.o.S w f *.0.*.o.W W ( 2.2.k.C.0.<.C.;XhXgX<X{.v.;.^ ] O.O.B.F.pXS.&.*.*.%.*.*.X.j h j j i j @.M.S.iXsXVXVXVXaXS.M.&.v 7 + X X + X X O X X + + ; - - - c B pXVXVXjXVXDXvXDXJXKXJXSXZXxX>X'.'.XXoX8X0XXX:XCX<XT.{.;XdXdXpXe.e.M n M M 7 v &.e.pXsXPXPXLXLXKXZXlX0X8X8X9XwX0X0XkX,X<X@X[.v.G.vXiXiXN.e.X.X.*.D.pXaXpXpXN.S.dXgX1X+Xv.<X:XxXDXxXZXZXlX@X,.F ^ 3.d.Y.!..X5X8XwX8XXXW.W.'.T.5.>.1.k.).+X+X[.E.I.L.4.7.:.[ 3.U. X=X=XqX9X8X4X4X XW.U.Y.!.!.Y.L.Y.^.3XzXFXKXKXAXwX5X5X3X8XwXeX4X X*X5X3X^.P.L.} } / G w w q q 1 3 w p F W Q Q Q P F W ` [ 4.L.Y.R.Y.U.d.3.7.6.q.I.d.k.6.3.3.1.;.,.9.V.+X@X[.).|.OXd.Q e 3 > 2 J 8.V.V.C.O.O.2.z.).@X0XkXlX,XV.'.0XlX0XXX X>X@X[.[.T.l.5.9.A.hXDXCXCXxXlX,X,XlXlX:X].].z.9.9.9.B.B.z.k.$.K d J o.O.8.9.O.0.+X+Xg.1.;.W W o.o.! $.1.~ X.DXLX2X1.v.z.8.$.9.9.9.9.O.o.R g a K J f D ,.k.` W K K X.$.^ 1.;.( W w p ,.].V.z.,.~ S a O.<.F K <.n.2.L p w a M.aXN.&.%.g.%.g.1.>.%.) U ^ j.p.E g g s l j h < & < 6 i X.l ) 8.o.L i , * * 1 & # @ . . . . o O * = = v N V h y n N t @ @ # % : 0 s h v u V v m m k 6 6 , s x s 1 & 5 k h 5 @ o # 8 t 5 u u u 5 = $ + - c n V = # : @ o # : & < h z z z y ",
"g E W Q Y ' >.[ _ Y W Q Q ` ;.` Q H Q ` :.] _ ' :._ _ U.XX[.l.d.T.U.f.[ [ 3.5.7.} ' _ _ [ 6.I.U.l.v.x.x.k.5.:./ / W Y _ [ ' _ ` ^ ` ] 7.7.3.] ` _ _ _ / ` 7.d.I.R.R.U.U.I.d.3.7.3.4.6.L.U.U.I.d.7.7.3.x.).T.I.I.I.U.T.T.v.x.z.v.V.].+X+X+X+X{.+X[.'.Q.E.E.R.W.'.Y.P.d.4.4.} 4.d.I.I.U.W..X3X5X8X9XeXmXmXmXmXmXmXzXzXzXeXeXrX6X~.~.^.^.^.~.~.3X5X0XlXzXNXNXxXxXlXlX,X{.V.+XbXxXxXqX'.`.+XgXxXCXCXNXkXXX:X,XlXMXxXxXxXCXxXXXU.d.'.MXZXZXDXDXxXC.K H ! K S T o.L w a $.B.r.8.-.^ 5.9.k.k.z.V.8.O.0.G.+Xk.2.>.H Z A T O.r.D.aXe.v X.%.*.*.*.X.j j j j b m &.S.pXpXsXVXVXvXpXM.e.N u = X X X + o X X X X + + ; ; ; - - c B sXvXvXvXDXDXDXKXLXHXZXkX{.E.k.k.'.8XwX8XXX1XCX;Xb.A.;X;XdXjXsXpXiXN.e.e.n m e.iXiXvXPXPXLXLXHXZXkXqX=XoX.X-X}.'.'.[.[.).z.9.G.vXiXiXN.pXe.M e.S.D.M.y 5 5 =.F.;X+XV.{.}.&XCXJXSXSXSXAXxXA.O.^ ` >.U. XoXqXwXzXwX=X.X XOX[.E.k.q.x.[.@X[.[.[.'.!.R.U.L.d.U.|.4X=X|.|. X.X.X.X|.!.R.!.oX>XoX>X>X3X3X9XBXFXJXAXzX8X.X!. X=X4XqX.X.X^.P.} 4.3.7._ Y A f f q 3 3 a W ] 3.f.4.4.4.7.3.6.P.4.7.3.} L.'.OX|.U.I.T.T.T.U.`._.U.I.l.5.q.V.+XfX<X'.`.XXOXf.Y Z w 3 4 K 9.].{.).1.2.3.q.q._.'.-X>Xv.! 7.-X>X`.d.W.8XOXv.k.3.4.[ 1.+XjXhXgX+X].].`.[.>X:X].].].,.W O.8.r.0.O.T i q d G K R $.8.0.xXSXdXh.<.-.O.9.G.G.C.+X].B.G.JXLXgX+.,.g.o.R $.C.].+XoX>XfXV.9.,.^ W R W Q W K j j *.B.h.V.z.z.T i L $.0.R 8.h.B.*.&.0.0.0.9.g.( S f 0.n.`.A.Z.p.$.{ ~ D T T g 0 i f h h 5 t t & , < : & # , b M.p.z z l a.p.E i 1 5 y 0 % o o o o X . X o @ < * * n n v u u u y u & $ * & # 5 h h n u u j j *.c.*.h s 0 < k v c c V M - = k 1 < 5 h u u 5 & = n N.y.iXK.N < : @ + * @ % @ & * < h =.",
"3 d G G G W _ ] _ ` ` ` _ ` ;.] / P Q ` ` _ Q Q ^ Q Q 3.U.Y.f.7.f.f.3.[ _ _ 7.7.:._ | ' 7.4.L.I.).x.x.x.k.5.2.` Q Q _ ` [ ` ` ] ` ` :.5.5.7.7.[ _ ] ] ] ' 7.d.Y.R.R.Y.R.U.6.4.} 3.[ { } f.d.I.I.d.4.6.I.).).v.f.d.U.P.U.z.9.9.1.8.s.s.>.1.9.g.1.1.1.>.} } } f.d.d.3.[ [ } 4.P.W.=X4X9XeXmXmXmXmXeXmXmXmXmXmXmXeXeXeX6X3X3X^./.P.L.P.P.!.>X8XwXlXxXxXxXxXlXlXkXlX0X:X+XG.pXdXgX0XcXxXMXCXCXxXcX,XzX0X<XfXfX<X,X,XkXgXhXCXkX@X<XkXCXxXxXbXhXDXhXG...f S S S F G p i o.j.B.Z.C.<.O.2.g.h.C.C.h.*.E X.+.~ Y G Z p a L X.=.S.N.m h X.*.j.j.j.j.X.j j h m X.&.S.aXpXsXvXVXvXN.e.N 7 = O O X X + X   . X . X + + ; ; - - c c e.aXvXVXDXHXVXJXKXDXhX+Xl.w.;.:.U. X=X:X[.;XMX:Xv.V.fXdXdXjXVXjXpXpX&.v n v M aXsXvXPXPXPXKXCXCXcX X X'._.W.5.5.d.6.k.q.w.B.hXPXiXiXD.S.b k *.e.e.7 @ ; * 6 X.j.].}.W.-X@XZXJXSXSXSXAXNXfX).v.l.l.|.-X8XwXzXNXNXNXNXzXlX0X@X_.x.q.z.x.x.XXqXqXqX@XoXoX*X*X0XwX8XXXXXOX'.'.W.|.oXqX8X5X4X5XrX9XeXeXeXmXGXFXBXwXoX XR.U.Y.!./.^.^.P.} 3.U.T.d.[ _ ` / A e I G ` k.T.R.R.t.6.4.4.6.L.I.6.} [ 7.I.@X<X@XOXd.} } 7.5.I.R.R.U.:.^ q.].+X:X@XOXOXQ.d.>.W A f p p +.C.[.{.T.2.q.].{.`.T._.!.oXE.Q :.U.L.| 5.cXNX,Xv.k.k.l.1.;.<.h.v.V.$.O.<.1.9.q.l.).].b.] W ! w.M.$.W D 3 > w d a a R q.fXFXSX<X].].].+X<X<X+Xc.F.V.V.+XSXKXhX$.X.$.#.S w.bXcX>XXX0XcX<X[._.V.,.H F +.$.0.8.V.].].].:X'.V.C.9.9.1.>.k.c.A.:X:X:X&X`.).v.c.#.W ( s.b.;.D j k i 0 1 < # o o o 1 g h y 5 t 6 9 : 1 @ , i $.S.dXm.g s e z a.m < 6 t < t = ; = = = O O o o o @ : , c N.N.N.iXB B N < 7 u - * # # t j s , , q 2 a ) r < k r.@.u 0 n N B y.&.b # # & - * @ % o X - V N N v , 9 & & @ % & # & 5 = @ y i ",
"i D H H F H / ` _ ` :.:.` / / / / H H Q Q H F H H H Y [ 6.L.7._ [ [ [ [ ' ` ] _ ` Q Q _ [ 3.6.L.R.I.l.l.k.q.5.:.` ` [ [ [ [ ] :.] ] 3.6.6.7.[ [ ] 7.7.7.[ [ 3.P.U.Y.U.Y.I.6.3.} } [ :.5.6.l.I.U.I.6.3.d.x.E.E.6.3.d.f.5.;.! ! W W W Y Y W W W U U W ^ ^ Q Y | _ { { { } f.R.3XeXmXmXmXmXBXBXBXmXeXeXrXrX9X6X3X~.^.^.P.P.L.} } } 3.Y..X8XkXkXlXlXlXcXlX0X:XXX,XlXcX].C.A.+X+XfXhXZXZXDXCXCXxXkXoX=X:X,XcXxXxXlXfXgXhXvXCXxXcXxXxXhXhXfXdXdXjXhXhXG.w.+.! K f w a w T <.h.C.C.,.P ! ,.h.C.h.9.$.f i J K G e w w p a f j =.m u j *.j.A.j.j.a.l h y t t m &.D.aXiXiXaXvXsXe.M c - + O o X X + X   . X   X X + ; ; ; - c c M pXjXvXDXDXVXSXHXCXhX].l.7.:.7.l.W.OXXX[.xXZX{.V.V.<XF.dXjXjXaXpXN.&.v v M &.iXvXPXPXHXIXvXhXdXfXOX|.Y.R.x.6.3.} 4.L.E.V.dXvXsXiXiXS.M.M y M v y = $ * $ $ & j c.`.Q.{.<XAXKXSXAXNXNXmXcX,XfXfXfXxXcXlXNXZXAXAXAXAXAXAXZXNXlXkX:X@X{.:XlXZXZXMXNXzXlXeXeXeXeX9X4X%XqX4X X'.XX8XzXwX4X.X.X4X9XeXzXzXmXGXAXmX=X!.!.Y.Y./.^.!.~..X!.R. XqX0X|.I.6.6.>.Q Q ] 5.E.'.XXXX|.U.L.6.6.L.Y.Y.L.6.7.x.{.gXxXfX+Xk.` Q H / 7.L.I.q.5.k.].+X].:X,X<X@Xk.:.>.;.~ O.! K o.g.x.k.;.W O.z._.v._.oX=XoX[.l.k.5._ _ _.xXZXwX`.1.:.:.,.J a K z.z.<.<.9.9.1.l.[.@X>XOXT.).).E.9.^ ! L q > 1 1 3 o.gXSXAXSXMX@X<X+X<XfX+XC.0.$.X.o.9.].SXFXhXh.+.C.+X].fXxXkXOX[.<X0X@X'.'.OXk.! ;.1.k.v.V.`.[.2.2.Q.i.b.Q.Q.>./ } i.W K #.o.A.n.g.g.( Y F J *.*.) r 2 i l %.h & t * @ % & i p 1 5 u t < & 5 5 1 j O.~ *.p.X.X.e r r z @.l k h l h t c V V - X $ & * $ = = # 6 &.S.N.iXN.Z.l t z h v c u u # , s h i 6 , i g 6 7 X.s.j.* 7 B.Z.m V N.M = $ = = - 5 O o O O . O = & : : : & = & * & , < 5 t h l ",
"q F / / P F / 2._ ` ` ] ^ P K H W F F H H G G F H W Q ] 3.6.] Q _ [ >.3.:.` / W W Y Y _ [ } 3.4.L.L.d.6.5.3.7.:.:.[ [ 7.} [ [ [ [ [ [ 3.3.[ ' [ 7.3.5.3.[ ' ' } 4.d.d.Y.I.6.3.} 3.5.k.V.).x.l.I.E.d.3.7.7.5.k.5.7.7.[ ^ K J d A I A G W T D A e w e A F H H H | | [ d.R..X9XzXmXBXBXBXBXmXmXyXeX6X3X~.^.Y.L.} } } } } } } } 4.4.l.{.kXlXlXkXkX,X=X-XOXT.l.x.{.,XfX+X;X;XfXgXMXCXZXCXxXhXlXzXzX0X'.`.{.@X<XxXMXxXhXhXvXCXMXxXxXhXhXfXfXdXdXbXhXxXxXhXfX+XV.#.f f p W 1.q.z.s.1.O.! 0.$.+.*.o.f a d ( <.E p w w p d a j b y t m B.A.A.g.%.X.h t - = * 5 m D.aXN.B D.pXiXB n c ; X X X X X + X X . X X + + + ; ; ; - - c M S.pXjXvXhXjXVXCXxXxX+X'.T.E.R.'. X=X<X,XSXMXv.g.&XA.A.aXjXvXpXN.e.e.b m M M pXsXsXPXPXPXsXdX+X@XXXW./..X!. XR.I.R.|.|. XbXvXPXIXsXpXe.M e.M N.M - - = $ = @ 1 8.A.v.`.0XSXJXCXNXlXwXzXzXNXNXZXZXAXZXZXNXZXAXSXSXFXJXJXJXSXSXSXAXAXAXAXSXJXKXKXJXJXSXAXZXzXkXwX8XqX0XwX4X|.:XwXzXwX=X*X=X5X5XeXzXzXmXGXGXmX*XY./.W.W.^.^.^.~.!.!.!.4X9X5XoX|.U.d.f.7.7.L.U.U.R.XX0X8XOXR.R.R.!.^.!.Y.I.R.[.`.+XjXhX<X{.).q.-.;.5.I.I.E.[.cXcXfXfXlXlXcX>Xx.5.k.l.z.C.9.~ R O.1.9.,.! ! ,.w.:.x.oX8X8X,X0X>X[.x.l.'.zXNXeXOX5.:.` W p a 0.@X{.k.k.V.].).x.l.I.XX8XqXkXkX=X_.5.<.P p 1 , 3 P fXFXFXAXlX{.{.{.@X@XV.9.8.8.$.E R ,.].MXMXkX:X:XNXzXcXxXzXlX>X>XcX>X'.T.T.T.k.,.,.1.,.9.q.E.d.( f f a J o.p q L K S I S K ! 0.6.W.T.h.z.V.A.M.p.x 0 0 < : s i * & & < < t i i < < y h t v v h i 0 1 1 j L j X.0 2 0 r r r l z z s l m 5 B N u - 0 < & * @ o % = v v N N t h X.) X.h m B B 5 = # < h h 6 6 j b h u h s 0 $ X.;X;Xm B B B e.N.M.m u o o o o @ $ $ & : : : & < t t 1 i i : k b l ",
"q T ` / P H _ :._ / / ` / P F F F G G F F F F P Q Q _ } 4.6.[ ` _ _ ] >.:.-./ G G F Y _ [ [ ' [ } 4.3.:.] ` ` ` [ ] [ 7.} [ [ ] _ Q _ [ } [ [ _ 7.4.5.3.:._ Q ' [ } 4.I.L.6.7.7.d.T.[.[.[.).I.l.E.I.6.[ ] :.5.7.[ _ / K f p w d A A G T R J f d p A G W Q _ 7.5.L.W.=X9XeXmXNXBXBXmXeXwX4X3X*X~. X!.Y.I.6.7.[ [ [ } } 4.4.L.Y.Q.{.:XkXmXlX,X<X:XOXT.5.2.9.).<XgXgXxXMXMXZXZXZXMXcXlXgXkXkXkXlXxX0X,X,X:X@XfXlXcXdXdXbXhXgXfXgXdXfXgXfXfXdXdXfXxXhXCXCXxXlX<X9.+.-.^ ^ 2.5.>.1.1.g.*.j j L J f d D #.g.$.J i q p a a h n v v =.C.].A.$.j h y 5 $ O @ @ y D.pXB M N.N.B V V - + X X X     X X X . X X + + + ; ; ; - - c M e.S.N.pXaXN.jXCXxXxXcXqXoXXX XoX4X0XcXzXSXlX$.j A.c.+XF.jXvXaXaXS.e.=.h &.&.iXsXsXsXPXIXvXdXOX#X[.W..X9XeXeX4X.X.X.X>X0XxXDXHXIXvXpX=.M e.N.e.B c - - - - = * E c.v.}.wXFXHXxXlX<XOX>XzXlXzXlXzXNXNXmXmXzXmXBXNXZXSXAXAXAXSXSXSXFXFXSXSXFXJXKXLXLXLXKXJXSXZXNXNXNXNXNXlX0XlXzXzXeX9X8X9X8X=X=X4X4XwXBXGXmX8X XoX=XqX8X5X5X.XW.U.Q..X*X~..X=X XW.Y.L.d.L.d.6.d.'.>X0XoX|.XXoX.X X!.Y.E.T.E.k.g.+XdX<X>X<X@X[.[.).l.E.{.cXNXNXxXxXxXkXcX,X).x.v.).V.z.#.~ ~ o.9.A.C.$.o.$.1.5.x.'.>XkXxXlXNXxXlX8X*XwXmXzX8XU.d.>.^ O.9.+X<X`.;.-.z.].k.[ 7.[ E.4X4X.XoXOX@X<X:Xv.2.K L f.zXFXFXBX,XT.k.%.<.k.s.2.x.:X:Xc.z.C.8.9.{.@X'.T.|.0X-X{.<XkXkX,XkXlX].V.x.-.,.9.9.C.C.0.z.v.U.7.1.,.<.9.k.}.~ ! s.k.5.l.d.{ f.Q.[ 3./ X.S.aXZ.r z < < 1 6 6 a i : # , , < 2 : < 5 u v t y &.M.&.< @ @ * , 1 k f 6 & * & & 0 m s h v v = % c B V u u * O @ o .   = N u k l 0 u i s z l m u y l C u * & 0 b h s k C V t : * @ * h r.j y M N.&.M l R j v y * 5 $ ; $ = % 9 : & 0 i a s g g s 0 s X.",
"3 F / Q Q Q _ [ ` / Q _ ] ^ W Y Q H H H Y Y Y Y | _ [ } 3.3.[ [ _ Q Q ` :.;.^ H A F Q ] :.' | _ ' 3.7.` / W W / ` ' [ 7.7.[ [ ' _ / ^ ` } 4.7.` } 3.3.:.:.` Q Q _ { [ 3.3.3.[ 3.E.[.XXXX[.`.R.I.U.U.U.q.7.:.3.7.[ _ W G p w e T ^ T D F W W W / ` -.:.f.U.Q.!.oX3X6XeXzXmXmXmXmXeX5X^.P.f.L.P.Y.!.Y.I.L.6.3.7.3.4.4.4.d.I.W.XXqX0X,XfX1X<X+XXXXX[.k.k.].;XgXxXCXZXMXxXxXMXMXlX,X,X,X,XkXkX,X<X].{.,XkXlXfX<XfX<X+XF.F.dXdX;X<XdX+XfXfXfX;X+X+XfXjXhXbX].V.].C.C.V.z.;.;.:.] ] 1.8.L 3 1 q a p d J a f L R f 3 w J X.=.M M M *.A.&XA.$.j j y - O o o o - B N.n n e.B B B B - + X X .     X X X X X X + + + ; - - - - c B B M n e.D.n pXCXxXxXxX>X4X X|.!. X4X0XlXAX;Xi q j.C.C.pXvXvXpXpXe.M e.m M e.e.sXsXiXsXsXsXCX@X[.`.'.qXkXmXzXeX5X.XOX<XcXCXVXPXPXvXN.M v b m M v u c n n 7 * , R n.x.T.<XJXSXxX>X{.E.T.XX XXXXX=X5XwX8X>X X X=X8XwXwX=X|.Q.-XwXzXzXmXmXmXBXAXFXJXJXJXFXFXFXSXAXAXAXNXBXNXmXNXNXzX9X9X5X5X4X|.U.L.L.!.5XwX9X9XeXlXlXzXNXmXzXcX:X{.OXoX4X4X5X5X3X|.R.6.d.T.R.Y.R.R.|.OXOXOXoXoXoXOX|.`.T.E.3.>.2.B.].:XkXcX,X:X<X+X[.>XkXNXzXNXlX0X<X:XkX0Xv.5.l._.).9.$.9.9.9.V.+XC.o.K ~ q.l.x.).0XzXxX:X,XkXcXwX*X5X0X-XY.6.U.`.T.].@X+X'.z.O.~ 1.1.Q Q [ ' d.R.!.!.T._.,XxXxXkX-X>XlXBXAXSXZXxXfXg.J j J ! ! ;.{.lXxXfX:X`.A A l.E.q.5.-.q.v.l.z.9.-.1.{.:X`.V.].V.V.x.].<XV.z.}.T.v.[.*XOX[.`.V.+XV.r.' 7.P.P.l.2.~ s.x.Y Z a X.B.<.e 0 , 6 g A F o.r 6 i 1 g j q 1 , t e.M.X.X.m h t 1 6 : % % @ & , 6 5 - = # @ c M n V u o . 5 N V - @ @ @ @ . o o = u u t i s 0 5 t 0 t = ; h X.c V c - # * s l s * u < : - - v =.k q & * k & & i 3 s X.m i i m m h < & 1 1 i g f g ~ E g i t i 6 ",
"2 e H H H H _ 3.5.-./ ` [ :.] { :.[ ' ' ' _ _ _ _ { } } } [ [ ' Q / Q ` ` ` ` / F H _ :.7.' | _ ' [ :.` Q H H / ` ] [ :.7.[ [ [ ` -.:.:.} 4.3.:.[ 7.7.:.;.` / Q Y Q _ ` ` ] ` 3.E.[.OX'.'.R.E.I.P.W.OX_.x.5.3.[ [ _ / P d e T k.v.1.` Q [ d.R.|.XX-X>X0X8X9XwXrXrXrXrX9X6X=X~.!.P.f.} | ' } d.Y.Y.Y.L.d.d.d.d.4.d.d.d.U.W. X>X0XwX<X{.].`.`.{.XX[.].:XxXCXCXCXCXZXMXlXkXlXkXkXwX,X<X{.{.[.'.v.9.2.l.v.XX<X:XfX<X).C.C.+X;X+X+XdXdXdX+XfXfXfX+XdX].].v.:.W / ,.n.fX<Xl.5.:.] / ! L f 3 > > 4 q e j a 3 3 a R R S +.*.e.N.&.e.j.;X:XA.*.E l h t 5 $ o . $ n B c u n N N B B C + X X X       X X X X X + + + ; - - - - c B B c 7 n N.n pXxXxXcXlX>X3X.X XR.!..X>XlXAXC.: i 8.B.*.pXvXaXS.N.e.M M v 7 y B N.UXB iXIXsXVXcX>X{.XX0XkX8X9X9XwXoX'.[.].F.vXHXPXsXD.e.h k k b v y M N.e.n 7 h 8.n.z.b.<XJXDX<X8X>X[.l.l.R.R.W.!.~.9XeX9XXX!. X=X8X5X!.4.3.L. X*X*X.X X!..X4XwXBXBXBXmXmXBXBXBXBXBXBXBXBXmXmXzX9X4X3X3X.X*XW.f.[ { } L.Y. X4XwX0X0XkXlXNXNXNXNXlX:X|. X5X5X4X XR.6.d.R.OX XOXoX|.|.oXoXoX4X5X>XoXOX_.k.1.:.#.#.$.0.+XlXNXzXkXkXkXkXcXwX0XzXzX0X|.1.1.{.kX@Xx.v.V.V.].].].V.q.z.C.,.K F ^ x.k.;.q.,XNXlX`.f.x.[.OX'.`.R.7._ _ 5.`.v.1.,.<.1.,.P F H Q W ^ 2.f.3.{ 6.XX-X>XwXNXzXzX0XBXGXBXgX:XxXZXgXz.K j R $.<.1.).:X:X:X-Xb.F ^ 5.:.-.Q P 9.q.x.q.0.V.+XXX[.T.T.{.0X>XU.b.d.f.x.h.z.{.XX} OX,XlX:X1.>.^ H 7.Y.L.7.1.;.^ 1.;.R j R O.T z 0 & 6 j R X.E j l l i X.C.B.+...X.&.*.p.&.v t 5 a a 1 : # , 6 0 & = = = @ @ o 7 h h - - 5 < u V C $ # < 5 - - 5 u u * u N - * * t < * 5 u - = C c c c v & % < k , & , 5 c M C.E 1 , * # & < , 1 i i > q g r E %.X.0 i R g g g j t i 1 # i s j j ",
"9 3 p D F A Y 7.k.5.-.' 7.6.4.4.6.3.[ { ' { _ _ _ [ 4.3.} ' _ | _ ` ` ] ` _ ` _ / Q ` [ 7.[ [ [ [ [ :.-.` Q / / ` ` ` ` _ ' [ 7.5.1.:.2.} 3.3.:.[ [ :.[ ] ] ` / Q Q / ^ ^ / Q ] l.'.XX[.'.[._.T.U.|.oXoX|.T.I.6.} [ _ Q F F 2.:XkX:X`.Y.!.5XzXmXmXmXNXzXzXeXrXrXrX5X*X^.Y.d.3.7.' _ | _ [ 4.I.R.!.Y.L.d.d.L.L.L.d.d.I.R.OXXX:X>X0X-X'.[.+X:X,XkXcXfXcXxXhXnXCXxXMXNXNXlXkX,X,XkX0X<X].v.q.7.5.:.>.1.;.5.l.l.].{.).z.C.F.+X+X+X+XfXdX+X+X<XfXdXdXk.] { [ ' Y Y ] ].XX'.R.x.l.x.C.=.L f w > > w A f L f 3 3 S O.o.L X.&.S.N.S.+XgX<XA.j.%.X.l m h 7 $ o O c B c - y c V B V - + + X X         X X X + + + ; ; - - C C c B B u = u n n D.hXxXlX0X8XqXqX8XoX XoX>XlXAX*.# s g.Z.=.r.jXpXiXe.N.M y - $ = c V c - iXHXLXPXCXfX=XoX>X-XOXW. X*X!.W.V.G.vXPXPXvXpXe.b b h &.e.&.M iXpXN.=.X.B.A.A.V.v.:XKXDX@X9XwXXXl.U.XX=X=X.X XeXzXzXwX=X|.XX=X4X=XW.'.'.XXXXoXoX X X.X$XwXmXmXwX.X^.=X8X9XeXeXzXeXeXwXeX9X5X3X3X4X4XoX|.6.[ ' ' [ 3.U.Q.x.k.l.T.T.{.>XwXzXeX=XU.Q.>X8X8X8XXX|.oX4XXX XOXoXoXqX0XkXkXwXqX|.'.'.v.1.O./ o.=.X.o.C.fXmXmXBXAXNXmXeXeXzXzXlXwX'./ P q.@X<X].V.9.<.V.[.{.,X<X{.+X}.v.T.E.`.l.^ O.v.<X<X`.3.1.2.7.5.k.5.Q F G -.q.8.K S ! $.,.O.! W 2.5.k.T.Q.] P q.@X9X8XqXOX!.wXZXFXBX Xf.2.A.;Xc.:.^ R c.g.1.] ^ ;.1.g.b.k.;.` Q ^ k.5.1.x.1.x.{.cXAXAX{.O.F T W / Q _ f.T.1.O.$.].>X*XI.OX~.5X>XT.:.P Y 5.XXoX[ G G Q [ :.P ! -.~ R z 0 1 i X.r.*.*.j m B.h.h.V.V.z.V.h.L *.*.e.M v h 1 : : # , i g r * & @ o @ @ o O = @ o = y < @ - u = @ 6 v V N v u 5 u N u.5 O * y y b m u - u c y c u u t i # % * , , = - =.m.s 5 5 5 & & 6 1 i s > 2 1 q q 1 , 1 1 s Z.Z.@.j 0 & & 2 1 i h h X.",
"# 1 w S J A G _ f.5.3.} 4.6.4.4.4.[ | | Q _ _ / _ [ f.d.3._ Q Q ' ] [ 3.5.7.:.` _ _ _ [ [ } 7.[ 7.7.7.7.] ` ` _ ` ^ / Q Y _ :.5.k.5.2.:.[ [ [ ` ` ] [ [ [ [ ] ` ^ ` ^ ` / W G Q } U.XX@X@X{.[.[.R.XXqX0XqX=XXX'.I.6.' _ _ ` T.cXZXZXzXkXeXmXBXAXAXBXNXzXwX6X5X*X.X!.!.Y.I.5.:.` _ _ _ ' } d.I.Y.R.Y.I.I.d.d.I.Y.L.L.U.W.-X>X>X>X0X8X,XcXxXlXlXMXCXxXlXxXhXhXxXlXkXcXlXkX>X_.).{.,X{.).).v.5.:.[ ] >.1.1.2.` ;.l.l.q.,.,.C.C.z.c.+XdXdX].].+XdXdX#X:.} 6.q.5.7.5.T.!. XoXoX<XlXgXdXr.J a a q q S J f a a q 3 w d f j &.pXD.G.;X1X;XC.0.*.X.l X.m h 5 $ $ - V V - 7 c V B c ; + + + X   X .     . X + ; ; - - u c c c c V n - $ - y n Z.gXcXcXwX>XqX0XzX0XoX>X<XlXZX=.% j c.F.=.&.jXaXiXe.e.M c 7 $ $ 7 - 7 - iXLXLXLXDXxXqXoXOX!.W.L.Y.R.U.l.#XfXvXPXIXsXN.M e.&.e.=.&.e.N.pXpXD.S.B.A.c.`.v.`.gXJXSX0X5X=X|.Y. XwXzXzX8XXX8XeXeX9X XW. X.XoXqXoX X|. XoXoX3XoX.X*XwXNXAXAXmX=XQ.|..X4X3X=X8X8X=X.X.X3X4X4X5X8X8X%XoXI.5.7.' ` :.3.] F G ` [ [ { :.6.U.!. XOX<XzXzXzXNXzXwX9X9X5XoXoX=XqX0XlXmXNX0XR.7.f.'.{.V.0.^ ....E O.#X:X-X-X8XmXmXeXeXmXmXNXNXzX0Xk.q.C.G.V.V.z.O.! ;.k.XXzXmXBXNXNXzX>XU.v.v.,.O.^ 9.V.v.[.].q.` ` q.k.2.! ! z.A.8.L f o.0.V.:X,X{.{.[.E.d.d./ $.+X>X8XoXQ._.qXBXJXGXtX:.,.z.o.J D F ;.9.g.<.9.k.;.^ ,.8.;.^ F W 2.k.T.OXb.k.x._.=XzXlXxXs.T f a q 3 q o.{.fXB.B.h.}.|.Y.W A Y Y / >.f.[ d.=XzX8XT.C.,.z.[ Q ^ s.~ K J q i X.E g t & : : 0.].9.9.g.g.,.] O.*.0.*.m h h i q 6 6 & 1 j s < O $ = - * & # & , & & @ @ = $ # 5 5 5 6 t N N y & h v t < * @ @ < t h M m &.m v v v u - < o.0 & % % # % * p.X.c n V h & , i r i i i 1 q 4 q s i t i i s 0 i 1 j s & : > 1 < 6 : ",
": > w F ! ! F _ 7.3.4.3.3.} [ ' { Q G A G F H Q / ;.>.>.;.^ / ` { [ } d.I.I.5.[ ' ' ' ' [ } 3.3.7.7.7.:.[ ] ` _ / / Q W Q ` 3.k.q.5.7.{ | _ _ Q / ` ] :.7.:.:.;.-.` ` ^ Q P F D _ d.W.@X@X{.[.].`.{.>X0X0X=X=X3XoXU.4.} [ U.>XmXSXAXAXNXNXAXSXSXAXNXkX5X.X~.3X.X!.Y.Y.R.U.k.5.:.;.:.:.7.d.L.Y.R.Y.R.'.'.[.@XfXfX[.`.:X:X,XlX0XlXlXlXMXZXCXxXMXDXMXxX,X:X+X+XdX@X].{.:XXXU.l.T.@XgXfX<X@X).k.[ ' ' :.l.v.q.2.2.z.E.] Y F K ! ` } G.].[.'.T.V.+XdXdX[.T.[.+X).T.[.fXfXkXlXcXcXlXcXfX].,.p 3 a q q e a 3 1 > : 2 3 a b S.vXjXF.&X,X;XA.B.@.h h l j M n y - - V V c c c V V c ; + + X X X X     . X O $ - - 7 y n M B V V n V - ; - C m C.+X>X0X>XXXoX8XwX8XqX XOXXXnXb % o.n.B.&.S.jXpXiXN.N.M e.n y 7 V - - n sXLXLXLXHXxXcX<X:X=X=X.X!.E.E.T.].dXPXPXPXsXM v e.e.e.=.pXpXpXjXaXF.C.A.}.v.&Xs.g.fXJXCX{..XoX|.P.~.5XzXzX8X X!..X3X|.Y.P.^.!.oX4XoX*X=X3X4X5X9X4X.X6XeXmXBXNXzXwX8X$X=X>XoXoXqX=X X|.|. X X X|.|.OX~.!.Q.E.x.q.:.;.^ W A G O.1.;./ H Q :.l.:XzXNXNXzXNXZXNXwX9XeX0XoX3X=XoX=XeXzXzX.Xl.6.OXzXmXkXXXz.O.+.,.x.>X0X'.6.3.f.} i.U.5XeXmXBXAXAXCXxXfXV.k.C.].Q.T.`.!. X4X9XwXeX9X4XW.l.V.V.z.-.K ! z.fXxXlX<Xc.z.].@X@X{.oX@XdXF.0.0.].[.'.zXNX1XU.6.V.T.x.9.x.x.T.=X|.{.NXAXFXAXlXXXd.q.V.,.a a D U *.$.$.O.-.z.*.=.*.r.*.0.+XfX{.1.d.k.` l.L.Y.Y./ T g.`.w.$.! f p K 0.,.9.q.w.v.|.{ d w e 4 > w w w a ~ >.} _.kX8X!.2.Q W ~ E o.L 1 k X.g 1 , # % j r.2.g.h.8.8.o.o.j j R L ..k l q < 1 i i q q 2 , = = - < : 2 : 1 6 q i < % % & @ 7 M v k h M n v 5 , < 9 : : @ $ $ * * < h 5 5 @ 7 h u 5 t s : @ # : % o h i.: 7 p.&.l q > , : 2 a T g i t i l m U i # * < 5 X.U & # , < * % 5 6 ",
"> w G / ;.;.` [ } } ' _ _ Q H G F F A w w w p F H / Q Q Q / ] 3.6.6.6.L.U.U.6.} ' ' ' ' [ } 3.3.3.3.3.7.[ [ _ _ _ / Q / _ ] 5.k.q.:.] ' _ | Q Q Q / ` ] ] ] ` ` ` ^ ` / Q P A A H [ L.R.[.[.`.z.k.x.|.oX.X~.~.$X$X!.Y.Y.!.>XzXNXAXAXAXBXBXAXFXFXBXlX=X~.~.~.7X4X!.L.L.U.U.R.E.l.d.d.d.L./..XqX0X<XkXxXZXZXZXZXMX0X,X0XlXlXlXxXMXxXxXCXDXCXfXgXhXfX:XXX[.V.C.V.+X).[.:XOX[.[.[.{.'.XX:X@Xv.5.] ` 7.).{.{.[.[.{.{.6._ Y H I Z G 7.F.+XXX'.'.[.].+X+X<XcXcXlXlX,XfXgXxXxXxXxXkXgXkXfXkX+X,.p 3 > 2 > 3 1 : : : 2 1 a X.pXVXvXdX1XgXfX;XC.X.y 6 i X.&.e.B c c M B V V V V c - ; + + X X X X .   . O $ - 7 7 y n &.N.iXN.B V c - $ ; 7 e.A.].'.XXXXT.R..X4X=XoX'.[.+XhXb i s.}.;XpXaXaXaXiXiXe.S.N.B n M n B V iXPXLXLXLXKXCXcXcX0X9X9X6X4XoX@XXX{.dXHXKXIXiXn B e.m S.S.pXpXaXvXvXG.A.+XV.n.`.k.2.<XKXZX'.Y.OXR.R.R.!.*X3X!.U.U.Y.W.T.L.d.d.L.!.=X=X5X9XeX8XXXXXqXoX3X6XrXeXeX0XqX5X5X3X=X4X8X9X5X3X X X X X|.|. XoX XoX:XqX0XoXT.d.3.^ ` 1.l.'.E.` / 5.`.OX-X8XwX8X9XzXNXzX9X9X5XoXoX=XoX X.XqX8X-XqXqXkXzXNXNXlX0X'.5.1.v.[. X XW.R.I.5.-.~ 9.<X-XU.Q.<XMXBXAXNXlXlXkXlXkX>X|.Q.U.d.b.x.'.W.U.l.E.fXfX'.5.:.` q.@X,X,XcXfXfX0XlXxXMXhX<Xl.v.].c.x.k.d. X.X5._ R.0X'.k.7.` ^ ~ 9.@XBXAXNXAXBXMXlXq.-.G.+X#.j f f L ^ E f X.=.b *.A.A.+XfX:XV.).b.} d.W.5.H 5.P a o.c.q.z.z.,.R R O.$.8.1.2.k.v./ w i f f a 3 f f a R j 2 3 T s.] S G :.2.<.R a a s 1 1 , i 6 % i r.w.9.O.! f q g =.m i k R $.J j X.b 1 i i i 6 6 t t t : > > i 1 1 1 1 3 < % & , $ C N y b i y n h u = : > # o O $ * % $ * k h l < * * < < t 2 & * @ h < 7 m.q : i X.l t & # @ & < i E i i 6 t l l g k k 6 * v C.1 , : 1 1 m m m m ",
"> Z _ 7.k.5.:.[ [ _ H G A A e e I F F p q 4 3 q w A G H Y _ [ 4.q.6.4.6.L.d.4.[ [ [ [ } 3.3.3.3.4.3.} } [ [ ' ' ' _ _ ` [ :.3.5.5.] [ [ ' Q P W / / ` ` ' ] ] ` W W W W Q Q G A G | { 3.x.V.x.,./ Q 7.4.4.L.P./.^.~.3X8XzXNXNXAXAXAXAXAXAXAXAXAXmXeX3X3X6X6XrX9X=XU.d.d.I.R.'. X.X.X.X4X8XwXzXNXZXDXSXJXJXJXSXAXzXlX0X,XkXMXZXMXxXCXCXCXdX+X:XfX@X[.'.T.).].V.).k.`.@X[.].[.).9.3.5.'.kX@X5.;.5.V.:X@X[.{.@X<XfXl.' | Y H H Q k.dXcX<XXX:X<X<X].9.,.v.].;XgXMXxXxXgXgXfXfXfX,X,XgXxXfX].O.w 2 : : 2 : # # # 2 i J r.jXDXhXdXgXlXfX;Xm.X.h 6 < h @.M.M.B n B N.B V B B c - ; ; X X X + X X . O $ - 5 y h b &.S.pXaXaXiXB c - ; ; c G.+X@XoX XXX|.Y. XoXqXoXoX@XkXfXX.%.x.V.F.jXjXaXaXiXe.N.N.iXM M e.B B iXsXPXLXLXLXKXCXcXkX0X5XqX4XoX=X-X<XbXDXLXLXIXsXiXiXiXe.N.pXvXpXaXvXvXF.].`.v.n.b.k.A.gXJXhX:XoX|.R.U.R.Y.R.R.L.L.P.R.!.R.U.L.6.6.U.!.!.!.=X9X>XT.'.kXlXeXwX3X~.=XoXoX4X5X.X X*X4X5X4X3X8X5X4X4X=X=X=XoX>XkXzXNXNXcX=X|.|.W. X=XqXqX.XU._.>X0XXXU.U.Y.L.^.8XzXeX5X^.P.Y.W.=X8X4X.X.X=X=X8XzXzXzXeX=XU.k.d.3.l.'.W.P.d.d.I.R.@X:X#X+XMX:X] H F ^ n.-XwXmXBXmXNXcXXXx.d.] ` ;.x.:X<XXX`.[.kXmXeX~.P.f.d.`.W.OX<XfXcX0X0XZXKXLXKX:Xl.).x._.].OX>XXX1.0.MXmX#.A G S $.S ,.MXAXNXMXMXAXNX,XV.V.+X+Xm.E a f O.^ R f X.*.e.S.+XA.C.B.o.K C.[.f.} P.f.A a 3 K w.o.;.v.k.! R z.@XV.+X@X[.XX].K > 3 > > q > 1 1 i V.hX*.2 > > > p _ 5.^ R L f i g s 1 X.j , 6 +.$.f.v.z.8.E r 0 b DXM.j #.b.-.L C.$.a d a i k h 5 X.a 2 3 4 a < & : 2 1 t # $ = V V v y j < y v u , & : & $ = = @ , 2 & , % # 1 t > < , < 6 , # # * < 6 *.%.f g s i i 2 @ * * & # 5 k i q i b j l k i t * < e.X.t s 1 i i s b m j ",
"> G 3.L.l.;.` / / F w q q w e d D P ! K p q q q w A F / ` ;.7.6.4.} } 4.f.4.7.} 3.3.3.4.4.3.3.4.4.} [ { [ [ [ [ } [ ' ' [ [ [ :.-.' [ 7.[ _ Q / / / _ _ ` ` ` ` W F F H ' 7.:.-.` ' { [ :.5.q.` F Z H | | | } P.^.5XeXBXNXAXAXAXAXBXBXBXBXNXmXzXeXwX6XrXeXeXeXeX=XQ.U.U.|.=X9XeXeXwXwXwXzXlXmXNXZXSXHXJXJXJXSXZXNXlX0X:X,XNXZXxXMXxXcXfX{.XX,XfX<X].[.).[.@X).k.A.+X<X+X`.`.k.] { 7.`.kXkX'.k.q.+X<X@X[.+XXX[.+X@Xx.7.' ' :.q.].dXfX[.XX>X:X,XV.^ Z F 0.G.F.dXgXfXfXfX,X<X<X>X0XhXxXkX@Xl.O.i 2 : 9 9 9 9 : 2 3 j *.jXVXdXdXgX;XZ.%.R l m h < t l *.S.e.B N.pXiXB B UXV - ; ; + + + + o O O $ - u h j X.&.M.pXjXhXvXvXiXV - ; - n +X:X@X=X8X0X.XOXoXoXoXXX X-XwXgXC.c.b.g.A.jXaXS.pXN.e.N.N.N.e.e.N.N.iXsXIXHXLXLXLXLXDXfX@XOX|.W.!.OX>XqXkXMXHXLXHXsXiXsXsXaXpXe.N.vXaXD.vXjXG.b.}.b.Q.b.k.V.gXKXxX`.4XR.d.I.U.P.P.4.} 4.Y.!.!.OXW.R.R.I.6.6.3.4.U.|.'.l.'.mXAXBXmX=XR.'.|.|.XX=X X XoX.XoX4X5X8X9X9X8X8X0XwXkXkXlXzXzXzX0XoX.XoXqX8X5X4X.X X|..X8X8XQ.[ ` 7.7.d.|.OX|.!.L.6.U.|..X4XoX|..X.XW.P.W.W.W.Q.[ G Z _ q.T.R.U.I.I.U.E.I.'.XX`.].NXkX3.F a w F [ f.T.{.lXAXSXcX[.T.x.-.O.z.@X@X[.v.x.Q.>XwX.XY.L.U.Y.T.`.:XkXkX|.`.SXLXLXLXSXcX<XfXcXcXlXzX0X[.nXKXgXT p q f o.C.CXFXAXZXNXzXmXzXkX-X+X+X+X<.d F W 2.W d U z.+XdXS.r.8.R X.L +.dXxXx.Y  .[ 2.q 2 R ! o.9.1.O.9.A.<X{.].+X@X[.x.k.X.6 3 2 8 f 1 # # k @XxX}.#.X.1 2 q ] XX1.3 j 0.o.X.L o.$.i 1 +.9.1.U ~ #.R J c.R i vXKXaX1.5.o.X.#.W D D E a 0 & , #.1 6 1 2 2 % % % : , j < o - V v y k t 5 y t , , < , 6 S.s % , g 1 : < , # o @ % % $ # t t 5 * , , b m.q 1 , o @ 6 < , t 1 & & * 5 s i 0 k =.m y 5 : < y =.l X.X.j o.g i k X.=.",
"> G 3.U.k.W G A p w 4 > 4 q p D F W / W F K R o.R ! ;.9.9.1.5.l.L.4.} 4.f.4.3.7.4.4.4.6.4.3.} } 3.[ _ | _ [ [ } [ [ [ [ [ [ ] ] ] ' } 7.[ ` / / _ ` ` / Q Q / ` ^ ^ / ^ 5.'.OX_.l.q.7.[ ' [ :.` W H | ' | } P.^.tXeXmXAXAXAXAXAXNXNXBXBXBXmXyXrXeXeXrXrXeXyXmXzXlX,X>XwXwX9X9XeXeXeXwX8X8X-X-X1XlXZXSXSXSXSXSXAXMXlXkX,XfXlXgX<X;X:XfXfX@X@X,X0XkX:X@X<XfXfX+XdXdXdX+X+XV.l.5.[ } d.v.`.{.'.v.q.V.].].T.`.+Xz.z.+X].T.6.f.v.].dXdX].-.` v.:X@Xv.-.Q / C.+XG.C.+X<XfXfXgXfX,X,X,XdXdX;X{.T.k.! j 3 1 > 2 2 3 3 q 8 X.jXvXpX;X;X*.h t i s l l t < i m M.iXiXpXsXsXUXB UXV - ; ; ; ; $ ; + $ * * 5 h m %.*.B.pXjXhXCXVXVXsXB c - - M +X>X@X.X9X0X=X>XqXqXqXoX X=XwXlX+XA.b.g.F.F.pXS.pXe.N.N.M M e.e.N.e.sXsXsXsXHXLXLXLXDXfX@X'.W.U.U.R.|.|.:XhXHXLXIXUXiXsXpXiXe.e.e.pXpXpXvXjXB.s.k.s.T.f.1.A.hXJXCX).R.L.4.7.} } } { ' } L.Y.Y.!.Y.W.OX|.E.3.[ 7.I.R.E.5.U.8XmXNXmXwX.XOX|.|.XXoX XXXXXOXoX4X6X4X5X8X=X.X-X0XkXlXlXcXkX0X=X|.'. X XY.d.d.Y./.Y.L.L.U.f.] [ 6.U.R.OXE.l.R.|.|.OX X|. X|.R.|.!.3.7.l.I.E.E.:.H G :._.'.I.l.E._.'.|.Y.I.d.3.d.8X>Xl.2.O.O.1.5.:.7.l.b.gXSXZX,XT.q.,.O.9.z.1.5.x.x.x.{.@XXXOX_.l.E.q.5. XeX>Xd.k.HXLXLXLXKXAXkXcXlXkXcXlXwXqXZXCXs.f q 3 w 8.ZXJXFXAXmX=X|.qX|.-X:X{.:XlXk.w T.=X>XXX/ F `.cXfXC.B.9.;.o.$.dXxX:X8.! I H q.R i a g o.c.b.^ 8.0.V.`.9.<.V.z.;.C.G.r.X.X.8.~ q 1 j G.0X,XV.A.+XC.J 9 q +X9.$.9._.@XC.J J D q k =.$.T X.E p 3 a z.C.K j vXJX+X1.w.L U p f j k i 1 : 1 q > > : # # % # & 1 ,.$.g.X.M v h t 1 7 - * , 1 1 6 h < E j., i i h i & & < t 5 5 y $ @ & & 5 h z J n.o.k i 1 & 1 t 1 1 1 : , , & & 6 i i 1 i 6 * k j k h h h E X.$.$.J a a a a ",
"2 e ] d.5.K w q 3 4 1 1 3 q w A F W / Q W ;.k.V.C.V.].{.].V.v.T._.E.l.l.k.3.7.} 4.4.4.3.7.[ [ ' [ ' Q Q / ` [ [ [ [ [ [ [ [ :.:.[ ' } } [ ] _ / _ ` ` Q H F Q ` 1.z.z.q.x.|.>XoXR.x.5.[ _ _ ` ` ^ ] 6.U.Q.*X9XeXeXeXmXBXBXAXAXAXBXBXBXGXBXmXyXrXeXeXrXrXeXmXmXBXNXzXmXzXeXwX4X5X3X3X X!.R.d.d.`.wXMXZXZXZXAXAXZXxXxXcXfX<X<XfX:X}.<XxXxXgXgXfX<XqX<X@XdXdXdXdXjXpXG.S.C.C.l.d.4.f.x.z.z.l.k.x.x.c.v.k.;.;.V.V.x.h.V.x.E.`.].+XdXdX].1.A W `.`.1.' :.k.C.F.A.C.G.+X+X+XdXfXgXfX:X+XC.,.q.d.U.v.,.J f f q 3 q a f j B.hXjXdXF.X.6 = @ , t s j k 6 6 h &.pXpXaXvXsXUXV B c - - - - - - - * * 5 t i b *.B.C.F.jXCXDXDXDXVXvXiXn c c &.V.XX<X=X4XqX5X4X4X4X=X4XoXqXkX1Xc.B.v.h.B.D.D.N.M e.e.e.B v M n e.pXiXsXsXsXHXLXLXLXvXfX@X'.T.l.6.7.3.>.).hXKXLXsXUXiXsXpXpX=.pXe.v e.pXpXS.*.c.s.b.f.k.2.A.CXSXfX].q.d.d.7.} { ' | _ [ d.U.Y.P.Y.!.oXqXoXW.U.U. XXXR.d.I.^.3X9X9X9X4X4X4X4X4X.X.X.X.X X.X*X$X5X9X9X4X!.W.XX8XeXkXcXlXwX5X XOX-X=XY.4.L.!.|.!.I.I.I.R.R.W.!.!..X!.3.3.!.3X8X8X4X5XeXwX.X.X Xd.:.q.E.R.OXW.l.q.).OX|.'.'.'.W.|.Y.R.'.R.R.!..X!.U.l.l.T.'.Q.R._.R.` ].AXAXlXU.[ q.,.9.;.^ 2.k.k.+X<X@XOX8X0X0XfXcX,XwXeX:Xk.C.KXLXLXLXLXAXkXlXkXkX0X0XkXkX<X%.q q 3 2 K SXJXFXMXeX>XW.P.d.Q q.`.'.0XmX].P T.8X0XeX-X^ 9.gXAXlXx.q.Q.T.V.+Xv.^ ,.q.T.U.R.T.1.o.$.h.V.V.#.$.$.z.:XV.V.V.9.o.0.r.S.F.dX,X{.V.].:X,XA.C.B.C.fX;X$.1 2 h.`.@X,X XU.1.%.X.+.b X.E j j B.g.p i O.f q E a ..vXnXh.9.O.g f j *.j 3 2 j J 3 i 0 t & 1 i p f H ] l.q.:Xg.j t y i < @ # , , : 5 @ $ y *.j z , 1 1 6 < 6 =.m s v =.t , i d e 6 X.m.1 1 < & , e q 1 1 & % , < < < < i s 1 , , j {.xXA.b i i 6 k a a j a i i a ",
": w H 7.1.K q 3 3 3 3 3 q q w p D W / Q Q ] b.`.].{.:X,X>X{.[.).).T.T.T.l.7.[ [ } } 7.} } [ [ | [ ' _ Q / ` -.[ [ [ :.:.] [ [ ] ` _ { { ' _ Q Q Q ` ` Q H F W ^ 5.V.].].T.R.R.R.d.5.-.` ] ^ / / ] d.!.4XeXmXBXBXmXeXeXzXmXmXmXmXmXmXmXBXBXmXmXeX9XeX9XrXeXeXeXzXmXmXzXkXwX5X!.W.W.W.Q.d.5.x.[.fXxXZXZXZXAXAXZXxXMXZXMXxXfXfXMXxXfXfXfX;XfXnXxX<X>X<X+XG.F.S.S.r.S.B.B.C.z.x.E.I.k.).].].x.k.'.+X`.l./ A p ;.x.E.z.k.5.k.).A.G.C.C.C.T.] Q k.x.3.[ :.v.C.C.V.v.z.C.c.C.A.].].].'.).z.! / 3.|.XX9.K S S a 3 3 q f X.M.S.S.H.p.t @ % o = < 1 i k t t h @.D.aXvXVXvXsXB V c - 7 c n y y t t t t j j @.Z.F.;XgXMXSXHXHXHXDXVXaXe.B e.N.G.[.[.oX4X8XqX8X8X4XoX=X4X8XlX+XO.g.V.B.*.D.S.v M &.e.n n v M e.n e.iXiXsXIXHXLXLXLXvX@X_.R.U.7.} 4.q.q.#XvXLXLXsXUXiXiXN.e.M iXpXN.e.pXS.r.%.<.#.>.1.2.V.fXZXfXn.5.q.I.R.'.4.4.} [ } 4.L.Y.W.R.!..X3X8XqX4X5X4X9XeX4X|..X.X3X3X*X X X*X8X8X5X=X=X=X=X.X.X.X.X.X5X9X9X*X XoX8X9X0X0XcXeX9X5X5X>X0XqXoX9X8X*X.XoXoXoX4X9X5X~.Y.Y.L.[ 4.!..X4X=X=X4X9X9X X X!.L.3.U.W.W.!.!.Q.U.l.U.W.XXOXR.Y.U.P.R.T.R.E.U.Y.U.U.U.U.R.|.W.U.U.3.1.gXNXBXBXQ.Q ` -.1.;.1.k.x.V.+X<XXXQ.Q.=XkXkXkXkX>XT.z.,.+XLXLXLXLXJXxXlXcXfXcXfX<XfXfXA.K a f j L dXSXBX{.l.l.d.5XXXQ G {.<Xx.{.-X}.g.1.b.l.0X>Xg.+XAXAXzXoXXXQ.Q.[.V.l.U.XX8XwX|.Y.oXoXv.z.k.O.~ O.<.9.z.:X,X`.v.,.O.h.;XC.r.A.V.C.].dXV.$.f i 0.V.:X+X`.W 8 `.k.-.v.d.] E j f X.*.*.@.X.*.G.R j j X.a 2 6 1 8 =.hXdXB.L j j X.C.E i j 8.f 1 k b i i k.d.' A w Z ] I S >.{ < , s 1 , < 2 # 6 e.M.Z.j.s j k t & & & # & , , # < X.%.E E < # t s.s # # % % < > i < < 1 & # & i j i k 6 t +.$.l.oXZXMX+X*.0 , , 6 8 k j j X.$.",
"2 a G _ ` D q 3 q q q 3 q q w p S K ~ Q H / >.f.k.x.'.-XXX{.`.E.L.d.L.U.I.7._ _ { [ } } 7.7.} ' [ [ ` / / ` :.:.:.:.:.] ` _ | Q H Y _ | H H H / _ ` ` ` ^ / / ` ` k.V.V.k.:.[ ' Q Q H Q 2.9.9.5.d.R.~.eXmXmXBXBXeX3X*X*X*X4X9X8XrXrXrXyXmXmXzXeXeXeX9X6X6X6X6X5X8X8X0X8X8X8X X_.`.[.:X+X].fXCXCXDXSXSXSXDXDXSXSXZXZXZXxXfXfXfXgXdXG.1.Q 1.+XjXjXfXdXG.D.G.B.0.$.X.%.<.,.2.k.T.l.q.V.dXfX`.l.>XfX-Xx.P A w T q.6.E.U.L.l.V.C.0.8.o.K H ] 7.:.3.4.5.f.k.V.G.C.z.d.x.k.q.z.5.[ [ } d.T.V.z.5.R.`.A.O.D f a 3 3 q f X.e.e.M.j.k * @ o O = * < 6 t 0 t s X.S.aXvXVXPXIXUXV c c n B M m m b m h j X.+.*.A.;X2XgXMXSXJXJXJXHXHXVXsXaXaXaX+X1.k.'.|.*X4X=X4X.XoX*X4X4X9X*.a b.].G.H.M.=.M n y n n n y v M B N.iXiXsXsXPXLXLXLXbX[.R.Y.L.5.L.Y.OX[.fXHXLXPXsXiXiXN.pXsXUXe.S.sXpXjXaXM.p.~ W T G W c.gXgXk.[ 1.1.k.'._.Y.Y.U.U.Y.Y.R.!.!.|. X.X3X*X.X4XeX7X9XzX9XoXoX*X6XeX5X X|..XqXqXoX=X=X4X=X X X.X.X~..X4X9X6X4X4X8X4XoXOXoX4X6X5X9XoX|.oX8X5X.X.X.X*X4X4X3X$XoX.X|.|.|.R.'.oX5X5X|.|.|.XX|.!.!.|.|.'.XX>XoXR.R.R.l.l.T.OX XR.E.I.} } 4.6.W.L.[ 7.6.3.6.6.E.OX'.f.{ ] #XCX&X0XNXW.U G ^ q.q.v.v.z.V.9.q.T.l.:.d.OXT.2.c.z.1.o.S +XLXLXLXLXMXk.C.C.].<X{.@X<XlX>XE.0.q.@XCXFXAX>X:.^ q.@X0X,Xk.! <XkX1.! ^ ( <.9.v.:XfXfXV.#XcX0X>XqXzXzXzXkXkX@XR.E.'.cX{.).wX9X'.v.1.F J 9.z.9.C.gXlX,Xk.~ :XfXMXV.*.C.c.$.r.jXjXF.0.J 9.`.'.v.d.>.^ [ _ q.z.] #.j i a K ,.J T g K E s j X.=.X.1 6 X.S.dXG.jXhXB.r.B.h.*.j s L L > q i k f 1.f.U.7.F p a #.( 3 3 T i 1 X.k =.@.X.l E U s 1 # , j g 5 M p.m 5 & % * i g l E %.j , * X.g 1 * @ @ < i * * , 6 1 2 < 5 1 i s 6 6 =.z.k.t.).bXZXfXo.6 < t j E E L R $.X.",
": q A Y Q P p a p f i 3 3 q w p G W ^ -./ Q / / Q _ [ 3.f.f.L.d.} } } 4.L.[ ' ' [ } } } 3.4.7.' :.7.:.:.` ` 7.3.:.-.` / H H G H H H ` ` P F H Q ` ` ` -.2.2.>.] ! O.<.9.1.^ W ^ ;.1.k.E.OX<XkX>X3X.X4XeXmXyXrX7XtX!.XX XW.|.!.~.*X4X9XeXmXmXmXmXzXeXeX8X=X=X=X!.!.-XXX*X8XkXkX<X:X,XcXdXdXfXhXVXDXDXCXCXCXCXDXAXDXZXZXxXxXgX+XV.x.1.^ W $.B.A.F.dXdXG.F.aXdXG.0.~ ^ 5.:._ [ k.x.z.V.;XgX:X+X<XcX0X'.3.:.Q P k.].b.x.l.x.T.v.k.;.G w 3 A { [ | { } d.d.x.x.9.;.-./ ` ;.:.] Q | _ } L.'.[.).x.x.l.5.-.! a a p p j e.S.S.D.m * $ % o o @ * * < 6 < < t j *.pXvXVXHXIXiXB n b e.S.S.B.*.@.X.E o.j.8.%.C.+X;XxXCXSXJXJXJXKXHXHXVXVXVXjXF.0.q.T.|.|.'.|.oX=X3X$XoXoX=Xh.R x.A.8.*.m y u 7 u c c M u c M B e.iXiXiXiXsXLXLXLXvX#X_.'.I.L.4.L.W.[.bXHXLXPXsXsXiXiXN.e.pXpXaXsXaXD.B.*.C.$.s 1 < i A.hXF.Q ` 6.I.R.!.|.|.Y.R.R.!.!.!./.!.!. XoX.X!.^.3X7X4X4X6X6X3X3X9X9XeXeX9X4X4X4X4X4XwXqX=XoX!.!. X X^.!.^.~.3X^.W.!. X!.W.!. XoX=X=XOXR.|.:XOX|.W.!.|.|.|.!.=XwXzXlX9X8X9X4X8XeXqXW.E.U.R.!.!.!. XoX4XeXwX>XXXR.U.W.|.oX X X'.W.Y.L.} } 4.L.6.U.'.E.3.5.q.q.l.U.5.:.z.{.v.O.,.T.k.^ _ k.V.v.l.f.6.L.7.:.d.k.2.9.8.! X.$.O.~ #.~ gXLXLXLXJXk.f W '.cXzXfXxXxXeX^.U.xXAXSXFXZXeXR.q.9.E.cXNXxXlX:Xk.).E q / f.'.{._.).V.v.` [ ' 6.[.@X>X=XQ.!.R.U.'.7.G.MX,X_.oXwX0XOXr.1.2.^ -.O.z.].V.&XE $.C.xXlX0.B.+X].*.0.].+XF.B...c.Q.;.C.&Xb.j.T >.l._ d i 1 i *.).XX9.R R j j j m =.j j a b pXvXMXj.*.F.dX&XC.*.pXB.~ K 2.U 6 8 2 a ~ R 2.7.] ` ` F ^ a k +.h.r.B.m.m.l 1 , , @ % % & q q f 1 X.8.a 1 s g U f L %.E i , & v i.i : < 7 i r < , & * 5 t i m h 0 0 5 7 %.C.w.[ { ` z.xX<X#.i 6 k h j m i h j k ",
": 3 w H ` ` W K K L p q q a F K P / -.-./ P P H G G G G H Q } 3.4.{ | ' } [ _ | ' [ } } 3.3.3.7.3.5.q.7.` ` :.:.:.` Q H G G G P W W _ ` / W Q P Y Q / :.5.q.5.:./ ` w.q.z.x.v.[.0XlXzXNXNXAXAXNXzXwX8X6XeXrX~.P.P.^.9XwX>X:X:X<XkXlXlXNXBXNXNXBXmXzX9X3X.X-XXXU.L.R.!.XX8XlXxXxXxXxXxXF.C.fXhXjXjXhXjXdXdXhXCXMXhXxXxXxXfXfX@Xz.2.2.-.,.B.B.B.G.C.F.F.F.F.F.F.z.;.^ q.5.` Y ] x.C.0.C.;XdX<X<X:X0X0XOX[.x.z.z.C.q.` W Y ' ] ` ^ H I w I | 4.} ' 4.R.T.v.k.O./ W F F G Y ` ' _ | ' 4.5.k.[.[.[.[.[.'.`.O.j J J j pXvXjXM.t @ O O O o @ @ = < < < , < i @.pXvXPXHXIXsXe.M e.D.D.F.F.*.@.X.X.j.A.B.j.Z.+XfXMXSXSXJXKXKXKXHXHXHXHXDXhXfX+X_.XX XR.R.W.oXoXoX3X*XoX-XF.0.<.g.0.b h 5 * - c u 7 c - - M e.B e.e.B e.iXHXLXLXvX#Xx.l.U.6.7.6.I.V.jXLXHXvXvXsXsXiXB M pXpXaXpXS.X.@.h.C.h.6 # @ : A.;XC.:.5.U.!.|..X X!.R.R.Y.Y.Y.Y.Y.Y.Y.Y.U.U.L.Y.!.~.=X3X6XrX6X3X5X9XeXeX9X8X9X9X8X4X^.~.*X*X.X!.!.!.I.L.L.Y.!.Y.U.I.|.|.|.!.!.|.|.!.OX=XwXcX0XoXW.Y.U.W.W.*X9XzXNXzX8X!..X4X9XeX*XY.d.[ f.^.!.W.OXoX4XwXwXzXwX|.R.|.OX|.W.W.'.XX.XY.L.6.I.R.T.>XzXcXW.[.{.).x.'.T.).@Xb./ p w G ;.9.` ^ W F F W ` ] 3.3.7.'.{.^ p a L K W T K q.SXKXLXLXZX~ ..{.mXzXzXzXZXNXkX<XlXNXxXOX{.z.:.:.V.#X_.lXlXxXNX>Xk.).0.R c.c.k.f.5.-.5.W.3.' -._.).;.p 4 w A _ / 6.5.'.fX@X'.).XX4X>XoX=XXX1.O.K ~ s.O.1.Z.bX=.x.-XC.].`.).@XlX0X,X&Xs.X.C.fXG.$.w g R q T F p J 1 , =.MX0X:X:X+.j g &.B.B.j i 6 m D.jXdX%.i b S.jXz 2 j o.g %.E e i 6 =.X.: : 1 q i 1 q 1 f g.g.m.m.%.%.i 2 % o % : * # # t 1 # # : > 4 3 g g g J q 3 g 1 6 k , 6 j.z 2 1 & 1 l s 6 , < < 6 k j j i k i =.$.A.f.W P P P ..G.}.( q b *.X.k k t < 1 < ",
": 1 w F ` :.` ` ~ K J S p K ^ / / ` ` ` Q H P F G G A Z A H _ 7.[ ' | _ ] :./ H Y _ [ } 7.3.7.:.7.5.l.5.:.] ] ] ` / / / Q / W ^ -.` :.5.>.` W H W Q ^ :.k.).E.x.x.[.:XkXMXZXSXSXSXSXSXSXSXFXSXAXNXlX8X*X4X=X XU.!.8XNXNXMXxXMXMXNXMXNXNXNXNXNXmXwX*XP.4.3.3.>.] { 3.U.'.fXgXdXdXvXhXjX+X+XhXhXaXD.dXF.pXpXjXhXgXfXdXhXgX:X'.].V.l.z.V.].G.r.C.C.r.r.B.B.r.C.].z.-.^ ,./ W F H ` w.! #.C.pXdX+XT.`.{.@X:XfXfX].9./ Z w q w G H _ Q H G G H 4.4.[ 4.R.`.[.z.W F G Q A Z H ' | | { [ 4.3.5.x.x.).{.].U.!.2.f j X.B.DXSXjXm * o o o o O O O @ = & & & < t X.pXvXPXHXIXsXD.B.S.pXaXaXF.B.$.o.X.B.F.G.Z.Z.;XxXZXSXSXJXKXKXLXKXHXHXJXVXdX+X@X`.W.|.W./.!.oX>XoX3X4X8XkXgX].8.g.*.=.6 y * - = $ $ 7 u ; 7 e.B e.B c M B PXLXLXvXC.).).Y.U.x.x.x.G.VXLXvXsXsXsXpXiXB M e.&.&.pXaX*.B.j.%.E < $ o # Z.fXV.|.!.!.!.!..X.X.X X X X!.!.Y.L.L.L.L.d.L.d.d.I.Y.W.!..X3X6X5X3X=X5X8X8X4X4X4X XY.} } P./.!.!.!./.I.I.Y.R.!.!.W.T.W.|. XoX.X!.!.!. X5X9X8X8X|.W.!.!.U.} } 3.d.W.XX!.Y.!.!.$X.XP.Y.R.L.3.4.R.!.W.!.oX4XeXzXwX X X8X8X4X5X=X8X>X-Xb.[ [ 3.I.R.>XcX|.I.E._.5.>.U.T.'.[.l.5.^ F ~ V.,.p a q q a L ,.,.O.O.-.U.d.T R G.A.1.>.9.w.fXKXLXLXKXBXfX+X0XmXzXzXmXNXZXFXFXBX9Xn.T.[.@XT.V.+XC.q.0XqXmXAXlXXX,XfX;XA.o.$.9.` _ 5.R.Y./ O.k.Y w 2 3 4 > K P 7.5.).@X+XV._.{.NXNX!.U.U.s.d q f R O.,.B.=.i S W F >.U.[.b.^ K >.G 1 X.A.kXAXZ.2 2 > 3 $.,.X.L a 1 F.ZXlX0X'.<.=.X.pXA.) g 6 b e.*.@.E 1 6 k m =., , i g a E q k e.F.H.%.s 1 # y 6 , 8 =.$.) > : 2 8 j.o.: % * 5 i 6 , m g r , , : 1 s g s t 6 8 q 2 : 3 j r a $.*.6 , 6 k 1 * # q s i L s i k h j ..C.n.B.}.z.G.z.] #.$.j L L h =.C.G.r.*.X.k h j ",
": q w A W ;.` ` / K K J S ! ;.;.` ] -.` W W / P F P W H H Q ` [ _ _ _ :.:.2.W A G H W _ [ [ ] ` ] 3.5.5.:.] ] ` ] ` ;.` ` ] :.2.;.;.1.k.q.2.` Q _ :.5.T.<XcXxXMXZXSXJXKXKXKXKXKXKXJXSXAXAXAXAXNXzXeX8X8X0X,XkXfXxXMXAXZXZXZXZXMXzXwXwX8X=X=X5X*XR.3.Y F F F F G Y ] c.A.dXbXS.S.aXjXdXdXdXhXjXpXF.+XF.iXiXG.+X+X+X;XgXxXfX:X<XgXfXfXfXdX0.O.c.].F.*.0.B.B.G.+X).d.` P I A G H ` 1.` ( 8.B.G.A.x.z.z.V.z.A.+X].5.Q F A p p w H { [ Y H H | } P.4.f.3.5.k.O.p q w Q / Q | { } } } [ } 4.U.U.x.).`.;._ 4.3.F j r.hXKXDXF.k @ O o o o o o O % @ @ @ & , t X.pXvXPXHXIXaXjXdXdXjXjXdXF.F.B.X.#.A.F.A.A.A.F.gXMXCXSXJXKXKXLXKXHXKXKXVXC.C.{.'.I.Y.!.|.3X4X4X=X3X3X=X>XxX:Xh.A.S.b 7 5 - = O $ O ; u - - M e.B n 7 u c sXLXLXPXdX>X0XqXqXkX:X).+XHXPXiXpXsXvXsXiXn n c v M e.S.&.S.X.L %.i % o @ B.MX0X=X=X*X=X*X3X=X.X|.|. X.X.X X!.!.R.W.Y.I.I.R.W.R.U.U.W..X5X8X=X XoX4X4X.X X.X|.I.[ ' [ L.|.|.|.oX|.OX4X4X4XoXoX|.U.W.oX9X9X3XoX3X5X5XoX.X XY.R.!.R.} _ Y H _ d.*XqX|.I.L.Y.Y.P. XwX0X|.R.XX.XU.U.I.W.=X9X4X|.3X9X9X5X=X XOX'.T.3._ _ [ 3.3.d.L.[ ' 5.I.[ _ [ :.q.5.l.`.'.k.[.<X` f f f X.0.G.C.8.#.! q.V.x.q.z.@X>X!.W.'.oXSXLXLXLXFX1XNXZXlXmXZXSXSXmXNXNXNXBXlXxXNXZXAXlX<XV.<.].[.'.eXmXMXxX8XT.#.a J k.l.` P 5.'.>.w ~ Q w 3 3 a a a q.q.Q 5.d.&X+X+X0XSXFXtX' ` K J i 3 a o.V.g.j k j B.,.q g f j a 8 j p f a f K f ) g 0 1 < a O.%.%.s s j j ].:X,XfXL =.F.c.T j j i j g j j f a j 6 , 1 j i a r L =.G.jXdXG.*.p q 6 v F.F.}.n.s.0 : i 1 3 8 d s.f 0 < j b *.dX*...~ T ) ) @.X.k X.=.X.%.g , 6 0 & # j %.h %.@.i j s 1 , , 6 L g.D i < < i o.L L R R o.X.o.,.8.g 6 8 f f j ..=.r.M.*.%.*.=.",
"> p A A K ! W P H G S p f K / ^ / ` :.` ^ -.;.^ P W W W Q / _ _ Q / / 2.q.9.K w A A F W Q Q Q / ` ] :.] ] ] ] ] :.:.:.7.7.3.7.7.>.>.1.q.l.I.I.U.'.<XlXMXFXJXKXKXLXLXLXLXLXLXKXJXFXNXeX5X5XeXzXzXlXwXlXlXxXxXMXMXMXZXMXMXxXgX:XW.b.d.f.>._ _ ] ] Q P A d d d S D o.h.F.S.D.pXpXpXaXpXG.C.].dXdXG.G.G.F.N.e.S.G.C.v.+XfXgXxXlXlXgXhXhXhXbX+XC.C.+XdX0.o.$.0.0.g.c.Q.:.F F W W -.l.l.k.k.z.0.0.9.-.2.z.9.#.#.9.2.[ / H F ^ ^ F G H | | Y Q _ } Y.6._ H G F S w 3 p G Q _ _ ' [ } } { [ } L.d.l.v.v.' Q ` 4._ L S.HXKXSXF.k @ o o o o o o o o o @ * 5 < 0 X.pXvXPXKXPXjXhXhXjXvXVXjX;X;Xj.X.%.F.Z.Z.B.j.j.;XgXhXDXJXKXKXKXKXHXKXKXVX+XC.).'.R.R.R.!..X4X4X5X5X=XoXqXlX<XA.dXS.y * o 7 $ X $ X O - - - u M n c c n n sXLXLXKXCXlXzXwXcXzXcXfXhXHXsXe.iXsXsXiXn M B n M M M M.X.Z.G.*.k.X.* % @ B.,X'.U.Y.!. X X.X!.Y.W.!.!.|. X X.X$XoXOXY.U.|.4X8X=X-X|.!..X.X|.|. X.X=X4X4X4X8X4X|.|.R.I.'.oXoX=XqX9X8X9XwX9X4X=XOXR.|.oX=X=X3X3X.X*X.X.XoX XW.R.R.Y.3.3.] [ d.Y..XoXY.Y..X!.Y.!..X4X5XqXqX0XoXE.q.L.R.|.!.U.U. X*X.X!.L.6.5.6.:.:.:.5.6.6.[ ' 7.6.q._.XXW.U.7.5.q.7.R.XXoX|.XX|.[ ! ;.,.<.8.8.9.k.D f z.x.I.OXW.-X.X4.i.|.AXJXSXAXFXn./ gXAXcXlXNXgXV.5.W..X0XlXcXxXfXbXJX,XW.`.fXcXq.R.eXzXZXAXmXW.w...z.b.Y Q w.l.Q./ f ~ W -.0.[.@XC.].@X9./ :.T.[..XkXFXGX>X^ -.O.o.L j i 3 K g.T i b m F.%.J s *.;Xa k %.W D K / o.+...8 < : 2 0 2 < 0 > L j i ( *.G.fXC.*.~ A a j k i j h.C.o.q a d J 1 i g 1 8 L R %.;XB.j.j.E 8 e.pX2Xm.R p q 1 < 6 y , q : i p 3 1 6 B.V.m.Z.U i.( f k =.G.B.*.f j 6 k a t < 6 6 k &.j %.U < & i i i g 1 L ] e T g & # : 1 > , : 2 1 > 2 8 $.o.a j J f k k h m =.*.*.*.=.",
"w ! ^ P S f G F A p w q q w w A A W ^ -.^ 1.g.2.! W W W H W Q Y F F F / ^ ~ G p A F F F F G H / ` _ _ _ ' [ [ 7.[ :.7.3.6.d.6.d.I.R.'.:X1XlXNXZXSXJXKXKXLXLXLXLXLXLXLXLXLXKXSXMX=XY.f.} } Q.XX>XkXgXgXlXcX,X>X8XlXlX<X+X}.V.g.( T F F F G A d w e S D D J X.=.=.r.S.S.B.M.D.D.pXaXpXG.C.+XF.S.G.C.G.G.M.e.S.dXC.z.+XfXdXfXfX;X;X+XdXdXdX+X+X+XG.+X;Xh.L j g a T ' ] W F W 2.l.l.l.).].].V.s._ H ` 2.2.` ;.k.7.| W H Z I G H Q H G Q _ :.5.d.Y.6.Q Z Z A G A A F G G G Y | Q _ ' _ } [ [ _ _ ` >.f.5.5.d.3.0.vXKXKXCXF.j @ o o o o o o o o o % = 6 6 t m pXvXPXKXPXvXhXfXjXvXVXhXgXF.*.o.*.Z.j.*.*.X.%.;XgXjXDXJXKXKXKXKXJXKXJXjX].V._.'.XXoXW.!.R.W.!.^.=X5X9XeXlXfX1XF.=.y $ O - $ O o o o ; ; - c c c c n B iXpXIXLXLXCX,X>X>X0XlXzXxXDXVXB B iXiXiXV c c u c y M M &.&.@.B.h.k.#.s & < A.}.E.d.L.Y.!.!.!.R.Y.R.R.Y.U.U.U.Y.!.oX|.R.W.oX=X X|.8X=X=X4X3X=X=XqX4X4X4X4X8X9X9X.X9X8X8X8X8X8X9X9X5X*XoX3X5X4X*X X X|.W.R.R.R.R.W.W.W.W.|.Y.!.!.!. X|.6.5.R.U.7.4.P.^.9XeX6X^.~.~.~.*X4X9XeX=XU.L.oX5X4X XR.U.R.Y.L.I.6.6.I.U.6.q.I.R.R.I.6.6.d.U.R.'.R.!.oXU.I.l.f.|. XW.Y.l.7.I.{.`.k.1.;.W ^ 5.j 3 S e Q >XzXlXkX<Xf.L.MXAX>X{.<X/ C.NXNXlX<X'.L.k.{.0X:X:X{.@XOX@XhXSXx.R.0X>X_.k.I.U.[.,X@X[.9XwX<Xk.O.-.x.! 2.s.! L L ).@X<X0X{.>X:X`.k.k.v.l.T.fXSXJX-XZ j $.+.a q T a p f a ..k h l X.0 e i C.lXG.X.~ K o.T G a r.ZXMX*.i # & & & q ,.9.B.$.o.k pXF.gXfXE 3 i t & & < h =.s : : a s k h ..=.dX&Xs.E =.pXm.j.A.F.nX) i 6 1 < & # < 0 % 5 v v i 1 # i *.E E s 1 i a 1 , k ) o.g.%.i & 6 8 6 i f $.c.#.) i > 1 , $ , 8 f E W U 4 2 q t t : , 1 a q # : # # 9 k X.j %.X.j j T j b b b =.$.*.*.",
"e ;.5.-.F d d F F d w 3 1 4 q a f J K K J ! <.<.~ K P P G G H F p p A G F A I A F H K F G Z G Q [ [ _ | ' ' [ [ [ d.R.R.`.XX:XkXNXZXSXSXFXJXKXKXKXLXLXLXLXLXLXLXLXLXKXFXAXxX:Xx.:._ _ ( ;.g.x.v.+X}.`.].T.3.[ f.W.+XV.8.2.9.8.O.J S f J T K S p J o.+.*.e.e.S.S.B.r.r.B.B.C.C.B.C.fXfXdXdXG.r.0.c.B.B.M.B.S.F.A.V.+X+X+XG.G.C.G.A.G.F.0.! 1.A.B.j.+X].o.g 3 > 4 A W P A G q.`.x._.+X+X].`.d.{ _ 3.[ ] ` q.`.'.w.Y Q W F G P _ _ / P / 7.R.R.I.} 7.| H H F G H H P H H | | Q Q H | _ Q Y Y H H H | d.I.4.5.jXJXKXJXhXh.k = O o o o o . o o o o @ & < t m N.sXPXKXHXvXdXdXjXvXjXhXjXG.*.%.X.@.@.&.m h =.dXhXjXVXJXKXKXKXKXKXKXDXG.,.x.[.|.XX|.R.!.Y.6._ _ U.3X5X=X,XfX;X*.h * $ O o $ $ X X . ; - - - 7 c c B UXsXsXiXvXHXhX>X|.).T.).{.fXVXPXiXiXiXiXB 7 - ; - - = y M v k j j.g.2.T T j C.gX[.!.|.|. X X X|.!.!.|.!.|.!.!.W./.|. X X X X!.L.7.7.W.oX4X8XeXeXwX0XeXwX8X5X8X9X8X5X6X9XeX9X4X4X4X4X!.W.W.W..X.X.X.XoX|.W.W.W.|. X=X X X|.R.U.Y.!.!.4X4XW.oXlX=XU.R.3XeXeX9X*X^.^..X4X8X=X.X9X5XR.P.|.oX4X=X|.R.I.6.l.I.'.|. XoX|.E.[ ' [ d.Y.W.W.|.'.d.7.Y.W.Q.U.>.3.l.).l.3.` ' |.qXoXOX[.k.` :.l.+.O.q.O.V.ZXAXlXBXNX;.G 3.=X-XNXzX@XfX{.>.g.g.k.{.8XwXXXXX:Xx.C.q.l.xXCXx.I.R.OXE.U.d.5.x.l.:.[.|.wXQ.A o.fXZXfXV.V.z.C.+XkXT.T.T.5.[.0X<X[.`.`.q.dXKXFXmX1.j i K O.o.L a f %.D a j ) X.t l < # 6 h.BXFXhXc.z.xX:Xn.'.V.+X1XNXMXZ.i # & 9 w O.cXdXdXjXdXX.*.gXgX=.i 1 < < & * t m y i i X.r.pXgX2Xn./ f =.dXgXh.F.*.j i # t h v N y $ 7 , , j X.X.g < , s g 2 : i X.X.t b S.*.X./ o.*.j h M j.j 1 g *.%.X.g > * * s i k e r 2 : # # # # # > e i f k a : % 2 , j m.j k J a 8 b X.E m b b =.*.X.b ",
"d ;.5.3.^ F F H K J j g a a f J j j g i 4 w T o.o.K K K A G W K S A A F W G G F H / W K D A G _ } } { ' | | | | | W.wXlXzXNXAXFXJXKXLXLXLXLXLXLXLXLXLXKXKXKXJXFXAXMX1XW.d.f.f.1.O.^ ` ;.2.>.[ [ ] ] ^ ] [ _ Y ] f.[.].,./ ^ ;.^ ! P F W ^ ^ ^ ;.B.F.pXaXpXN.M.B.h.0.9.v.x.g.h.0.c.fXgX+XG.D.B.+.<.B.B.h.B.pXdX<XfX+X].G.G.G.C.0.B.B.S.r.! ^ g.*.%.,.k.q.o.f q w p G ! W P q.'.{.{.:X:X+X`.q.[ 7.4.4.7.7.x.@X:X#X` W Q ` [ [ Q Q Q H | | } L.} } [ ' ' ' Q H Q Q -.W Q ] _ Y | _ Y H G A A H _ H H } d.6.z.CXKXKXSXjX$.0 @ O o o o o . . o o O % # < i j e.aXVXHXPXaXG.dXvXvXjXhXdXF.*.=.l j b =.m y X.pXjXjXVXHXKXKXHXKXHXKXDXr.,.2.7.l.U.d.d.L.L.7.P G ' !..XW.,XxXdX*.y $ @ . . o O O O o O - - - u c y B e.iXsXiXiXPXdXT.W.q./ Q 2.h.vXPXIXiXiXB c ; + ; - O - c n M v i Z.#.^ ~ ~ g.MXMX'.^.=X.X X!.R.R.W.!.!.|. X X.X X|. X!. X!.Y.Y.d.7.7.L.!.!.W.!. X.X>XwXeXeXzXzX9X5X6X6X6X9X5X|.!.!.!.R.|.|.W.OX XoX>XqX8XqX=XqXwXzXwX0XqX0XoXoX!.R.!.|.!.=X9X8XqXoXoX.X~. X XR.I.I.|.|.!.!.!..XoX|.I.t.P.R.OX'.R._.oX:X>XlXkX8X4X XI._ H _ k.l.5.:.5.x.;.` U.E.`.k.` F 8.fX{.x.U.6.L./.!. XoX|.R.oX0XfXzX0Xk.hXSX;X3.8X5X5.G ' |.<XcXmXNXNXn.w f $.l.[.@X`./ k.[.'.=X@X:.:.v.'.5.3.^.R.0XkX[.5.6.7.XXQ.^ > 1 $.xXNXAXzXfX@X@X{.{.].V.1.5.XX<XkX<X`.kXNXAXBXQ.!._.].C.V.@XxX:XJ R L ..U R g i , @ % # X.$.hXMXBXFX<Xn.k.b.b.;.,.<.8.fXBXf.p a i q 1 L B.F.aXZ.X.j O.fXAXfXj i 6 , 5 5 t &.e.*.*.Z.A.s.f q 8 ..B.F.C.*.f q X.p.m y 7 h b b =.M < t e.C.b k i i D 8 b l ..+.h.j.X.B.C.#.o.,.h...X.X.=.E s 2 f o.%.0 0 , @ q f > 2 9 % o % % % # : 9 k J o.^ T g 1 * b B.E 8 i i i k b =.$...=.X.X.=.h 7 ",
"a ^ [ ' / Q H H K P ! o.o.K ! ^ ! J f 8 2 3 p J E F G G A e G W H H Y ` ] ` H H W Q / Q H G H _ [ } 3.[ { { | | } rXAXAXAXSXFXFXKXLXLXLXLXLXKXKXJXJXFXAXNXmXwX XU.>.W W Q :.x.v.5.] / ] ] ] :.` W / _ :.5.1.9.9.7.d.v.1.K K / W W ! W ^ 2.z.G.G.dXjXdXD.pXS.B.z.c.h.g.c.q.1.f.q.z.;XfX+XB.*.*.*.%.+.! 9.A.F.G.F.A.A.C.C.C.G.C.z.8.,.B.C.C.q.O.! O.W D T F K F G H W / -.q.|.XX].+X+XdX].v.d.d.d.4.' H H 1.{.<X:XT.-.Q Y _ ` Q _ ' _ H Q _ } } ' _ Q | ' | Y Q _ [ :.^ [ [ | _ Q -.^ G e A A H _ Q [ 4.5.G.HXKXKXZXdX*.6 @ O o o o o . o o o % @ # , i b &.pXvXHXPXpXr.pXjXjXvXjXpXD.*.m y u y m m y m D.aXvXvXvXHXJXHXHXHXHXDXpX-.` 7.[ [ 3.:.3.[ ] ` Q ' 3.U.[.gXlXdXp.h $ . o . . o o o o o = - u n 7 c M B B pXsXsXvXF.( ^ K S P ;.B.vXPXsXiXiXiXc ; ; ; - 7 M v v v m m l T D f H v.DXxXOX!.!.!.|.|.!.|..X.X~.^.P.P.Y.R.!. X!.!./.Y.R.U.U.I.R.R.`.5.:.U.{.<X8XeXeXlXNXzXzXNXzX5X3X5XoX.X*X:X%XqXqXqX8X=X=X4XoX4XoX=X9XeXzXlX9XmXmXlX>X8X0X-XU.[ Y.!./.Y.Y./.OXR.I.Y.Y.I.'.|.oXoX4X!.oX5X4X!.|.'.oXqX0X-XU.XX4XeXmXeXXXU.6.U.E.5.6.R.I.` F ! q.6.R.=X'.gXZX;X_.dXfXE.[.@X@X|./.Y.I.XX0XlXNXMXzXmXv.W 1.f.U d 3.Q.k.W ,.V.fXlXwXzXzXzXk.K ,.`.T.:XE.Q :.T.!./.{.{.1.-.l.!.7.H P 5.T.9.-.5.E.@X}.J L 0.0XmXNXZXNX[.).q.1.T.XX`.V.+X{.XX'.0X=X!.Y.>.W x.0.5.<XxXzXcX,X`.g.=.X.&.=.@.i t , k *.X.o.( c.o.+XBXs.W S i a f r.0.%.V.s.G ~ e U s.k k a.*.*.&X;XA.i f <.c.+XmX&X+XdXn.s 0 m M.B.0.S 3 a L G.+Xc.E i < , i g.}.~ 3 6 6 k $.c.$...C.A.l 5 v g.1.b &.*.+.8.2.W j i j ! ! g.*.V.s.j b y 7 t * < E h j & : : & # % # m 1 % # & : : , 2 E #.E K J T @.b e.2X@.j s 6 1 j X.X.m m m =.+.+.h t ",
"3 F Q W F G A A F F W ^ -.^ ^ ^ ~ P J f f f J ! ! W H H K G F F / ` ] 7.3.:./ P Q ' [ [ [ } 7.d.Q.!.=X=X-XQ.d.f.T.wXAXAXBXmXNXBXAXFXJXKXJXSXFXFXFXFXSXZXxX,X{.V.d.>.2.2.>.f.U.Q.x.1.` ^ / ` >.3.,.-.] k.V.C.0.8.` ` :.1./ W / ^ -.5.1.z.+XdXG.S.G.+XG.B.S.G.F.C.c.g.z.v.z.z.z.z.A.+X+XC.h.X.E J g a w ~ C.C.B.h.8.G.F.F.G.C.z.9.O.o.h.B.C.V.O.A W F e e A I A / ` ] 2.x.OX.XXXXX].].A.V.l.7.7.` ' [ Q H :.v.`.:XOX5.` Q H H Y ` ' [ _ ' [ 4.} H H | [ ' | ] 3._ [ ^ F Y f.L.' ' 5.7.O.` Q Q _ ` _ [ 6.9.dXJXKXSXhX;X*.6 @ o o . . o o o % o % @ # , s b B N.pXVXHXaXr.pXjXvXvXaXD.M.=.j t * 5 y v u v N.iXaXaXsXVXHXHXPXVXVXvXdX8.P :.L.3.:.:.:.' ' ] ` 4.I._.).:XZXF.X.6 o o . o @ @ @ @ o o O - u c c n n M B iXsXPXPXS.K p I p F ! $.VXvXiXiXsXB - = + - = c u - u t m b j E g i W }.AXZXcX4X.X.X.X X5X9X6X6X4X XU.I.R.R.R.W.!.!./.!.|.W.R.|.!.-X{.,.1.].fXxXCXNXcXcX0X9XBXFXAXeX5X4X8X5X4X%X3X.X=XeXzXeX9X=X X|.!. X9XzXwX>X9X9X9X3X*X4X8X:XI.[ 3.L.W.R.l.E. X XOXXX>X0XqX4XwX=XqXqX X4XoXI.W.=XeXmX8XU.d.U.R.W.9XwX|.l.I.!.>XU.U.!.7.H -.V.'. X9XeXeXmXBXNXSXFXAXkX0XcX,XkXfX].x.[.kXNXAXZXkXXX1.1.1.W A e p D ;.2.1.k.>X8X*X8X:X0X:X` XXzXkXzXE.5.q.k.b.;./ l.5.;.] _ W K 0.,X-XT.V.].+XxXxXcXzX8Xq.q.lXBXNXXX:X>X[.[.:XXX:X:X[.fX#X+X<Xb./ S a C.].V.fXZXxX`.{.{.c.~ ,.,.%.T i i i $.lX&XJ L C.@X-X{ :.Q.V.G.S.8.).+X;X=.R T a 6 k i $.#Xg.w q p { s.*.< 6 f +.zX5X+Xf.Q.#.o...X.A.X.b S.g.<.x.R ~ J 8 1 , j %.j E i j h e.Z.%.@.b @.j h i a T a i *.*.0.c.X.=.M.%.K 3 i b X.A.j.1 7 e.h 6 6 &.X.X.B.j 1 # % # % # j @.t h t < # < s X.E e w e T #.8.G.A.@.i t i j X.j k y b h =.X.j X.X.",
"4 G W H p q 3 q G F F / ^ P F F W ^ ^ ^ O.O.O.,.,.` ` ` ^ ^ ! ! _ 7.3.d.I.l.5.:.f.Y.!. X*X=X8XwXmXBXBXBXBXlX:X`.`.-X1X=X!.P.Y.P./.tX=XwXwX9XeXmXZXAXZXNXNXMXlXlXkXfX<X:X:XXX-X-X:X[.x.1.;.5.E.E.q.3.} x.].G.0.~ K J W :.] -.1.C.[.fXgXjXjXdXC.B.V.].G.G.G.B.B.0.9.#.9.V.V.V.C.].+XA.C.C.g.o.p 3 > 1 3 T h.8.*.$.h.G.dXdXdX+XV.z.w.,.h.B.h.V.9.Q P W F F H F W ] l.d.k.T.'.Y.Y.'.).+XV.z.[ | ' Q H Q ' :.5.b.Q.T.XXl.5.3.] _ ] ] [ 7.} } L.4.[ | [ [ 7.7.] ] :.` W p w w / 7._ 7.Y.U.w.-._ _ Q ` Q _ -.C.hXJXSXCX;XA.o.1 @ o o o o o o o @ % @ @ & < i v M e.N.aXPXvXpXaXvXVXvXpXM.=.v h 5 $ - 7 u - y N M N.N.iXvXDXHXDXvXvXhXgX9.G _ I.I.l.l.6.d.L.l.6.R.|.'._.<XMXF.j < o . . % , < & @ O o o - - c n n n n e.UXsXKXHXr.L 3 p G I p X.VXsXiXsXiXc = O $ O O 7 7 $ O * v *.B.*.E X.g.&XSXZX9X4X3X6X4X3X6X9X6X6X=X X!. X4X.XR.R.!.!.OXqX0X>X.X.X X`.z.$.8.9.].@XbXAXkX].x.XXSXJXBX=X5XeX0XqX4X!.d.Y.!.W.R.=X9X X X XoX4X9X8X.XW.!.4X4X XXXqX0X>X#X'.=X*XXX>X@X{.8X8XwXzXzXmXmXNX0X|.XX0X8X-X).5.U.*X9X8XW.I.R.l.l.I.!.oX|.'.OX XeX6X!.!.3.Q x.@X<X).T.U.U.U.Y.Q.-XyXmXcXlXSXFXKXKXJXZXlXzXzXwX=XT.P P 2.` G p w a w K ^ W W 5.l.I.U.] 1.k.6.zXBXmXBXBXwXkXkX>XXX5.F S P 5.1.5.v.1.{.{.k.}.NXlXkXmXwXb.| P w.wXlXAXx.:.XX[.@XlXkXXX'.wXmX`.V.C.0.:.q.r.+X<X].bXZXSXA.@X[./ ! ;.;.s.e j B.0.:Xf.A f F 9.f.] ( ( W [ wXAX,Xc.Z.}.w.O.o.0.+.r.dX,X7X{ L k 6 , 8 c.<.a X.,.{ 5X9XD 1 w ,.B.B.}.8.B.2Xo.D T T ~ f 1 k F.&XT q 6 i i =.hXF.S.F.E =.&.%.j E X.j *.h.<.V.A.0.=.j j a i j t 1 i 6 h M v s j i X.h X.F.2Xk > < % o % 5 t j < % , 2 1 , 5 1 > 2 1 q a 8 j %.s t < < k b h i y h t t t y X.C.",
"3 F / T a > > q F ! ! ^ P p q w S W ] :.w.,.,.;.O.^ ` ] ] :.:.:.3.P.Q..X5X8X>X8X8X9XeXzXzXmXmXBXBXBXBXlXwX=X!.Q.Y.Y.U.f.[ [ [ } L.P.f.P.!./.tX7X8X,X=X>X0X0X,X,XkXlXlXxXNXNXzXlXzXkX0XXX[.@X>X:X[.Q.U.x.`.].8.J f K O.q.z.V.+XgXCXCXvXjXdX+Xh.C.+XdX+XC.8.9.,.0.z.k.].V.`.+XA.V.V.9.8.$.O.R a 3 > > 3 T s.o.~ ~ 1.A.pXdXdXdXdXdX+XC.0.h.h.z.V.q.w./ W W ^ 2.k.l.l.x.k.v.R.L.L.d.l.`.].).5.[ ' H H G G Q } 3.f.Y.oX XU.I.6.3.d.d.4.d.4.4.P.4.} :.[ 7.:.:.] W H H A p a I W Y Y { >.5.;./ >.] W T ` 5.5.z.hXSXDX+X*.%.j < @ O o o % % o o @ @ @ @ # , t v M e.e.iXsXvXpXjXDXPXaXN.&.v u y * O ; - - = - u u V B N.aXVXHXVXDXDXVXbX,.G Q L.!.R.U.R.U.R.6.d.Y.!.'.[.lXxXG.@.y o . o & 6 1 & % o . o O - u 7 c n n B iXaXPXHXS.o.P ^ 2.-.K *.vXsXiXiXe.- o O O o O c 7 $ 5 5 h &.0.h.o.L z.lXSXgX|.R.^.~.~.!.!..X.X4X3X!.R.!.4X4X!.Y.|..X|.oX>X9XeXeX=X:.,.$.R D ~ 2.1.wX-X8.#X:XFXKXNX.X5X9X4X.X4X.X6.U.W.W.Y.|.=X!.4X4X4X5X5X=X XXX:XXXXX>X0XzXAXAXAXNXNXmXwXkXzXwX|.L.Y.$X3XmXFXFXzX|.XX>X!.R._._._.).XXXXR._.OXOX`.|.qX5X X8XzXXXXX5X=XU.R.OX[.>XcX:X[._.l.d.d._ G A _ t.T.1XFXKXKXLXJXMXT.x.T.l.l.P ! ;.` P A e G G F W S E o.c._.q./ W 2.>.U.-XP.~.!.P.*XeXBXBXzXq.0.].@XV.1./ ^ K f ! z.V.@X0XtXW.E.] ` :.8XNXmXkX-.-.:X0Xk.5.d.[ 3.l.T.:X:X}.`.#X@X8XXXV.:X^ ,XkXk.^ ^ W A S 6 i dXZXAX-Xw 1 g 3 3 3 3 a 3 a P W.:XU.k.v.f.q.s.C.bXhXhXGXyXtX] $.mXn.& # > P ^ X.c.k.K {.( t ! o.g.s.} 2.K p q w a J e e 1 # f j.g # , t s b +.b =.*.R j $.X.! s.C.C.;X0.$.=.T ,.q.W a : 2 2 : # % % h M * @ 6 i k j +.2XB.=.E , , 8 ....t 6 < : , , < & , 2 % @ < % , 6 h X.j i 1 , k X.X.h 5 5 t t i b r.@X",
"4 p F D i > 1 p K ! ! ! K p q a p F ^ >.;.O.! F S A Y _ _ [ 7.4.!.*X9XeXmXmXmXmXeXwX9X9X8X5X5X5X8X-XQ.U.P.f.f.P.P.!.U.d.l.U.Q.!.=X=X-X5X8X>X8XwX=X!.Q.U.Q.'.|.Q.Q.=XwXzXmXNXzXwXwXwXzX0X0X0XwXwX=X=XXX'.'.[.q.+.K <.A.dXdXjXjXhXvXjXaXG.G.].z.g.C.G.G.0.#.v.V.V.+X:X+X].V.V.C.9.1.O.o.R D a 3 1 1 > 3 ~ 2.K E #.g.C.S.B.h.C.+XdXdXC.O.! O.2.x.v.x.O.P ^ 9.V.`.'.'.W.T.[.'.Q.Y.4.3.1.V.@X{.6._ Y Q G G H _ d.U.L.I. XR.I.L.3.3.7._ } 4.} } ' _ ` [ [ / / ` / F A G F A H [ _ F A p I G _ 7.3.;.` 2.x.).V.hXSXCXB.L j s < @ o o o % @ % % @ @ @ # @ , y v M e.N.iXpXaXpXjXPXvXiXe.v 7 - - $ o + + + O ; ; ; 7 V B iXvXDXDXDXHXHXaXJ p Y } d.7.6.W.R.|.d.3.6.U.|.XXfXMXF.h 5 $ . O > 1 , @ o     X O - - - c u n M pXvXHXHXdXv.l.6.5.5.,.G.vXaXN.iXn $ O O @ % - - $ 7 u 5 m b j X.g.O.V.xXCX].5.[ [ [ } 4.3.3.6.d.d.} ' ' } L.P.P..X3X!.Y.Y..X9XeXY.Y F E f J P ! W Q >.z.).'.AXFXzX4X9X9X9X X.X5XqX0XeX9X X X=XeX8X=X.X4X9X8XqXqX>X:X8XzXzXzXNXNXNXmXNXzX<XXX|.Y.k.:.L.!.~.eXBXMXwXoXY.Y.R.R.I._.@X[._.'.XXoXoXoXXX XqX X} L.8X'._.qX`.] 7.5.5.I.XX@X[.[.OX|.>.w 3 3 G 3.R.U.kXmXmXlX1X[ :.7.E.R.k.2.W Y :.^ K S p p w K ! K J +.].).).F A F W W ` ^ p -.P.^.>XzXmX1.F `.:Xk.+.I a L 9.:X`.q.7.3.4.d.8X>X-X:._.NXmXzX{.xXfXg.v.z.x./ / :.` ;./ ^ +X8XmXmX`.V.A.S w.q.T a a a a j i o.wXwX2.;.$.=.a b *.8.#.a a 1.d.OXQ.f.F w F @X+XpXJXJXFXGXb.S #.9.].v.o.E 2 # k f.O.V.A.j j <.9.;.9.-.K P l.k.e w 3 3 S q , % # # & 7 < h b *.*.m n v ..b 8.-X1.J j B.F.C.+XC.{ w p W U 2 # # # % % @ @ % % * 5 s k v =.A.+X1X`...+.c.h.j s 6 * 0 i , & , , & % & : # 6 X.E +.~ g 6 6 b =.=.h t 5 6 ..$.h.kXwX",
"2 3 q w q 3 q d S f d F W G d d p e G ;.2.;.o.S q 4 Z Y | | ' } ^.9XwXrX9X5X=X*XQ.P.f.f.uXi.i.i.uXuX} } uXL.P.Y.Q.-X:XXX:X>X9XwXwXwXwXeXmXmXNXNXlX<X:X,XgXcXlX<XXX:X>XkXlXlX,X-X'.XX>XOXQ.Y.P.^./.!.U.U.U.U.k.9.z.+XfXhXhXhXdXF.G.F.+X+XV.].C.B.B.$.E R ! {.lXkXkXfX+X].C.9.8.<.^ W F S a 3 > 2 2 > q #.,.D K <.0.*.*.*.o.E $.h.j.O.K Z G H Q k.).q.;.9.V.`.`.@X:XOX'.{.[.U.P.6.[ 1.].@X].7.| _ P G H Y Y 4.Y.[ l.Q.6.6.!.!.6.| | ' [ [ } ' H H ] ^ W F T ` ;.^ f a p Q } } ' _ :.3.i.P.P.Y.P.!.XXU.v.h.hXJXCXC.X.j i < # O o % % @ % @ @ @ & & * 5 y v n &.N.iXiXpXpXVXVXsXe.M u - $ + o . X X + O O + O ; - c B iXvXDXDXJXKXjX$.;.3.' Y H W Q 4.!.Y.d.L.|.oX<XlXxXB.b t * O o : , # o .   . . O - 7 - u - c M N.vXHXHXxXfXR.7._ ` ;.V.jXpXN.N.n - O O * 5 5 O $ c o = v =.A.Z.%.R V.MXCX+XR.d.6.6.Y.|.R.L.6.5.7.7.' _ ' 7.6.Y.!..X!.!.P.Y..X!.3.H K R o.,.-.O.P ` 7.>._ U.mXBXeXwXzXeX.XR.%XeXeXzXeX3X|.OX|.'. X|.OXoX5X4XoXoX*X5XeX0X>X=X=X!.Y.!.*X>XT.`.>X>X'.)._.|.R.P.L.L.Y.'.W.!.R.oX X|.kX>XI.d.!..XQ.L.E.d.L.d.:.5.qXmXwXlXzX0X>X'.l.'.XX<X@XXXOX:.w p ^ > > :.!.k.T.,X{.).].K <.x.[.=XQ.T.;.W f.k.W w q w q ^ k.^ Q O.] T.T.` G q 3 S 0.o...X.Y Y ` =XP.:.F p 1.5.[.x.F -.:X:X8X.XR.P.R.U.9X1.k.XX@XmXmXwXzXxX+XC.C.8.q.-.` k./ ,.X.8 j +.].k.G.AX}.r.$.K ~ O.E j i L O.k.f.e S 1.fX+X..8.C.^ b.,.k.T.].w.o.j k X.O.k.+XSXFXGX-Xk.V.G.9.*.MX,X9.Q.$.i 1 1 Q 5.:X2.+._.@X=Xf.O.w.).z.( R a i j J 1 b s k i v j < , k $.*.=.=.B.B.r.h.>.i , 6 *.].[.|.{ Y A 3 3 q 2 @ @ % % # % % # , * 5 6 y h.B.Q.$.C.] D ~ ;.a 8 2 6 7 , t 0 , * , , * # 2 6 t i J L J f s h b m m h 1 6 k $.^ P `.}.",
": 3 q w p p p A a q q A Y W F S p w w F ^ ^ ! G 3 > q H _ _ _ ] } P.f.f.i.i.i.} { { | | | | } i.i.P.P.L.L.P.P.Y.Q.|.-X=X>XwXeXeXwXlXwXwXeXmXmXzXMXxXxXMXBXZXNXxXcX0X0XcXxXxXfX[.V.x.v.3._ Y Y | f.{ _ Q [ k.z.].dXgXgXdXdXdXF.C.c.].dX+XC.x.C.B.8.O.j f ~ +XgX;X:X+XV.8.O.O.~ R ! K p q 3 3 1 1 q i f #.,.O.$.0.0.L j R K S o.j.R S A H Y Y H / l.).V.].].[.T.T.U.U.I._.'.d.3.6.7.E.{.[.5.` _ ` ` Q H Y _ _ [ 3.OXOXd.6. X4XW.3._ H H Q :.3._ Q 5.2.-.F H l.oX>X$.3 4 G } /.^.P.P./.uX{ | { | | Q.-X>X+XhXSXhXC.*.E i < @ % % @ % # # # # & & , < 5 y y v M N.iXpXpXvXPXvXiXB c - ; + X . . . O + + X O O + ; - c B aXVXDXJXKXvX,.1.d.[ H I w 4 Z } L.P./.oXoXXXlXxXF.*.k 5 $ o @ @ o .   . . . o = c u 7 7 c e.e.vXPXvXxXcXoXY.I.l.R.T.+XdXiXB n - o % < 6 * @ @ O $ * 5 m ;X0.h.G.+XMXxX>X.X XW.!.=X9X9X3X.X|.oXoX'.W.|.|.W.W.|..X.X$X^.~.5XOX/ W K R ! T W T H P ` _ Y ;.T.XX-X-XwXeX|.T.qX8X*X9XyXeX3X|.U.I.|.oXoX X|.!.!.|.|.d.[ [ b.U.I.|.Y.4.P.=X XqXmXBXrX^.I.l.I.t.t.E.I.'.R.I.!.4X.XoXW.W.d.4.W. XQ.U.I.I.I.).[.[.8XmX9X*X8XmXZXzXkXkXzXlXcX@X)./ w L W : 9 F f._ ] OXlX'.XX<Xq.5.4.~. XXX|.k.T.l.^ A K 1.).0XzXQ.l._.l.l.5.l.` / q.].{.@X].D 4 w >.Q.H ^ ,.L 9.l.!.U.b.b.x.! [ *X} W.0Xx.<X9.K V.lXNXzXXXx.x.fX+Xq.{.wX'.1.9.w.+XpXG.pXdX@.i h.AXZXDXF.L 9.V.B.G.b =.T.`.:.0.+.q.V.8.0.0.`.f L v.V.C.V.].fXfXo.P gXSXFXGXtX] F ).T.Q.V.dXMXs.^ -._.x.o.1 2 3 O.` 0X9X^.uX` w.{.k.$.i 8 L b =.L J 8.R ~ R f j k , j.m.j X.B.r.0.9.,.o.X.L v.W.^./ a q A w > 9 8 1 & , , , # % % o @ # , 5 E s.o.*.X.O.k 8 S a 2 2 2 6 j , i g & & < & % % # < 6 1 j j R E j k j m m j i a O.>.W a L / ",
"2 p A G K P G Z a 3 q G Q H F p w w 3 q d d d w > : 4 A / :.` ^ Y _ | | | { } } d.4.4.4.4.U.|.-X~.~.!.Q.Y.f.} { | 3.P./.Q. X5XwX0XlX0X:X^.^.-X-X-X-X=X1XwXlXlXkX>X=X8XlXxXZXMXfX].x.k.] Q H G | q.2.^ O.q.G.G.;XhXhXdXA.0.B.C.C.A.F.F.F.B.9.1.,.P D D f 9.+XA.A.c.g.<.~ X.R J L D J p w 3 q a a D L X.E ! O.0.B.O.f d O.1.,.o.j I G H _ ] :.q.q.v.{.`.z.q.{.OXl.4.4.3.l.OXU.7.6.I.'.[.{.d.' ` / ^ / ` ] ' _ H H :.T.OXW.W.R.I.d.3.5.:.` ` 3.7.3./ G P 1.:X0XoX%X:X1.o.K A H | | uX| Y G Q 5.:.A Q 3.f.T.xXCXhXB.*.E i 2 @ % % @ # & & & & & & & * 5 u y y m N.pXaXjXHXHXsXN.B c ; ; + X . . . O + + X X + + ; - c n pXvXCXHXKXVX1.1.6.3.;.S 3 3 | L.d.4.L.U.Y.U.fXCXdX=.: = @ O .   . .     . . o ; c c 7 7 c M iXvXDXjXxX@XoX=XqXOX|.|.@XdXe.M n - @ % < 6 , @ O o - - v &.F.Z.B.j.j.gX<X|.^./.P.L.P./.$X4X4X3XoXwXwXzXeX.X!.!.!.W.!.^./. X8X`.' ^ F p w w T K Z H G G ^ ;.:.3.4.I.R.8X0XlXlX-XY.^.7X7X~.!.!.*X5XwX0XoX X!.Y.I.[ Q A F g.k.2.T.0X|.3.4.L./.$X3X.XR.R.R.R.!. XoX>X4X0XoXoX|.oX X=X8X8X'.0XNX0XOX!.OX,XfX@XXX8X8X|.5.W.{.0XwXU.U.Q.8XlXOX3.[ ;.J q , a 7.W._._./.^.L.| f.l.E.k.4.} | } 5.7.' v.V.!.9X5X!.^.U.` x.E.q.T.wX8XW.'.O.H x.>Xv.j L d.4.Q W ,.fXcX0X XE.w.2.:X{.-.` P P F W `.&XR +.mXzX>X` 3 I ).{.>X0XcXZX:X{.].@.X.h 8 i k ..V.wXZXZXhXC.fXcX@XdXvXVX<XV.}.J K -.k.-XO.^ F 0.*.*.+X+X_.T.fXA.j *.wXGXmXk.a ,.0X{.! #.R dX+X..] >.5.E.f.J q : > q L {.` p S [.=X] K *.;Xp.X.&.$.O.O.9.$.=.k %.;Xp.=.*.j j b B.j.h.*.S.@XOXqX).7.G I _ G w R a f q 2 3 j r : @ @ % % 5 =.*.j X.<.~ f W 2 2 i 6 2 1 j y c %.j 6 j 0 # % & # # < 1 i T ..R J i t k j b b b ..^ Q U a a F ",
"1 A | | ` / F p q 3 > w F A p 3 q q 3 > > > > > 2 > w / >.5.f.[ { } f.d.P.U./.^.OXY.Q.^.tX4XwXeX9X*Xd.} { | Y A e Z Y ] [ } f.P.W.-XOXd.Q U Y Y ] ;.] ] >.f.d.b.U.U.W.|.>XkX0X<X[.5.5.5.5.;.^ ] x.A.dXpXdXdXG.A.dXdXF.*.+.#.,.<.V.z.z.k.<.,.~ D e q a d W k.k.,.,.$.O.o.J f a a e A G A e d p f o.R D p f f E %.;.O.#.z.+X].+.a p 1.k.5.q.+X@X`.l.q.x.:.>.{.@Xx.k.T.[.XX<XXXl.U.OX`.R.|.d._ _ Q Y | 7.I.4._ _ H Y ' ' _ [ [ [ ] 4.!. X Xd.P ] tXR.w.+.U.3X=X_.5./.!..X4X+.8 p w H | [ [ } L.U._ S K F #.gXCXhXpXs.E i & @ % % @ # # : 2 < : & # = 5 t y v M e.aXaXvXHXPXpXe.c - ; + + X   . X X X + X X X + ; - C V e.jXDXSXKXVX0.` { :.x.,.w Z } } } Q W / ` :.dXDXdXX.y 5 = O . . . . .   .   o O u c c u y v pXHXaX,.1.5.R. XoXE.7.6.].vXe.B n - $ % , a 2 # . o O y y &.B.*.G.&.k +XkXY.I.6.{ { [ 4.L.W.4X9XqX9X9X5X.X!.!.!.^.'.Y./.L.d.d.` { L.| Z A e D F G F 1.[.kX0XR. X XW.|.qXwXzXqXW.OXR.U.Y.L.} t.^.7XeX9X~./. XY.:.` / Z H 9.9.<.1.;.U.6.[ [ d.R.7.} 4.L.4.} P.|.4X4X9XeX4X XR.'.oX4XeXqXOX*XwX-XOXR.qX<XT.E.R.!.P.` :.`._.Q.=XR.`.OX>XzX>X2.:.7.l.1./ L.L.3X*Xd.7.{ G w A ] I.|.oXd.` P e H _ -.q.[.'.l.7.OX X1.z.).q.q.W.!.L.] W ` q.:XOXkX>X*X*X7.G :.lXNXkX,XA.8.{.-X!.U.q._.;.S W S p 1.V.xXBXNXlXlXhXMXZXMXzXmXAXlXg.J k y < 6 j ! 0.+Xs.].BXcX+XdX-X&XAXSXA.E 3 8 8 L +.$.c...+X2X<...G.{.>.' q.{.v.z.C.k R L a ..b.0Xx.X.0.1.<X{.@Xq.-.g.c.] f > t v 6 2 a / $.+.k.E.-.z.n.U.F f L -.` 9.$.X.*.`.o.b j i < 6 o.*.*.,.*.*.#XwX).w.} -.:.I.] Z p W ;.J a q < 1 i 1 , & , B +XdXC.L ( X.j k ~ 2 2 1 6 i q b Z.=.s.j %.) @ o # * 6 i i 6 a J J k a a 6 t h k j X.E D O.K p p Q ",
"> G } L.6.:.^ S d d q 3 w w q i i q 3 q q 3 3 q f ! q.`.'.'.'.U.d.Q.=X5X*X*XtXtX*X^.^.*X6XrX9X=XY.d./ H H F F f w w A F G G H Y 2.k.5.;.F w w e G F A Z G W ] 2.;.3.3.[ 3.v.T.k.2.[ k.v.].].].].fXdXjXjXG.h.g.b.+XA.j.L j T T R o.$.h.8.o.~ K w a 3 > > w W ~ ! O.O.$.~ d 3 2 > 4 e F A S K K E D K K G d p p d W ( ,.g.C.V.;.A ! q.1.1.z.k.z.v.5.2.z.1.1.`.@X).T.<X@Xq.2.1.1.x.:X:X).l.l.] Y / | _ } [ ' | Q Y Y H w w  .Y H A Z ] 3.f.7.' 7./.3XwXqXE.L.Y.d.3.} | Y 7.] G _ :.] _ 4.6.4.4.6.7.W W H ,.dXnXhX;X$.j 1 & @ @ % @ & : 2 < < , * & 5 5 t y v M e.aXvXPXHXvXiXB c ; + + X X   . X X X + + X + + ; - - c B pXvXDXKXVX+.e w q O.#.w A Z G P ` ' [ :.].CXJXjX*.b y y * o . . . .       . $ - c c c c n sXHXr.f S / `.'..XE.Q Q dXvXe.B B - O o # 1 < @ . . * 6 6 =.F.*.C.e.6 C.kXW.4.7.4.L.L.6.4.I. X4X6X.XY.L.4.7.4.P.P.Y.P.P.L.L.3.H | Y.' H K f p D :.E.>XmXmXeX8XqX3X5X X|.!.^.Y.!..X3X.X!.4.} L./.|.P.P.4._ Q Q ` ` Q Q ^ ` ] O.f 3 S ] ` ` Q P.7.| | G | ' 7.5.l.>XXX'.|. X|.!.W.!.!.R.!.!.Y.-X@XoX XT.R.W.'.E.I.:.R.E.k.I.oXNXmXzXzXmX9Xl.5.:.5.:.5.U.L.L.} ' 6.2.! p O.].q.k.OXi.W a L ,.:.7.R.R.W.4X9XeXeXeXmXAXMXlX8X>X@XfX#X~.!.Q.Q.8Xq.,.>.O.F 9.-XeX=XY.| A w 4 3 P ].lXMXG.*.o.O.q.@X:X'.] 2.].`.A.}.b.s.( ( J 8 j +XB.q 8 f C.].c.O.L 0X<XC.q.! S g.g.J T a $.}.-XA.dX<X2X;X`.k.` x.f.Q L 1.T.,X{.,X+XC.V.k.z.].k.[ 3.E.:.q.b.f ..C.8.L ].%.8 =.hX=.i 1 6 ! U.U.v.}.9.K G S F ! L ,.z.0.=.C.( 3 : , # # i b $.n.J ..:X<X>.).R.' -.V.{.W w f E %.D g i 2 1 q q 0 6 b gXG.h.g.+.L j a k ,.i k b *.0.j b C.n.=.k a 1 , t k t < t q q 1 8 i 6 i a i h k X.E X.j D ^ G d D P ",
"2 A f.!.W.x.x.5.} v.V.$.J a q i f J ! 8.z.z.C.A.+XfXlXzXlX8X4X*X*X5X9X6X3X~.!.^.P.f.i.P.!.~.Q.3.] ] o.! O.O.;.O.K S D G d w w S ` 5.1.,.! S d D G K F F H W / ` W ` :.>.:.:.:.` W ^ v.<XgXxXxXxXgXdXdXB.X.K ^ >.9.,.~ f f J S f f O.8.$.o.K d w q > 2 : q d S f f J T F d 4 2 > q p F F ! ! E d d K W W A p w w w S D T T T W H ! ! L D W W ,.k.k.1.1.O.;.v.[.x.k.x.1.~ ! ,.1.9.].<X].).E.] W Q H Y _ H H H H H H F w 4 Z Q Q S w W W _ :.l.L.P.Y.^.eXqX6.' } ' Z 4 w 3 A _ 3.Y.l.I.R.!.W.I.Y.I.E.U.6.q.dXCXhX+X%.s < & @ @ % # & : : : : , * # * 5 u y v M N.jXvXvXPXsXiXn - ; + + X X   X X X + + + + + + ; - C c B pXhXDXJXdXL 3 2 9 1 f f 3 I F Y Y | E.{.+XMXSXdXX.t 5 v $ $ . . . X       o = - c c n B M sXVX=.f p w ` 5.Y.R.7.q.vXsXB B B * O O o % o o . @ y v &.r.F.F.F.F.b B.cX X!.|.oXoX|.Y.Y.!. X X X/.L.4.6.L.L.4.} 6.d.4.7.' | H H 3.[ Q H A I v.zX9X.X4X.X*X.X^..XY.L./.~.~.~.3X*X.X~.!./././.P.7.| } [ Q K W Q W / ^ ] ] T q : 2 > A G Q } P.Q.3.H Z _ 4.T.[.lXfX<XOXoX X X!.W.|.|..X!.W.XX`.E.'.'.OX*X X=XoXoXW.I.d.I.6.6.wXNXzXmX6X/.3.q.I.` l.d.3.U.d.7.3.4.7.] ` q.x.T.OXl.-.L z.:Xx.U.P.' { P x.=X/.^.U.5.^.wXyXeXeXXX'.|.Q P I P 3.P -.d.4.L.L.f.` Y Q 3 3 1 k $.<XNXMXNXZXZXCXgXfX0XkX].+.f a P X.3 i a f J L r.A.V.R f 0.z.XX@XXX<X@X:Xz.l./ L ~ j r.dXfX`.z.#.T g.k.[.b.F Q P.t.5.` O.;.} L.d.T.OX6XQ.wXfX-X;.O.v.5.;.+.L -Xv.<.g.W 8 dXBX=.r.c.;.T a 2 3 ! W #.&Xv.V.C.`.].C.fXgXC.C.C.a > i , , , 6 8 a k.s.j $.d.! e L k._ q.2.i.K f W O...j i 6 : 2 < 0 1 k *.$.L =.B.@...*.e ..B.+.=.B.F.<X;XC.g.}.;Xc.j k j j +.k < < i a 3 1 2 2 i s i v k j b X.j L K w S f a ",
"2 e ] d.I.d.Q.`.~.9XlX@XV.9.$.*.C.+XfXxXZXAXAXSXSXSXAXZXmXwXwXeXwX5XtX^.P.f.{ [ Y F Z G Y _ ` / ;.8.0.h.h.g.z.k.O.K K T W T K R ^ 5.1.;.! K D K K W K W / / / W / ` [ 7.5.5.q.q.0.9.].fX,XgXfX<X+X+XC.o.J S G ! W F D S S D p a a J R R o.R S A 3 2 2 2 q p a q > > w A G p 3 q p F W T D S d w S D K H A F F S p p p a q 4 3 w p p w w e e D G T W d w T ;.,.^ e F 2.v.z.z.V.].].+X].[.`.l.5.>./ Q Q Z G H H Q H W F G | 7.:.P H ` :.` Q H G  .Q Y } *X X} L.t.E.^ S o.] 6.I.L.R.R.P.!.W.4.Y.!.|.!.R.x.fXCXhXG.o.s < & @ % % # & & & : : < * @ * 7 y y v M D.jXvXvXPXsXe.c - ; + + X X   X X X X + ; + + ; ; - - c B S.jXDXDXF.o.R a 1 > w F P w.:.} 7.} q.].;XCXCXF.X.t y y * @ O o .         O - - u c V B B sXHXr.S p w H 2.4.I.OXxXsXiXB n c $ X o o o O + O 5 y y M.D.B.Z.F.dXdX+XkXoX!.W.|.|.R.I.Y.R.!.Y.P.Y.L.L.I.R.I.[ 7.} ' | Q H H Q H 6.!.U.d.f.>.=XeX=XI.R.R.|.!.Y.6.7.[ } 4./.%X4X6X3X3X^.Y.L.!..XI.7.[ [ :.z.z.G A F ] 2.W 3 : : : : 2 3 { }  .] >.2.:.7.7.E.>X{.).].`.oX!.U.U.U.T.R.Y.!.l.E.I.|.oXqXwX8X.X5X9XzX=XU.Y.U.I.3.6.W.P.U.L.L.q.E.W.U.W.qX{.T.I.3.3.6. XU.l.5.>.>.f.f.:.} >.{.`.d.R.4.9.o.9.k._ [ ` ^ H P H ` :.Q G Q v.{.[.Q.P.f.d.|  .H A e 3 2 9 > j G.xXcX0X4XOX0XlX<XZXMXxXcXfXdXgX,XlXv.lXz.f o.O.0.C.<X0X@X$.r.[.`.).zXlX{.q.` A a f X.$.B.<X;Xx.F 8.-.9.q.q.[._.OX6.| _ Q [ |.XXd.` Q { [ I.f.{.].1.C.&X8 i +.R $.,.z.s.3 w b wX1Xc.}.{ F U D q.;.q 9 a -.z.xXfX9.9.9.;X;X<X@X{.#.m e.+.R b =.S.-X{ j a Z 3 F D a -.5.` P ! +.` P L j q < @ & : # 6 P -X`.r.B.=.6 i X.%.f X.0.*.r.+.o.].:Xg.$.*.B.c.( T a 8 j E E i 1 1 g 3 & 2 2 i j 6 6 0 i t i j a q q a p ",
"1 J ` :.5.d.Q.XX9XeXlX,X<XgXgXhXCXSXSXSXSXFXJXJXFXFXFXAXNXzXwXwX5X^.f.{ Y Z w w q q 3 q q p D T $.,.8.<.#.^ ;.] ! F F ^ 2.;.^ ! Y ] ` ^ T T F W ! K F / >.2.^ P Q ] [ [ 1.).+X+X#XV.V.].T.`.`.x.z.g.#.K L a q f G A A f d w q 3 p f T T S S F A 3 > > > q w w > : : 4 w p d p f S F D p q q w d p p A A A F W D A S p q 2 2 > 4 q w w w q q q 4 w w 3 3 S A S D w F 2.k.2.#.<.1.1.1.2.5.4.4.4.' F Z H G Z Z Z H W Y | [ 7.7.7.[ Y P Q H G 4 4 q Z H Y { U.L././.~.eX`.1.Y.P.R./.!.Y.L.4.d.4.4.P./.P.|.>XxXDXhXB.R a 1 & @ % @ # & & & : , < * * 5 y y v v M pXjXhXCXPXpXB n - $ + + + X   .   X X + ; ; ; - - - 7 c &.pXhXDXDXdXl.Q.T.-./ ] 4.P.P.L.[ 3.'.'.@XxXDXvXM.m b 6 5 5 o o o .         . - ; - c V n e.sXDXB.K A A ^ 5.7.6.Y.gXsXB c y 7 O . o o o $ $ @ < < t b B.*.C.;XhXDXgX@X!.L.3.d.I.U.I.6.} [ ' ' } } [ ' ' [ ' 7.7._ H H | _ [ } ^.3XP.3.6.R.U.!.!..X.X.X!.R.!.'.R.R.W.!.Y.!.oXY.Y.!..X~.!.7XeX!.U.H Q I.6.^ F p A W K 3 : # # & # , f [ Z w G G H U. XY.U.l.d.l.I.L.Y.Y.d.U.f.l.I.4.6.6.>XlXeX9X9X.X!.|.I.6.'.R.Y.L.L.|.OXL.{ { _ ` _ ` ' { 5.7.'.'.:.:.6.d.4.f.] F w 3 3 3 4 w Y A +.0.^ 3.Q.eXeX8XT.q.w.q.{.C.`.{.). XeXY p ^.f.{ Y Z w q 3 > 2 : # # k r.hXMXAXGXmXlXkXlXlXzXlXlXlXxXlXcXSXFX<X,XXXcXcX<XfX{.+X@X`.z.+XfX<X:X1.).{.wX{.).x.L.a X.;XT ] ,.B.,.].,XE.>Xw.C.V.OX0XwXW 3 L ` /.P.v.C.f L T ~ O.{.wX0.1.w ! O.k.,.U ( ( i 8 r.mXyXV.#.S T K e L 2.^ s.E : k +.G.<Xz.1.k.G.hXAX5X5.o.dXJX,X].jXhX,Xs.o.a 2 D L 7.-.Y -.] o.X.e.+Xr.m n =.&.&.t $ # 5 8.5XQ.*.=.*.*.k k j 3 8 T L b *.k ..G.V.,.=.j j j X.X.@.) 6 i f T g i i 3 1 1 i j i , 6 t 5 5 7 i 1 : : a F ",
"k 8.v.T.`.{.-X>XkXlXkX+X}.lXAXSXSXSXSXAXAXAXFXFXFXFXAXBXmXrX^.P.l.[ H A p q 3 q i q q q q q a f K W W T G A P ! F F F ^ ] / / H F W K K J S D P / W Q :.k.>.! D F ` :.` ;.V.+X:X].z.g.k.k.l.x.1.O.S w a p q 3 p A p p f p q 3 1 a f T K p w d w 3 > 4 4 3 q w 3 > > q 3 q p A d I p q 3 3 q w w w q p A F F F w w w e 4 2 > 3 3 3 q 4 q q 3 q d w a w w w q e w p F F G F K K H Y _ Q _ | ' ' H w 4 w Z A A G G G | } 4.3.:.} t.d._ H | [ / Q W Q ` ] ' ' [ } } | uXyXW.6.P./.Y.Y./.P.7.4.4.} [ _ ' .XmXZXDXjX*.U i < & @ @ @ # # & & : , & & * 5 y y v v &.aXvXZXCXVXsXUXn - $ + + X X X X . X + ; - - - - - - 7 y &.pXVXHXhXr.6.P.Y.Y.I.L.L.| { L.} ' k.`.fXMXCXdX*.l h # * $ @ o .             - ; ; - c V B pXaXO.W W W 5.l.k.} 4.+XS.c u u = . . X o O $ - 5 h m b j M.M.*.;XCXSXgX{.Y.P.4.7.6.U.oXqXXXU.7.[ ' ' ' | ' } 4.t.6.4.7.5.6.d.L.Y.~..XY.| ' 6.6.Y.Y.!.~..X!.!.9XeX=X X X.X*X=X XR.L.L./.~.~.$X~.P._ w ] 3X~.|.[.`.T.;.P G q 2 1 > 2 f 2.Q 3 G } ] 7.6.!.d._ } Y./.L.4.} U.XX'.Q G 3.4.L.oXqXqXeX.X!. XoX4XoXW.3.5.6.U.L.6.L.L.3._ P H | } R.XX5.] :.5.` :.l.[ H P Q W K 3 3 f 3 4 a A e i q q 8 | /.^.).+XfXNX{.].XX9XzX9X*X/ 2 : : 2 q 1 3 3 f b k 1 k dXlXmXmX-XQ.8XlXkX@XOXQ.x.0X0XkXzXAXNXlXJXgX` |.[.:XcXNX+X].z.9.-.:.Q.d.1.] K z.k.>.l.].~.1.r.v.#X+XdXcX@X'.W.E.x.E.].ZXxXlXkXV.v.Q.P.P._ L m.n.f i 1 S 8XQ.~ G 1 s.n.n.( : # 6 B.-XE f >.K > q J s.;.! U L L c.i 2 3 +.`./ K o.c.fXxXeX>.a r.gXE r.dXgXn.i L W a f W Y _ O.r.8.G.B.F.gXZ.aXjXCXMXdXC.X.6 F.wXT =.e.S.F.pXhX%.R D L U k ..*.X.0.].9.9.,.0.C.q.k.9.C.k.i 6 1 i f 2 , i p g j i 6 6 5 5 - 5 y k 1 # # i G ",
"$.+X,X,X<X,X<X:X<XkX<X].&XlXNXZXAXAXBXBXmXmXmXmXmX1XQ.f.f.f.{ Q W F d f S f a p f f f f a a a a d A F F A p D P F G S F F F F F W W K K K D K Q ;.:.;.3.5.` K S G W ^ / ! O.g.V.q.( ~ O.] ;.O.T S 3 4 w p p p d f w q a i q > 2 > a f d d p p 4 > > 4 q 3 4 q q 3 w D w w w w q w q 3 3 q q q 3 3 3 e d A A a 4 4 q d p q 3 q q 2 2 2 1 w q 3 w q e f p e w p q 2 3 e e p p w A H H H H | ' [ | w 3 3 4 p H G G H | [ [ } } { } } Q | } R.R.U.3.} ] ' } 4.7.' } d.| /.rXY.I.6.I.f.P.P.L.d.[ 7.4.` H [ :XCXDXaX$.f i : # @ @ @ # # # & & & & & * 5 y v n M N.jXhXlXxXDXvXiXM - ; + + X . X . . O - - - u c c c c c c e.aXCXDXdX,.5.^.~.oXR.' [ ' | [ } d.E._.].<XZXhXZ.@.t 5 = X O o o .       . . $ ; ; - c M n M *.~ ^ A 3 a d A 3./.+XN.u u - O . . . O = = < M &.e.e.e.D.S.*.F.CXSXZX,X XY.R. XR.I.R.oX9XeX=XR.I.I.L.U.!.Y.P.P.U.Y.Y.|.|./.R.!.R.R.d._ 7.6.d.} 4.R.|.R.!.*XeX9X.XY.W.U.L.d.4.4.6.6.L.4.[ | | | ' ' 7.P.^..X9XzX9X|.R.Q.l.v.].q._.qX6XW.:.| /.Q.L.4.d.' G H L././.U.` Q 5.l./ Q 3.6.U.R.U.!.L.d.I.I.I.Y./.Y.Y 4 A Y.Y.7.7.I.R.5.q.:.d.d.U.eX[.).'.[.'.).U.6.U.R.!.U.l.w.w.0.P K K a q a q 3 > A k.k.<XAXNXwX X|. X/.P.' w 3 : 9 : 2 a a w G 5.T.[.<X@XNXlX0X8X_.7.5.l.5.:.] W W k.k.`.'.:XNXzX<.1.q.:.C.V.V.,XC.C.x.,.-.5./ Q W O.=.C.n.fXC.F.9.+.).-XdXxXV.O.v.1.Q q.x.V.V.9.CXxX,X`.f.` O.1.k.W K 8.^ S +.{.W 3 Z k : q ) q 6 s j.A.V.>.w # 3 f k ].:X-X'.] 0.A...=.] F i *./ 3 f a i ^ {.`.>.A 3 a 0 X.].k.j J J ~ q > S o.q b r.C.G.C.+XV.B.dXB.C.C.C.+XdX+XtXR b F.aXCXCXHXCXj.8.f.W 1 , k B.*.X.<.9.9.8.0.U.U.k.q.#X].o.i 1 , i 1 6 k a i i i 6 i t t 5 t k k i < # 1 A ",
"X.c.}.].V.V.c.g.Q.kXzXlXeXrXeXeXwXeX=XQ.Q.f.] ' / Z w w Z H G D d S d a p p e G F T K S f p a a w A G K F d A W / F S p p d A D W W W W T ! -.2.5.:.` :.:./ S f f K ! ~ W W ^ 2.-.D p D T F D g w w w w a f S I a q > > 3 > > : # 1 a d q q w 3 3 3 q w w q q w w T 2.p 3 3 4 3 e 3 : 2 3 w q 4 4 w e e e p q > 2 > w w p a w 3 9 # % : 4 q 4 > 4 q e e p q q i 2 : q e w w w w G A F H Z H ' _ Z P ^ p e G G H Q ` :.[ ' | | ' | | | L.^..X!.d.' [ [ 4.4.4.4.6.7.] } 3XXX5.} ' } t.Y.!.XXR.L.t.3.:.+XZXSXjXB.~ g q : # @ @ @ & & & # & & & & , 5 y n n &.pXG.r.z.;XDXvXiXV - ; ; ; + o X o O * y c y v M B B B c v M.jXCXVXdX[.{.^.3XY.' Q ] [ Y [ 7.[ 4.XX[.fXSXvXZ.j i 5 = $ o o . .           + - $ - - M e.b j G A w > : > 3 [ P.&XN.- - - . . . o $ * @ t M e.e.=.M.jXdX0.;XCXHXCX@XU.R.R.R.R./.P.} L.~.~.!.I.U.L.Y.|.Y.L.L.U.Y.L.q.Y./.|.Y.P.P.Y.l.3.6.} ' _ | [ L.eXwXoX.X9X XOX|.|.L.I.L.U.d.3.| | | ' } t././.P.Y.P.P.Y.^.^.3X.XW.!.!.Q.*X$XXX=X[.x.U.7.| H | Q G G | } 4.U.k.w.x._.E.R.|.OXR. X=X[ H d.!.L.} } } E.@X].).!.L.Y.I.U.W.OX[.l.I.qX0X8XU.g.x._.cX<XXXd.[ _ _ :.T.).@XlXMX,X[.V.;.W F O.w.5.>XqXzXmXOXq._.T.[.T.>.p 8 a ( ` W K / :.P x.!.~ '.kX0X<X1.v.cXXXv.,.,.` Q O.+.Q _ H Z P 2.`.mX2.G d.w.@X0.h.fX>XV.9.,.G ^ $.8.-.#.X.X.p +X+X=.F.G.@X8.B.dXk.! :.:.H 9.#Xq.O.L G.fXI -.Y q > A R S S $.w.9.>.3 : q i $.,.L P ] { <.) j =.c.e : 1 1 o.s.Y ..x.v.z.0.g.Q.k.O.L ..L <.R 1 > w 1.^ 2.T f q j *.}.X.=.h.D X.L k k 8 , j 8.+.9.0.G.G.r.r.j k R j r.jXdXo.i e.SXCXHXJXvXdXB.*.f.:.b h S.gX=.i O.1.1.,.X.O.+...X.$.R s 1 2 i , j 9.O.j k a j k i i 6 h i k X.E 1 * , a ",
"q J T ^ ;.K G W { 5XmXzX>XQ.uX} { / U w q > 2 > 1 3 q i p A G S a f w w w q 3 p K F K L p w p p a a S K F A A F Q W F p p f D S D ! ~ W ` ] 5.7.] W A G F F D S K O.;.^ W ! $.+.K f w S F A w p w w p p p A d p w 3 : : : 2 : : # : q q 4 3 1 3 4 1 3 3 4 4 3 3 w >.`.R > 2 > 4 4 3 2 : > 3 4 q q w S A d q 3 > > > 4 w w w w > # # # # : 1 2 # : 3 w w w q 4 1 2 : 3 w w q w p e A e A e e H Y [ d.] A p p A F Y [ [ ' 7.w.1.( | _ ' [ 4.d.6.l.l.E.L.d.I.L.6.I.4._ | 3.eX X| ' } P.^.^./.Y.L.P.P.l.gXFXCXD.$.R g i : @ @ # & : : & & : & & , , , y n M e.pXe.v j =.vXPXiXM 7 ; - - ; X + + $ u v n n &.M.iXiXN.B n e.dXDXhXC.,.Q ] [ 7.} [ } ' Q ^ / _ 4.!.`.cXJXnXS.b t * * O X o o .           o ; ; - - M aX=.6 8 3 a a > 9 2 G ` c.e.- 7 $ . . . o @ @ * y v M.X.b r.jXF.Z.F.CXHXCX:XI.d.w.' 7.' Y / H L.~.Y.qX>X[.q.3.} ' | { | ' _ 7.L.R.W./.W./.!.'.4.4.7.5.-.H G '.W.f.!.Y.I. X$X.X!.!.d.[ [ ' [ 4.L.P.Y./.P./.!.|.!.Q.Y.~..X4X5X!.I.W.W.W.|.|.oXoXXXQ.W.6.:.7.6.' _ ] 6.k.[.NXkXwXmXeX^.Y.R.oXXX^ e Y 6.I.Y.U.q._.cXzXeX|.I.7.U.Y.L.7.] 1.w.+XKXKX).| uX} /.eX4X.Xq.U.k.O.2.^ Q ` v.GXyXtX~.*X6.[ -.:.5.zXNX:XQ.E.].kXkXR.5.[.].q.'.Q.5.[ 4.6.E.'.).'.|.XX).:Xb.! a T x.0X[.1.] ] q.Y._ -.S G ^ P S _ ' Q Q -.`.T.0.@X-X[.2.Y K f K -.;.....R L a Z.j 6 X.+XbX<.$.$.^ 2.l.:.w.V.q.q.<X#X+Xn.L F A D U J f ~ 9.].V.X.n *.=.k '.5Xb.{ G j L > M MX2Xs.i 3 1 : 2 1 b c.$.g.K W k.,.0.].;X<.&Xb.J 3 8 R 2.#.S a 6 ..`.+.m @.=.X.$.*.G.j.i * : i b B.*.X.o.m j X.L 8.$.S.aXo.k v jXVXnXCXnXG.j.j.X.$.g.0.h.:X+X0.0.<.9.z.0.C.A.].C.$.o.j ..s : , j $.,.s./ J O.8.+.*.X.0 q 8 k X.~ 3 # , , ",
"3 f S G K p q w Z { d.f.] Q G I q 3 > 2 : : 2 1 a d S S S F W / P S p p a q q w Z K L a w w w p p e A F F H F K P P K F S T ! L A F P ^ ;.^ ^ / F p w w p F W ~ -.2.;.^ W W ! R S f d p A A w q q 3 w w w w w w q q 2 2 : : : 2 # # : 4 3 > 2 2 > > 2 4 4 4 3 4 K x.]...> : # : > 4 4 4 2 : q w q w p w q 3 q 3 3 w w w q w a 4 2 2 : 9 : 2 : # # 2 q q 4 3 > 2 > > > 3 w q d T J w 3 q w w H 3.E.` w 3 p w w A G A G Q |.zXcXqXP.P..X XY.W.=X*X=X.X*X5X5X8X9XeXzX0XT.U.eXBX|.6.Y.!.^.!.Y.L.6.6.U.x.fXCXdX*.L f g q : & & & & : & & & : : & & & 5 y n M N.aXe.i k =.DXHXiXB 7 - 7 - ; + ; ; * y N M M M.pXsXsXsXB M &.dXCXjXo.A Q 5.6.[ 7.7.5.5.7.7.-.-.6.{.fXSXSXjXB.X.y u - o . . X . .       . X - - - 5 N.vXe.i f D K 8.L 8 6 K x.;XM u - o . . o o @ * 7 v v h =.X.M.B.B.D.M.pXJXSX:Xl.6.6.-.:.d.} [ ` [ R.eXzX=X0XoXY.3.[ 5.' ' ' 6.U.L.P.U./.!.|.|.oX.XW.|.4X|.Y.6.6.U.L.4.4.7.4.4.4.L.|.7.[ d.L.Y.Y.!.!.|.U.U.R. X$X$X~.~./.Y.I.|.R.W.|.XXR.!..X!.OXqX0X=X|.U.6.I.W.R.R.U.U.mXBX.X!..X5X'.Y.L.5XU.w A / 4.4.U.R.|.cXwXqX3X!.5.!.^.Y.Y.4.:.D F NXFX].w w Z Z Z | } } P.Y./.qX[ _ L.>XSXdXC.:.` W ' 4.Q H ` OXcXXXR. X=X9X=XOXq.[.XXT.x.).k.E.5.7.5.l.U.{.+X:X,XV./ ` H S Z -.9XwXP a ;.x.5.l.l.w a V.W.5.F / / a ! <XV.}.v.].v.#.j 1 a X.G.hXlXXXcX9.L B.8 s.{.}.~ a ..+.1.T.5.XXXXl.` 1.G.xXV.:._ uX| L K ! L 9.xXxXZXFXFXSXxX}.^ a k 8 J g.W ..;Xc.b.R s a a i ( >.3 q ,.2.a j *.V.mXQ.( j ~ { ( O.+.,.] p a L h.@.j s j ..*.Z.j.*.k X.E 3 =.G.F.S.*.b j f j X.j.*.S.E 1 1 =.;X2XG.dXZ.%.%.b =.=.<Xh.9.A.0.8.+X).`.].9.V.{.;X,X;XC.h.A.*.6 , j f i ! d w O.9.9.+X$.1 1 3 a j k 6 , , * ",
"3 f K F K J 3 3 q p e w w w p a 1 1 3 1 1 3 q p A F K P K W ` :.1.! K K L f a a Z -.$.S w w q a d d F / / / ! K K K K K S K O.P A G P W W F F F p f S F F F H Q ^ W F F F F D S S S f w q q 4 > > > 3 w w q 3 4 4 4 4 > : # : 2 2 : 9 2 > : 2 > 2 : # 2 > > 3 4 F n.`.S > : # 1 w q w w 2 # > q 3 3 q q 3 3 3 w a f p w q q w q 3 3 4 > 3 1 2 : 2 : > 4 4 4 > : 4 q 3 3 3 q q q 8 q 3 4 4 G 5.U.] G w I K p A G G w w w Z { L.I.3.f.P.P.6.[ 3.f.} 4.} } U.U.U.!.wXeX6X6XeXyXrX6XrXrXrXeXrX5X6XeXzX0XlXxXF.%.g a w 1 < * & # # & # # & & : & # * t h n M N.jXD.b k S.KXPXiXB u 7 c 7 $ O ; ; * u v M e.pXaXsXvXsXiXB e.dXCXF.+.` ] U.W.d.L.Y. XW./.I.R.|.'.lXZXDXSXjXD.=.m 7 o o . . X         . . . = - ; u aXvXr.$.`.|.OXcXhXvXbXfXxXdXv - * o . o o o @ - y n n h S.D.M.M.M.X.*.M.SXJXgXl.R.=XfX@X-XW.R.R.I. X6X.X} R.!.R.U.U.d.4.P.L.Y.R.6.6.d.Y./.I.5.7.L.R.Y.Y.3X4X.X4X$X.X!.Y.|.W.L.L.U. XOX!..X.X$X$X$XoX^..X.X.X XW.'.U.b.d.d.6.|.R.Y.W.L.Y. X X*XR..X9X!.!.U.7.L.4X.X!.R.W.6X9XI.6.I.Z P >.' [ } H G P { } d.!.5XcXzXzX*XE.).L.P.L.L.P.L.f.>XeXf.Z I w G ] w Z | | { ' t.^.w 2 Z i.FXLXKXC.K k.q.L.7.q.:XOX5XY.P./.9XoX5.OX>XI.U.b.5._.'.[.).-.q.5.5.{.kX&Xg.0.D A G  . .P 9.>X{.L L fXzX=Xq.p G d.XXI.7.[ Q O.9.`.lX&X5.T.2.f.A 1 1 j fX0X0XlX<X>X&X~ ,.:X@XW ..+X,.H ` d.Q.z.T F A S <.v...+Xw.L R r.F.G.].-XwX>XwX9XMXAXMX~ L $.=.a j q.U.f.#...*.o.i %.C.s.O.1.$.R o.9.C.r.z.c.8.g a q g R s.;.+.c.( X.+.z.h.t j O.=.b k j j l ) k J L C.2XF.pXpXr.r.=.X.+.*.$.R 1 5 < *.C.+.+.r.0.b =.hXhXB.C.X.a ~ o.,.].`.{.v.V.V.B.*.r.G.*.$.$.j h h s j j a f a q J j X.b , , 8 d i 8 b j k k ",
"2 p D A F J a w i i 3 3 3 w F G q q a a p w w G H H P ! P H _ :.6.5.2.-.! S p D P 1.].r.L a q i w d K / H F K K ;.9.9.,.o.! ;.` G A G D G A K ^ P P ! ~ ! H F F H A e p S S d d S p w w 4 > > 2 2 > 3 q q q 4 > > > > 2 : # : > > 2 9 : : : > > 2 # # 9 2 2 > q Y }.].q > : 2 q q q w w i 1 2 3 3 3 3 a a p W Q A p 3 > 3 a p p p p w w w q 3 3 > > 4 q 3 3 3 w 3 3 q 3 q q 2 2 > > 4 F / W [ [ G Z G H W F / W Q H I w Z Y } } ' } } } } | Q [ [ | Y _ _ G A F Y Y H Q ' [ } } | { f.^.~.^.~.9XmX8XwXgXC.X.a i 0 2 : & @ @ # # % # & & & & & * 5 h M B N.vXjXS.pXHXKXsXiXB c c n u $ O + $ - u c n e.pXjXvXVXvXsXN.S.jXCXB.P F ^ ` [ | } L..X~.Y.E.XX=X|.oXkXxXSXpXM.=.v - . o . o .         . . o O - = 7 jXjX).OX9XeXmXNXSXKXZX,X0XB.y - O . . . o O $ = 7 y n m M.aXM.S.=.k S.M.dXJXAXOX'.wXzXlXlX9XoXOX|.oXY.R.Y.|.!.U.U.6.Y.Y.L.U.!.|.U.6.L.7.} Q ` ' H { 7.[ P.(.7X3X$X$X=X.XzXwX.X5XqXoX4X$X5X6X5X5X4X X/.~.3X!.!.!.OXR.L.4.f.U.Y.^.R.6.t.t.L.!.Y.L.U. X X!. X|.!..X X!.oX.X!.=X6.I Q G H :.` ` | _ ` ` Y :.L.Y.!. X!.Y.[ ^ q.L./.' L. X6.0XmX} H G ' Y Y Y W S 9.k.p 4 G { T > p 3 Z d.wXmX{.lXk.6.L.W.U.3.[ | 7.7.U.|.5.5.Q.L.5.x.<X[.6.Y.T.x.k.f.O.].f.a 8 1 3 1 a L a A d S x.`.@XeXzXlXkX2.P -.P Q ' 7.H -.[.Q.] >.-.d.5.` W L p 3 >.T.,.0.D w.w.K o.9.f.T S o.+.q.r.C.C.X.X.+.o.a f D ..CXCXvXCXSXFXMXQ.f.>.1.$.C.fX,XfXB.=.pXHXN.pXdX+XOXQ.m.F.<.j #.;.^ 0.z.].G.`.@XV.`.k.a , , # # i J ! L 8.%.R B.fXh.*.*.*.V.o.o.*.X.@.X...g a J B.jXvXjX;X;XfX;XC.F.;Xg.! o.*.p...+X].*.<.E b jXDX+X&Xg.q 1 q f ,.].q.z.O.0.8.+.j j =.b j s i X.s.i i E i g q 1 1 , X.*.i 8 j X.j =.C.0.9.l.",
": q q q d D F A e a a 8 3 a D F p w w a d p d T Q W K K p w Z H | 6.l.-.-.P A W ` ] `.@Xr.L a a a a p p w w d T f.'.@X].9.,.;.^ S w p K ! K ! 1.,.Q F P P F A d A A p d f d p p p q 3 q > > 2 : > 3 w 4 > 3 3 4 > 4 w 3 2 # : 2 > > : : # 9 2 2 2 : # : 2 2 : w [ {.h.1 2 > p G q q 4 4 p ! ! K i 1 3 q S 9.b.k.] W p 2 4 p S S w p w w A F G p i q 3 3 w A Q 7.6.` H q q a a 3 q 4 w Q ^ / H Q G w G H / Q / A Z H G G Q ` | | Q [ ' | | { 7.7.H H Y W F A p p K F W ` 2.5.T.x.5.7.[ 3.4.4.f.Y.Y.d.{.,XC.o.g i 1 : & # @ @ # % @ @ & & & , & , 5 y n B iXVXvXaXvXLXHXsXN.M n n n u ; X X $ 7 u c n B pXvXVXPXVXvXpXS.vXVXB...F a q Z Q [ 7.L.^.|.=X'.I..X|.C.fXCXF.*.b y = . o . o .     . . . . . o - 7 - S.aXOX!.Y.!.3XqXlXMXXXI.U.#.7 * o o . . o $ @ O * 5 v y e.e.B.B.D.=.;XD.S.SXAXXX^ 2.d.4.d.-X0XqX.X!.Y.P.U.d.L.L.L.d.@XqX|.!..X4X/.} ' 6.[ ` W Z Q | P 7.L.!.$X~.^.*XoX!.5X.X|.oXoXoX.X.X$XoX!.Y.L.} | ' ~.~.R.!..X~.P.4.} } } I.>XxXHXSX<XI.L.Y.|.OX.X XoX X!.Y.U._ Y ] H _ } _ U.{.R.U.E.6.} 6.7.:.v./ _ H | 4.d.Y.wXmXXX' } uXY.t.5XBXU.] 9.w.W 4 w I d.1X:X+X+.C.z.^ S 3 a g 4 2 4 Q 7.uXP.U.#XO.-.5.:.6.q.).'.k.l.l.E.R.1.0.,.k.I.} f.q.5.G K E 3 2 1 6 : 1 pXgXb 2 3 L +.z.kXlX0X-XeX>X).fX9.-.Q ` Q o.9.;.K p f ;.-.O.f a R J q J T 1 L q.*.*.,.2.,.f j ..T.mXmXyXrX-X-X*X*Xf.^  X0X-XtX-XQ.b.Q.b.` W A.&X<X+X].;XCXSXDXDXKXLXCXdXdXdX;XkX{.n.g 6 K O.v.+X+X1X+X9.<.s.i 1 i j i 1 i a S L X.X.*.+X1XB.pX*.%.*.+.R L =.S.;XG.X...0...r.CXNXgX:XU.XX+XC.c.c.$.+.+X%.=.kX&X$.U k *.CXvXdXB.( f i a L 0.9.,.+.a X.X.X.j j l s k b ..*.s.j k f k ..<.+.S o.c.<.K +.h.r.B.<X@Xx.k.I.",
"9 1 4 4 w w I A e p a a w a S F p p p w w d S G W W J a q > 4 q Z :.W.5.7.2.^ ;.:.` 3.T.V.O.D G L a 3 q w a S T ^ k.T.k.#.O.! K f d T O.O.K P O./ F A F F A p p p a p a p p q 3 q 3 3 > : 2 4 > 3 q q 4 > > > 3 w T :.^ p 2 # # : 2 > > 2 : : > : : 2 4 1 2 : w d.W.^ 3 3 d ` } Q G H G H U.E.q.,.q q q R <./ G Z d p > > q w p 4 3 a p e Q [ G f p S ! 5.I.6.L.P.P.6.G Z P :._ K F H Q H P P H Q G Z Z P P P Z q I Y Q Q ' ' { L.Y.6.' H } 3.| H [ [ H F H F W [ [ [ L.I.R.R.U.'.|.R.U.U.U.L.L.I.q.+XfXB.R s 1 < # @ @ % % @ @ % @ & & & & * < 5 7 v B pXDXvXpXHXLXVXN.n n n M V - ; X X $ - - u n e.iXaXvXDXHXVXsXaXDXDXS.L a i a G | | } } } P.Y._ H Y.XX+XhXCXS.&.y 5 @ O X o O o . . . . . . . o $ - - e.pXT.L.3.>.[ I.I.3.` [ 5.%.7 @ o . . o o o o o = 7 v v e.=.F.dXF.B.fXaXS.CXFX'.e W t.' [ U.{.OX.X*XOXoX<X@XOXE.7.6.U.R.R.4.L.P.P.4.4.6.4.6.A.c.:.} [ Y.Y.Y./.|.R.U.Y.I.!.|.4X4X!.!.!.!.R.W.U.L.4.} ' _ [ L.P.4.L.} _ H [ P.^.=XFXKXKXKXCX1.6.} Y.!.!..X X!.W.!.Y.Y 4 4 4 w Y f.*XU.6.R.R.I.^.W.Q H 2.k.l.] 4.L.[ Y D W ` H ' } 4.0XNX:X`.<XkX-X>.P ' 0X'.2./ S s.1X<X-X:XC.o.S W W p 4 3 Z F W.R.3.7.5.7.[ Q l.<X].-XkXz.E.5.w q [ 7.:.[ ^ F D T i 1 1 1 : 2 ,.,X1Xd.S f f.Q.2.^ >.>.5.).cX-X>X<X8Xq.3.3.[.9.O.o.S a ;.! 9.].h.O.W , 1 a 1 o./ $.j +.].G.A.r.xXtXuXuXuX/.Y.I.t.uXtX~./.uX| | _ | 7.G D L j E 8.;XV.g.A.fXxXMXmXlX1XOXV.A.r.hXDX+XQ.( o.2.0.].F.A.0.j j T i 1 a W 1.$.R j j J j k r.vXMX) k dXA.C.F.S.r.B.].+XfXNX+XF.pX+Xv.k.k.! P K ,.].`.9.#.#.o.r.V.].E.! p p ..pXCXhX}.*.;.` L $.0.,.$.+.X.j j j j h k t i h =.0.%.*.8.0.$.o.C.+Xk.;.5.O.L ,.V.+X+X+XkX+X).k.-.",
": 3 a a a a p A f f a a p w p G p G G e p D G p W K f a a 3 q e p ! v.1.2.2.:.] ] _ Q Q ^ ! S G ! K p S K S S S p w F F d S D F J ! ;.^ P F D F F A A F D d p f a q w w p w 4 2 > 4 3 > : 2 3 4 3 3 4 3 3 > > w _ [ 4.3.-.S : % # # : 1 1 2 > w q 3 w A w q > A b.P.] W F W / [ Q H :.` H ` P Q W T o.a a 3 w A 3 2 > 4 w A w 3 w w G G w G 7.' K P ;.U.|.!.P.L.| } d.` P H Q Y P G G [ 7.` ` P / Q Y ' 4.6.' H H Z Y | | } 4.7.f.P.L.t.4.L.L.4._ | 4.3._ _ _ ] 7.} 4.P.L.R././.L.Y.Y.Y.P.L.d.d._.[.@X<X8.j q : & # @ @ % o % % % % # # & & * , 5 y n e.pXVXvXvXKXHXsXM v &.M N c - + X . O ; ; - V B N.iXaXVXPXPXvXjXVXHXaX..a i p / d.5.5.} } { H Z Y 6.`.MXHXhXS.h t 5 @ o X . O o o . . .     o O o $ = &.Z.;.] ' Q G _ ' [ -._ / X.- $ o o o . . . . O * u n v &.*.jXjXjXS.fXvXvXZXMXO.a q.k.5.5.:._ _ W.wX4X5XwXzX8XXXd.[ | { 6.L.Y.!. X|.!.Y.U.OXFXKXqX X.X.X^.!.!.OX>X|.oX8X8X=X.XqX=X XoXOX!.oX X|.Y.4.l.W.6.d.I.' ' ` 9.+XMXNXBX9XzX1X*X.XR.6.[ | 7.I.3.d.U./.Y.d.6.:.-.O.P w H 7.6.R.R.R.|.3.P.Y.' 5.,XNXoX6.4.[ Y w q I G ' |.q.].FXXXU.{.-.` [ Q O.~.U.Q Z w w G W Y 2.@X'.i.f.q.4.#.Y / 3.` P.4.L.f.} [ Q l.5.k.Q.Y.NXlX3X.X! J ` :.2.K p L z.c.X.b j 8 1 >.f.P w.6.l.A w 1.@Xw.P P 0.#X0XcXxX0XwX>XR.f.9.z.2.9.2.K ] Q.L o.n.v.k.2 % % g E X.8.R ~ $.$.G.AXQ.L b.a G { b.}.!.|.&XXXXXf.Y K dX1Xo.+.*.B.<.b.XX-Xb.1.0.V.`.T.R.q.d.4.oX:Xr.hXjXxX0.>.b.w.V.Q.o.L i X.*.f L 0.^ ,.O.j b *.h.E b r.DXDXF.l k *.+XF.G.G.pXjXbXF.dXS.S.*.r.:Xd.-.-.P W 0.{.V.<.8X-X! k.h.k.w.5.f j ,.B.;XF.+XC.,.1.q.9.8.F.*.E =.X.j i s s h h k j X.%.<.E +.9.z.z.k.+X<X[.z.-.$.C.C.V.[.].@XgXcX,XV.! ",
"2 q S d f f d A J f a a f a q w a f f f f S I I F K f f f a f ~ J p ^ W Z A H G H G A w w q q p / ;.,.,.$.L p p q : 4 d p p G H ~ -.O.F S S D T J S S S S a q q 1 > 3 w w w 4 > > 2 > > : 2 > 2 > 3 3 1 1 > 4 F | [ ' | | W 3 # # # % 9 2 4 F ,.` H G Q G p p W ] } :.` Q G I K K H H w w a f F G 1.fXJ f f w d 1 : 2 4 e ^ D a S A A F K F Y | ` ` 7.7.[ [ [ { ` ` :.H H H A G Q Q _ H H Y Q Z Z H Y } P.} | | | |  .| } Y H Q H { } L.4.7.L.L.4.L.Y.L.L.U.6.Y.6.} 4.d.L.L.P.P.Y.L.L.P.L.4.3.I.6.Q.:X<X<.g q 2 # @ % o % % % % % % @ % # # * < 5 y y M pXVXvXDXLXPXiXM &.e.e.M c - ; X   X O ; - c N B e.pXvXVXDXVXjXhXSXvX..i L 8.k.6.k.q.^ ` K q 4 P T.+XDXJXdX&.h h 5 $ $ o   o O O o . .   . o o o X $ &.B.F _ [ :.W p e Z / G S X.7 % o o O . . O o o $ 7 M n M &.pXbXhXpXhXVXDXCX[.B.B.q.C.q.1.:._ _ R.'.4._ :.;.W :.R.d.L.L.L.|.Y.Y.!.L.L.P.T.t.MXKXwXY.!.^.eX.X!.4XoX9XqX9XeXzX*X|.8XwXoXOX|.oX X!.R.6.} P./.I.[.cXxXSXJXKXKXKXFX!.Y.d.7.4.' { [ _ [ [ } L.I.Y.Y.I.3.7.!.Y.f.U.5.P 6.oX*X=X5.Q Y.Y.6.U.'.:X3._ [ =X>Xw.` :.U.f.Y [.SX&X` Q.XXQ P | Q.wXW 4 q w A Z w H } 6.-Xv.| [ ` _ | W H } ( F _ Y P q.,X_.'.q.q._.q.2.d.3X} ! V.d.x.cXdXG.fX:XfXG.r.r.R `.:X5.[.U.-Xg.3 a C.fXdXjX:X-X:X[.XX>X`.+X].:X+XB.C.<.3 p S T U 1 1 r L T.t % E O.f R g E j ~ +.fX1Xj ~ f a v._ A G q.,Xz.}.s.8 6 S.FX<Xq.pX].].l.E.w.o.X.s.*.J s.d.].{.:.U 1.b.+X&XG.;X+X@X'.'.n.L +.E ..].,.X.$.j q a O.*.k.V.F.dXF.MXBXnXS.&.X.r.*.&.&.X.M S.F.pXS.j.m i X.z.7.I.f.Q F [ W.E.5.d.W i 6 s k / g , $.C.X.$.1.,.1.q.o.r.k.*.$.X.i k b k k k b *.*.E J X.f a L f ..,.q.V.dXcX>XI.5.E.k.z._.z.C.+XdXxXlX`._ ",
"2 f D J f A F f J R F A F L f a L S p T K f f d K F S J f d K ! f q p d 4 > w w S A Z w a a f W :.q.1.;.K i f K k 2 > q J p A W O.! R S f S T W P H / W F a 1 1 2 : 3 3 3 3 > 4 > : 2 > > > > : 2 4 > > > q H ` Q F P A F / ! q 3 4 : % 9 A { Y F A K F w w w p F F F w 3 A W p S D f q q G F F W =X0X:.P.U.^ I > 9 3 w p / ] o.K J w H -.p I :._ _ _ H H Y H A H :.W K Y Y | | ' | H G q 4 q q 4 4 Z { 4.L.| H P H Z Z Y Q G H G _ | | | | [ { [ ' 4.4.} L.U.Y.E.6.7.} } } 6.4.4.[ 4.4.4.L.L.L.:.2.v.+X8.i 1 < # % % o % @ % % % % % % @ # * * 5 7 u v pXVXvXDXLXvXiXn M &.e.M c - ; X X X + + - c c c B iXvXVXVXvXaXaXDXvXr.+.9. X-Xw.a D D q 2 # 1 f.[.dXJXDXG.X.h k 5 - O o . o @ o O o o .   o o X X * S.Z.Q F H H H G w A F 4 q j t @ o o X o o + + O 7 n M &.v e.F.jXhXpXCXDXJXPXjXMXCXhXhXCXdXO.] ' [ ] P H Y [ [ [ L.t.t.L.Y.Y.} [ 7.' _ 7.7.7.lXKXqXF 2.}.T.H } 3X.XU.l.W.>X0XoX_.R.*X].OXoX X.XoX0XMXCXMX>XAXKXKXKXFXmX~.~.3XtXtX6X~.L.U.E.q.3.7.L.I.I.R.R.I.R.I.5.q.@X|.=X0XfXcXNXwXW.l.R. XU.R.d.U.f.6.R.W.$X3X6XP.t.4.i.| Y MXnXY P E.T.2.;.-XwXf.P p 3 3 G H H Y } /.d.L.} _ [ ~ Q K +.+.f K P ] oX8XzX0Xv.,XgX<.~ J q ! K S P #XMXNX<XDXSXxXkX+Xh.8.`.*XE._.uXQ #.f , C.xX>XcXgX<X@XxXcX].XXwXwX<XkXMXgXC.i : > 1 i a L 8 b L j i 8 +.p 3 2 # , L X.dX&Xi k g & , ~ ~ 1 ~ E.,.9.5.>.~ k xXFX$.P A.k.H d.0.o.8 i E $.T j R s.].z.j.g.0.j.*.L x. XwX8X[.T.`.+XC.C.c.=.G.2XS 8 a G.1X+X}.F.hXFXyX+X2XZ.B.%.s k y i i k h =.Z.M.v s L r.V.T.w.O.-.^ +.,.^ U X.k 5 i j i g 9 6 >.+.K +.8.O.k.0.=.*.$.E k 6 5 t k h j ..X.*.*.j l s 8 l j L ..0.V.b.].fXXXq.5.:.1.k.x.z.r.r.G.@X{.l.2.",
"2 a S S d G K f d D D p K K S K $.o.K ! K f f d p A G K S F W K q q a q : 9 4 e / ^ -.2.~ ! O.^ 1.] Y A p p K R J a q a d F W ] 9.O.R J p f K K P ] 5.7.~ p 3 3 > > i 3 > : > > 2 : : : > > > 2 > 1 3 > 4 W >._ Y H P F H H H F w w w > q ` :.P A Z W F S K S K A Z e 3 4 A ^ A w S w 3 q S F I Q wX`.H Y _ ] p a q q S p Y d.9.P F p A -.P w H Y W.l.S A F G H G ` ` _ ' ' _ P W Z w p q q 3 4 4 3 Z G Z Q ' } [ [ H Z G | | ' [ H ^ P F G G H H Y | ` _ _ [ 3.7.I.6.[ | | | 7.3.4.} 4.4.3.6.I.5.k.V.V.o.i 1 , # @ % o o % % % % % % # @ # * * 5 5 5 v pXVXvXDXKXPXB n v v &.M c - + X   X X + - - u c V N.sXVXVXvXS.pXDXvX*.0.q.f.=Xq.p W 1.^ f i q _ 5.+XSXvXB.&.y v * = o . O o O O O o o o . o @ o   5 jXB.F P I I p S D A q 1 i b y = O o o o O O O $ c v v e.e.M.B.hXdXdXDXDXJXHXDXCXDXJXJXKXHXjXC.` [ } f.d./ G 5.4.} } 3.L.Y.d.[ U.=XY.q.R.R.w.lXFXR.q p ,.q.-.q.'.U.U.5.{.zXzXzXcXl.G Q [  X!./.~.*XBXJXAXmXeX,X-XY./.} | _ [ L.Y.P.} { P.!.R.I.l.6.6.U.6.6.R.qXoX8XmX5X=XwX!.{.|.Q.XX'.U. XU.6.|.6.6.^.Y.Y..XP.[ } 4.{ [ ' P ^ '.5.W :.} { -.cX3Xf._.} } ` P | { 6.7.} 6.] G H [ _ ' [ 5.lX] Y ] _ 7.[ ;.q.v./ z.+XF.X.J 9.F S ,.].fXgXV.V.C.<XOX_ =X$.a T G P {.b...0.G.*.kXNXAXAXmXcXNXAXAX0X9XcX>XlXmXlXNXZXk % # > j ~ k.b.#.<.X.S.DXjXX.# , k 1.b.1.V.^ ,.,.( 8.x./.{ e 8 a 0 1 i a #.V.NXBX8.z.n.V.X.f *.fX0.X.X.9.,.S q R b.8.j.F.Z.B.*.0.:X[.[.).,XmXxX0X&Xz.g.].kX'.] <.].0XwXO.+X2XA.%.@.=.*.p.j.@.6 t 5 5 5 j i 6 =.B.X.=.F.;XkXlX+Xr.,.].].2.a q a j X.s.j 6 i k #.8.O.2.1.;.! 8.$.*.*.+.j 6 5 t t k b k ..j s k k X...X.$.o.^ :.x.b.2.w.r.q.;.7.` O.,.C.z.V.r.].].k.q./ ",
"2 a p f d F W p q p K S ! ^ K I K L f S p 3 a f S p A S f p d D i 1 > 1 : # 2 d 3.5.q.k.;.F W Q K F A p p T W S d D S p A Y >.1.9.O.S f a S P P ' 3.4.6.5.O.f q a f f 3 2 : 2 > : 9 9 : 2 3 1 > 2 1 i w d / Y Y Q :.` F I w I F ! G d F F Z W W A A A p p S p 4 4 A F A ^ >.;.F G ! A p w w A A 7.Q.W F w A } G T J p S p H :.~ / / A w A A A p G ] v._.V.-.H / P Q _ | H G Z e w q w p w w p p w q q 4 4 A | | } [ _ Q Y ' H G | H I w w e A p 4 w I G I A Z Y 7.4.3.[ | _ Y 7.4.L.4.4.} 4.I.E.'.OX{.V.E 1 : # % % o o o o o % % % @ & @ @ * , 6 u y M aXVXvXDXKXvXB n h u v n c - + X X X X + ; - - - c B iXvXvXaXN.D.CXjX0.^ H Y ' 5.q.] [ 4.f.5.-.q.C.jXSXdXM.v * 5 @ O o   o O $ O o o o O O o o . . y dX=.w p w 4 4 q q q 3 2 1 b v * @ o o o O o o = c 7 6 &.&.M.*.jXdXbXSXDXvXDXCXhXjXCXAXSXKXKXDXC.:.} d.d.5.w.T.6._ _ [ 3.} [ } L.!.Q.L.uX| p [ -XH w a 3 ^ 8XXXq.'.<X'.v.0XmXeXeX:X/ A H l.5.!.Y.} } /.P./.4.4.6.7.3.4.4.L.Y.L.} [ [ [ } P.L.U.@XhXDXcX@X8X9X4XY.3._ Y w 4 4 G Q ' } 4.P.4.Y.W.!.!.4.t.P.L.} ' :.E.:.P ` 7.-.I./.' ` d.'.OX*XuX| -.w.' { U.4.Y Q | } _ A W > 3 F P Q L.Q ^ #.:.` w Y ! 9.,.O.O.$.dX;X+.g.k.q 2 G.ZX}.E ^ ^ o.0.$.q.<.>.k 8 q a o.].dX<X<XV.C.,X;X1XzXmXNXNXlX0XkXkXNXlXk.9.^ ( q % & , D J k L U 1.+XZXFXFXnXj +.b.] S S ! K 1.f.k.8.l.R.5.D j +.1 , 1 j 2.,XlXgXC.#...fXxXB.G.S.+X8X+X9.C.O.E a ( g n hXF.B.B.*.k.T._.'.<XxX+XV.].V.O.q.x.;.w.[.{.].k.0.8.V.X.k i k y m F.;XG.0.j t 7 < 6 5 t B.F.G.cXkX`.kXzXv.z.V.V.T g 1 1 s L =.a 3 b g.g.o.( o.$.+.f +.+.X.X.X.b 6 5 6 6 6 k 1 < t i t =.r.+.X.+.1.d.3.3.[ ! L o.;.^ ] W P ,.9.v.z.C.V.v.k.2.F ",
": 3 q a S / ^ K F P ,.^ [ d.1.L p p a w w > 3 p a w d a i 3 3 d f q 1 1 1 1 3 A ] q.2./ H A A G L L K J f L L S A D S S A / 2.;.#.K w w p F W Q Y ' [ } 7.-.K a D %.E i : : : 2 : # 2 q d D p 3 > 4 L P Z G Y _ ' >.] F p a 3 q A A d a w a f J e S p p d p p q a P ^ F W ^ I G P ! P ! K w A P U.:.e p p w U P G D w w p ` 7.H G Y F p w w A S A Z A H b.`.:.5.:.Q H G G Z w w p w w w w w e q w p q 4 I :.4.' ' _ P P H | } } [ ] I 2 2 w q 4 > > 4 w w w G 7.3.7.6.I.:.' _ 3.I.4.} 4.4.L.d.l.6.E.].V.j < & @ % % o o o o o o o % @ # % @ & , y v v e.jXvXvXDXHXvXe.v 6 5 7 y u ; O X X X X + + + ; - - c B sXsXiXe.S.CXjXB.:.` / _ _ d.Y.4.[ I.|.qXfXF.DXSXD.&.t * = = . X . . + $ O o o O O . o . . o j F.j 2 2 > : 2 2 : : 2 2 1 *.&.= @ O O O @ O o $ $ = t m M b M.hXbXbXSXaXM.jXDXhXhXMXMXZXSXKXLXDXC.q.4.6.R.d.d.!.!.R.R.5.7.I.6.3.I.3.d.} _ F H W a , 1 k f Y ^ ! ! +.Y Q 3.U.^.3X9XL.O.P 5.R.oX4.' 7.I.k.l.d.L.L.t.6.6.I.4.L.L.} 3.q.E.XXfXxXkXNXFXFX8X/ Y Z I F p P p 4 3 I [ | Z P Q 6.6.6.6.6.U.6.] 7.U.7.w.l.BXGXwX!.^.T.f.} W.MXAXmXtXY F / Y Y 4 w w P W -.Q { P a q 3 L ;.5.f.f.7.7.[ ] f 2 8 o.,.a a +.q.:X&XA.9.K L L +.h.g.r.L L A.E o.E r f g 8 k i j $.c.*.k.s.a 6 f ^ H 0.fXkX<XdXSXxXo.i 3 > > 1 , # * a ,.z.`.Q.,.0.kXzXlXAXBX-Xs.Y a i a j b L 9.G.dXr.C.].w.:X:Xc.B.;X1.k.C.+XMXfX<.9.T.T.0XdXjXbX+X8.C.mXg.j a 1 E vXFXj.o.r.].9.W -.>.<.x.,.$.0.n.1.( ! L $.k.O.S ) j i =.e.M.X.k X.C.;Xv.].dXdXdX&.t $ * , y *.+X-X5.S 0.|.f.1.:Xm.i i h b *.0.L j R +.<.a 2 8 q t 6 j 0.X.j b b b s t 6 6 i 1 : : * 7 b A.`.! j K 1.2.! A d f f T ^ K G S o.g.1.9.,.,.8.9.9.O.F ",
", 3 w a d ^ >.;.1.1.:.Q _ f.I.q.^ ! ! W J w 3 q 3 3 q 3 1 3 q p K K p a i a S / ^ ;./ A p p d J / ` ;.2.$.r.r.+.L J D T D S K ! ~ T p p ! W / W G W Y | | ` ^ D g X.l i 2 : 2 > 2 > w Q f.3.H w 3 p ^ P p I Q Q _ Q F w S ! S w a G p 8 3 q q S D f p p a q d O.+.K T A 3 w w G / P G P ! P / 2.4.Q G S L A G F K K A P P Q 3.` I G A 3 p F H 3.H Z H G H _ ' | 7.' G Z G A p S q q w w w q a a q p I W :.:.` _ d.U.6.q.F Z | } } L.d.] I 3 3 4 > > 3 w W ` U.6.d.7.7.6.:.Q | ' [ } d.L.} d.6.7.k.`.{.C.j 1 & % % o o o o o o o o o % % % @ = * t v M N.vXVXjXhXDXvXiXn 6 5 7 5 - + X X X X X + X + + ; - c V N.aXiXe.F.SXjX0.w.` :.5.7.L.6.[ d.>XqX'.dXDXHXhXS.m y t $ O . o . . O $ O o O O o   X . o * m F.$.f a 4 3 a 3 a f K I D B.B.< = $ $ @ @ O . o O 5 y &.e.m S.hXhXbXDXS.e.aXF.nXxXA.+XcXxXSXJXJXbXG.R.R.W.d.7.3.[ P.OX|.Y.R.|.Y.L.6.{ Q _ { } W f 3 a j a w A I 3 3 Z Q ^ H | f.~.L.5.6.d.U.Y..XU.R..XW.U. X!.!.!..X Xl.E.OXOX|.:X>X,X0XmXeXd.l.5.:.' ;.S 3 q a G H Q W ` Q G P 7.l.7.6.7.5.'.qXqXoX3.Y.R././.Q.W.n.U.L.7.} |.NXGXyXQ.Q H ' 6.7.7.[ H P d A Q L.6.x.I.d.q.7.W.:.| L.b.T.@X@X+XL f ,.J J f L 9.:XT.9.+.[.kX>X1.J f L ].<XT.].g.].p 1 o.R 6 X.%.$.! p i 1 2 q < a F ..+XgXAXxX<X+XC.D w 1 , 6 6 i =.X.k.P.>.#.c.1.O.l.[.OXqX-X#.3 a i i ..8.;X:X).#X0X+XgX:X1.C.S.dXfX;X..G.F.F.T.U.Q.T.1.,.! 8.<XdXr.=.h.A.dX*.i 1 g p.j...+.0.-Xb.W J +.V.1.0.z.*.c.X.k i p J h.X., 7 t X.*.F.A.&XA.C.A.V.V.C.fXgXF.F.p.h * * < 6 B.+X+.b G.g.%.: k ) l =.+X1X;X*.) *.*.m.g , * , t @ # t j j j =.r.B.~ i 1 6 i 1 5 i i b S.+X8.a i K O.O.L p i i a f D a a f X.<.O.X.X.o.O.R K ! S ",
"1 f D p e ^ f.f.3.>.Q H Y Y _ 3.5.,.O.^ ^ K S p w 3 1 1 1 i p p G F D S J R O.` J d e e w w w w Z Q f.T.A.+X+X0.L f S T R f a q w w p p F F G H e e Z H _ 3.1.~ W T o.R d Z Q Q H H H } /.L.G i 4 A F A p a A Y H I w w W ! A d P 5.H a a p p K ! P A Z w 3 A ^ -.G e F A S ! F / P p I G ;.` :.[ H _ 2.P H H I w W -.` P ] >.F S K A I K W G H Q H G | _ Z Z Q ' _ I 3 w Z w p A w 3 w a w w p I H Q _ [ H H Q H | | 4.` -.E._.' ' | { } _ ;.W F F 5.5.[ _ [ 7.I.L.7.7.3.` _ _ 3.} d.9XY.} 3.L.l.`.@XC.s , # @ o o o o o o o o o o % % o $ = , y v e.aXVXCXgX+XhXDXpXM y 5 - - - + X X X X X X + X X + - c c B e.N.=.F.CXvXG.q.-.:.U.5.4.6.U.` s.].fXDXKXDXaX=.h y < @ . . o . . O O O O o O o X . . o t =.F.V.-.5.5.d.k.`.'.OX=XR.T.V.B.t = @ @ O $ @ o o O * 5 &.=.&.e.pXjXjXCXpXjXDXjXdXB.C.S.Z.A.gXFXJXCXbXC.q.R.I.R.I.4.L.Y.P.L.4.} } [ | H p P } [ K w 3 q 4 3 a e e w w w w p w w G [ d.P.!.W.R.R.=X*X*XQ.U.R.oX|.W.P.~.U.T.kX0XwXlXXXE.T.:.^ F G / [ } 7./ d > q p G -.L.I.6.U.U.U.oX|.W.T.Q G Q _ 6.U.t.I.d.} } _ H -.[ ).bXAXmX3XY.} Q ` [ ^.^.d.H G [ Z A P Q t.7XrX4.L.4.| H -.P P #XCXNX{.2.P #X+Xc.$.d ~ 2.,.A <.*.2.*XQ.v.+.S ).jXxX! L x.XX).$.g.,.j 2.F C.,X+XX.# # q , 8 O.v.,X].fX:XlX<XV.9.9...a 8.A.g.:X'.l.|.! *.+.D 2.#XlX:X|.T...j q 6 O.&X}.v.`.XX@XkX9XkX<X#X0.sXLXCXwXr.+X2XF.h.#.o.,.;XA.8 i 8 i L r.C.r.S.j...8.T q 8 ..L s.{ ~ w 1 +.C.].c.s.@.aXpX=.B.}.+.b X.e.0.C.V.C.+X&X+XG.X.%.X.=.S.F.Z.@.G.+XF...X.*.j =.dXB.F.F.$.J j j 6 j c.+XA.$.L %.=.%.s , , & & < @ = # , i X.Z.A.g.J 3 2 > 3 i b 8.*.$.%.X...a D -.z.q.#.f i i a L S a f E ..j j k a o.+.f f J a ",
"1 S W F G ' d.x.>.] W W W W H Q ^ F p p F ! ! K ~ o.i i w d F F W ,.8.<.z.C.,.T f a q d W ` W w w A ;.k.1.2.1.9.O.J S D o.O.J w 2 > q q w w Z H G G H [ U.Q.5.-.| { 3.[ ' { P.P.| Y Z  .{ W 3 8 3 w w d a 3 d W H A w K ;./ W ^ w.5.` Z P / H ] 7.5.] :.5.:.5.[ _ ` F P P W ! A G W P F W ] ' [ 7.7.} 7.` Y A w q I ` ] F H A w w A e H H F H Z G P Z w G Z Z G H H A I I I w q w w w w q w G Q ] 3.' H H G Q F A G G ] R.oXoXP.:.P I I Q ` _ { :.H | } [ Q.d.[ 3.U.I.L.d.d.4.6.I.7.3.=X!.6.6.6.x.[.<XC.j , # % o o o o o o o o . o @ o o @ @ 5 v M iXvXhXdX+X@X+XCXvXB 7 5 - - ; + o X X X X X + X X + - - c c n m =.;XSXDXbXG._.Q.zXXX6.U.T.,.B.CXJXJXJXjXB.v y < = $ o . o o o O $ @ O o O O o   o % b D.hXF.q.[.oXT.E.zXqXoX|.3.:.! =.h * @ $ @ $ @ o . o @ y v M &.M.D.dXjXDXvXSXDXpX*.$.+XjXjXB.r.SXKXSXSXCX+Xz.3.P.4.4.6.} Y.L.} 4.} ' 4.[ W 3.} _ W F A a p S p w w w 3 4 w p F :.6.6. X^.R.U.E.|.|.=X.XoX.X*X*XQ.l.5.T.<XlXlXU.!.XX|.OXoXOXOX2./ F K K H G F P ^ >.^.3XOXY.Y.R.L.R.|./.'.E.W w I / Q _ L.t.Y.Q H H w.kXBXFXFX1X[ | 7.5.P.6.q.5._ [ 5.7.` Q } f.4.t.eXL.p H ` 3.G A 1.v.mX<X5.H l.5.`.wXwX,X{.].O.L q.b.,.z.q.5.k.x._.[.KXJXC.C.V.T.:X}.+.<X-X` S S -XxX].j 6 6 w O.#.O.`.V.w.C.*.0.o.j ].{.Q.wXfX#X`.f.a ,.V.xXz.( -.#X<X{.XX].z.].o.+.[.f.! ..0.<X&Xf.R.cXlX0XfXLXLXSX>XfXxXMXfX%.k j b *.V.C.s.q a f b =.+.B.F.O.$.( a 1 E g U 2 8 h X.) R n.s.l e.DXSXJXZXj.B.=.h X.c.O.$.O.8.0.,.s.X.g a b *.h k X.G.gX+XC.z.V.A.].fXfXxXdX0.,.k.b.T g L =.=.X.+.b *.j 5 < < & & @ @ $ o @ k o.#.s.J i i q a j X.B.c.+.j a f j k L x.V.z.~ i 1 k L O.T f g j i 1 6 5 8 X.X.f f i q ",
"q U ] 2.^ } f.l.;.F Z e d ~ F Z F w > > 4 S R ! :XfX+.a w A F ! z.V.V.C.G.0.L J L f 3 w H { 3.2.R J T F F ! ^ / ! K S 4 w W ^ P f a f f p K W / :.` Y ] Q.Q.Q G G _ ` G G Y _ _ A a a p e e w p K ! K d S w w A | Q A W ` `.kX<X-X>X_.1.z.,.O.` I.L.6.I.I.L.L.I.P.6.P G H H A w 4 d K F Q Y | [ | [ | H H [ ! d S Z H 6.F 4 w L K w 4 G Q H A G H F p 3 2 4 q w w w Z Z A Z p p A A w w w G Q [ [ _ _ d.k./ / H w 4 I 3.^.P.[ _ { ` Q / W Y | _ _ [ | ' | { Y.' [ [ [ [ [ L.I.I.R.6.d.I.R.d.I.6.V.].:Xh.s < * % o o o o o o o . o o o o o O @ < v &.aXPXjX+.O.E.v.bXVXiXc 5 * = ; + O X X X X X X X + + ; - - u y v X.F.SXVXjX+X6.U.Y.q.:._ ` 0.SXJXDXHXHXaXX.h v * $ $ . . . o O @ $ $ $ @ $ O o o o # e.jXCXdX@X`.k.k.l.T.5.>.[ ] ` O.r.b u * * $ * $ . O o * t y b &.B.D.jXdXSXDXCXvXaXB.pXhXMXMXjXS.aXKXJXHXFXJXgXw.7.6.7.d.R.qX8XW.R.I.7.L.OX{ [ 7.Y / Q W ` {.`.8.C.).>.| 1.:.[ f.U./.!..X.XI.R.Y./.W.L.P.!.^.R.Y.R.'.oXeX>X>.>.'.8XY.W.I._.'.Y.!.6.` :._ ` 6.L.Y.Y.R..X4.uXP.L.P.6.' [ d.3.3.:.Q / ` H 4.} Y 3.` w.@XlXGXmX^.{ ' 5.6.} f.L.Y.[ [ H P ` } { 6.P.} 5.7./.| O.9.l.l.5.k.-.3.[ ' `.k.] F f w.q.+X{.,XT.Q.l.P ! ].#Xx.XXR.'.E.gX<XZXZXkX>XT.OX0./ f.d.G w 8.SX].` ) y G ` K j j.c.#.F.S.=.k *.+.*.8.v.*.B.0.R 1 B.xXlX9.V.b.T.L.7.3.k.@X3X8X+X).9.O.3.d.w.~ a 8 ~ i.d.G.HXLXKXgXgXc.w.:Xf b R J C.2.q.C.+.X.j.+XG.=.B.;X].V.$.A i k j j b n M.H.b +.s.X.n iXnX{.hXDXZ.&.e.=.v L o.L 0.*.o.,.k.*.k i j X.k k C.kXlX<X].[.:XfX;X<X+XkX<XC.+.! +.K f g E R =.j <.T 1 6 5 5 , & # # @ $ 6 i j *.=.j k i i f L +.B.*...L E j j f W #.+.K f 6 5 k =.8.~ j 1 6 < * , 6 j X.E j i 3 1 ",
"r F / / Q ( ;.~ ^ W G p p 2.$.1 e d > > 1 q w Y wX,XJ a p p K ] `.].0.,.^ T w f ^ ,.a w F H _ ' ] / F p 8 d Y P D F S i q p / Q F G K W H H W T Q K e e G F I a H ;.-.! G G W Q O.F A D w A S S Q / / G K A w A F W G H H [ Y.oX^./.P.P.6X4X6.P H } { 7.7.4.4.[ } 2.A A A p a e i w ` ] H W -.Q I Z H Q F Z H H Y _ Q _ G A P O.} P S W ' Q / Y Y Q ` k.-.w p L H Q Q G G Q ' 5.4.} | G G H H H P P 3.!.Y.4.} Q A Z :.' | | ` _ ' } } } [ _ | [ ` ] [ ` P w Y { _ _ ' 4.4.Y.d.6.Y.t.d.4XoX|._.I.T.&X:X%.a < & o o o o o o o o . . o o o o O @ , v N.vXvXdX8.w.).V.fXhXsXB y , $ $ O O o X X X X X X X + ; - - - 5 y j ].SXJXvX+X0.~ Q [ 4.:.h.gXSXCXDXCXVXS.h y y $ o X . . o o $ $ O O $ O $ O O o O * M.DXDXC.#X[.l.).E.T.W. XOXk.P W B.M 7 * = @ = $ o o O = # y m =.D.S.jXbXCXCXCXDXCXDXCXhXgXhXhXpXaXDXCXCXSXJXJXF.q.E.|.Y.6.U.W..X!.R.7.Q 3.3.} t.3.6.4.7.' b./.OXLXKX).>.L.Y.L.7.E.|.!.Y.L.4.I.R.I.R.U.L.I.k.'.,XNXkX{.1./ 5.OXwXW.[ Y ' 3.[ 4.L.R.7.7.7.-.3.} } P.f.[ I | d.[ G Q 6.3.` Q ] 7.7.' H H U.f.| ' <XAXFXGX*XI.q._.OX XL.L.R./.R.T.w.P Q ` ` ' q.'.f.l.q./ p w.`.I.6.6.L.d.3.F P k.W w > k jXdX`.E.6.P.x.1 a b.V.!.Y.q.7.5.6.O.5.@XcXwXNXz.,.r.$.k L :.-.-.].OXC.S.E p f 3 g E E i a z.dXjXgX*.B.hX;X=.G.<X&Xe.dXmXF.b $.6X6.O.+.O.5.`.W.{.+X<X=X).Q.2.P | G F Z 8 k *.DXLXKXFXMXC.=.=.$.@X}.s.T ! O.+.9.( ,.+XJ.Z.B.F.;X&X@.D T j b Z.jXvXVXaX@.*.l y M D.C.*.G.H.m =.pXVXvXpX=.r.bXA.+X+.+.c.=.6 6 *.0.j `.;X+XfXkX,XgX<XdX,XdXF.+XC.$.L k J L 2.q.0.*.8.$.8 6 , , 5 5 5 * @ $ 5 =.+.B.+XH.B.%.L j p f a ..O.X...X.*.0.X.g a a j L k k h =.8.o.j 5 7 k t i k X.%.X.a q > : ",
"> g F U W T D d D ! / F F W R 3 3 f f p a p W 5.wXXXD G W P K ^ ;.9.,.S F W T D A S f f A A w w Z G w 2 # 9 r Y ^ ;.;.,.1.2.5.5.~ G G W P F G p w f L f p w w d ;.x.,.! ! Q P O.:.` W ;.W K ! K S w w F F p p / _ H W ] _ ' L.^.P.P.} uX/.^.~.!.H | | ' [ 7.} 4.6.P w P W w p K A I -.Y P F W K F I W ` H p p G / Q | [ [ 4.7.:.Q H W Q Y ` -.-.| ' Y.6XeXY.' | | L.Y Z _ { | | | Y Z Z H / P Z H _ ' [ ' [ [ ' Q Q R.7.7.I.U.7.4.' [ _ ' 6.3.7.} } 4.L.4.` | [ ' H 4.L.4./.U.L.!.P.f.^.5XeX4X!.T.{.].o.i , @ o o o o o o o o . . o o o o o @ * M pXVXvX+X`.T.5.-.).+XjXaXM * = @ O O o X X X X o o X + ; - - - * 5 g F.CXHXCXF.V.q.6.6.7.-.B.SXSXhXhXCXhXe.h 5 $ o o X . . . o = - @ O $ O O O O O = 5 S.DXVX+X_.!.3X5XQ.I.|.oX*Xd.] F 8.M.y 5 * @ @ O o O o O = h m b D.D.jXdXhXSXhXCXSXDXCXjXjXCXCXJXDXvXjXMXAXCXJXJXF.O.' [ 7.7.7.:.5.I.I.6.6.Y.Y.Y.L.Y.'.E.:.1.L.!.MXxXOXR.q.:.5.4.d.4.P.*Xl.x.T. X!.=X=X|.oX-XwXlXv.^ d w 3.U.:.Y Q H H ` :.3.R.U.Z 3.!.7.G Y [ 4.L.3.7.q.U.OXl.` q.7.U.R.:.5.4._ R.U.5.6.[ [ R.8XwXtXf.:.!.R.Y.d.Y.L.[ R.^.^.rX!.7.:.f.P.d.l.4.uX4.L./ K } 3.] l.6.4.3.} b.q.^ 4 q > j gX<Xv.OXx.).T.] 2.! q._.q.6.q.l.3.`._.P.G G |. Xj ~ ;XZXdXz.:.XX].v.A.A.0.$.+.a i 1 1 , 5 =.+XgX].[.lXV.o.A.@Xb.-XB.+XdXF.r.r.G.C.C.`.z.).q.#X>XmXwXXXQ.;.p p S 3 D F 3 a $.aXDXvXVXCX*.$.9.b.,.<.w.f 1 g a G i k %.X.=.=.e.D.n.~ g z ) o.;XVXVXVXjXaXaXS.=.e.pXG.pXaXB.X.N.VXHXFXCXdXfXNXAXgXA.0.~ ( +.6 bXMX%.=.B.:X{.:X).q.G.fXfXlXC.C.V.9.X.X.r.q.].x.z.c.*.0.B.S.h , * 5 5 , < 5 b 0.A.].+XF.j.*.$.J a a a J ! ! ..*.+X;X=.t i D L +.;.E h X.X.j b b =.*.X.b b *.j.o.i 1 2 # ",
"3 S D K ;.;.K a w E ! ! ^ A K K S W F d G ^ b.Y.Q.:.P ^ ! K f p A S S S p G F f a 3 3 w e S f i 4 3 : % % % # > Y 2.:.k.l.7.:.3.5.-.! F K ^ ~ A w K O.F G d S J -.v.1.P W ^ -.+.-.O.H W / / F A a 4 > 3 a K F / } ` _ 4.L.!.5X/.} } } P.t.} P./.7.H Y _ | ' } L.6.7.-.Q ` -.1./ K H W.7.H O.K W Y ` :.} 5.O.F _ 3.7.[ ' Y W F G p w G H A p 3 w H ` G A H Z Y H G F I p I p q > > 3 4 4 H P G Y | } ' ' ' 4.4.} I.U.L.L.~.P.P./.4.L.d.[ [ 7.6.:.| ' } P.P.U.6.4.' | 4.L.Y.P.t.4.' Q H Z | ^.*X Xx.`.c.E 0 & @ O o o o o o o o . . o o o o o @ , M aXPXvX].l. X[ P -.<.F.jXN.7 = @ O o o o o X X o X o + ; ; - * * < a C.CXJXCXdXV.v.E.I.l.V.dXSXhXaXhXdXS.v 5 5 O O o X o . o o $ = $ O $ O O O @ $ * y aXDXjXA.q.6.P.[ U.Y.d.W. XI.6.q.C.S.v 5 * @ = @ . o o @ * 5 v j S.aXjXjXhXCXhXCXCXCXhXhXdXdXdXMXCXDXaXgXNXhXhXJXdX! _ 4.d.4.L.d.4.d.L.d.L.4.-.;.4./.>XXXXXI.6.I.R.4.4.4.l.7.6.l.'.T. XqX>X8X=X3._ ' / Y | d.f.] D K q w H ` ` G H _ Z Q ` 3.Y.U._ H Q.d.` ] 6.d.4.6.7.:.[ Q _ I.Y.3.L.!.6.Y.U.3.d.6.[ 4.q.I.d.| ' ' P -.6.} [ [ 6.|.I.R.} P.R.} [ 3.Q Y [ 6.7.6.R.l.f.l._.T.[ d.Y.6._ Q f.^ ~ A p q i T i ^ 5Xl.k.5Xd.P ! =XcX=X|.l.f.] >.O.3.K 8 6.i.f a j 2XZXbX+X5.l.O.^ 1.|.-Xk.V.&X1.O.9.*.*.,.C.<Xv.9.A.+.h.<...1.( C.+X,XF.hXdX;X{.{.:XOXoX>XwXb.w.Y H I R 0.$.f 3 4 D ~ a &.hXB.*.&.%.k.a i ! ` 7.K # & 6 i E X.j $.+X}.j.B.s.( s 0 s T 9.D.aXaXjXnXnXaXr.F.hX+XjXaXpXG.jXCXhXMXfXfX;X;X+XF.lXc.k F / j CXFX%.f C.@XV.V.9.q.+X+XcX<Xk.g.0.z.9.h.G.x.k.z.,.a i *.lX2Xi 6 t * 5 h j j E o.8.8.B.*.+.+.<.K a S K X./ ^ +.r.dXdXe.=.X.+...,.f.E t t k k X.r.C.h.*.=.*.h.%.g 1 1 , , ",
"4 S I A / ` / K d ! P F W A K W W F e w p e Y | ` P ! ^ ! f a 3 a f a f a a f a a i 3 q p J o.L f R k # % % % # 4 Z Z _ f./ A _ 7./ F d F P F A Z W ` Q ` ` ;.-./ ~ ! K W / ` ^ +.! G w w e w p d a 8 > q Z Q d.L.L.L.P.} { L.' | } P.uXuX} P.^.!.H H _ _ { } 6.d.I.I.:.' [ 5.[ P Q P.6X@X#Xw.Z Z Q | ' | G G Y _ ' Y G e w p w 3 3 w q > : > A Y T q : > 3 > w H H ' {  .Z Z W _ H H | } | } uXP.} [ [ ' 7.L.4.L.5.[ [ ' } uXt.L.!.I.6.Y.U.R.4.7.6.6.' ' P..X6.| ' L.P.^.Y.d.U.` Z F :.3.L.L.|.l.).h.J 0 & @ O o o o . . o o o o o . . o o % 5 e.vXHXhXz.:.| Q ' -.P O.C.D.n - $ @ O o X o o X X o o O + ; * * = < s C.CXJXSXdX[.T.'.|.q.z.hXCXF.F.dXM.&.y * * @ O . . . . . . $ = - $ $ O O O @ * * v VXDXpX,./ 3.0X_.-.7.3.L.U.|.L.R.{.B.h 7 * * * @ . . X O O * b b X.B.F.jXF.hXhXH.F.jXdXdXjX*.Z.gXMXSXdXS.CXDXgXAXMX).l.k.d.d.3.7.[ ' | } [ :.x.:X9XeXkX:XT.R.3.3.I.R.:.H 4.U.I.E.qXqXqXQ.l.W a 3 3 i a L / Q Q Q F H Z Z H ' ' [ [ } ' [ d.d.L.4.| H ` :.] P ` L.Y. XU.4.d.R.6.U.d.U.U.4.6.[ ' ' 4.6.L.L.Q.9X} ' } | H :.0Xl.Q Q | P. X|.W.7.:.7.[ | P P _ _ ` ` :.] -.:.E.E.x.I.d.[ ' I.d.S e F d w a w a a [ ^.OXW.i.;.O.{ P.{ _ l.[ H F i i ] -.F j a j j $.<XgX;X1.x.9.S D d 8 S @XrXI.OXkX{.v.XX:.=.[.k.g.C.h.}.).l.Q F }.*XC.fX+XV.T.[.XXW.XX=Xf.w w Y f I n.lXlXC.O.D 3 1 L +.s.=.j E s.f.q a L ` k.R ..X.< < +XA...>XBX-Xg.&.l g 0 < < 1 j B.H.aX;XdXH.S.S.VXZXhXgXK.y.&.dXAXhXxX;Xj.Z.].@XzXSXvX*.k i i fX<XC.0.+X+XA.C.G.G.gXkX<Xz.k.1.O.+.<.,.+.2.^ S 3 1 8 L 9.;.K ! %.v i o.R a j j J X.*.*.9.$.! F P ! ^ ^ +.-.8.G.dXF.S.S.B.*.O.#.T 3 , 6 k j +.h.h.*.*.Z.B.*.j 1 < 1 1 2 ",
"3 f A A A A P / W O.W A F D D D A ! ~ o.S 3 A / ^ ` 2.^ 1.W K $.J #.O.K P S J S j a q p G W ,.K T #.+.6 # # # # > K H H _ P G _ 7.` W A W / P W G Y ` -.;.^ ] { P A a a p w Z W Y W G a 3 3 p p p F f S L G L.7X%XL.L.} |  .| ' } /./.P./.P.P.^..X` H Y ' [ } :._ 3.3.` ' } 7._ G ` [ P.XX7.Q Q Y P P Y G 3 I / F G I I p w w 4 3 3 1 : 2 > A [ / W F q 3 3 > 3 H Z Z w 3 4 4 3 Z w Z G Z I I G Y H H [ 6.I.P.t.t.P w Z G | } 4.t.L.P.L././././.I.L.4.[ { } /.U.L.Y.P.L.} 3.Y.L.U.U.W..X X4.Q L.x.`.c.j 1 & @ o o o o o . o o o o o o . . o O 5 e.vXDXpXz.7.H Q ' 2.+.w.G.jXe.- $ @ o o o O o O O o O O $ $ $ @ @ , s c.MXSXDXdX).`.|.|.l.q.jXjXB.D.jX&.v 7 @ $ o o . . . . o o O @ = $ @ o O O $ * * v VXVXG.-.G f.W.'.P H _ ] :.7.4.U.v.C.b 5 * - * O . . . o o = 5 k b X.S.aXB.F.F.F.F.F.F.F.aXB.B.;XMXFXSXpXF.hXfXxXlX>XE.6.d.3.7.6.:.7.6.3.l.AXxX].>X5XzX<XL 2.Y.Y.W.`._.W. X=X!.Q.U.1.W w a S R 8.O.5.L./.>.Q _ ] ] 5.U.I.} 4.4.L.4.[ 6.7.d.d.' 6.7.Q ` k.U.6.5.L.L.!.R.Y.!.U.Y.d.} E.I.7.| [ [ 6.d.L.I.} { L.4.d.l.|.l.|.=XR.:.7.U.d.3.U.R.d.d.Y.6.7.5.k.l.7.7.I.3._ :./ -.V.[.k.G 7.6.4._ w A D W G p w i J I :.OXk.O.Q o./ w 3 [ Q K w 3 w i p ^ D q i i =.xX@Xq.S V.@X-X`.f +.V.XXwX).x.8X=X[.[.3XG ..lX;Xj b v r.T.d.J T D G 0.A.A.x.9.q.z._.x.W 4 8 8 A U A x.-X{.=X4XT.8 8 <...*.X.+.x.g.a a K J E o.D V.A.a 8 J #.C.kX<XfX:XF.*.h i , , t j 0.A.C.B.+XG.bXPXKXSXCXgX*.N &.:X0XF.].C.c.n.C.G.bXCXCXgXA.j j X.0.r.9.G.G.;XB.*.G.gXA.0.,.W K J a K #.! L L p 2 , 1 T K $.v.k.0.*.X.X.i 6 6 1 i X.%.$.O.;./ / ` ,.1.d.+.o.8.C.B.B.e.*.*.+.$.j 1 & < k L X.+.=.=.X.=.*.c.%.f i 1 1 8 8 ",
"1 i a d p f T T ^ / W W ! ! W W K 9.k.g.$.J L P H Q _ Q 7.] 2.,.K / 5.2.-.O.! ^ o.K K ! P W ! a 3 e E i : 2 q w S ! w 4 Z F G Q :.k.1.F F ` / H S W / ^ F e e G Y W W A w w F F W F P O.K S a w G G F W G [ R.*X7XL.' H H  .' t./.$XP./.!.Y.Y.^.P.' H _ 4.[ | ' ` _ H G ` 6.:./ P Y ' _ ' ' Y _ 3.-._ Y Q P F [ F Z p w 3 3 3 3 4 3 > 1 a G ` | Q G I 4 4 q A p A e q w q 3 3 3 w p p F ~ P S K | [ [ 4.I.Y.P./.Y.5.P :.|.L.4.L.t.4.L.t.t.t.P.L.uX} t.} } } 4./.Y.4.Y.4.' L.Y.Y.Y.P.P.Y.!.I.7.} x.[.C.j 2 # @ @ o o o o . . o o . o . . . o @ 7 e.vXDXdXV.R.XXq.-.k.v.V.pXvXpX- @ o o o o o o o O O O O @ @ @ @ % < j <.gXCXvXdX).2.l.6.:.z.hXD.M.S.D.m 5 * O O o o o . . o O O O o o $ O o o O @ @ * v jXaXr.O.a A F 3.:.5.k.1.q.l.l.I.E.+X=.7 * - - O o o . o . @ 5 6 j =.S.D.B.C.F.S.D.H.F.B.S.*.r.S.dXMXSXbX*.;XfXxXgX[.I.L.Y.L.I.XX=Xd.5.d.1.h.+.L ! k.4.n.E <.OX4X|.wXzXwXQ.] F w 4 3 3 4 G Y  X X} | H | H Y _ U. X X.XeX!.L.!.!.P.7.!. XI.' 3.I.R.!.R.L.d.|.R.U.L.I.6.d.f.W.P.4.L.6.7.6.l.R.5.I.d.W.R.I.OXI.!.Q.T._.7.I.!.d.f.[ _ Q H ` | 7.!.R.!.7.d.U.5.f.U.[.,X` w Z / k.&Xf.3.f.3.f.Y P G L K / 1.D a 3 p D ~ +.p k.q.q a a [ } ~ i , 1 2 3 P g > 5 ..&X9XeXOX-.,.Q.C.<X:XV.).`.q.C.c.1.2.5.q.w.h.Z.;Xr.&.gXdXvX&XQ.+.j j +.].kX{.#X#X).@Xz.,.L f q 4 2 w f k.f.w.).@X8Xg.+.+Xr.=.F.xXxX<Xr.=.8 a i k J $.>.k.V.+...R C.F.fXlXlX1X%.i < s #.o.$.B.+.8.;XkXZXSXDXCXMXA.*.g.V.`.v.<.s.k.s.@.Z.<XV.+XF.+X1X#.+.G.z.L ~ 0.*.*.B.}.A.+XB.+.J w f K f f O.( L f a : # : i 8 k R o.b m j 8 i i < , y X.o.R ~ ^ ! w.d.f.2.,.E j +.0.$.*.*.*.X.=.8.s $ * s +.X.X.=.=.&.X.b =.<.X.....j k j T ",
": 1 1 3 q D O.O.! / W ! ! ! ^ ^ J S S / ^ S p A P G A P ` / ;.L 3 3 G ^ G R o.#.w.;.1.9.O.S w > > 4 r 4 > w U G w p 4 2 4 H [ ] G H ` W G W W W f F _ Q F S S F Y G W / Y ` ^ G I G ` [ [ ] H ^ f.:.-.:.H } Y.OX~.L.| | [ | [ } } Y.P.} Y Y ' } } ' _ _ } ` ` d.-.] ` -.7.L.[ / :.:.Y | 4.d.} _ L.7.7.} } 4.4.} _ G G w w q q a w Z G ! W ' ' H A F P S K p w A W ` _ [ 4.[ ` ` 4.Y.Y.P.^./.P.L.Y.W.L.L.!.!.P.L./.~.8X!..X3X/.P.Y./.Y.L.|  .H Z  .} uX} } L.4.P.Y.P.Y.~.^.^.^./.^.~.!.t.L.Y.L.I.T.+XA.L 2 & & % o o o o . . . o . . . o . O $ y e.sXVXdX,.W.|.U.l.E.T.V.dXvXsXy @ o o o o o o o O o O O O O O O @ & s g.1XCXDXjXC.,.T.XXl.c.dXS.@.=.M.y $ $ o @ o o . . . o o $ $ O o $ @ o . o @ @ 5 n pXaX*.W 6 3 2.T._.R.E.q.U.W.Q.!.R.-Xc.6 - * * @ o o o . . O u t h X.e.S.F.jXjXpX&.*.&.=.*.X.=.B.S.hXjXj a +.C.fX{.1.6.} } d.d.f.3.[ 5./ f 3 p d ~ W W ;.X.X.d./.d.;./ a 3 3 q S O.2.2.[ ! I ! G G A d f 5.5.7.Y.d.L./.rXzXoXL.Y.Y.L.$X^.E.W.Y.R.!.L.L.Y.!.!.U.U.L.3.[ 6.' d.R.W.I.7._ q.k.T.oX'.6._ d.|.!.W.I.d.} } Y.7.' } [ H _ -.' 7.I.I.q.7.4.7.U.q._.|.U.-XFX{.G Q b.x.q a k S P ;.Q I F O.! ^ R E D F J L a a ! tX} 4 1.Y w W d 1 3 1 L w.-.1 8 V.mXwX=XwXmXzX1.o.z.C.+X9.L 0.x.1.r.r.C.bX].].gXZXdX+X1XBXBXwXtXd.>.r.+Xz.B.9.5.r.V.+XNXfX0.,.g.o.S k k $.W a {.@XcXkXC.A.kXxXZXFXDXCXMXDXCXpXe.r.X.( ..f 0.+XF.j.r.=.+.k.g.h.&X<.t s l A.v.X.b *.0.*.9.:XgXMXxX<XV.C.V.9.-.O.o.~ ~ g j %.h.O.<.1.z.9.<.C.gXb.J j =.o.%.h.$...0.b.#.j f ! ,.o.d j ( ~ p 1 , # # , 6 v &.*.X.=.k 6 E s 1 8 b X.f L W K +.q.;.W ! o.f k +.8.=.*.j.*...r.A.j * 6 T X.j b *.B.S.B.*.r.+.j ..*.$.o.o.T ",
": 3 a w w G ;.5.$.! F K F w F W L a a a a q w F o.S p ! D q d f 1 2 4 d a 1 i L ` _ _ <.,.J a 3 3 3 3 w S K K a 2 > 3 f D Q 3.' F w P ^ G G F W S A :.:.-.! F / +.F I H _ [ Q F ` [ ' [ ' } 6.l.L.W.6.6.' [ W.Y.~./.L.} } [ |  .Z Z 3.[ H w w G Z Y 7.7.{ :.5.U.7._ _ ` [ { _ :.6.4./ Z | L.3.G Z Y H H Q _ [ 7.7.-.' Q P H Q _ ^ [ ' ' | 3.Q S d F Z H G G ^ P H ' I.R.R./.P.uX6.f.} 7./.!.Y.I.} P.Y.Y.L.4.} [ t.P.!.R.P./.Y.Y.!.Y.P.4.L.I.[ _ ` { | H H Z | } } } 4.P.L.4.t.P.} P.Y.} P.^.U.'.[.@XA.E 1 , & % o o o o . . . o o . . o . o = y e.vXVXF.1.4.4.L.k.7.:.V.MXDXjXn @ o o o o o o o o o o o o o o o % @ 1 W &XCXHXDXdXC.V.,X{.A.F.&.m =.v 5 @ o O o o . . . O o o = $ @ o o $ o . . O * * y &.e.r.( h.`.XXXXoXoXI.[ H H Y ` 7.3.^ j 7 - * = o o o . . o $ * t =.X.=.C.aX&.D.S.*.m j X.m m *.B.jXF.*.j j 9.v.1.;.f./ _ [ Y _ _ P ^ K ~ p 3 f L O.9.k.;.! A w 3 1 1 3 p ^ W _ 4.[ 4.t.W.oX:.1.x.'.W.!.~.~.P.Y.' _ ' _ [ d.3.' [ 7.4.!.!.!.4.4.6.[ [ 6.U.4.} 4.[ 3.L.E.R.Y.L.R.R.I.R.XX{.T.kX0XW.[ 3.I.1.f.} } 7.` } } } } ' _ } uXf.} [ L.4.U.W.H ` d.W.tX3X!.P.Y G U.tXQ.&XA.g.x.2.Q Y L 9.x.d.D 1 X.X.o.T U w 4 ;.d.Q.3.t.3.q & : 2 q Y /.I.-X9.$.5XyX' P >XmXwX^ a q.9Xd.S X.A.[.@X_.,XmXzXzX<X<XlX] W A f q 1 8 +.].+XA.r.X.L J X.*.B.dX+Xb.,.C.C.V.fXDXGX/ O.lX+XmX:XS.fX@XkXAXFXAXDXnXCXSXDXMXH.G.s.^ R R B.;X1X1X+X+X`.) j $.j h &.&.F.A.X.b *.z.j k -.`.lX0X,X&Xc.o.g j g j z j j R o.L J ~ o.] ,.O.C.A.$.b 0.].+Xg.L k +.v.U.$.<.X.a O.^ ! f L ( A 2 # # % 6 *.D.jXF.0.*.X.E o.f i i f a S K L K s.^ a f ! E f L ,.#...r.j.....+XF.b k L f i y b h.c.C.F.Z.c.@.j L ,.,.o...j ",
": 1 d W S G } 5.` W ! #.o.S / ] -.^ K f a a d D d w e D f 3 _ -XX.8 q a f a a e W W G ;.V.o.L f K S A Y / f 3 3 1 4 d W / Y } ' ^ ` | d.` p G _ ^ F Q ^ Y W I K H ` 2.H _ 7.` P _ [ [ 7.4.:.7.:.{ } 7.`  .Z w 4 | { P.Y.' _ G a 4 4 Y 4.H Z Q -._ d.R.6.` ` ' ' } ' _ H Q _ ] _ Q e 3 3 I G ` A 2 > w ! / 3.d.6.:.Q [ } | P A Y ' H Y _ _ l.Q _ _ / I p W ] qXI.I.Y.P.P.P.} [ ' } | [ 4.L.U.L.4.[ [ } } d.7.5.6.L.L.P./.Y.Y.P.t.L.E.6.|.U.4.f.' Q _ / w > 4 w ] ` H G Q ' H H | ' ' | 7.7.Y.Y.I.V.<X;XR 1 < @ o o . . o . . o o . . . . . o = y N.vXvXdX9.-.4.7.{ -.q.x.C.B.pXM $ o o o o . . . o o o . . . o o o @ : i n.MXSXJXvX+X9.9.6.h.S.=.j t * % O o X o . . . o O o O * = $ o o O O . . O $ * * y b ! U.oXU.T.0XoXP.P.^.W S p / 5.q.O.;.h y 7 * $ o o . . O O @ * y m m h *.m B.S.X.h b h v &.M.e.aX*.x.}.f L V.5._ d.Y.` Q ^ R ! d p 3 q T -.l.k.] / A q 2 2 q p I ! S W Q G G Y Q [ L./.~.~.^.!.!.Q.T.6.d.d.3.-.G Q / Q ' 5.I.Y.L.d.L./.P.{ { I.I.6.I.I.oXU.R.I.U.L.I.l.U.d.R.|.I.XX0XW.Q 4.^.P.4.6..XL._ ' [ 7.7.` ^ 6.E.4.{ G G 3.5.w.L.P.4.5.F I W | 3.f.6.d.a 3 8 3 S >.f.P.~.U.>.^ >.5.,.w > : < q i r q 8 j ) K P q.,.E 2 # , %.*.! ;.1.R.].B.+XfXX.X.T.$X-Xc.L [ w.l.T.#Xx.[.`.[.>X>X-X>X0X>X|.! > a *.@.i *.2Xg.$.$.B.*.+.~ X.z.+X*.=.z.l.).+XxXAXGXBX/ _.AXxXwXfXgXNX:Xg.c.V.Z.;XdXhXhXaXF.B.H.H.s.>.k.`.;XF.B.B.2Xn.z @.h.8.&.1XGXcX1Xs.h b C.G.9.$.9.>X:X&XV.j i i k f f %.<.$.$.R X.%.j.X.X.j.%.X.0.g.z.+X+X].].P >.}.k.*.8.B.=.s s L j 3 1 T ^ i , $ $ y =.X.r.B.C.B.8.$.o.s s i 6 i j +.*.s.g.k k X.o.W O.! R g j e.e.=.e.A.*.j X.j k i 6 b *.0.0.C.c.z.X.k b X.X.X.j k ",
"2 1 3 E J I :.f.8.+.k F ] O.1.Y W ,.^ ~ O.K a 1 2 : e T J A f.5XwX$.p ( Q ` ` F d w F k.`.^ W H Y ^ Q ` P a 3 w i 3 w p p w A / ] H Y 4.l.Q H } 2.^ G A K F w q p ` f.Y ' 2.] _ _ } ] [ 4.[ [ [ W H p w G p > G H Z | P.d.} ' | ^ ] 3.6.Q Y [ 7.[ ` 6.} [ w.6.} 6.7.| _ ] Q ` Z H H H W | Q H H K P H U.T.` ' { H H d.4.[ -.w 2 w S p 4 Z  .H H 7.Y / Q _ } P.Y.L.} | ' } 4.4.} [ [ d.L.} ' | | ' 4.L.L.d.U.I.I.L.!.!.Y.Y.L.I.Y.oXcX0XqX4XL.6.4.4./.L.Y H ` [ [ 7.} [ 4.7.' Y | ' ' } } } L.P.R.[.gXdXo.1 & % o o o o o . . o o . .   . . o * h UXvXVXdX8.F Q.l.4.T.U.H S r.bXe.* o o o . . . . . . . . . . . . o @ : 1 <.MXJXKXDXdX0.P H 0.&.v t * @ o o o o o o o . o @ % $ * = - $ o . o . . X @ = & 5 k S ] f.d.3.f.*X'.6.d.3.p > 1.!.L.:.T =.k 5 - - o . . . . o O O - v h i h =.=.=.m k b v b b =.e.X.g O.'.z.p / } _ ` 5.w.5.[.l.d.f.a 2 : w s.s.S > 2 9 # 1 K P P W Q -.H H -.l.U.U._ ] f.;.:X*XL.' R.~..X.XOX'.'.{.l.:.f.8XqX=X=XU.R._.I.E.R.:.3.*XP.Y.!.^.d.R.W.I.R.R.6.R.R.R.L.!.W.d.` Q _ } 7.4.L.W.R.q.:.I. X'.'.{.=XW.T.l.I.P.Y.f.} _ q.q.7.L.!.Y.6.-.' I.7Xf.f.b.O.O.-.9.[.w.k.'.E.=X].=.> 3 1 : 2 : 6 k j ,.j i 6 i o.<.2 8 T.8XzXNX+X+.r.r.0.B.`.:X`.P O.kXxXC.@X>X>XT.] k.1.k.E.|.-X1.k.8X=XXX'.0.].2X+.f c.$.g 3 a *...X.o.$.z.<.$.o.z.k.k.V.<X:X,X{.1.+XSXSXxXZXxX`.f.T o.;.( %.p.aXjXaXB.F.dXaX*.&.S.A.Z.;Xc.s.m.*.*.j.}.m.l A.C.A.J.l i j =.F.+Xk.v.>X0.%.@.s a f K { ;.9.T.x.<.#.=.A.2XS.=.C.c.8.h.B.F.dXC.<X,Xq.C.@X0.*.B.0.0.+.X.o.J i , 1 T f t v X.j.&.h k &.F.A.9.R J L L X.o.o.*.C.F.C.0.L $.+...2.,.K a k =.S.D.S.*.%.j j L a a j g X.$.0.0.*.$.X.j b =.e.e.=.=.L ",
"1 8 a a q A / W U $.f q U K D S A ~ ] ] ] W J a 1 > w A a 3 Y ^.wX+X3 U ] W F J d w p D D w A Z q q 3 G G A p A p d e p p 3 > e A G _ Y ] ` H | H / G F ! A q w e A ' | / F H | [ } [ [ _ Q { [ ! F p I ' [ H  .G H Y | ' [ } f.7.d.[ Z Q 3.{ | _ ] 3.L.P.Y.d.l.d.7._ H Q G Z H Q H H H _ _ Z Q f.} 7.[ { Q -.P P H Y H H 4.5.A Y ^ I F F S S p H _ 3.L.6.t.L.3XR.6.6.R.E.U.I.P.L.} 4.4.} [ [ 7.I.d.t.:.7.4.P.f.U.Y.L.4.} d.Y.!.W.W.0X|.!..X/.P./.Y.Y.~. XP.Y./..X~.^.!.Y.Y.L.L.t.| [ } } t.6.q.V.fXdXX.1 # o o o . o o . . o o .       . o - M iXvXhXfX$.L ! K W 3 S f q E *.B.v % o . . .   . . . . . . . . . o % & i s.MXSXJXHXfX0.9.5.O.v 5 = @ O o . . o o o o o @ @ o @ @ = = $ @ O o o . . o % = t *.,.7.f.{ [ :.l.'.`.9.7.x.2.d.uX} 5.z.%.j t 7 = o O . . . O + o O - 5 u u u y y y t t 6 h y h h h 1 ;.1.`.k.-.-.2.1.2.`.b.^ D 3 > 2 : , 2 2 4 > a j 1 1 W ' | ^ / ' H Y _ 3.6.4.R.[ l.>X=XwXXX'.q.:.1.!.5X.X3X4X5XXXR.!.=XP.Q.3.x.OXq.!.|.|.7.[ L.d.d.3.[ } 7.Y.4.d.W.0XoX5.R.OXU.4.4.d.4.' P :.R.Y.6.E._.qXY.~. XT.E.R.} 4.6.f.:.^ :.>XU.R.Y.} L.P.Y.E.U.f.U.6.6.f.Q.P.U.} 1.z.=X6XL.'.q.wXyX3 8 w > # % B.A.i 1 i i > 1 8 9 2 ;.d.' L.XXQ.n.<.2.9.r.z.n.s.G $.{.lXoXmXyXT.>.f.,.^ 1.;.! ,.w.w.q.` 2.'.lX<Xb.,.>.1.3 1 : 1 X.X.X.T X...R ( R w.V.V.z.B.h.V.w.,.0.dXhX:X;XgXV.8.k X.( j a j p.J.gXhXgXlXZXnXMX1Xm.A.&Xs.%.%.j.].o.U E s i i %.E j j.,.=.r.c.2.z.<.j j l s a L o.k.q.#X+X}.g.0.G.fXgXZ.C.v.V.0.+.=.F.fX}.$.$.C.[.,X+X+XV.C.V.V.].`.z.0.X.k L h.S.F.+XV.Z.&.k =.G.g.R f L $.0.V.l.q.#XfXF.h.0.$.8.*.0.9.,.o...*.G.+X+XB.j i i k a 1 a E O.$.B.G.S.*.=.b ..e.G.aXpXG.0.o.",
"8 a S S w Z K a w p q > q 3 4 G f p G G G G S d f f p A ~ f F d.Q.0.i q U R W o.! F F p q q f d q q 2 : q q : 4 Y F F / -.P G F f p W A K S w A G Z A F ^ G w K F G P Y Q W ] 4.} [ [ } ' _ } ' w H H H | d.4.' ] H _ ' _ | } 5.] H ' H -.f.} [ _ [ 6.4.f.1.I.I.[ 3.[ ] ] / H / Q G F I A H H P H [ ' } 6.6.7.{ :.[ Y W Z | | | _ ' H _ ] w.H 7.:.[ [ } P.!.^.6X9X*X*X9X.XY.[ [ L.' [ 3.4.4.3.6.L.4.4.I.L.6.L.Y.W.Y.P.P.L.d.3._ |  .7.|.4.} } } L.Y H P.!./.!.Y./././.t.Y.Y./.!./.} } } f.W.5.d.].gXdXX.1 @ o . . . . . . . o o .         . - e.vXhXdXV.O.a S L P O.p f ..j ..Z.D.7 o . . .     . . .   . . . . o o & a <.fXCXJXDXdXV.-.:.o.i * $ O o . . o O % o . o O $ O @ @ = = = @ @ @ % o . . O = 1 @.! p G F H ] 3.;.1.`.b.1.-.:.W P ! T R *.m 5 = @ o . . . . O o o @ * * * $ = - * 5 * 5 7 5 t t , 1 d ,.b.XX{.'.W.W a ~ i 2 , , 1 k *.;X$.L K w.W.W.l.Y ;.F ( x.;.H | :._ H ' | ' / 1.L.d.d.'.>X:X}.g _ !.~.7XeXwX=XR.Y.U.E.5.Q.>X0XE.=X X~.3.Y ' _ H P ` 7.P [ d.I. X9XY.U.6._ I.3X!. X.X!.6.I.R.I.W.!.R.U.'.R.!.d.H a ] P.4.2.f q x.|.d.~.P.[ ` ` W | f.d.2.x.T.>.P 2.:.` 5.` H 5./ [ x.C.E f S X.X.B.b X.E 1 : : < 2 w o.=.q.z.lX|.I.L -.T.R f q.9._.:X~ f -.3.{ { k.f.x.q.q.,.K L T O.0.9.x.V.q.1.l. X'.x.W Z 3 4 1 2 i =.X.*.o.j L R L 0.G.+X+X].F.F.F.C.$.&.&.B.].C.gX+XB.=.*.b j E o.s.2XBXlX<X;X+X&Xn.( a i j J X.B.&Xn.T a 0 r h s s 1 l *.<.X.=.0.~ o.R ..L #.o.X...,.C.G.}.+X}.C.V.&XA.F.m.%.o.*.=.L R h.s.$.R 0.@X[.'.).v.{.V.z.k.T.].].fX:Xh.C.+XdXF.B.*.c.8.j *.B.$.....0.z.T.k.+.w.@X;XB.0.$.$.8.$.*.0.9.8.*.G.:X,XF.X.t , 6 i i 8 j E X.=.r.B.B.B.*.*.=.G.hXxXhXdXC.$.",
"k S S S F / L S I 8 1 1 a L ! O.K L ,.h.V.z.-.! ;.! a w A A F W _ ' P a H K F G e F W A q q D K F e 3 2 > 2 : q G w p H / H ^ / f p F K F w G ` K w A q w G H H G P G Z Y Q ` ' ' { ` _ _ P Y H p F | | | 7.` P | | 7.7.6.} [ [ 7.| [ ' :.6.4.7.7.[ [ f.,.a G } ' [ [ 3.7.5.l.q.l.{.E.5.3.[ l.` Y | } d.XX_.7._ P ' | 1.-.6.7.6.^.oX_.T. X6X4.L.I.7.6.7.L.L.4.4.f.[ _ 3.:.] Y [ L.} [ L.Y.6.3.d.d.L.L.Y./.!.d.` H Y | } L.6.' H G G H L.U.6.7.4.3.[ _ 4.L.P.|.W.[ Y.~.P..XL.t.L.} Z F _.[._.q.).<XMXdXX.1 # o o . . . . . o o o         . . 7 pXVXhXdX_.T.5.b.[.3X=Xx.@X>XXXE.:XdXn $ . . .       . .       . . . O # q $.fXCXJXJXjXC.K W R 1 # @ o . . o o # # @ o o o % o o $ @ @ @ @ @ @ o o . o = < & 1 3 3 1 8 i a S p R S p ! O.D L X.j a K X.h 5 @ @ o o . o . o o . o O O O @ O @ @ * * = * * = = * 1 i F J S G _ [ ! 3 p 4 3 f T s.-XXX*XeXP.U.>Xx.5.'.W.O.2 a ( [ Y :.'.U.[ L.!.U.Y Z [ 7.I.!.Y.`.:X8X X7.Y [ U.U.W.oXW.' ` Q P 2.'.=XXXXXU.L.6.7.l.d.d.3.4.L.d.U.|.|.!.4.4.U.7.6.3.4.| [ .X.XL.U.'.Y.x.<XzX,X[.:.H F q p Y ] P o.3.P.d.L._.-.` G F f [ :.` XX` 3.3.R.l.w.5.L.!.` G W k.T...8 f.Q.G.M.c.E k X.U : % # , i f.*XR.U.rX/.>.z._ w...o.d._ U z.$.K 1.k.Q q.1.O.5.k.[.:X0.0.1.@X:X+X<XeXwX>XQ./ :.Y > q 3 : : : a X.j X.o.X.s.X.j 0.;X&X].0.A.D.aXpX&.&.&.e.V.8.B.].:X+XF.A.2XA.j.j.p.F.A.j.*.*.*.2.,.E i j R %.B.0.@.E D i t s g t 0 z @.%.f =.C.o.S ,.*.O.,.h.R X.gX;XX.E #.+.,.k.V.g.%.E k k r.Z.o.j j k L z.n.z.C.z.9.v.].V.x.v.x.q.C.:X).k.8.B.G.F.G.r.V.,.$.B.*.*.0.r.].W.d.T a O.v.8.$.*.*.$.s.X.X.0.h.*.*.G.;X<XB.m 6 5 6 s j g k k k =.*.r.B.B.r.r.S.bXZXZXZXxXdXr.",
"1 F o.a w ` ! ^ #.j a A d.wXgX<X{.,XgXgX;Xc.1.G Z W K p q e p 4 w Y T a p w A w a 3 4 > > 3 q w Q / P K S w w A D a 3 p F e A w 4 G Y Q Q H ' 6.G K K w w G H G H P F F ' 4.7.P w Z G e w w W ^ +.P ' 4.[ ' ' Q W _ '.I.6.6.L.4.7.6.3.l.3._ _ 6.L.5.w e W / _ 3.3.[ [ 4.6.3.7.5.q.W.L.} Y.d.6.7.Q ' 5.q.[ ^.|.6.-.7.d..XL.L.I.7.uXY.[ :.^ f.d.d.'.oXqXOX|.Y.U.7.} qXcXE.F G ' L.Y.4.7.L.L.3.4.Y.[ [ L.P.L./.|.5.] ' [ 4.4.L.6.7.[ :.} L.:.4.P.L.d.L.L.P.Y.P.Y.!.OXW.W.R.=XoX XU.k.-.q.@X#XV.V.).:XxXdXX.6 & o o . . . . . . o o . .   . . O v jXDXbX+X_.W.W.U.T.oX.X8XOX5.x.+.9.dXe.- o . .   .   .             . o % 1 $.fXCXJXKXVXjX*.L g # % % o o o . . @ % @ o % % & * @ @ # # * % % % # < < 1 8 f q w ! ! +.G.r.+.o.*.F.+X0.0.9.9.`.].0.8 3 i < 1 1 * O X . . o o o o o . o o o o o @ @ = @ @ $ # , , : 4 a p D ! F w O.^ ..! :._ ` ` ` ' P q.` 7.f.Y.U.XXk.:.q.^ / _ U.q.q.).6.' :.-.W W 3.R.W.U.| H ` l.!.|.[.].].@X0XR.P.Z Z -.H Y _ 2.'._._.7.Y.P.} [ !.[ _ } 4.Y.Y..XL.!.Y.Y.U.R.U.5.[ R.L.} } 7.6.d.( 1.NXmXlXL 1 8 Z ^ :.U.R.6.{ H _ W.|.7.| [ 5.` Y.'.5.^.[ 6.6./.6.` H H ^ [ :.] ~ W [ _ w q.8.s 6 1 q q 3 : , 9 1 X.! w.-.W S W I d U ^ -.H W R ~ O.x.2.T S o.1.Q.9.Y.b.`.k.2.{.l.;.2.l.Y.!.!.XX_ a ( q : : : & : 2 j X.j a d R D E X.*.o.*.h.8.r.M.N.pXhXMX1X:XQ.c.C.].].:X;XgXwXC.X.m M.D.&.@.e.Z.Z.s.s.o.%.h.s.X.o.R z g f j s l l s z E a.) ) %.0.+.X.z.C.g.~ L i X.hX2XE i j +.8.C.c.%.g q e a n.&XT i j =.C.C.r.0.V.x.q.x.+X].{.].x.z.h.*...J L +.8.V.+XC.8.o.E +.$.V.`.T.E.d.2.o.R W K X.*.0.*.+.E j ..$.=.=.e.S.F.F.M.M v c b l E a 1 6 j *.*.=.*.*.r.*.G.hXZXAXSXCXhXG.",
"1 / $...G >.{.,Xg.a 3 Z { ^.Q.f.d.f.( / G A F q w Z / f 3 q 3 4 1 4 d f w a a S i 2 3 q 3 3 3 G I A A F d A d 3 i a > 3 A G w 3 4 Z Y ' 3.L.L.P.4.:.` P ^ P _ 4.3.7.-./ _ f.d.F 4 w d w w / U.E.L.f.[ } 7.| t.[.@Xx.T.x.OXXXU._.6.d.4.5.H Q 7.7.{ / K Q [ [ 7.` ' d.L.L.L.[ 7.).x.[ [ | H | [ L.7.H } Y.q.` d.U.`.:.' } } [ Y Z G _ W A G A }  X~.*X!.[ } /.P.P.P.P.P.d.7.3.uXuXL.L.6.4.3.} 4.L.} Q | 4.[ L.Y.R.7.[ 3.d.[ d.R.6.f.d.{ d.5._ } L.P./.!.Y./.^.!.oX!.U.Y.I.k.v.{.{.OX-XQ.3.W.!.U.v.+XgX;XX.3 & o o . . . . . o o o . . . . o * e.vXVXfX[.Y.|.`.>XzXlXzX>Xx.Q.=XV.V.dXpXc O o . . .                 . o @ 1 ~ F.MXHXHXvXD.*...a 3 , & @ @ O o o % o % # , 1 r q > > 1 i 1 : 1 3 3 a S I A W _ Q F F A.NXlXfX<XkXlXxXcX{.z.C.].lXMX+Xb k i d d q 1 < % o o % @ * < , , , * # , # # # @ % , ,.:XO.k i L 1.} d.3.l.XXlX&X{.5.I.|.` ` :.d.f.` } f.} 6.5.3.d.uX[ 5.).I.R.q.U.W.U.[ :.I.d.L.d.d./ k.`.`.1.6.0XlXNXMXAXZX`./ W ` 7.l.7.7.l..XU.U.7.d.} _ ] -.E.q.l._.'.R.6.3.4.U.P.!.!.I.E.|.oXd.L.L.7.7.R.;.F fX0X{.k.2.>.4.4.d.P.4.' Q S Z / [ } 4.[ [ ' { ` Q _ } 4.7.| 7.} } ^ ,.[ _ ] w.Q.Q.3 9 C.1.3 6 1 2 , : i a R {.1XzX:X`.9.q.x.W.,.s %.>.I L ) ( `.k.W D J F 1.v.-.x.q.l.] Z G e 4 F ` | Y d > : 1 W : : 9 : : : : j @.R R #.$.$.*.0.h.*.G.].}.W.&X&XF.;XA.n.n.c.8.A.:X`.A.A.G.n.$.X.&.N.e.n M M.N.D.X.h X.M.G.c.m E U 0 k k 1 h j o.( ( ) a.u.a.a.) L *.A.gX-Xh.*.=.r.jXfXz.<.z.n.C.F.g.f 8 J k k C.c.L +.F.+X;XF.+X{.T.V.#X|.+X:XkX,X].h.8.j i i k X.#.9.c.*.R j k X.C.@XT.5.:.` ^ 1.2.K j +.B.c.o.i t i k h j m =.=.*.r.e.&.&.M X.j j j i k *.B.*.X.$.*.r.r.C.dXxXxXZXMXhXF.",
"2 S f a Y [ O.^ ` P q > q A P Q F S p F G A S w i w W a : 2 w | ..1 q I p p a S w w K a 1 i q 3 G q 4 w a f a f L K F W w A G F K Z [ 3.7.} { } t.L.!.Y.d.d.L.d.k.} { _ F Z Q Y I G p w W 6.4.| w e { 3.,.Q P.-XXXT.x.1.>.Q.>.1.4.L.oX).! W ' ' ! / | } ' -.Q } 3.3.U.[ 6.'.:.` ^ 2.5.5.7.` _ } ' Q 6.3.U.`.5.} P.@X9.H | Q Q :.` P P a S | _ _ ' P.L.{ H | } } 6.[ _ ' [ 7.6.7.L.Y.L.7.L..X.XY.L.R.5.` ` } 4.L.I.U.R.W.L.R.W.4.5.L.!.R.7.I.E.L.f.4.U.Y.L.U.d.6.Y.Y.f.Q F p D ^ O.v.b.Y [ !.R.q.@XhXF.j 2 & % o . . . . . . . . o o o O O 7 S.vXvX+XE.L.5.k.Y W.U.^.` H 5.5.O.c.C.aXB * % . X .                   . @ 2 J A.xXDXHXVXpX+.L O.~ a i q 3 6 1 , i q q a f d w w q q 4 q 3 8 j a p -.S d A w a 3 a h.A.+XdX<X,XfXgXlXfX>XY.q.,.g.&XmXwX|.'.).q.x.v.{.B.L a j J J L S ! O.,.! K ,.,.~ D P r.JXKXlX` T / -.I 7.Y.OX_.U.:X5.d.f.Y ,.[.:.' ' Q ] ` :.Q Y { 5.P -.5.] f.L.'.9X4XQ.' _ 7.7.` ! 2.n.:XV.v.k.k.=X X4X!.}.fXFXCX+Xx.I.!.!.d.6.I.L.W.Q._ l.f.L.Q.8XzXd.[ d.3.3.:.7.[ L.!.L.5.l.U.W.L.'.E.I.7.Y.L.4.} 3.6.} [ ' Y Y Q H _ Y G H Q G I F H 5.5.I S e G H P | _ _ } :.5.R.7.P z.{.[.~.} a j <.;.o.L w 1 3 2 4 1 s ! 9.0X1X-XtX&X:XT.k.j j ;.U E j O.^ T q i o.! ,.v.-X3._ _ w > 4 2 2 2 2 : > 2 # # 6 U # # : : : & % 1 J O.~ 2.C.&XF.C.,.z.V.].`.g.*.r.=.X.X.*.r.0.*.*.$.$.C.c.s.8.j m p.%.*.p.M.Z.J.n.h.$.j.H.H.D.Z.@.h k =.=.=.h j s.{ W i.a.x x a.a.E E A.gXfXF.S.pXhXhX+Xx.d.Q.9.L ~ E a j ^ O.,.+XA.V.:XkXkXkXkX1X-X{.{.@X@X+XfXlXkX+XO.o.T a R ~ #.+.X.X.k E j k r.+X].q.9.2.+.^ } -.+.*.B.B.g.j < & * 5 k j j i 6 i v m X.X.m j k j o.j b ..$.=.=.%.=.=.*.e.S.+X].+X;XdXS.",
": 4 1 1 w D 3 4 w G H w 8 q G ` L a q S ! q w q a p G W ..a 4 Y / p q d w I G F H I a a w ;...: 1 e W P P Q Y P | Y Y W w Q Y w 3 q H 3.L.[ ' t.[ } P.U.5.7.[ P W P ` _ H P ` | -.` ` ` P _ ' H D e w ` [ [ Q Y } f.f.T 4 3 p W Q | !.-XE.5.1.6.x.:.[ 4.[ 7.:.q.' ` | 4.5./ / 4 2 Y U.6.E.' _ Q H 2.^ W O.P 5.' P !.!._ ] { } [ <.$.c.).5.[ H I Z w w A H _ H Z Q ' | [ 6.4.t.4.3.7.6.P.Y.d.f.} d.4.R.W.4.R.3.6./.!.R.d.5.W.I.U.Y.L.P.P.L.Y.R.Y.R.L.W.Y.Y.I.6.5.3.[ ] P A p p p f G W D O.P 1.`.fXhXA.k , & @ o . . . . . . . o o o O % $ c pXvXdXG.T.b.H 4 : R l.|.U.5.6._.@X].dXvXN.7 * o . .                   . @ : g g.hXDXJXKXVXF.$.-.] W ~ ~ W +.$.~ O.>.;.,.f 8 a p a a p S #.1.;.k.` ` Q P R i i 8 o.~ +X+XA.].:X1X1X1X<XkX0X>Xq.! 2.:X0XkXXXW.0X`.v.@X,X<XE.4.} U.5.5.;.:.Y.R.5.U.d.R.[.} wXKXFXwXH ! [ 5.:.6.7.} :.'.b.F Y ;.9.>XXXU.I.7.[ _ ` ;.w.O.:.4.q.l.4.` _ 3.L.5.f.} I.'.T.cX<X[.'._ f 0 2 a d.I..X*X!.` ` k.BXAXCXfXv.W.d.5.-.U.'.'.OX`.q.Q I ` k.:.H d.L.f.[ 3.U.d.l.T.E.k.Y.R.8X9X'.|. Xd.4.' _ | Y _ H { ` Z G G W ` [ } / P P d.^.!.T.` F S K / Q ` 5.7.5.@Xv.5.T.{.1X] A W / 2.` | Y f a q d P f 8 X.n._ k.f.{ _ d ~ -Xm.#./ s.U : 2 q D S ;.D L T.Q.] D /.tX/ 3 > : & # : # # # % % @ % > E 2 g o.j 6 # % # i g a L 2.%.0.xXgX+X$...R E B.dXMXmXmX2Xn.%.b =.,.g.A.*.$.R j j s h &.&.*.#.%.) ) ~ g.;XB.B.p.m X.B.dXdXF.S.S.*.k $.s.) z x z z ) @.F.;X+XG.pXgXlX:X].-.K T 1 , k ! / ^ 9.z.c.+X<X-X&X`.n.].{.n.b.).].+X<X;XfXlX:XC.$.$.o.L O.<.R L j j j j j ..9.V.0.9.l.6.:.! L +.C.+XC.*.E t * % * j T L a t , , y b b h k k b j =.X.j b =.=.m m j b X.=.r.B.*.=.b =.*.",
": 2 3 i d p > 2 4 Z ` k.I > q F G I p ~ d 3 3 4 d J f O.+.S w w I S i 3 3 p F G d e D Q H {.+Xk G :.` Q -.P H H 8 2 2 q Z Q W 3 w d Z Y } _ ` W H | ' / Z H H P F W H 3.f.` ` :.} d.} f.Y H G G W Q Q Y } 3.P 4 4 > 3 q : : 9 : 4 / 3 T ^.*X{.E.} Y.E.|.W.U.d.3.9.w.:.4./ 4 4 3 4 H _ H ] H Q -.K W f w S F ^ Q 5.R.7.} Z G H { J w D A k.T.5._ W F A Q [ 6.[ 5.-.' 4.[ } } | P./.4.L.7._ H Q d.7.6.6.U.|.XXoXR.E.R.4X0XcXkX0X0XXX_.I.6.7.I.I.U.Y.L.U.Y.I.6.3.I.I.L.4.| ' } :.] ] 5./ F ;.I S B.xXhXZ.j < & @ o . . . . . . . o o o o @ * n aXjXdX].@XR.d.} 6.7.:.Q 3.3.f.U.Q.b.+XbXpXc * % . .                   o o < j j.hXhXDXKXJXjXB.-.,.-.2.w.T.x.V.v.2.] 2.<.! w W k.^ ~ ! ,.{.{.2.b.F F $.W _ } _ W d R b.B.*.E f ~ <.,.C.V.`.&XQ.{.@X@X<X*XW.E.L.Y.l.T.@XcX].^ _ U.E.[.{.).6.W.d.5.l.9XwX|.7.wXrXE.x.s.5.:./ :.Q A V.;Xe p a ] f.l.9XwXoXW.T.k.2.l.mXT.E.P.l.3.P.l.q.E.T.:.P -.6.^ +X>Xz.=XE.! d f k ! [ / ^ s.( J P Q I.=XBXBXlXwXzX5X3XeXyXwX@XcXR.k.5.l.l.l.d.|.5.F w.6.U.U.R.!.I.6.4.L.Y.W.6.Y.L.6.d.4.} | Q ` Q ` Y.k.q.:.P 7.} ` [ 3.P.d.:./ f.tXk.G -.5.Y W ! ^ :.>X,.1 O.n.:.-.1.T w 4 e a 8 a w X.s.b.g.( ( ;.~ f a F W w i ) ) f Y { 0 % = # , j ( G J ! a 2 # # F uXe # # % % % # # # % # # , 3 #.0.$.g.`.k., % # q a j E g L 0.A.dXCXfXF.G.XXwXwX&XC.j.X.X.8.C.+X{.A.h.E E U l z i s s h j j 1 : 1 i E o.m E E z %.A.gXxXMXAXxXF.8.2.#.o.@.u.x z a.J.fXH.Z.dXgXfX<X&Xs.q w J g j $.s.g.*.=.X.+.h.].0.R g i a D a L 8.0.+X>XfXkX<X@X+X8.$.8.K K $.$.=.X.X.R g j +.x.h.+.<.z.3.^ j b =.C.C.$.s 1 , * 5 h X.J J L k t k h h k < i h k j X.X.X.X.m j h i t k X.B.*.r.r.X.y k X.",
"# 3 d p p w 3 2 > ^ d.1.` K F Z A A W D a q 3 p J X.3 i 3 4 e p G e p 3 4 w I Q a e q w A Z 1.2.} 6.` Y / K A H q 8 2 4 q Z 5.p G P p 4 A W G H Z Z H p a A Y W F G Y ` k.:.` 7.` ` [ 5.9.+.,.O.P Q 5.` _ P L 1 # % # : 9 q i 1 p Q ,.h.;.2.Q } U.{ { P.[ _ 4./.{.6.[ [ q 2 q A ` 7.` ` ` F F Y a > 3 q w A F W Q ] L.4.I P ' / q 3 1 2 Y 3.x.-X).7.L.P.Y.6.6.4.4.6.4.} [ _ ' P.} Y Y Y G A 5.4.7.d.4.L.*XY.=XmXfXE.T.OXT.`.:X{.T.I.5.7.4.d.L.P.4.4.4.I.R.R.d.3.[ 6.4.' 7.R.L.L.P.} } d.Q.E.x.F.CXCXZ.a , @ @ o . . . . . . . . o o o @ * M aXvXC.1.l.I.` / H W ` H ` ` _ 6.5.w.C.+XvXB * % o .                   o o : g s.dXhXVXKXKXvXdXS.r.r.q.k.1.:.A W / A ` / G ^ >.W F A G :.x.P K F ;.:.U e S 3 9 3 Z W E a #.<.1.~ ! #.<.#.;.K f O.`.8X8XE.3.4.6.L.I.5.[.lXlXC.+.:.d.l.{.>X'.L.Y.W. XQ.!.3X/.E.|. XR.Q.R.W.Y.U.I.5.T.] o.O.[ _ w `  X6X] 5.5.` ` 3.8XQ.7.P.'.7.d.'.|. X*X>X<X).;.p 2.b.k.).:X1.J F  ._ ^ F ! -.W ! ! f.8.{.>XW.I.4XP.} } P.f.P.P.!.Q.Q.W.!.7X~.L.W.l.5.P.d.L.R.R.|.R.I.Y.7.7.L.4.L.6.4.f.d.[ l.OXl.5.5.:.OXl._ 5.R././.L./.i.P ` U.} P.U.` K P X.X.X.T L ,.f 1 1 A f.~.*XQ.K K #.p D Y w.-Xn.f W ( 4 8 g j g K d q , > : 8 X.( w 4 3 w g g U f J a # # & & o 3 { A # % % % % % % # k j X.$.8.C.j j 9.f.1 % < X.$.X...b B.r.C.A.gXMX2Xs.a.z i f T <.o.X.z.].{.z.R L a q q 0 0 0 g s s j j i 2 : 6 g T j f f g E @.j.A.;XgXxXgX&X8.+.0.m.a.@.@.j.;XJ.j.B.;XA.F.+XQ.R 1 g +.0.0.$.O.0.B.C.A.C.C.z.,.J 1 i i a i j 0.C.+XdXdX+X@X,X,X[.[.@Xk.O.9.].G.B.*.( ~ ..0.V.,.L O.1.O.R =.r.=.E j k t , , 1 k E K J o.O.X.=.&.=.X.h 6 i j R $.X.X.0.%.j k y 6 i b *.B.S.G.S.=.b b X.",
"# : q w A I p 8 q W ^ Y Y -.I q D F ,.L a d K K f f 3 4 > q A p q e A H _ _ W d a Z I w 3 a I Z Q H I e w 4 > F _ F a d w 4 3.^ K / G w F w e K a q f a q H ' Q ` _ f.5.` I.XX|.w.:.L.L.v.w.:.4.[ 6.d.6.` Q e d 1 : # 1 K 7.] ^ 3.7.[ ( ^ ` G Y d.G A G I Q :.Y U A Z H L 3 a F ' Y.L.' ` f 1 1 2 # : 3 4 4 F Q I / { } ! ` _ q > q q 4 A F W f.9XT.Q 6.Y.P.P.6.d.L.4.4.I.q.:.7.:.P K A / ` 4.P.} } d.} ~.!.[  XyXeXT.[ Q ;.q.z.3.` ] L.3.R.!.3._ 4.6.3.d.R.I.d.W.'.`.v._.E.R.} [ 7.6.l.3.l.:XxXDXDXC.a 2 @ O . . .       . . o o O O % 7 N.vXjXB.9.5.5.q.l.] [ U.>.[ { 7.W.5.2.V.].jXiX- @ % . .               . . o & 1 E ;XMXDXHXKXPXHXHXHXvXdXC.+.! W P W S w 4 / ^ Q ` ` O.9.x.T.3.[ ` ;.H I p g i # 3 U S 1 w T w _ } W o.] k.E.P I J f $.{.].-.7.5.5.k.v.V.x.{.lX@XT.V.0.h.:XT.H Q [ G Q |.4X5.>.Q.W.l.!.W.6.5.7.U.!..X4X^.Y.f.W 0.1.Q.Q.5.[.l.] f.f.| d.L.L.I.q.'.OX6.L.|.v.T.d.Y #.K ^ l.,XA.=.*.L I V.,.D F W W ( p F 1.fXz.1.'.E./ W G H 3.:.' ` :.} L.4._ 7.!.W._.#X_.l.5.7.} W.U.' d.q.T.Q.Y.q.l.f.Q 5.q.5.).x.:.5.'.!.Q.!.7X/.[ Y S Z Y Q P.[ H _ d p ^ _ >.h.*.*.$.o.F f f ^ } U A H q.OX3X^./ p I f a D D 1 1 g q , 6 f g r 2 i J / 2.#.a a T ] S g < # q a.s...k % @ o , i.i., % # 1 0 < * a b.,XyX5Xg.o.A.8.X.X.j i B.F.0.F.&X2Xn.m.) h.0.j j g j l %.#.K i j O.O.! f a a 1 : # * # : a j X.$.1.*.s < & 1 E L s i 0 s z @.%.@.+.0.B.r.0.c.A.g.*.A.Z.j.j.*.@.@.*.*.r.B.$.a 6 X.B.F.V.x.).+X@X,X1X+XG.;X&X$.j R +.+.+.=.G.G.r.S.F.dX@X,XlX>XoXoX[._.{.lXxXF.0.$.$.$.C.V.O.L 8.,.+.$.B.*.i 1 1 6 5 , < i j J K O.-.O.,.B.S.S.S.=.v k E $.$.o.o.o.j t i h j X.X.*.r.G.dXdXF.B.*.=.",
"% 2 > a p F v.k 3 w p w G P 4 : 2 3 T W d p A W o.L o.K p ! ^ F f S P P P Q F L p { R.7.p a i > > d w p e 4 4 e Y G G G I I / 5.x.k.-.` G K L Z a A ! O.O.7.7.} P [ d.3.4.P.d.5.` [ 4.} d.3.[ } } [ ] 5.l.).V.].@Xw.-.`.!.L.:.F f.7.G p w e D p w F -.q.' ` ^ p 1 3 G / $.p F W } U.:.G 4 a > > 3 q 4 ! ] :.1.H Z F U.tXQ.5.G 1 3 w q 3 q 3 4 w } {.3.[ 4.f.^.-XY.U.7.P.P.d.Q.6XR.3.l.U.L.L.[ | H | ' 6.U.6.-.q.f.*X} G 5.[ _ q.U.E.5.-.Z :.` _ 4.Y. XR.l.6.[ } l._ G U / l.d.} q.R.W.7.Q -.).hXDXhXB.f 1 # o . .         . . o o o o % y pXVXjX].k.H 7.6.3._ / F H / _ 3.7.d.Q.].V.hXaXy $ % o . .               . o & : q ;XMXDXJXKXHXJXKXKXKXDXjX=.S 2.^ Y / P P ` ` ' 4.Q.f.k.k.` / / _ Q | _ _ Y F a w e 3 > > q > a W 5.z.P A } 3._ / S a S '.XX).l.f.k.l.T.>X0XkXlXxXCXgXB.h.h.S A W A K ] #.p { P.`.[.^.d.x.).v.5.d.R.E.7.7.} P.>.P A O.k.k.5.3._ 3.' 7.7.d.d.] !.4X7.' T.7.O.L W D a _ _ o.j X.dXL $.%.;.^ q 1 i 3 2 O.;.q f J ~ Y W ].[.q.-.U.U.L.L.5.3.Y.P.{ 3.x.v.x.q.x.q.5.5.U.6.' k.wXwX`.q.oX9XkX0XlXkX0X8X=X4X5X-X|.XXoX[ | Q ] Z 2 8 G :.Y :.o.8 f F } f.#.$.j.s.( ,.0.#.A 3 a Y ^ 2.q.5.L.} K p W s.s.X.j E t : % 1 o.+.f J 9.^ { ` 1.J 8 q : 9 : @ % % # j ].Z.E , % O , i.uX0 # : w g 1 3 >.f.[ ] +.;XMXmX<XMXfX*.;XwX-X&Xg.+.j 1 < E X.R $.,.n.}.V.r.,.T E f 1 1 1 k s 1 2 2 , * 1 j X.0.2XtXb.T s < , s j j j s l a.a.a.) j k ..0.A.n.#.j h.;X*.X.@.*.m s b C.F.C.V.0.r.+X;X].x.XX>X&Xk.9.9.*.G.gX}.X...*.A.F.r.S.A.*.e.Z.;X;X].].@X[.R.U.E.OXoX9X,XC.$.,.%.0.C.z.-.9.).x.<.0.=.k 6 < , < 5 6 6 i a f K ! P O.q.+XdX;XF.*.b j R $.o.J j f i 6 k j X.X.L X.r.G.;XdX;XF.B.*.",
", q f 1 2 Z ( 3 > 4 w p W / P J p a e e F F G / K D ;.x.9.P p S w F ^ ^ I Y f.w.H i.L.Q p > a J 3 Z F I H ` ` Q Q F Z p ! $.~ k.U.5.P A e 1.Q G Y :.T.+XG.x.7.` Y ' d.7.} } d.6.4.[ [ 3.[ | / Q P P k.x.x.>XNXcXq.5.l.d.^.3.5.-.-.Y w 3 p S w e w ^ f.} ' ` ` F F p H / F A G _ i.l.w S p F 3.} 2.b.'.OXR.R.I.3.:./ 7.P.Q U./ 8 4 w w > > q q o.S w } uX4.7.` W } L.d.f.Y Z Y } P.XXoXoXW.R.H -.3.3.U.R.W.E.l.XXv.).:.2.x.q.3.P.d.8XzX'.7.l._ 7.U.6.d.[ 7.} ' [ ` A d 4 > w ] i.d.3.f.} / ^ z.gXSXhXj.s < @ o .           . . . o o o $ v aXvXpX0.x.U.I.` ` ! ! Q -.:.:.:.` E.T.l.V.dXjXM * % @ o .               . o @ < i Z.hXCXHXKXKXJXJXJXJXJXDXdXB.q.:._ ' :.:.[ _ { d.4._ O.H H _ [ [ ' Q F P  .H A d q 1 # & : 2 2 2 J W L 3 4 D T Z H _ / k.:XR.d.I.=X8X7X9XcXkXfXhXfX,X,XO.9.5.Q Q 6.U.` _ k.q.7.U.!.!..X!.-X-X[.q.T.5.] 3.' [ P P _ L.|.U.I.T.E.R.I.U.[.Q ] q.U.Y.d.^.,X-X).J d S E S a 1 , 1 L j k a A F K k i a p w.+...X.K W l.q.q.A.<XXXP.P.^.^.!.U.:.T.5.^ 2.-.O.} d.I.R.R.XX=X.XW.Q.f.7.7.L.!.'.|.U.XXQ.b.|.d.' -.w.l.lX9.+.x.1...f O./ ` q.k.V.F.C.0.k.p K ,.^ <.h.9.x.;.p f e e R ~ F K 5.U.3.T ,.O.d U g s < # i f V.`.b.~ >.P.O.} -X{ > # @ % % % % # * h A.*.h.A.k 2 1 1 _ f.3 8 i i a K Q D a +.A.kXlXwXyXMX:Xn.n.O.+.X.=.+.L h t 1 f %.E j L +.9.k.;.o.$.j : 2 1 i l g 6 > # i $.0.$.A.1XtXi.{ i.U 1 0 s l X.l @.a.z s l R %.c.n.s.T i b 2X;Xl m a.@.m j r.gXkXkXwX0XcXwX:Xq.O.C.V.%.i i v e.gX;X$.X.b e.F.*.=.+XV.#.$.8.V.V.).+XV.9.2.^ 7.6.Y.W.T.9.,.0.h.C.v.k.;.k.{.'.9.X.....l t # * 5 t 1 q a f K D S O.q.#X+X;XB.X.j X.X.j f a a q i i j m E j k ..*.G.F.G.G.+XA.z.",
"# 1 k i p S > > 2 w _ K p ' [ a p ^ Q ^ -.P 1.K W ,.d.Q._.w.S 3 w 4 U T p Y { / Q Y F w a ( ^ / K e ` / Q _ _ [ Q P p L #.$.! { k.W _ [ ` _ [ o.-.[ H ,.v.OXq.P f.Q.5.l.6.7.[ _ | [ _ } H 4.6.d.>X].T.0X>XmXeX0XV.5.I.W e 4 ` !.9.3.;.! [ 5.,.q.Q.I.E.5._ _ Q W { 5.! I I ` Z w 3.[ H W 5.7.4.R.U.l.L.{ ' 7.} R.E.U.L.L.` [ U.L 3 w Z H p 4 2.Y a a O.6.6.q.S a w P q.Q I F F P [ q.` 3.} P.P.L.d.f.3.L.XXW.5._ / :.T.=X|.@X_._ | [ U.d.I.U.W.!.Y.L.6.[ [ 7.} 3.>.v.a 2 2 > H f.3.d.7./ w.[.fXCXDXjX*.6 # O . .           . . o o % @ * M sXaX=.5 1 ~ Y k.[._.U._ 7.d.P.3.[ 7.] 6.V.C.pXe.- @ % o .             . . . o < s *.dXVXvXHXKXHXJXJXSXDXvXDXG.,.:.7.7.[ [ 3.[ ' ' | _ _ Q ` _ _ Q H _ F p A e p 4 > 2 # # % # : : 1 # # # # : 2 2 q Z F p ! d.5.q.U.OX|.W.>X0X}.+Xz.x.5X'.1.b.[ R./.L.5.3.>XXXXXW.'.|..X3._ _ :.' 5.f.f.q.>.x.[.^.!.OX.XL.I.E._.|.I.L.Q.3.U._.XX3.Q 8X*X8X-X3 1 R ( i # , 1 J ! n.yX~ 8 O.[.v.x.:X{.{.kXkXk./ w._.{.x.V.,XfX).Q.f._ 4.I.6.7.3.6.6.U.W.OX-X=X X!.!.Q._ G I G H G P k.;.! K ! $.O.q.x.x.`.@X0X9X=X0XMXCXBXMXCXCXgXx.<XlXMXfX`.d.Q 1.2.U J o.~ J f T ( T a L o.O.,.1.5.Q ~ W ] r & # 9 1 R mXyXmXQ.s.X.V.7X} | H : % @ % @ @ % & i @.1X1Xk 6 g.:.D O.o.o.,.V.wXs.L ! O.5.( 1.wXwX=XlX:X].v.8.8.Z.G.G.A.j.n.g.&.l i j E g s i i j f a i j i > : & 6 j q 1 < 6 *.C.$.R s.s.( T i.i.) r > s %.%.E @.M.a.@.&.m.n.j.) e i i *.1XJ.m m @.l X.r.:X,X:X>X9X8XzX6X<Xz.K ! ^ D i n e.dX&X8.O.*.B.Z.*.b g.-X1.W F ..,.A.+XfXF.$.g d P W ] 2.O.o.O.,.c.h.1.2.! ,.b.z.O...*.j.%.a , 5 a j a a f S J L L $.0.0.C.g.X.b +.X.a i a a a j k k k k i a j X.@.%.$.*.*.B.c.g.",
"% 2 > q D f 9 > q H I.p 3 G Q ..Q q.Q [ 7.P -.O.~ ^ :.l.x.z.8.L i w d 3 4 w w p 4 4 w I P } P F A a d Z f W _ E.w.W F F | 1.+.A A Z w G / ` Z d.z.w F 9.O.` U.Y Y H H | } 7.W H Y A q A | | |  X*XQ.:.H w Y { Y } | ' ! 8 i A { f.L.d.5.t.t.6.L.I.L.U.R.6.7.I.L.!._.k.f.6.P.f.<.| | | 6.7.} Y.|.E.|.7.5.R.6.5.6.d.3.[ 6.l.] [ U.1.-./ [ :.] ' _ c.A.`  X X!.=Xk.P ` T.x.;.Q f.Q.L.6.;.} P.U.l.k.R.R.R.>X'.5.` H / Q ` / b.Q.T.q./ ] P 5.R.6.d.U.R.R.W.Q.d.4.6.L.4.6.l.q.-.w.6.I.L.L.E.T.T.XX<XMXCXaX@.1 @ o . .           . o O @ % @ 5 e.vXvXiXj i P | P. XU.I.q.Q H ' f.3.7.4.6.9.+XdXe.- O o o .               . . o & i *.;XnXVXDXJXHXhXMXZXSXDXDXvXdX[.C.k.7.7.5.6.7.6.[ _ 3.3.' [ [ Q ] H Y Q _ 7.Q P K U Q ,.j % % % % % % % # % # % % 2 1 4 w K 2.^ ;.q.5.d.f.^ w H W D / s.g f G k.d.:.W.^.R.x.l.U.`.b.x.^ S ;.l.3.R.U.W.k.q.W.l.2.f.`.3.4.3.3.[ 7.4.4.5.l.Q.:.XX}.9.`.K 5.|.#.1 ! R 8 < a ].z.OX8X).-.0XmXBXAXAXGXBXmXBXBXmXlXBXeX5X6XeXmX0X0X@X5.d.'.XX<X<XzXkX'. XeX:X{.g.o.K a 3 > > 2 2 f a J R f o.0.V.V.z.`.Q.XX>XwXXXv.Q.-XzXBXlXBXFXFX1XW.>Xz.-X:XO.O.O.K <./ j g a k ~ }.&XT.v.:X:XlXeX!.5.w 3 ] / , % & R v.`.E./.{ T %.<.^ I Z 2 # @ % # # % # % # v n.yX-Xg L z.v.V.C.c.f.-.[.GX}.L 1.-X-Xf.7.^.U.2.V.1XC.B.Z.B.A.&Xs.o.X.;.#.h j i k a i j a q R D d f i 6 1 1 , < k 1 : < j ~ L f j j j L *.A.J.p.s w J ) o.@.a.J.;X&Xn.>.2.E i t i s =.&XA.X.j m X.0.@XXX#Xq.E.OXoXwX>XY.1.o.o.! ^ 8.A.gXgXC.h.r.G.+X+X0.0.{.Q.H F F L 8.].fXfXF.B...j +.K W O.+.o.o.*.8.! K o.L X.O.+.E X.B.B.*.b 6 h ~ o...L K ! o.+.+.0.r.0.+.R j =.$.+.k i j X.X.=.=.=.=.=.=.+.R f j j i i k o.$.O.",
"% : : 1 T f 2 e p F 3.^ 3 3 } P.P.` P G G Q ^ G S F _ ` O.>.O.K S w 3 2 4 p a 4 2 > Z ! S W a 4 p F } P P P / ;.L G F f w e i 3 4 3 a p ! z.! a P.-.d b.L S _ / p G p G ' Y G S H W A a A _ J 2 > q > : # 9 2 9 w G ;.p w _ 3.Q | | 7.P.I.:.| -.P ` _ [ 4.d.T.T.R.E.E.'.Q.).Y.[ } L.:.6.L.6.L.U.!.4XXX-X`.T._.I.l.V.5.5.1.>.U./ _ >._ [ 6.5.-.q.Y.d.'.b.f.U.9X5X>X X~.!.|.6.' L.Y.U.6.I.L.7._.OX@X9X=Xf.b.O.G Z | } W w Y i.7.Y.U.I.E.R.I.3.d.6.6.Y.I.} 4.d.4.I.I.Y.d.L.L.d.4.7.{ d.6.q.E.x.+XCXCXF.E < @ . . .           . o @ = @ @ y pXVXVXdX).U.d.` 1.'.).6.5.` _ _ H | _ [ [ V.V.C.M.- % o o o .               . o @ : E F.hXvXDXHXHXvXhXCXSXJXJXKXvXC.x.-.k.T.:.7.6.f.' ' Y Q _ | ' { _ [ -.P 3 p W / W 3.Y.W.{.^ K L i 8 , # % # : , , 1 a 0.W D O.2.q.d.1.L L ! a q d f f ! ! K l.|..X~.=XoXY.3.d.l.I.l.q.k.k.XXQ.l.l.q.E.q.E.:X{.z.9.5.} d.I.l.:.` R. XR.U.f.f.5.5.1.^ ;.3.-X( w ` ` O.).qXxX+X@X'.'.0XBXGXmX-X2Xn.] { /.wXyX-XQ.Q.>.V.x.-XmXzXmXmXeX>XwXmXlX,XQ.f.! ~ D a K q 2 : : : 4 i 8 3 4 a S <.x.d.} |.I.P.f.Q S Y _ w.I.OXQ.5.P.Y.Q.<XV.{.T.-.<.0X{.<.X.k L ~ R ^ ! d.[ $.A.dX;XB.;X1X:X0Xk.1 a e 2 % j +Xo.zXmXq.K p p A Y Z > , # # # % # h j k 1 1 j *.z.`.X.0.].k.].V.z.+.a C.FXz.O.q.P.1.1.} [ L.f.P.'.k.f.1.#.L j a L q w i , & , i i a j j D #.o.T ( f i j b v y 5 , , i j j j L X.*.$.0.F.hXnXgXA.m.s.^ ( ~ R *.F.;Xs.R j j f g j i h R j k b X.8.`.}.n.q.q._.OXoX>XoXq.q.h.,.-.>.k.F.+X+X].].{.`.{.'.V.l.f.] W K o.0.].+X@XdXjXjXB.0.C.<.<.,.,.,.X.b R f a J X...X.O.X.X.=.&.=.X.X.$.9.-.O.O.$.0.8.0.B.B.B.0.X...X.8.k.O.L L X.,.C.G.+X+XdX+X+Xh.@.i 1 2 : : 1 s j a ",
"# , 8 d A a 1 q 4 w Z Z q D F L G P a a f L f F I w w 3 3 4 > q e D 1 > Z Q S S f a 3 > > q q 4 G Z _ Y d.` Y I a Y ^.2.a d d f a 4 [ f.f.T.2.Q |.+XR A a K A p G Q A q 4 p p a p G Y ` 5.} w # # # : & : 9 3 Z 3 p D 4 q | 4.7.5.2.2.:.:.3.f.L.^ ] U.R.Y.L.4./.R.I.L.P.9X@X5.:.3.7.d.d._ _ ` e H Y..X} ` _ P.!.`._.[ l.v.^ ` ` ^ :.5.:.I./.6XY.l.:.F w Z Q 4.Y.!.U.d.} Y.` H [ 4._ 7.U.U.Y.^.!.P.P.tXW./ -.I w w 4 4 > > 4 4 _ P.P.3.6.4.d.d.I.6.L.3.7.[ { 4.6.7.3.} 4.L.[ } d.l.4.4.I.E.V.dXCXCXF.j , o . . .       . . o o @ @ $ * v aXVXvX+XW.f.x.fX,XXX{.x.9.x.6.] P P -.:.x.w.V.;XpX7 $ o o . .               . o @ & s j.hXhXhXVXKXHXVXvXDXHXJXJXHXdXC.5.:.7.7.3.' 3.] :.-.` 7._ ' :.7.} } 3.f.[ 7.3.7.6.P.Y.P.Y.!.^.!.4X!.` O.9.q.`.T.T.U.U.Q.U.d.L.U.R./.6.W.eX|._ f.7.:.W 1.`.).'.U.5.Y.Y.I.[ Q x.kXkXwXOX-.x.@XlXlXfX[.3.d.2.v.0XwX>Xd.3.' U.5.] :.3.'.1.F A G Z W _ `.` -.o.W [ f.T.P.wXJXAXeX6.W. X( ] / 3 w w a ..r.#X0.q.].{.|.;.K 2.T.f.d.d.1.<.#.O.K D K -.Q K K F D : % # 2 : q U P w 1 2 a Y ' | H I / b._ P F W :.d.I.^.f.F { L +.,XzX=X:XV.+.x.].F.A.%.O.^ Y } 7.9.J $.Q.9XgXfXx.g.k.8XW 0 i > 9 6 B.BX*.1XF.~ ( Z > > a a i 2 : > a =.*.+X=XXXT.x.x.:XkX`.C.dXdXB.G.fX;Xf 8 hXGXO.w.5.[ ~ ] P -.] / 2.k.f.l.l.>.Y Y W T q i i 5 < 1 q q a i k j R X.L O.9.0.r.G.hXD.b ..=.*.=.*.B.A.G.F.C.c.+XhXZXnX2X}.] ! R J g j X.@.) E E E X.X.+.L j i 6 6 k O.x.).q.$.0.z.XX>XOX'.|.@X@XA.$.L S L +.z.v.).{.OXE.x.k.k.q.q.q.9.$.9.{.:XXXoXfXMXCX;XV.{.z.q.9.,.o.j k K J f f R ! ! 2.$.X.b X.=.*.0.0.0.9.<.<.8.r.C.B.B.B.C.0.X.o.,.V.[.v.9.$.0.G.+XfXcXxXxXcXkX}.o.q , & # # , 1 , , ",
"& q / ! a f f 1 2 1 2 4 p e 5.P G 2.V.R L w e / F G A q 2 : : 2 2 w p ] P 3.!.] J w w ` ,.8 T A Z w S Z w 1 q p Y 3.6.{ ` L 8 w A q > P Q | Z -.3.b.}.$.K 1.W D H I A ! f p d T Z F G ` Q w > : : : : # 9 : 4 Q k 1 1 w W _ | ' ^ ( / F G _ :.:.:.4.3.H G I 3 H 4.3.7.l.P.'.U.T.L.5.f.I.7.` P q | Y w w W ^ F P.6.4.6.'.q.Q P :.I.f.3.Q.f.F w F G ` P P G Q 6.4.L.!.7.[ I.3.5.5._ d.' ] 4.Y.f.P.3.H uX/.` H e A I p S a 3 1 3 H 4.I.I.U.6.6.5.q.4.' } 4.[ ' 7.} 3.4.3.I.L.Y.d.4.' ' [ L.OX@XfXDXCXB.i # o . . .       . . o o o o O * n aXaXdX).|.v.1.Q.U.7.;.9.<.5.4.L.l.v.3.P.I.:.{.<XdXc $ o o . .                 . o & t *.pXjXaXhXHXKXHXvXDXVXVXVXHXDXF.O.[ [ } } 3.f.[.@XgX{.P ` [ ' _ _ } ' | } [ ' } | ' 7.4.} 4.4.4.Y./.^..X.XY.^.^.Y.q.l.I.d.Y.R.6.7.7.I.l.6.` Z ] ` [ H Q 5.Q ` I.l.l.q.R.R.f.8XAXmX*XXXx.-X8XwX{.$.2.W A Z Q x.2.'.oXd.U.qXOXE.:.T.!.F J D w p A Z z.T.` K ~ ` d.| | .XqXx.*X4./ D i a K C.9.V.{.mXFXSXlXyXyX*X3.Z a w d w w k L W a a a 3 W 3.k.} f.w 1 # % @ : : 1 > > 3 D ( f A a a J J K ^ [ 3.t.d.5.P.4.P.] i i a V.0X{.z.:X0X,.1.+XdX;X;Xh.X.! k.] / ;.k.U.oXMXlXF r { W 2 # , a ..9.0.h.C.;Xb E d # # 1 3 q e f 8 8 ~ Q.OXR.L.P.Q.q.0.].:Xc.].gXCXjXF.xXCXB.e.FX1X+.).>Xv.L q a O.,.o.q.l.1.,.W U Y ] _ T F P W #.%.X.f a h a k j a j L 9.v.`.C.+XBXMXC.C.V.z.$.p.F.J.Z.Z.j.c.F.;X;XC.%.T d J L j J g a i s l E *.F.+X;X+XB.*.X.b X.0.z.9.+.j +.q.[.`.5.q.{.lXlXA.E a a S P :.;.:.:.5.q.x.V.`.:X<X:X+XA.V.'.|.oXeXzXNXxX,X{.'.x.k.1.R k i a J L j a i f K W X.j b =.=.*.0.0.0.8.$.8.0.0.B.r.&.*.B.h.,.9.#X@X@XXX`.z.r.#XfXlXxXxXxXlX,XV.J 1 < , < 6 6 6 & # ",
"# : w Y ] 9.o.i 3 a > a q w Y [ -.>.b.+.8 4 w 3 w D > 9 # : : : Y +.F i.E.' } ! 3 G -._ ` i a I / ^ a 3 : # q q A } 5.' } 2.F w q 3 > 3 3 3 w W p Z | } -./ Y b.b.K A G Z G / P P K A F A 3 2 1 3 : # # 9 : f { 9.O.K Z Y H e r G I Z S H | -.4.R.6.` / +.L A ( 5.] `.).XXl.U.*XU.R.U.U.d.U.,.3 w > : U d.P.P a [ P.7.w.f.3.:.d.d.[ :.-.O.C.0.+.Z G ` ` [ 3.3.3.3.:.` H 5.U.k.5._.-XXX5.I.:.Z Z p Z H | Y Z G F ' } I.l.f.` 7.f.6.6.I.6.L.f.P.P.[ 7.l.l.d.4.[ :.d.U.U.d._ d.L.L.7.3.5.7.6.v.gXSXnX*.6 @ o . . .         . o o o o o $ n iXUXG.V.z...i f f a a i R ^ Q ` Q _ | L.l.-.P h.vXe.$ o o . .                 . o = 6 X.D.aXpXjXDXJXKXHXDXVXjXjXvXJXdX+.:.] 7.' 4.I.:.^ v.<Xl._ ` ` ` Z { H H | H H A P / W ` :._ 4.} } [ d.f.T.'.Q.R.q.q.R.x.>._ Y i./.R.W.XXR.7.:.w.` H / ` ` 5.R.4X|.Q.qX9X!.d.T.-Xf.G k.].[.5.d.d.] k.l.l.3.U.5.Q 7.R.R.oX'.I.T.` ;.L.f.T.o.f J d 3 Y f.:.T.OX|.7.Z A H /.I.7.Q.k +._.>XXXW.0XxX@XkXmX=X^.tXf.G 4 2 : # # 1 ^ H 3.!.T.;.^ A A W A p q : 1 1 : # # % # < & 9 T P.8 i o.].W.4X|.t.P.4.4.P.I.L.L.[ p a ..{.,X]._.{.[.{.1.1.).V.;XhX..=.*.j X.<.:.[ k.&XcX<X8.a i 8 , 6 e.bX+XC.9.o.o.X.b g o.k j $.a 6 k a J R ] W F Y F G / -.1.<.0.e.C.,XlXlXgXhXjXdXhXFX<X9.:XzX<X#.+.].V.V.fX:X9.V.C...i 1 a j +.$.! ^ k.1.1.1.,.$.+.$.+.$.0.B.V.2.o.,.9.`.`.9.8.h.8.%.*.p.a.@.X.%.*.*.*.@.X.j s E ~ R R T D a 1 6 j =.F.hXfXgXxXgXkX+XB.B.B.*.o.o.! ! ! O.O.K L 0.+X+X8.a j o.] { Q H Q Q w.V.+X@XgXxXxXfX<X}.v.x.q.R.4X8X8X0X0XoXXXE.q.1.o...j R L j i 1 : , 1 q g j m X.X.+.0.r.B.*.*.$.=.=.=.=.=.*.C.C.z.V.[.@XXX[.V.].+XfXcXkXgXgXfX+XG.8.j i k j j j X.j 6 6 ",
": 8 i w e d q 1 p 3 p D L S P 1.x.^ p L 4 q q 8 > 2 : 2 9 2 4 a '.w.~ ] 3.7.} ^ p ^ :._ A 3 4 Z Q d.w.8 w w Z I 3 Z ] P w w F L L p A A f a q 4 w A f I Y Y P 3 8 i L a Z W ` _ P W D q 3 > 2 1 > : # % : a 3 W .X7.2.[ F D ! P H -.:.-.] Y._.d.U.q.k.I.:.' } | 4 d >.b.w F P A 7.U.` d.4._ ^ a p a L _ Y | ` J ] 5.@X[.k.R._.R.6.d.3.` x.'.-X!.:.` 3._ [ 4.3.[ ^ / 5.T.=XXXW.0XeX=Xf.{ f.Q Y S ^ H Z G | P H 5.4.} } } } uXd.I.f.f.d.} ] H P I G 3.[ / -.P H ' { [ 3.7.d.I.I.L.7.' L.L.:.C.hXDXhXX., @ . .             . o o o o o * n e.e.F.].b.0.+.! K D ! a F ,.-.-.5.I.OXq.U.[.#X].dXN.5 o o o .                   o $ < j B.dXpXG.dXDXJXDXVXhXhXjXvXDXhXG.V.` ' 7.4.3.Y W ` Q 3.7.3.7.-.` Q 3.I.:.:.` I G Q _ _ [ 7.L.[ d.:.[ } 7.U. X!.I.{. X/ 3 w I W ^ 7.{ f.d.} Q.x.d.:.7.7.7.W.U.[ [ 7.d.W.!.6.6.W.l.v.l.5.x.q.Q Y } :.d.|.R.6.` b.3._ 6.I.U.5.:.` q.U.U.'.9.^ w w 8 Z Q 5.=X*Xd.~.Y.:.9.P.Q.}.[.bXFXyXwX>X:XxXBXmX&X4.^ W d 2 # # % % : i a I _ / [.eXwX` F L a 3 3 1 f D d p 8 k i 1 2 1 8 p ^._ `.5X.X6.L./.Y.I.Q Q } | :.XX/ ! 2.<XNX+X+.V.0X].w.6.f.! $.B.B.R V.].B.F.j.U :.q.{.1Xs.%.J 8 i a B.AXAX+XC.O.R i b X.X.*.B.}.}.w.*.e.C.0.E U 1 8 F I P ] 7.q.8.r.8.{.8X=X0XlXxXdXkXmXgX8.O.z.XX+X{.kXNXkX,X<X].#X+X1Xg.R f $.C.:X}.c.g.,.O.1.f.5.).&X>X'.].].].C.%.g.{.V.v.x.,.2.2.R l l l ) l l @.X.z z l l l E R ( W ^ ^ Q W p i j $.G.dX;XgXfX<X,X:X+X].G.r.C.A.v.1.! K K L j f X.$.O.X.0.V.x.[ W W ,.9.V.+XfXdXxXxX:XA.A.V.k.q.q.E.b.f.q.x._.'.).l.l.9.0.0.8.9.$.j 1 & # # , 6 a j j j b =.*.r.*.*.=.=.X.*.*.*.r.r.G.C.V.].{.[.'.].].fXxXxXcXfXgXfXF.F.B.=...b $.*.8.0.0.+.j j ",
"# g g 1 # , 1 i U 3 a P T Q [ [ ! f 3 q 4 e f > : : : : # w ,.{.=Xw.p L Y A q a ! ..Z G p p P P Q } ] S F F G A 1 > 4 w w I P W _ W 3 q w G p 3 p D d 1 4 A o.a d n.c.d p p S ] Q G ! 8 : : a > 9 : 2 8 p { >.p Z G G H Q H Q [ 4.3.3.k.`.'.[.k.l.q.I.L.d.Q.[ 4 > 3 q S 3 Z w p :.] w F _ Q Q S I  .W f 8 F `.q.w.`.kXcX>Xq.7.7.6.E.:.F e I a I Z f.} _ 7.-.P G b.zXzXNXzX8XXX0Xq.S I | _ Y Y Q W Y _ [ ' | ' } ' ' ' 4.' d.P.q.I.5.6.R.q.Q :.5.k.q./ Y 7.7.` ] [ | _ [ 3.7.} } 3.[ 6.5.1.].DXHXdXh * O . .             . o o o o O - M N.pXhXkX9XR..XR.Y.*XXXU.^.Y.Q.5.[ 3.l.x.P.W.x.z.;XD.5 @ O o .                   . O * i E Z.F.S.S.DXJXCXjXdXhXvXvXCXSXjXC.V.T.L.Y.I.f.{ { [ 7.[ [ d.:.:.5.7.6.:._ 7.q.7.' _ 3.:.[ I.U.I.k.6.4.L.W.U.d.W.W.Q.d.3.k.w.-.w.] 6.T.l.d.W.q.[ 6.I.6.7.5.l.` / _ H 7.|.6.L.Y.Y.I.L.} f.f./ F G ' I.7.OX_.q.l.:.:.5.] 3.5.U.q.E.Q.! O.Q.L.` -.1.Q f.f.tX*X).l.OXY.P.f.l.@XSXFXBXd.} !.wX!.f.^ 9.s.g 1 2 # & k 7 , a g > 4 q U b.tXrXT.L F ~ q.XX9.] ;.~ +.Q ] 5.f.d.W.!.2.d.l.R.7.` ^ ^ 1.` Q _ { 5.} '.[.G.lX-X:XcXZX+XfXfX].x.W.d.T L ..X.R n.-XwX2X*.o.,.T.l.^ a L o.L ..A.lXxXxX[.'.$...j X.C.+XG.0.x.`.k.1X1X:X:X<.#...L { { Q w.).v.V.@XOX XR.E.cXzX9X=X>XeX$.a K o.,.9.[.wXkXXXz.$.0.V.{.<X{.{.@X+X@X+X+X{.'.z.,.+.X.*.G.;X<XQ.q._.:X{.:XlXkX}.g.%.R T U f i s R o.R J f J R o.) E E R ! / ` 1.:.:.] W a j *.B.dXxXgXC.z.z.V.A.+X+X].@X+X].].C.0.,.$.$.R L o.,.z.].@X].8.$.$.9.z.V.].+XfX1X<XC.,.0.0.9.1.q.1.^ P K P ,.q.V.`.].].F.+X@X@X`.<.o.L j k k k f j k j X.=.&.*.*.=.=.=.e.B.F.V.C.C.C.V.].].).x.z.V.dXxXxXlXkXxXfXfX].A.0.R X.+.8.0.0.C.A.0.0.r.",
"% 1 3 a f ..j U f.$...I f G w a a 1 : : 2 q p 3 8 2 : : : f.zX-X<X+.3 w e +.V.n.P.5./ e Q { } ` a w _ w.-.-.W S w 3 Y _ ` w.P | ` Q G +.f 3 P | ! 8 f Z F ;.' T K F F p 3 3 S Y ` 5.OX5.1.! a 2 2 i f ;.J a o.k 1 q Z | 7.[ { { 5.q.[.{.v.W ] ( ` :.l.I.d.;.a 1 3 4 A w 3 3 2 U ;.q 3 2 4 G Q ;.%.+.;.` 0.&X<XQ.l.5.{ f.=X|.} f.P.} U.,.f w q T -.5.3.6.6.5.:.7.-X8X=X>XmX0XE.U.] d.` H ' Y _ G H H ' [ { { 4.} f.6.} P.7.3.P.l.L.Y.Y.I.L.U.U.f.P [ P.Y.R.R.L.L.4.[ [ 4.[ 4.7.[ P.U.E.7.1.+XCXDXpXt @ O . .             . . o o O % 5 e.jXvXbXV.P.U.` K G Q f.[ } L.L.L.5.5.E.l.} d.q.C.;XN.7 $ @ o .                   . o @ t h X.D.S.D.aXDXDXvXpXjXvXvXDXHXjXX.8.XXL.L.7.3.L.7.L.L.L.oXW.Y.W.P.f.{ _ | [ ' I.:.:.] 7._ 3.f.f.b.R.d.I. XU.d.d.3.I.d.3.R.!.I.!.W.R.R.U.4.t.t.4.I.R.L.I.3.d.` W | [ 7.5.5.5.7.q.t.L.l.E.E._.T.l.}  XR.|.:X).v.XX`.5.5.:.[ U.:.1.U.:.` 2.] U.5.[.r.! a 3.f.F f.Y.] ] l.[.FXFX3XW w w 4 4 3 i D } U.q.L ..r.dXSXdXk , , 6 i p ` /.Z G <Xx.[.zXeXyXqXq.+XV.k.:.6.R.I.' 6.3X} 4.l.d.3.5.l.OXoX_.E.t.f.|.W.U.q.fXkX0X}.G.dXC.:XlXz.! j w d f a X.$.,.9.T.z.,.T ^ Q.e F x.}.).V.`.&X:X8XlXxX0X>X].$.R &XmXlX{.<.:.d.+X+Xr.#X@XQ.~.Q.7.^ ` v.).V.+X>X>X.XT.w._.OX3./ o.k.O.$.k.P J w.>X0Xx./ J k J W 1.T.R.oXkXlX&Xk.O.! 1.k.8.+.0.+X+X+X&Xv.q.|.OX{.lXNX:Xz.R J j a f g i a #.g.,.^ ~ 1.).OXx.O.J S P / w.9.1.5.2.O.K +.*.B.dXdXB.K L $.r.G.;X+XA.A.V.].#X].V.V.V.z.<.O.#.8.V.].].V.r.9.<.9.z.V.V.V.+X+X0.$.,.8.0.*.<.^ K D f L ..0.V.[.].].+XfXkXcXcX>X[.V.x.9.0.0.,.L s i k X.=.*.*.e.&.e.S.dX+X+X].C.V.V.#X[.T.9.9.0.G.fXxXCXxXxXgX,X<X+XC.$.L X.$.0.$.*.C.+XF.F.+X",
"# 1 f P Y ` I F 2.+.a 4 d / ! a 4 e G 1 6 w G 3 w w 2 2 : w U.*X-X*.i w a k.T.O.G G q 1 > w ] U...G { 7.4.7.,.a 3 K P / f.`.r.Y ` F D ^ F Y ` :.' ] 1.;.-.' P ' Q ` ` ` ,.;.:.-./ f.4.7.7.' F 3 w K w G z.dXlX=.k K ` l.I.5.5.7.5.z.V.^ p > Z S Q P.R.q.7.7.w.3.z.1.2.,.L S k : 4 2 : 9 w F 2.>.} d.^ [ `.2.-.' 6.w.H Y _ 4.L.q.6._ 5.d.5.d.I.P.R.d.} Y.d.:.:.H H P.^.Q.`.2.H G Q 3.7.' } { } } } } 7._ P Q _ 7.f.6.4.L.I.E.d.} L.Y.P.6.I.U.5.Q 2.k.4.P.^.!.Y.L.I.L.6.d.d.d.3.4.L.4.4.l.].fXSXVXS.6 @ o . .               . o O O * y N.vXDXjXr.-.] b.V.O.1.[.XXV.7.R.U.W.5.4./.d.!.R.z.A.e.c = % o .                   . . $ 5 5 v e.e.D.pXVXDXVXaXaXjXhXhXhXF.j f Y [ { } } | W Q H _ 3.} | } _ ` _ } 7.} f.[ [ 4.4.4.' ' 6.6.P.I.Y.P.4.7.[ [ _ ` [ -.` 6.I.L.l.x.:.5.l.U.I.T.k.U.W.R.4.L.7. XoX5.5.l.[.`.E.I.R.|.I.U.R.~.R.I.6.U.U.k.z.2.1.[.q.Q ` [ [ 5.3.` L.Y.1.K -.b.T.+XfXn./ Y ;.9 d Q W P ! 6.-X1Xd.4 q 3 3 3 f O.,.9.fXxXAXJXKXFXmX).Q.7.7.W.U.5.2.b.P 9.cXNXzX8XwXzXqX<XZXZXxXV.[.[.q._ +.q.6.w.q.3.>.q.w.|.zX0X).k.} _ ^ b.f.k.x.[ T.q.O.O.W b.#.6 1 2 6 k X.j.x.8X3X-XL E W K w i z.1X:X+Xz.o.X.C.{.@X9X_.*XfXV.+.O.r.A.A.+.O.T.+XfXMXMXkX).w.P K ! x.z.0.z.v.|.oX{.).x.k.9.<.E k 9.`.A.f.-.,.x.T.V.T w g g a f / ` 7.q.XX,Xg.,.P K ~ -.9.{.,XeX5XOXQ.l.b.f.D *.xXmX[.1.3.f.#.L g z s q o.`.].+X,X,X5XeX4Xk.! K / 2.x.z.z.x.C.r.0.$.X.X.G.G.0.*.0.0.C.+XG.r.*.0.g.C.C.z.x.T.V.V.r.q.9.r.S.G.B.h.0.z.1.:.:.q.:.<.9.0.8.9.9.C.h.O.X.X.L X...! O.x.@X@X+X+XfXkXlXxXlXkXfX@XXX:X:X].k.E a i j j X.=.=.=.=.S.dXgXfX{._.C.V.z._.`.k.,.w.G.dXhXxXxXhXgXdX+X+X].0.X.j X.X.X.+.*.F.dXdX+X].",
"# 3 3 q e A j i I f 1 4 -.{ 4.p # : > w a 4 8 1 3 w p 1 3 2 : 4 Q.xXr.A ^ L ! a q D F a > q A _ k.Q | 5.q.~.^.9.w.x.E.w.^ :.6.3.2.| 5.K H -.-.F F [ E.k.o.K ^ :.d.-.3.k.>.[ O.K S a P :./ L a 3 q q F -XZX+XC.f.U.7.-.<.] 7.6.I.;.>.K 3 3 J i 1 w P Q _ [ } d.3.L.L.[ 5.k.k.q.A p f p Q _ Z Q...4 A ! ` [ ` 5.I.Y.l.[ 4.I.6.d.6.l.} 4.4.4.d.4.[ [ 7.6.7.7.d.U.` G 6.l.` | } | ' _ G Z { } [ } f.7.' ' 7.7.3.Y Y [ 4.4.} 6.Y.6.7.L.L.W.L.d.6.4.d.I.L.' { d.3._ ] 4.L.} d.L.3._ ` [ _ _ 1.C.CXHXVX=.* o o . .               . o % @ = y e.vXDXjXr.R.6.T.O.L l.b.v.E.k.d.Q.f._ l.5.P.I.q.x.C.e.y = o O o . .               . . o - 5 k m =.m D.hXMXhXjXaXaXpXaXpXF.+.a 1 I Y D e G A Q Q _ 7.7.5.' K ;.] ' [ [ | } 3.} } 4.I.P.P.{ :.` ' [ 4.3.7.3.d.L.d.3.=XU.d.L.k.3.f. XXX>X=X{.3.] 3.T.'.'.d.W.3X X'.k.|.lXoX|.q.^ U.3.` k.).'.l.7.U.' ] R.l.5.7.3.q.E.6._ 3.f.` ' :.' >X<X>.[ ^.lXz.6.l.q , p p w.1./ P ! j q 1 > L r.aXjXvXPXLXJX;X&XmXz.q.l.Q 6.P.^.~.R.3.T.W.zXZXxX@XoXoXoX,XCXJXJXMXfX<XT.|.'.Q.eX9XoXoX^.k.V.[.x.b.-Xw.9.q.k.V.O.L d g i +.b.dXG.r.+.o.S a J *.B.+X`.T.,X'.q.C.0.W F f 0.xX<X].`.2.! L +.#.+.:.f.;.^ l.` ^ z.{.^.f.] ^ ;.R.'.x.,Xx.! o.#.L V.:XV.x.b.2.o.O.O.>.d.k.0.b.o.}.XXT.q.V.>X'.#.K J D f f f f J H Q [ :.,.O.,.9.z.E.'.XX,X:Xb.s.k.2./ ,.8.+.V.MXmXx.^ T.U.>.~ l l i p l.<X,X,X-X'.|.-X^.Q.'.{.C.q.z.x.9.0.0.C.C.B.*.r.F.].{.].V.G.+XF.B.=.X.*.8.0.,.9.V.V.z.0.C.v.A.G.C.B.*.*.h.>.` P ! O.O.o.+.$.<.x.'.{.c.+.b =.B.C.9.$.9.).[.].G.+XfXcXkXfXcXkX:X[._.>X0X}.<.L q q i k b b =.e.e.dXhXfX<X[.].C.V.x.).).z.0.C.+XfXfXdXdXdX+X].+XV.g.+...j ..X.+.+.C.fXxXfXfX].",
"@ 2 > q 4 Z ( 8 a w 0 D w 4 w 2 2 2 > A ~ T j k , 2 3 i q a 8 %  .mX<X$.A q Z w Y 2.$.f w I I p F { 3.q.3.f.2._ f.:.[ L.L.3.Q Z Y H ;.k.-.H { O.^ U.f.f.w.:.7.Q G a F F Z H / ` ` w.` Y >.{.[.5.a -.!.8Xb.5.x.q.| } _ 7.q.[ Y ` a 3 3 d T f 1 3 ;.P G ` :.:.6.[ 3.U.x.q.l.I.7.Q.T.:.P D 3 1 o.g.f T Y / W ` d.[ Q 7.7.[ f.f.[ ' 3.-.[ ' 3.7.` ' :.3.} i.~.oX3.{ U.} [ _ [ _ Q Y Y Q / ] } P H _ { _ Y 6.4.3.[ ' ' 4.Y.4.4.Y.L.R.Y.4.} 7.3.7.[ d.l.7.:.[ 5.6.:.P [ [ ' d.3.7.3.] -._ d.W.+XSXDXjXm * o o . . .             . O @ @ * y B pXDXvXG.P.` q w W W F Y G ] d.4.L.L.[ d.4.d.d.>.g.M 7 * O o o .             .     . o = 5 y h m b &.dXdXdXjXdXS.e.e.D.pX+XF.F.1.G F F ` _ 7.d.U.3.3.6.6.4.4.Y.d.` F S L P P _ :.4.H Q ` 6.6.6.3.d.W.'.6.l.R.I.5.T.R.I.5.6.[ Q.l.7.T.`.v.#Xx.7.3.I.'.oX!.wX8XR.q.XXwX=X|.d.Q d.5.-.k.R.=X'.[ [ 7.3.3.l.d.U.|.d.I.R.l.E.:.} | } *X*Xf.H H / ].Q.f./ 8 a W ! 5.b.1.( 4.7.z.G.r.vXLXLXLXLXLXFXs.4 F !.*XeX>X5.d.U.6.5.Q.U.R.wXzXBXxX[.6X9X>XdXSXAXMX,XkX{.b._.x.q.k..X^.0X+X9.r.>X_ a ! |.wX@X+X+Xg.8.D S J F h.pXDXDXB.;X$.R b.].lX,X1.! 2.3.! mXA.=.z.9.1.{.2.F K 9.#.S D +.` _ ^ f f f J J W D L 2.5.` P / S ! A.9.w.V.x.V.:X}.z.z.k.! j i 8 f T K / k.9.V.z.-.V.+XV.o.a d E ~ J d f J f S K ~ -.9.).@X0XwXwX8XW.k.o...=.0.0.0.9.1.v.<XmXlX].0.0.5.5.g.*.E f ,.v.A.+X+XB.;.( ,.1.V.gXNXMX+Xh.8.O.=.*.B.F.+X+X+X+X:XfX+Xz.V.F.C.0.+.o.$.*.B.z.V.).x.q.q.].<X+X].A.r.=.=.*.o.f a L o.+.X.=.X.$.z.v.V.C.r.r.C.].].v.,.O.q.].].].+X@X:X@X@XfXkX].9.q._.`.9.R a 0 1 < 6 b =.=.r.F.gXxXfX+X].[.#Xz.q.q.k.q.C.F.;X+XC.C.G.G.V.h.h.9.%.X.X.+.0.,.=.0.+XxXxXfXfX+X",
"o # 9 % 2 2 3 G a S 1 9 4 3 > q 8 S O.K k k w w , 4 H T w W ! 6 K { f.k.a 9 > 4 4 e e D K K w d p d / { | D 1 2 > q Z H p S a 1 w [ 5.F I P ` ~ W F q d K Y F P a f p S W ` -.f.l.:.Q ' I.R.5.6.5.Q Q D I Y [ :.S a W | 4.Q G f 2 > 4 d i 2 > { k.Q Y [ _ _ :.:.} 4.7.7.6.R.q.0.[ Y w 3 j pXhXMXfXr.K ] ] F G 3 w Q -.7.4.6.` ` :.` P _ 7.:.:.d.' ' f.} ] -.F ^ -.w.' [ +.Q G A G w A Y _ P Q P H H Y | ' } } uXd.d.3.} Y.Y.6.U.Y.Y.d.6.U.W.L.U.U.L.Q.U.Y.U.R.6.I.7.:.I.4.L.W.U.R.U.I.T.+XCXDXpXh # o o .                 . o % @ * y M aXVXpXo.F F 3 3 D T S p a S F 7.4.4.7.Y _ -.^ 1.<.j 5 = O o o o . .           . . . o @ @ * t h m =.D.S.S.dXdXM.e.&.e.pXA.:X:Xl.' 7.5.6.d.U.L.L.4.d.Y.4.[ [ { d.[ } Y.L.[ ] f.{ _ 7.7.4.d.7.:.:.5.6.6.[ 7.d.d.U.R.U.6.[ 4.} d.oX`. XeXXX:XOXI.|.U.Y.oX=X XoX_.|.XX}.=X=Xk.2.` 5.'.'.R.q.:./ ` d.[ _ ] / ` ` ] d.7.`.w.1.I.P p z.] H I f K K a ^ Q f 8 a P :.U.U.l.q.-.MXJXSXJXKXHXZX,X=XT.^ w.x.T.5.T.~.5.f.W.@XfXzX|.5.*X0X<XxXcXzXmX{.l.mXyXrX/./.tX5XT.9.w.P -.7.T.{.A.fX).O...L C.+XC.dXgXfX,XV.z.,.K *.S.vXjXe.MX0.a ! ( ( T 8 1 S S 8 #.c.].z.9.,.w.1.R i j ..O.,.-.4.3.P p a L $.1.K F ] Q.W.5.9.O.f +.z.x.[.XXU.x.x.1.q.).].V.+XC.$.$.! o.,.,.z.T.O.f V.;X#.w p j J J f f J o.o.1.5.Q.XX=X=X9XeX9X-X{.x.<.9.z.[.fXcXcXV.V.:X,XlXlXgX+XC.9.`.:XA.B.g.g.0.B.A.A.G.,.o.J j +.dXAXAXgXh.8.h.C.A.F.+X+X].V.V.].V.C.C.A.C.B.0.*.O.+.*.B.F.A.).q.:.1._.{.@X:X+X0.=.=.j 6 1 i j X.0.0.+.+.+.o.$.C.+X+X].@X@X{.v.$.o.0.A.{.[.#X+X].C.G.+X+X9.! O.w.<.$.X.j < # * k =.0.r.G.fXcX,X@X#X].{.].q.:.5.q.q.C.+X;Xg.o.+.*.8.8.$.%.%.+.$.0.0.k.] +.0.+XgXkXfX<X].",
". % : 1 1 2 9 4 F ;.P a F S { P.[ 4.uXP.Y.-.I P ! ;.2.^ a w 3.<XfXl.Q ` f 9 2 2 : : 4 A E a i S -.^ f > > 2 2 3 a p A p w T L a 8 3 G Q A ~ F d A p L o.f F K 7.b.` A ` w.9.q.;.2.^ Q ] 7.`.V.P H F > > 3 w W W S e W I w G f a w q 3 S o.q Z [ F P W Q H Q w.w.7.6.:.[ 3.I.l.! 8 A f F 1XBXMXkXkXxXr.L L ^ ] / { :.3.f.:.7.6.T._.OX_._.E.I.d.R.L.I.R.-.^ 2.! a F ` [ d.5.P I F H Y ` Y Z G [ 3.4.4.P.L.' _ 3.] Y ' d.P.L.P.Y.!.Y.U.Y.U.|.!.Y.R.d.3.Y.Y.!.W.W.Y.5.:.3.d.4.L.6.I.[ L.6.V.bXDXhX*.7 @ o o .                 . o O % * u =.hXCXr.D A ^ ,.f w D A P J D ^ :.7.I.6.>.3.6.5.q.0.r.6 O O o o o . .           . . . . o O = < y y h &.&.S.aXD.&.v v M S.0.O.2.q.d.5.5.} I.5.6.4.4.Y.P.P.|.E.t.Y.L.!.Y.!.Y.d.` _ P 6.d.L.[ ' ' [ 7.d.U.L.d.d.d.d.6.6.d.L.Y.!.f.k.5.x.Q.k.-X=XXX|.Y. XQ.{.*X|.|.W.U.l.W.|.[.{.q.q.oX>X'.).:.k.l.E.:.U.l.:.Q ` E.U.d.[ XXwXqX1.L C.q.7.` k.l.,.L k.eX-Xv.z.k.C.w.I.wXQ.d.XXR.!.Y.d.d.oXR.E.[.=XU.l.].O.5.f.x.k.<XAXNXXXl.q.1.O.`.mX<X[.kX,X@X:XtXtX{ 7.=XzX:X8X{.U.XX{.<X9.+XFXXXz.&X&X+X&XdXhXhX+X:X].9.! K $.+.h.h.i T ! 8 > 1 2 < 6 3 W k.1...L z.].C.V.[.].:X:X0.0.A.k.~ F K ! U q d [ / F Y Y / x.'.>X=Xz.z.v.`.z.O.;.z.9.-.~ O.9.V.V.<X<XV.9.b.n.k.b.'.~ i 0.F.*.j T L j X.*.B.V.}. XtX^.U.d.U. X=X*X!. X8X:X].`.{.cXxXZXZXcXfXkX+X].:XkXgX+XC.].+X;X+XA.h.B.r.B.].+X@XC.0.*.0.F.xXZX<Xv.z.+X:X+X:X].9.z.z.z.z.z.C.F.Z.0.0.0.0.O.+.r.+X:X].k.-./ 2.T.[.XX:X+XC.r.*.j 6 1 j +.*.r.B.9.=.X.b X.C.fXfXfX>X:X@Xz.0.*.C.].[.].V.V.z.0.0.r.$.o.K ! O.8.B.r.X.6 < k X.8.C.G.+XfX:X].V.C.].].V.9.5.5.:.-.8.C.<.J i i j R X.X.E L o.,.C.).v.;.L 0.A.].+X+X].C.",
"% 2 > > q A q J a ..[ W Z p W d.w.H ' Y Z } 3.-.:.p G ' K 1.l.d.-.[ F a > # : 9 # : 4 4 > > 3 k p | / 1 , 1 q w Q G p a w d p | P G p G W w p a I } 7.` P S H 4.6.` q.[.[.q.W s.7.` H ;.`.k.k.-.H K 8 1 w S Q W P S S p ^ O.L f A W -.w.K S A ' 5.w.K P ;.k.l.b.] / ` / 7.XX{.5.V.k.[ U.Y.l.[.'.T. X>X).P k.Q | { Y _ Q / Y 3.1.d.|.T.q.6.L.P.W.Q.E.-._ 3.' ' 3.l.U.4.' uXP.l.7.7.[ 7.4.d.3.f.4.} [ 6.6.d.3.[ Q Y ' | } L.} Y.R.R.Y.Y.L.U.L.L.I.:._ 3.U.U.R.!.!.d.U.W.Y.L.I.d.U.3.5.q.].xXDXaXM 5 @ o o . .               . o @ O * h e.nXnXS.,./ w -.! 8 i A } 6.R.!.P.d.4.L.I.d.R.Y.R._.0.t @ o O o . . . . .           . . X o O $ * 5 t m &.*.D.M.M v v v e.q.3.3._ :.P 3 G d.Y.} _ H 7.` ` [ Y Q ' 3.d.} L.L.d.{ 5.3.6.L.Y.d.6.3.3.6.7.4.P.d.3.:.5.l.6.6.I.7.] ^ a 3 w F p d ] U.L.U.E.q.1.b.U.U.3.5.d.d.E.0XlX@X).k.OX4XI.6.R.|.W.R.W.U.6.T.E.[._.OXR.Q. XQ.U.U.0XkXOXY.^.Q.k.l.I.OX].V.@XlXeXwXGXMX-Xf._ -.H [ R.U.U.U.T.T.=X<Xx.T.T.q.l.E.x.+XNXNXz.q.v.W w [ Q.[ P l.-X^.>XE.! I q.lXQ.+XkX{.z.:XeXmX`.V.1XT.x.n.h.0.C.dXSXgXG.+Xz.R 3 f O...#.;.S a f 2 : , , : a O.q.Q.=X-X9.V.{.9.,.z.@X,X@Xh.B.0.X.g i j 0.$.j k k j j k k R T.XX-X9XT.x.1.^ ! $.A.+X<XC.J a E $.R #.n.0.8.1.^ >.:.O.j a f J ..=.0.z.`.1XwXwXwX=XQ.,.! K o.w.x.|.!.qXwX,X}.V.9.9.<XxXxXMXxXcXkX].9.0.@X0X:XC.r.G.fX1X+X+X+X$.$.+XcXzX<X:XfX:XV.].+XV.9.9.[.{.`.V.,.+.,.q.q.q.V.G.B.*.$.$.8.,.$.0.F.<X<X`.5.W G -.x.[.+X@X@X].A.C.$.j j $.$.0.r.B.9.*.=.=.r.;XlXkXfX,X:X+XC.B.C.V.].].V.x.V.z.8.=.X.X.+.o.O.,.C.F.B.=.X.X.+.0.9.C.G.].].C.9.8.0.G.G.C.q.q.1.;.! ! o.f i 1 1 i j k k k L O.z.`.`.g.K j X.$.0.C.C.B.8.",
"# 2 # 3 } K k J ~ i Z A K W q P Y K F H S K Z _ :.S A } } W W O.K Z W ^ 2 , # : : & : 2 : 3 a q s q P 0.8 w W 9 > w ! L A F f F _ ^ 8 4 w f D K H H F / -.O.-.O.1.:.q.{.Q.).q.P Z Z 1.{.o.L J F _ W O.L ~ 2./ ` _ P P 1.^ [ } Q D 1.} k...a W / 2.-.H 2.T.x.] [ / ~ x.@X{.=XU.>.tX.X X'.W.3.5.;.-.:.:.f.} :.P Q ` ` P H Y 5.T.>._ ` / Q } 4.6.4.3.7._ ' [ H _ [ f.U.7.' 4.f.} [ 4.L.P.} 3.[ } [ | _ [ [ 7.6._ | } H _ } { ' [ 4.} } 7.d.L.R.W.R.U.I.I.Y.d.L.L.P.P.^.R.W.Y.!.oX|.U.T.].bXSXVXpXv - @ o . .                 . o @ @ 5 M pXhXhXdX].P S Y W L P :.x.Y.U.W.U.d.d.k.T.q.'.U.Y.U.] X.* o @ o o . . . .               . . o o O * * h h m &.&.y y y h X.9.` [ Q | } :._ | f.| | Q G H I q w L F w Z G P 7.[ } 7.4.4.{ H _ 7.4.3.I.L.L.P.d.7.[ U.'.R.[ [ 4.3.A 3 3 > w S f D W Q / ^ O.O.! O.:.[ [ [ d..X>XwX0XwXXXU.!.Y.Y.W.Y.!.Y.d.L.Y.Q.U.5.R.R.R.R.Y.l.Y.P.=X>XXXOX|.XXE.d.Q.'.{.3.3.>X} -XGX}._.~ A ..K -.E.[.[.].+X'.cXNXmXeX0X_.x.[ W V.MXMX9.,._ f K F G F P k.G S :X8X@Xr.fXAXCXZXlXkX+XC.C.z.T.0.+.S L ,.O.9.0.dXxXdX+XA.,.o.i ..C.=.0.1.$.X.i 6 1 8 k ..K D S O.W W x.{.,.q.d.h.8.V.V.z.B.$...X.+.{.mXlX0X&XA.Q.'.1.;.] _ 7.E.k.1.9.5.k.v.{.8XMXxXF.E i 6 6 i o.$.*.h.,.o.2.O.E L ..L X.h.<XwXmXBXBXkX@X+X].z.0.$.8.`.{.XX-XwXlXlXfX+XC.$.~ c.+XfXxXxXlX,XV.9.w.V.8X-X].G.bXhX+XC.].`.x.z.[.cXeXzXlXkX{.g.$.R j L 0.C.8.%.O.+.0.0.z.z.q.C.C.8.+.o.O.$.$.0.A.<X<X{.v.1./ P -.q.`.:X:X@X:X,X:XC.0.0.r.r.G.+XF.B.S.B.S.+XgXxXkX,XfXfX;X+X+XF.A.V.C.C.C.C.C.8.=.=.=.0.0.z.C.F.G.B.r.h.g.9.q.V.z.B.g.,.+.+.+.$.B.S.B.h.k.1.-.! J f g i 1 1 i i 1 t f L O.2.k.k.$.L L L X.+.8.0.$.+.",
"% , a Y { F d S W J S J j w 2 : q S Y f.o.w W P F p w H | Y > q w A { f.p 9 # : # # # 9 q f.'.,.f F >.b.k 9 a L k 3 Y } } } :.-.I.I 1 ( ;.D _ P W a a F ] x.C.C.].r.$.f.f.5.d.P i -.8XI.:.O.S L O.1.Q Q _ :.` -.Y Q ` ` P P -.O.+.p W  Xd.l.f.w.w.q.q.l.k.2.Q ^ U.{.b.;./ -.P I H P :.[ { f.f.x.q.6.x.x.k.[ :.-._ 3./ H Y =X X} Q I w Z ' 4.3.] 5.' ' 7.6.2.! 3 F f.I.6.4.' 7.} w.} L.6.d.:.7.[ 6.7.:.6.} /./.} 3.4.} | Q _ _ ' ' ' ' 6.Y.Y.P.Y././.L.Y.Y.Y.P.P.P.Y.L.Y.Y.U.|.U.v.+XdXDXDXaXe.h * @ o . .     .           . o @ @ 5 &.pXvXhXhX+X#X5.f.U.I.U.U.).k.l.E.5.v.`.1.9.`.2.~ E J W $.k * @ o o . . o . .         . . . . . o o @ @ , 5 y h h 7 7 7 t j O.Q / w.6.4.7.W :.I.R.7.} [ { | _ 3.Q 2./ W ] H P Q ' } :.' 7.` 7.6.U.W. XT.R.'.U.Y.U.U.d.f.[ _ P.3.w > 1 4 w D ~ K 8 p F ;.#.R X.L W } [ Q Q >.1.l.,X=X[ _ ] Q 3.d.:.[ ] ` :.] { | Y } | ' } } 3.7.} Y.Y.U.U.).d.} f.5.f.7.5._ } ! O.k.P.4.k.`.'.>XwXlXzX0X=XzXzXeX8X,X|.d.:.T.k.W 9.lXAX+XK ^ =.L P q.q.W K 3 6 ,.BXSXHXKXJXFXAXgXfXlXlXG.+X<X0X<XC.).A.$.<.C.dXC.0.C.q.,.g.%.B.h.L h.z.9.C.$.%.h.C.C.@Xx.X.L K K b G.xXw.:.d.~ o.,.8.b.v.A.A.].0XwX0X>XlX>X`.}.].g.#.j j 2.f._ ;.b.'.OXE.`.8X,X[.z.,.O.L j $.'.T.T.).r.*.o.=.0.].:X0X-X X8XwXmXlXwXwXeXmXmXBXmXeXwXmXmXwX+XG.fXMXNXgXz.! +.+.+.V.fXxXxX+XC.0.0.v.-X-XXXgXMX;X*.$.V.x.5.5.R.>X8X0X:X].z.9.$.J 8 j $.*.L j X.*.B.C.z.9.,.8.,.o.R R R o.,.C.].+X{.v.2.^ ^ ` :.k.`.XX@X@X:X>X>X{.V.C.B.].dXdX+X+X+X+X;XfXkXkXfXgXfXgXfXfX:X].V.C.h.0.0.0.0.0.0.r.h.C.V.V.G.G.B.B.C.].V.z.z.x.q.8.X.L L X.=.*.B.B.0.h.8.O.! K L j L J j f i 1 , t a R $.1.l.z.9.+.o.O.0.$.$.+.+.$.",
"% : e H H w w  .P T 4 w S w : : 3 8 ^ Y a w [ >.! P L L K S 3 G / ` ` +.r.X.j 8 t i j 0.9.`.E.6.3./ Q H S 3 R w.T 8 w H G H P.*Xw.Y ( W W L p } D a P / ^ s.5.U.-XlXr.L A F / W ! Q /.U.P 1.f.3.x.T.Q ^ O.W 2.5.0.W k.:X{.@X<X&X<XG.q.T.oX6.Y.|.XXl.:.q.1.:.;.>.6.` O.1.2.` ] 3.{ :.d.^ a W Q P._.q.6.Q.E.q.3.R.U.5.:.` -.k./ G w w q q Y 4._ / / / -.} L.[ 3 9 > F } P.[ | P.d.P Q 4.6.` ` f.[ } P.} [ [ ` ` Q { 4.7.' 3.I.L.3.d.U.I.d.R.Y.P.L.4.4.} Y.L.6.I.6.L.6.6.L.U.I.R.XX@XdXDXHXjXM.M t $ O o . .               . o o @ % 5 &.aXvXhXgX+XR.6.q.l.Y.R.` Y l.T.I.R.W.'.k.W p > # % # q T J t @ o o . . o . . . .   . @ * & $ o o X o @ % $ 5 < 5 5 - 5 6 k W _ ' ` [ } P F | } Y.R.d.L.} [ } } 7.6.L.} P.Y.[ Q ' [ } 3.7.U.d.U.W.Q.W.T._.].6.:.3.` ] _ Q H | Y p 1 1 3 e d T ( W Y ^ #.o.$.X.D Z G Q G 4 w A W W ,.,.^ P _ 5.T.[.q.q.q.).q.o.P F P H P H ` ' Q P F | 6.I.`.1.W >.^ P _ [ { ' /.3XP.W / !.XX[.0XBXmX`.;.~ -.-.W K O.k.w.,.b.8.! ;.&XmXNX0.+XAXhXdX<X}.;.K X.T.fXAXJXJXFXFXZX<XxXMXZXMXBXBXkXfX0XzXwXA.r.9.G.A.C.C.0.z.V.,.#.o.K O.0.+.w.:X@XeXlX0XkXeXwX[.[.k.5.,.:XCXh.T K -.C.$.L R s.].V.-X<XX.=.$.C.0.8.V.k.C.0.2.Q.W.3.^ -.V.[.[.q.q.l.6.6.E.6.>.1.5.W..XqX^.*X@X`.'.@X,XeX9X0X:X XwXmXyXrXrXeXyXwX9XwX9X-X`.{.+X@X+X+XlXNXZXlX).x.).9.0.9.&XgX+XC.r.8.h.A.].{.>XkX<Xh.$.,.,.w.w.:.5.x.{.).0.r.G.B.0.E ..0.c.8.j k =.B.C.9.,.;.;.O.o.R W o.L X.g.v.v.q.<.#.W F W ` _ 3.E.Q.|.[.[.'. XT.v.V.V.+XkXcXfXfX<X;XdXfXkX,X+XpXdXxXlXkXXXC.B.r.$.$.*.r.S.G.C.C.c.V.v.z.C.B.r.B.A.].G.C.).l.` K j j E =.e.S.S.B.*.*.O.! ! o.+.0.C.z.g.$.L k 6 1 f X.O.<.9.1.<.8.8.0.8.$.$.$.$.$.",
"# 3 4 > 3 q e d p 3 a A q : 2 3 -.Y F 3 e F H w.[ ` [ ;.W ^ P :.[ ,.<.F.C.+X].9.~ $.`.[._.v.).q.P w ! a J W | ' ^ R p H H S e  .U f q q > ^ 9.F e p -.] a U ;.U p ] kXG.w./ / :.` F ! W :.6.` :.9.-.:.L.R.x.1.F :.k.-XlXwXeXeXeXqXeX_.-.U.K ] d.U.q.P 5.Q.>XT.f.| K 1.*X9Xf.{ | Y  .` O.K F O.q.V.T.} } q.3.f.Y.5.:.7.} { P w w w q 3 > G [ 4.' [ f.} -.L a 3 2 3 w Y 4.3.4.4.} 7.} [ _ | ' 6._ _ [ _ ' ' | G ` L.4.[ 3.4.4.P.4.R.Y.L.6.d.4.6.4.7.3.Y.d.L.L.U.I.t.d._.I.6.R.[.<XnXDXJXHXpX&.n 5 @ o o o .               . o O @ @ 5 M D.jXhXhXV.9.3.6.x.l.[ [ d.I.P.P.U.4.7.w : # # % % % < w 1 : # % % o . . . .     o % q / F F 1 o . o o o @ * @ = * , 1 a D W H F F F W _ Y | ' ' 7.3.4.[ _ [ 6.P.L.5.[ 4./.I.5.6.4.L.P.4.3.7.7.2.2.O.! ! g.'.x.l.7._ :.:.' } } W > 3 3 3 w w S U U W o.%.X.f J K w w 3 1 i G E J ! k.U.[ ` / :.!.wX8X9XwXwX@X|.4XY.>.:.6.6.6.I.6._ :.5.k.U.#.K P ~ ^ q.d.d 8 ` _ 6.k.f.d.{.0X:XXX5.,.f D i.$.R ,.).[.).1.,.o.k a ( {.NX}.+XBXNXBXmXBX1XmXmXBXmXmXlX1X+X;X,X,XkXCXJXMXcX@XB.G.+Xz.B.*.0.V.x.V.+X<X'.k.$.O./ ,.9.9.+X#XV.@X[.#X+X8X0XcX0X>XfX#X#X).V.V.o.f ..1.V.%.g j h.].$.h.*.r.;X@X[.[.v.C.,.v.v.>.k.:.[ 7.1.v.`.x.;.Y F ] R.R.l.5.x.T.E.E.U.!.0XwXeX=X{.@X{.`.).v.Q.-X{.<.T T J j j f o.r.0.w.E.:XXX<XwXlXmXkX<X[.XX0XXX0.,.F.G.B.h.*.@.$.C.+X`.n.c.g.f.g.<.+.,.k.x.9.w.l.,.*.r.C.V.B.0.0.V.`.h.X...*.G.C.,.O.;.;.O.! ! W L ..+.<.<.O.R R K L ! ^ ` ' [ 6.d.U.U.d.k.5.5.l.T.).#X+XfXgXgX<X:X&X:X:X+XF.G.{.cXfX@X).9.9.+.X.=.*.G.G.V.h.8.$.<.<.$.=.*.0.0.G.C.C.C.V.9.! S D L =.e.S.S.S.*.X.X.X.X.+.$.C.].{.].z.9.o.f k k J +.$.$.8.9.8.$.0.j.*.$.$.*.*.$.",
", q i q q 3 3 4 0 q d w > 1 3 G T e 2 % 2 a F p T K P ` / ..p Y -.,.$.k o.,.D J f X.{.|.W.x.C.f.L F ^ p q p W K G ! a A 2.G.j 8 2 : 2 1 1 Y [ D a j d A ..w.S 3 1 Z f.wXw.O.,.f.5.;.P ~ -.] ` 1.1X#X1.| Y 5.k.S W -.d w [ 3.7.:.9.l.5.{ f.W i.U.2./ ] '.T.`.l.` K L T _ 6.o.f w A q , > F p 9.wX1X,.p G Y / T P ! Q d.;.J 2 > > 4 2 2 3 F ` d.5.-.^ ^ P Z Y ] :.] ` _ d.U.:.[ d.4._ ` Z G 3.} } _ H | _ f.4.f.Y.d.3.3.I.I.6.L.d.7.L.4.L.} } 3.d.3.I.I.} 6.U.Y.R.R.I.E.R.U.R.V.+XDXJXJXVXpX&.y 5 @ o o . .               o o O O @ 7 M S.pXjXbXC.2.} U.k.5.3.6.>.6.d.>.1.5.P 3 9 : # # # % # 2 2 , & o O o .     . $ , 3 a : 3 Z U d # .   . . O = % $ & 2 p G H / P F ^ / H Q G P ` _ _ [ :.6.L.4.P.P.Y.P.` w.5.L.P.P.Y.P.L.6.I.!.b.O.K f f a a ] b.l.[.` [ P.[ [ [ Y 4 2 3 q q w a p A P X.X.J p A Y Z 3 3 3 q e T S S / [ ` G G W ^ ^ :.:.k.Q.I.oXoXl.5.` :.U.6.Y.!.d.Y Q V.z.` ] :.d.b.b.O.X./ :.[ d.T.).x.>XmXfXG.VXJXpXk { ^.b.nXFXAXA.3.^.-X:X*.+.9.b.x.,XwX{.].0XzXwX,XfXT.f.U.XX].V.)._.[.).bXSX+XV.kXMXZXMX+X0.9.].z.V.k.].0X<X`.9.$.c.9Xv.k.gXxXfXdX#X#X[.+X{.>XwXcXlXzXBX'.x.,.! k./ J L k k b C.+X8.0.].lXBXmX0X_.'.+.L <.2.a j K -.q.v.:X].O.p a 8 -._.'.oXXX'.OX|.W.U.R.4X9XqX).C.x.z.k.1.O.K K p 1 2 1 1 6 i ..*.l.'.!.Q.b.k.V.G.{.+Xh.,.1.T.@X{.$.r.F.C.B.B.=...$.C.+Xx.R f K ,.;.;.2.T.XX Xl.2.1.$.*.C.F.].V.B.C.V.+X].r.r.C.C.0.$.O.O.o.! R T E J j X.~ J f f J J f K ! Q / ` 7.6.L.d.7.Q F / 7.q.x.C.A.dXfXF.C.C.C.C.A.C.C.C.].+XV.9.1.1.9.0.*.r.C.+X].A.0.X.X.K J L X.X.$.0.B.G.F.A.V.9.,.O.$.$.*.r.S.S.r.=.X.j j X.$.0.A.<X<X].h.9.#.R E X.X.$.8.0.0.*.$.*.0.B.0.*.$.+.+.X.",
"# > 1 : 2 9 # 9 9 2 4 1 1 1 : # # % % % # 4 d q q 3 8 Q / O.o.j L O.X.a a 3 3 a A.r...2.[ / L A p e S A A 3 q p Y ;.F F { 5Xs.w 3 > 3.f.1 > q f K K G -.q.2.H U 2 r w w k U F G :.^ F O.-.:.5.2.XX|.<.a 2 a ( d / F w p W G ^ 9.^ / ^ _ F I f.#X>.3.U.d.2.e 4 | ^.k.+.p w j b a 8 q 3 < < i W U.5./ K a p ~ P w.I.} 3.2.f , > 1 w ` 2.:.6.6.:.Q Q Y 3.l.` _ [ L.3.} U.L.' 3.:.P ` ' _ p w Q Q -.p 3 / F H :.3.6.} { ' } d.P.L.[ 7.[ Y [ } 4.I.L.I.L.} 4.4.3.U.d.4.3.7.6.7.5.F.CXHXJXHXvXN.M y * O o . . . .           . O % @ % = y &.M.S.dXgXF.5.L.!.5.3.[ ] ] O.^ ! ! ^ W T J D a 3 3 q q i w q 6 , & & : : # % q G } [ L k 6 i 8 # % % % # 8 K ;.d q p I +.L H :.-.` _ ` 5.-./ 7.f.} 7.T.x.P e Y _ 3.P.4.l.4.4.} } ' | | } U.<.D J A F ^ S f f 2.v.XXk.] ] / _ P a 4 > 1 q 3 q 1 q S ! X.f q e w e w w w q q q a D f F f.d.>.>.G I F O.P :.U.U.d.I.5.P ;.x.3.OX'.6.q.:.5.{.|.4.k.x.<.9.].,.9.'.'.k.2.kXmXwXeXwX>XmXKXKXMX/ O.^ ( &XBXMXs.{ uX/.wXBXMX,.R k.-XfX@X#X,XmX_.dXSXjXx.-.O.8.).@X{.E.w.#X;Xo.0.xXZXcXfXxX<Xz.8.9.x.+.J V.+X@Xv.'.{.XXq.z.xXJXZXMXgXwX,X:X}.:X,X1XkXxXzX=X'.+XkX@Xw.k i X.C.G.+X+X0.'.xXxXkXeX X7.'.k./ 1.9.$.C.g.9.1.s.x.<.S 4 3 a ` R..XqX=X|. XoX4XOXOX.X/.|.@XcX:X$.R J f L L J k k j j j ..+.$.} f.O.J J R $.9.h.0.O.J K ,.z.1.0.F.dXS.B.B.*.r.C.V.`.9.j a g f D P ] f.Q.Q.>.^ #.O.*.C.;X:X+XV.C.C.].+X+X+X+XV.0.$.O.! K L J J j L ..o.! L f S J J K ! P P P F _ 4.t.4.' A a K :.q.w.0.G.dXdXB.,.,.,.8.8.$.,.8.9.,.O.K ! <.,.,.r.+X:X<X+XC.$.j f g a a k j X.$.r.C.F.].V.V.C.C.C.B.*.r.B.r.=.b X.X.X.X.+.B.+X+XV.0.$.8.*.%.+.=.=.*.*.$.+.X.X.X.+.0.8.$.! L j s ",
"% : # 2 2 % # @ # : : q 2 9 1 f 8 6 : , 9 q i 8 > S ..a p F S a s.<X*.R L L 8 q n.B.k p T ( %.8 q w k w d 3 3 H ! P -.f 3 4 A d k Y { K q w S A Z w f.`.] A w 2 9 9 3 > 3 a D A W W 2.q.5.T.q.1.S W f.W p A S ! :.Y Q >.l.:.] W ` ` 5.5.:.5.} [ b.~ a q > 2 1 p 7.P.U.f O.zXwX<Xh.J T ] / >.e a -.P.[ Q Y d.W.=X5._ A Y [ 5.` ] 3.d.L.P.t.7.7.[ 4.P.[ 3.U.d.' :.w._ | { _ [ [ ' Q _ H ` ` H P w.3.[ ` f.} } f.{ ' _ _ Y H Y [ d.4.7.' 3.3.6.d.6.L.L.d.L.Y.I.L.} 3.4.3.4.3.z.jXDXDXDXVXaXM v t $ o o . . . .           . o O @ @ $ t M M.D.jXxXdX1.6.6.-.k.U.:.>.] ] ,.W Y _ / ^ W W K J F L f e ! ,.1.! S w Z p 6 i A ' t.~.*Xq.k L | H a g e Y ' I.7.' 3.} { f.[ 3.3.4.} ' [ :.[ [ 7._ H :.^ F F A W ' } [ } } } Q Y Z Z A F O.~ w w G Y _ W K L K O.] T.:.O.1.1.8.k 2 > 1 3 q 2 > q S R L j a > > > 3 a f 3 > i i i j S -.l.w.F G Q 5.>XW.Q. Xk.Y d.3.E.{.@XXXk.7.7.6.k.v.[._.3.@XcX#X9.1.`.`.k.x.[.[.zXmXeXeX5Xb.O.:XMXA.+XlX`.k.v.).q.P P P s.<XlXwX$.g U R 9.>XcXBXBXG.MXFXSX1Xk.$.8.z.+Xn.^ O.C.b.S j <.'.>XcXkX0X@Xq.@X{.$.O.C.z.).C.[.+X[.V.B.B.G.+XgXgXXX].V.z.0.r.A.:X:X{.).].+X,X@X].*.B.gXMX,X{.].].:XkX0XT.k.x.V.#X1.1.x.x.[.,XV.9.+.D f J p 3 w G | 6. X XoXoX'.|.oX=X.XR.7.7.XXBX,X$.X.=.$.B.G.A.C.C.C.F.dXF.G.$./ K 6 < k %.$.@.*.0.z.9.! R O.,.V.+XdXF.G.C.].;X@X{.'.k.o.R J i 8 a D / ] ;.~ ~ o.o.$.B.+X<X@X].G.].].+X+X+X].].v.1.O.K L j f j b +.,.,.! j f d g j f L f S S S F ] 6.3._ A a L O.0.+.$.G.G.B.X.o.o.o.R J j E X.o.j a i L $.w.r.+XfXfX:XV.h.O.L g i i i k b X.*.r.C.F.].].+X+X+X].C.B.r.*.=...b E X.=.=.$.0.z.q.$.+.+.*.0.$.$.*.=.*.=.X...j b m E R ~ R f i 1 1 ",
"o # 2 q 2 % o o % # 2 2 : 8 R <.,.K U 2.K ( o.j p / s.$.P p a q w ~ ! 2.+.~ o.a a s.....L ..B.=.8 q d a i p ` XX$.S &Xj 3 p p >.r.L q q A H G p S I T S w w : # 3 S Y T d ,.K a O.k.:.d.W.l.q.P D L P -...w.[.+.G W 2.1.-.-.1.;.w.6.7.5.f.[ ` ^ S 3 1 2 f ^ J 8 / { ` ` Y.5X|.U.3.] Y Y ] A 3 K W D a p f.U.W / K K P :.6.l.E.t.7.d.Y.L.4.L.f.3.L.4.[ 7.7.] >.b.3.5.7.4.4.7.[ uX6.d.{ [ { } P.!.6.[ P | 7.d.d.4.[ 3.f.} ' } d.L.4.4.L.L.d.L.L.L.} U.W.8X!.6.Y.d.d.6.[ ' :.V.CXDXVXDXjXe.b y * @ o o . . .           . o O O @ $ * t b e.D.jXMXdX0.2.:./ ` 7._ Q H ;.-.W Q ] H Y ` ^ -.;._ W F A W { ^ O.F Q ~ -.b.k.z.l.L.t./.^.` } ^.^.H w w G A W _ Y 3.d.H H H _ [ [ [ [ [ [ 4.7.7.7._ 4.4.Y.L.[ ` ` / ] } [ H Z G F H ^ p g W F A p 3 q G { _ A p G d.Y.I.q.b.f.#.2 : 2 > > 1 3 w A d p q 1 1 : : > q f a > 2 1 3 f A / Y.8Xx.T.XX4X5XY.U.U.T.} Y.=XXX1.[.{.q.6.U.3.3.k.l.k.6.kXBX>XU.f.C.o.Q ` k.9X=X_.q.*XyX}.C.@XcXdX;XzXNXlX0X8X-XQ.T.{.fX<XmXlX~ 1 8 k U k.+XBXMXF.2XMXlX<X'.[.q.O.B.,.S o.o.K e 3 a d.T.q.V.'.,X<X+X:Xx.,.).,X:X[.0.{.-X+X+X*...r.xXcXh.,.z.`.k.q.].&X{.`.x.0.+.,.{.kXcXMXZXxX<X].v.x.C.].].,.r.dXhXG.+.;.;.1.x.V.r.C.V.O.o.! a a G Y A Q 5.L.|.=XR.L.U.Q.Q.U.7.w.T.wXfX+XA.].fXbXfXgXgX;X<XgXxXxXgX`.<.f 6 k *.0.$.X.$.z.XX:XC.$.,.V.).V.F.+X+X:XkXkX<X<X'.9.O.#.R a 1 q w d T #.,.2.$.$.*.B.A.].].].A.#X].].+X+X].].V.9.O.K f j j ..0.V.[.V.+.g q q 3 1 3 a a q q a a D ;.:.-.! f L X.=.X.*.F.G.0.o.L X.X.j j j ..X.X.f 8 i L +.r.G.fXgXfX].v.k.9.$.X.s 8 k X.=.*.*.r.B.G.F.+X+X+X+XF.C.B.B.*.X.X...X.X.X.=.$.8.9.,.o.$.%.*.*.%.*.*.=.X.X.X.X.j j j j j s i 0 < & * ",
"o 9 3 : % o o : 2 , 9 2 g j R #.2.T F W W ' :.:.R 3 / 3./ G a 1 & 2 4 ^ $.p D d <.V.b.l.q.+XfX&Xb 8 ^ P Y K { / 8 : d 3 w W ^ 1.f.q.f i J G P / A w q 1 > 4 3 a { T 1 I f Y ^ T ! -.:.:.3.>.-.w.1.2.L.R.[. X>.! [ ;.F / 5.] / w.l.` -.-.H P ,.z.' a 8 S  XQ.k.D Y / I a w Z P 3 2 _ } P F 3 1 T 8 3 W ( ] F 3 3 w } P.} 5.] { 3.6.Y.!.U.d.U.U.Q.k.` } [ H -.5.f.f._ ` 7.} 4.7.7.L.L.} 5.] | } 4.} 4.' 3.d.3.} 4.6.5.3.d.6.4.6.I.4.7.L.L.L.L.[ ' } 3.!.9X6.[ 7.3.3.6.d.3.2.C.hXjXjXCXD.b y 6 @ O o o . . .         . o $ @ @ O @ * 7 h =.M.aXjXdX0./ ` H F H Q / q.x.q.;.[ _ | | [ _ W W Q [ :.[ / W / Q Q 1.>.O.1.l.L.4.>.K Q { uX3.G F ^ ` W K p J P G Z P ` _ Q Q 7.6.6.} _ 3.} d.4.] G q A ] P.Y.:.P / :.7.' P P 7.7.3.3.G e q p w 3 1 1 3 d ( Y / ` f.^.Y.7.W w U 2 # : : > 2 > 3 q 1 q 1 1 , : 2 i f J a 1 : 8 a q F } d.~.*XY.~.9X!.6.R.R.d.3.U.R.` ^ 1.T.).l.E.q.q.E.|.d.,.,.g.>. X-X9.o.F ! / U.=X:X5.T.mX:XQ.-X0XgXlXzXlXzXlX,XlXfX+X+X#X[.zX&XO.8.~ D i a w.BXNX]./ K $.,.O.Q W j j o.+.=.j a q 8 i :.d.:.x.:X{.z.1.w.1.,.`.eXeX=Xq.z.@XgXxX:XC.,XmX'.X.+.z.XX XQ.).z.q.).{.k.8.C.<XxXMXMXxX<X{.x.9.9.z.dXdXS.CXJXFXfXc.9.^ 1.V.].{.{.&Xx.v.2.a q G G F ` 7.3.6.d.6.[ / ! -.1.:.x.:X,X@X@X&X<XlXfX+X+X+X+X<XkXxXxXMXkXC.o.$.C.[.V.8.o.$.9.`.<X:X].V.x.0.0.C.[.:X0XlX0X@X+X9.O.+.,.$.L K T P ! q.).).v.0.*.$.$.0.z.V.V.A.A.A.G.C.A.+X].].z.9.-.o.o.O.9.`.:X].O.i 1 1 , : 9 : 1 3 1 3 3 i i ! :.5.<.o.+.=...b =.B.C.0.! E R R X.X.*.r.r.*.R k j +.8.C.F.,X;XF.C.z.k.9.,.X.j j X.=.*.*.*.*.B.G.G.G.C.C.C.F.C.C.B.0.$.+.L R R X.+.,.9.1.O.O.*.*.*.X.X.X.X.X.X.L E j j s i i t < , & & @ @ ",
"o : 2 # # % , 3 , : g q 3 T ] -.K K ! f w a W F F f S W P G f # & : 2 4 g q q J J : g / Q 2.<.s.E 1 p _ >.L ] F p 3 f.K F W f q > 4 Z G S _ _ G d I i 8 8 w f  .I 3 S G T Y Y O./ Q :.5.;.` ` :.$.K / U.U.P P Y.k.O.S P P P Q w.5.! D ! G f.9X-Xi.K f 2.l.-.S S q 3 3 > 3 S _ ` F A i 2 q F W i.1.F W A A Z q 3 1 G H [ 5.^ _ U.P.4.7._ G ` 7.` f.3.5.3.d.5.F / 3.U.4.I.6.f.Y.q.{ [ ' 7.7.7.6.6.[ 7.[ | Y [ ' 4.L.d.3.d.Y.U.L.4.L.6.I.L.6.L.4.d.L.Y.L.Y.I.L.3.[ | [ } ] 1.A.jXD.F.aXe.v 7 * @ o o o . . .       . . O $ @ @ O O $ 5 h m M.D.pXC.8.] [ 2.l.:./ Q / Y W Q Q Z G Y 7.l.5.q.q.l.3.Q Q -.:.Y H W { ^ 2 q Y H U w P ' ' 2.e q K W Q | _ _ 7.3.| _ { ' :./ ` :.5.] Y _ f.} [ -.K 3 8 f H W G I H ' 4.4.[ 4.L.[ ' W w > 2 q 2 : 2 1 1 a a d U Y F ] { 4.5.I p > # % : q 1 3 S i 1 3 a j I H Q [ U.l.6.[ ! +.F P ! P -.I.P.4.4.6.6.6.R.I.` 7.d.} :.;.1.k.{.8X4X!.W.2.P K j L i a O.1.,.K o.-.+.O.1.!.U.O.] ;.! ;.] O.+XwX-XkXcX@XNXFXAXNXzXZXAXkX+XfXkXdXe.k L -XzX].O.! 8.s.T i g s k $.G.B.B.0.L L 0.+X<X,XXX).V.z.q.q.k.x.q.f.Q.,.J X.h.].,X].V.&Xb.,.g.;X&Xs.>./ / $.9.x.'.`.+XgXlXlXxX+X].V.`.`.].V.G.fXxXCXJXKXSXgX1X).q.).[.:X-XT.8.z.].8.a 6 i a ` 5.t.7.` W ! K P P ~ ~ ^ ).kX{.l.k.v.].{.`.V.+X:XXXXX@X0X0X0XXXr.#X<X:XQ.'.z.,.-.! $.&XfX<X@X).0.r.#X[.oX>X<X+X).z.w.-.1.z.z.9.>.:.w.5.T.`.).V.0.$.X.+.0.z.V.].].].C.C.B.C.+X+X+X].].z.1.<.9.V.{.{.,.i 2 2 1 , : # % # & 1 i i k f O.q.x.q.0.0.*.X.X.0.B.C.9.O.R R o.$.0.G.+X+XV.8.X.+.0.C.C.+X+XF.B.B.z.x.9.<.R R =.*.*.*.0.*.*.r.B.B.B.0.0.B.G.G.A.A.C.B.8.O.X.j ..$.9.;.! R $.*.=.X.b b b b j L j f f j s 1 1 , & # & * # % ",
". & i 2 3 L X.8 > L L 1 2 1 q 3 1 q q 8 w 3 G F S F 3 1 w w S 1 # 2 : 2 > 1 a 1 $ @ # 3 Z a > 1 q w >  .a > 4 e Y a Y L 4 2 : 2 2 q G I e Z w i Q } } T 3 1 # w W X.! Q D A [ _ W -.w.x.-.W ] f.P f L ~ +.K W ` ` W ~ ~ K P / 5.].#X0.9.P Q ' H p F W k.d.:.1.~ T L S f S [ b.L e 1 : 9 3 ] ' 7.L.I 3 a a q 3 1 2 f K Y _ P / O.F F p a 3 d G w [ d.6.d.U.1.K / [ 3.6.U.6.q.U.f.7.} f.[ 3.f.} 4._ H Q Q ` Q ] 7.U.L.3.4.6.4.L.6.P.I.d.L.4.4.} 4.} ' } [ 4.d.4.} [ 3._ Q O.G.aXe.*.B.&.h 5 @ O o o o . . .       . o O $ @ @ @ O $ 5 y m M.D.G.*.;.3.[ :.d.3.G w a 3 w A F 3 > w 4.Q.f.b._.W.d.' 3.f._ Q [ P S G 3 3 f p 3 K W / K F Z A a a G A Q 6.!.4.Y ' { [ { _ W H H Q _ ' [ 3.} ' [ { ' 4.` P q.:.Q [ U.>.W ` / Y W W q : # # : 2 a R A ^ i 2 3 4 4 3 Q f..Xf.G 1 # # i Y F | P.f.f.} L.5.{ Y _ 6.R.L.!.!. XR.!.=X|.R.P.Y._.q.q.I.E.R.|.[ ^ 6.4.P.!.[ ` q.}.8X.XI.T.x.O.~ 1.5.L a i q D a R C.C.V.0.V.#X,.,.2.o./ P K ( q.C.XXeXwXmXAXAXBXBXBXBXmXNXBXAXFXFXDXpX0.:XQ.1.1.].x.+.=.b =.C.gXxXCXZXxX+X,XxXMXNXmXcX+X+X:X,XcX<X).P a O.9.L g K o.h.#.! O.f J :XGX2XJ f L +.G.+X1.9.C.V.<X<XfX{.v.V.V.{.kXzXkXcXcXzXZXFXDXdX#X+Xh.k.`.Q.A.h.o.+.z.V.$.g : 2 f +.q.OXI.6.:.:./ ` } Y p L q.`.k.1.;.^ +.0.V.`.0XzX8XXX`.).).).V.k.{.:X).h.g.O.;.` o.+.A.,X=X:X].[.{.@X@X@XoX).x.d.v.).T.E.).x.1.} 7.q.q.T.x.C.G.0.8.$.8.C.C.z.V.V.A.C.G.G.C.A.+X+X[.'.v.1.9.z.V.#Xz.X.k i a i 1 , # % % % , i g L +.9.).].V.].].A.C.C.G.+XV.,.~ o.o.+.0.C.+X<XfX+XC.r.0.r.C.C.+XG.C.0.0.q.V.V.V.<.X.X.*.*.*.0.*.*.0.B.B.0.*.*.r.C.F.+XA.A.C.g.8.*.=.X.o.~ W R X.%.+.X.j j j j j j j g a a j s i 1 , , < t t 1 , "
};
