/* XPM */
static char *_c07755760a843258a892a239ccdc4b4rDxUvfI8Agv22SnZ[] = {
/* columns rows colors chars-per-pixel */
"416 588 256 2 ",
"   c #1A141A",
".  c #170A11",
"X  c #29080B",
"o  c #37060A",
"O  c #290C15",
"+  c #370B17",
"@  c #2C1213",
"#  c #28151A",
"$  c #331314",
"%  c #3B1314",
"&  c #38171B",
"*  c #33130D",
"=  c #291723",
"-  c #381824",
";  c #351028",
":  c #36262D",
">  c #231A22",
",  c #470918",
"<  c #570818",
"1  c #4B1C1B",
"2  c #461717",
"3  c #571B17",
"4  c #4D0D0B",
"5  c #670819",
"6  c #661918",
"7  c #771819",
"8  c #710D14",
"9  c #4A221B",
"0  c #592319",
"q  c #552A12",
"w  c #672519",
"e  c #76281A",
"r  c #733118",
"t  c #580B24",
"y  c #471725",
"u  c #581627",
"i  c #4E142D",
"p  c #680B25",
"a  c #770B26",
"s  c #671628",
"d  c #771628",
"f  c #681A35",
"g  c #781935",
"h  c #710D33",
"j  c #482425",
"k  c #582725",
"l  c #532E34",
"z  c #672924",
"x  c #772A25",
"c  c #693527",
"v  c #793726",
"b  c #782538",
"n  c #6C2E37",
"m  c #754733",
"M  c #61452F",
"N  c #533047",
"B  c #732F4B",
"V  c #72234B",
"C  c #724E4F",
"Z  c #6B5861",
"A  c #3B3345",
"S  c #86141A",
"D  c #8B2E19",
"F  c #871729",
"G  c #871A36",
"H  c #961A36",
"J  c #8F122A",
"K  c #A61A36",
"L  c #863827",
"P  c #882538",
"I  c #972638",
"U  c #90312C",
"Y  c #A92D35",
"T  c #A5371A",
"R  c #88452A",
"E  c #924E33",
"W  c #AD5230",
"Q  c #B36937",
"!  c #9C5126",
"~  c #C97136",
"^  c #C45B33",
"/  c #8D1C45",
"(  c #882747",
")  c #972847",
"_  c #903352",
"`  c #A83857",
"'  c #AE304D",
"]  c #973866",
"[  c #A73968",
"{  c #B5396C",
"}  c #AC1D44",
"|  c #C83454",
" . c #C83A6C",
".. c #E23B67",
"X. c #904F4F",
"o. c #AF4D51",
"O. c #946951",
"+. c #B1704E",
"@. c #934E6D",
"#. c #B84768",
"$. c #B84778",
"%. c #AE5071",
"&. c #92706E",
"*. c #AF6F70",
"=. c #C75253",
"-. c #C77848",
";. c #CE724F",
":. c #C4456C",
">. c #C84A77",
",. c #CD537B",
"<. c #CA5879",
"1. c #D45A7D",
"2. c #D95C7E",
"3. c #D3567B",
"4. c #D04F6F",
"5. c #D8627E",
"6. c #CB6975",
"7. c #E45A72",
"8. c #C62B3A",
"9. c #CE883A",
"0. c #E28F3E",
"q. c #B78655",
"w. c #B48D70",
"e. c #9F8B76",
"r. c #C88758",
"t. c #D69659",
"y. c #D08C4F",
"u. c #C99768",
"i. c #D69967",
"p. c #C79977",
"a. c #CE906E",
"s. c #D8A56A",
"d. c #CAA479",
"f. c #D7A778",
"g. c #D4AE73",
"h. c #E4AA75",
"j. c #DF9C5D",
"k. c #C19044",
"l. c #77748B",
"z. c #B75685",
"x. c #92718A",
"c. c #B4708C",
"v. c #AC719A",
"b. c #CA5885",
"n. c #D45C81",
"m. c #D75B82",
"M. c #CC5189",
"N. c #CB6986",
"B. c #D46383",
"V. c #DA6583",
"C. c #D56B86",
"Z. c #DB6B85",
"A. c #D56C8A",
"S. c #DB6D8B",
"D. c #D7668A",
"F. c #C8768B",
"G. c #D5728D",
"H. c #DC738D",
"J. c #DA768B",
"K. c #C96895",
"L. c #D76A95",
"P. c #C97897",
"I. c #D57491",
"U. c #DC7591",
"Y. c #DC7A94",
"T. c #DC7D99",
"R. c #D57996",
"E. c #E26C89",
"W. c #E1738D",
"Q. c #E2788E",
"!. c #E17692",
"~. c #E27B93",
"^. c #E47C98",
"/. c #EA6E93",
"(. c #D779A5",
"). c #CC78A3",
"_. c #E56E9C",
"`. c #CA3C87",
"'. c #958A8F",
"]. c #B3918E",
"[. c #B8A694",
"{. c #B491A9",
"}. c #B8AEAD",
"|. c #9891A7",
" X c #C88698",
".X c #DD829A",
"XX c #DA8498",
"oX c #CE958E",
"OX c #E2849A",
"+X c #E48498",
"@X c #E88F97",
"#X c #C9A888",
"$X c #D6AB86",
"%X c #D9B489",
"&X c #C7AA96",
"*X c #CBB498",
"=X c #D8B897",
"-X c #D2AE91",
";X c #E4B689",
":X c #E4BB97",
">X c #E4AC89",
",X c #D887A9",
"<X c #D897A9",
"1X c #D998B8",
"2X c #CD90AC",
"3X c #E58AA4",
"4X c #E499B9",
"5X c #E693AB",
"6X c #C9B8A7",
"7X c #D7BBA5",
"8X c #D8A6B9",
"9X c #CEB0B4",
"0X c #E5A7B9",
"qX c #E6B3B1",
"wX c #DAC29A",
"eX c #E5C499",
"rX c #DAC5A8",
"tX c #D8C9B7",
"yX c #D1CAB8",
"uX c #E4C7A7",
"iX c #E4CBB5",
"pX c #E6D4BA",
"aX c #EED1B1",
"sX c #F1E1BD",
"dX c #E59CC2",
"fX c #DBA8C4",
"gX c #DAB7C9",
"hX c #D0B7CA",
"jX c #E4A8C6",
"kX c #E5B6CA",
"lX c #E7BBD3",
"zX c #F3B4CC",
"xX c #DD9EC2",
"cX c #D7C9C7",
"vX c #DAD5C8",
"bX c #DAC8D5",
"nX c #D9D8D7",
"mX c #CBCAC8",
"MX c #E5C6CA",
"NX c #E5D9C8",
"BX c #E6C8D7",
"VX c #E5D9D8",
"CX c #F6CFD6",
"ZX c #DBE2DB",
"AX c #E5E3DA",
"SX c #F1E5D2",
"DX c #E7D9E3",
"FX c #F7D6E5",
"GX c #DDE4E2",
"HX c #E8E7E4",
"JX c #F7E8E8",
"KX c #FDF9F8",
"LX c #F7F0EE",
"PX c #DBDBE1",
"IX c #B9B5C2",
"UX c #7B828D",
/* pixels */
"S.C.C.C.C.C.C.C.C.C.C.C.B.D.C.B.B.5.5.B.5.C.B.C.B.C.C.B.B.5.5.B.5.5.C.6.6.C.B.B.C.N.N.N.C.C.C.C.G.G.G.G.G.A.G.G.N.N.N.N.N.N.N.N.N.N.N.N.N.N.N.N.N.A.N.C.N.C.N.N.N.N.C.N.C.N.N.N.N.6.N.N.N.N.N.6.N.6.N.N.N.N.N.N.N.N.C.N.N.N.N.N.C.N.C.C.C.C.C.N.G.G.G.G.N.N.N.N.N.N.N.N.N.G.G.G.F.F.G.G.N.N.N.N.G.G.G.A.G.A.A.N.N.C.C.N.C.C.C.C.G.N.N.G.N.G.G.N.G.G.N.G.A.G.G.A.G.N.N.G.G.N.N.N.N.N.N.N.N.N.N.N.N.N.N.N.C.C.N.C.N.N.N.N.N.N.N.N.N.N.N.6.N.N.N.N.N.N.N.N.N.N.N.N.N.N.N.N.N.N.G.G.N.G.G.N.N.N.N.N.N.N.N.N.N.N.N.N.N.N.N.N.N.N.N.N.N.N.N.N.N.N.N.N.N.N.N.N.N.N.N.N.N.N.N.N.N.N.F.N.N.N.N.N.G.G.N.G.N.N.N.N.N.N.N.N.N.N.N.N.N.N.N.B.N.B.B.B.<.<.<.<.6.6.6.N.1.6.6.6.6.<.<.<.6.6.N.6.<.<.<.<.6.<.5.1.6.5.5.5.6.5.5.5.<.5.5.<.5.<.5.1.6.<.<.<.<.<.<.<.<.<.<.<.<.<.<.<.<.<.<.<.<.<.<.<.<.<.<.<.<.<.<.,.,.<.,.,.,.,.,.,.<.<.<.<.,.<.,.,.<.1.<.<.<.<.<.,.,.<.<.<.<.<.<.<.",
"H.S.C.C.C.C.C.C.C.C.C.C.B.D.C.B.C.B.B.C.5.C.B.C.B.C.C.B.B.B.B.B.B.B.C.5.5.C.B.B.C.N.N.C.C.C.C.C.G.G.G.G.G.A.G.G.N.N.N.N.N.N.N.N.N.N.N.N.N.N.N.C.N.A.N.A.N.A.A.N.C.N.A.N.A.C.N.N.N.6.N.N.N.N.N.6.N.N.N.N.N.N.N.N.N.N.N.N.C.C.C.C.C.N.G.C.C.C.C.C.C.N.N.N.N.N.N.N.N.N.N.N.N.N.G.N.N.N.N.N.F.F.F.N.N.G.A.C.G.A.G.A.N.N.N.N.C.C.C.C.N.N.N.N.N.G.G.N.N.G.N.A.A.N.N.A.N.N.N.N.G.N.N.N.N.N.G.N.N.N.N.N.N.N.N.N.N.N.N.N.N.N.N.N.N.N.N.N.N.N.6.6.N.N.N.N.6.6.6.6.N.N.6.N.N.N.N.N.N.N.G.N.N.N.N.N.N.N.N.N.N.N.N.N.N.N.N.N.N.N.N.N.N.N.N.N.N.N.N.N.N.N.N.N.N.N.N.N.N.N.N.N.N.N.N.N.N.N.N.N.N.N.N.N.N.N.N.N.N.N.N.N.N.N.N.N.N.N.N.N.N.N.N.B.B.B.B.B.N.N.B.B.N.N.N.N.N.6.N.N.N.6.6.<.N.N.N.N.1.1.1.1.5.5.5.5.5.5.5.5.5.5.5.5.5.5.5.5.5.5.6.5.6.6.1.<.<.6.1.<.<.1.<.<.<.<.<.<.<.<.1.<.<.<.<.<.<.<.<.<.,.,.,.,.,.,.<.,.,.,.,.,.<.<.<.<.<.<.<.,.<.1.<.<.<.<.<.,.,.<.<.<.<.<.<.<.",
"H.H.H.S.H.C.C.C.C.C.C.C.B.D.D.B.C.B.B.C.5.C.B.C.B.C.C.B.B.Z.Z.B.B.C.C.B.B.C.B.B.C.N.C.C.A.A.A.A.A.A.A.A.G.A.G.A.A.A.A.A.A.A.A.C.A.A.A.A.A.A.A.A.A.G.C.G.A.G.A.C.A.C.A.C.A.A.C.N.C.5.N.C.B.B.C.5.N.N.C.N.N.N.N.C.C.C.C.C.C.C.C.C.G.C.G.C.C.C.C.C.C.C.C.C.C.C.C.C.A.A.G.G.N.N.G.N.N.N.N.N.N.N.N.N.N.G.G.A.G.G.G.A.N.C.C.C.N.N.N.N.G.N.N.G.G.G.A.G.N.G.N.G.G.N.N.G.N.N.N.N.G.A.G.N.G.N.G.A.G.A.N.N.C.C.C.C.N.N.N.N.N.N.N.N.N.N.N.N.C.N.N.6.N.N.C.N.C.N.N.N.C.C.C.N.N.N.N.N.N.N.N.N.N.N.N.N.N.N.N.N.N.N.N.N.N.N.N.N.N.N.N.N.N.N.N.N.N.N.N.N.N.N.N.N.N.N.N.N.N.N.N.N.N.N.N.N.N.N.N.N.N.N.N.N.N.N.N.N.A.A.A.A.C.C.N.N.N.N.N.N.N.N.N.N.B.B.B.B.B.B.B.B.N.B.B.B.B.B.B.B.D.B.B.B.B.B.B.B.B.5.5.5.5.B.5.B.5.5.5.5.5.5.5.5.5.5.5.5.5.5.C.5.B.B.5.1.1.5.5.1.1.1.<.1.1.<.<.1.1.<.1.3.1.<.<.1.1.3.3.<.3.3.3.3.1.1.,.<.1.1.1.1.1.,.,.,.1.1.<.<.<.,.<.,.<.<.<.<.,.<.<.<.<.<.<.<.",
"H.H.H.H.G.C.C.C.C.C.C.C.B.D.B.B.Z.C.C.C.5.C.B.C.B.C.C.B.B.C.C.B.C.C.A.C.C.C.B.B.C.N.C.A.A.A.A.A.G.G.G.G.G.A.G.A.A.A.A.A.A.A.A.A.G.G.G.G.A.A.A.A.A.H.A.H.A.H.A.A.A.C.A.C.A.A.C.C.C.5.C.C.B.B.C.5.N.C.A.B.N.C.C.A.C.A.C.C.C.C.C.C.H.C.H.A.C.Z.Z.C.H.H.H.H.C.C.C.C.A.A.A.G.C.G.G.G.N.N.N.N.C.G.G.C.G.J.J.G.G.G.G.A.G.G.G.G.C.C.C.C.G.G.G.G.G.A.A.G.G.I.G.I.Y.G.G.Y.G.G.G.A.G.G.G.N.G.A.G.A.G.A.A.C.C.C.C.C.C.C.C.C.C.C.C.C.C.C.C.C.C.C.C.N.C.N.C.N.C.C.C.C.C.C.C.C.N.A.A.N.C.C.C.C.N.N.C.N.N.N.N.N.N.N.N.N.A.N.N.A.N.N.N.N.N.N.N.N.N.N.N.N.N.N.N.N.N.N.N.N.N.N.N.N.N.N.N.N.N.N.N.N.N.C.C.C.A.A.A.C.G.G.G.G.C.C.C.C.D.D.D.D.B.B.B.B.B.B.B.B.B.B.B.B.B.B.B.B.B.B.B.B.Z.D.D.B.B.B.B.B.B.5.5.B.V.Z.5.C.C.B.B.B.B.C.C.C.5.B.B.5.C.5.C.C.B.B.B.5.5.B.B.5.n.V.1.2.2.3.3.2.2.3.2.1.1.3.3.1.2.1.3.3.1.1.1.1.1.1.,.,.1.1.1.1.1.1.1.1.1.n.<.,.<.,.<.,.<.<.<.<.,.<.<.<.<.<.<.<.",
"~.H.H.H.G.A.C.C.C.C.C.C.B.C.C.B.Z.C.B.C.C.C.C.C.C.C.S.C.D.C.C.B.C.C.C.C.C.C.C.C.C.A.A.A.G.G.G.G.H.H.H.H.A.A.A.A.U.C.U.S.A.A.C.C.A.C.A.C.A.A.A.C.S.C.C.S.A.H.H.A.S.A.A.S.A.A.C.C.H.B.C.A.B.C.C.C.C.C.A.C.C.A.A.C.A.H.Z.H.H.C.C.H.H.A.H.A.A.A.H.H.H.H.H.H.H.H.H.G.G.G.G.G.H.H.G.G.C.C.G.G.G.G.G.C.A.G.G.G.G.G.J.G.G.G.G.G.C.G.G.G.G.G.G.G.G.G.G.G.I.I.I.I.G.G.G.Y.G.U.I.G.G.G.G.G.J.G.G.H.G.H.H.G.A.A.A.H.Z.C.C.C.C.C.C.C.N.C.C.N.C.C.C.C.C.C.C.C.C.C.C.C.C.C.C.C.A.A.A.A.G.G.A.A.A.A.C.C.C.C.C.C.C.C.C.C.C.C.C.C.C.C.C.C.C.C.C.C.A.C.C.A.C.C.C.N.A.A.C.C.A.A.A.A.C.C.C.N.G.G.G.G.G.G.G.A.G.G.G.G.G.H.H.H.A.A.A.A.C.C.A.A.C.C.C.C.B.C.D.D.D.D.D.D.B.B.B.B.B.B.B.B.D.D.D.Z.Z.Z.Z.Z.C.V.V.V.Z.Z.Z.Z.C.C.C.C.C.C.C.V.V.V.V.5.C.B.V.5.V.Z.2.V.2.2.5.2.V.V.m.n.V.1.3.2.1.1.1.1.1.1.1.2.1.1.1.1.1.3.1.1.1.1.3.3.1.1.1.1.,.1.1.1.1.1.1.1.,.1.<.<.<.,.1.<.,.<.<.<.<.<.<.<.",
"~.H.H.H.A.A.C.C.C.C.C.C.B.C.C.B.A.C.B.C.C.C.C.C.C.C.S.C.D.C.C.B.C.C.C.C.C.C.C.C.C.A.A.A.G.G.G.G.H.H.H.H.A.A.H.A.U.C.U.S.A.A.C.C.A.C.H.C.C.A.A.C.S.C.C.S.A.H.H.A.S.A.A.S.A.A.C.C.A.C.C.G.B.C.C.C.C.C.A.C.C.A.A.A.A.H.Z.A.H.C.C.H.H.A.H.A.A.A.A.H.H.H.H.H.H.H.G.H.A.G.G.G.H.H.G.G.C.C.G.G.C.G.G.C.A.A.G.G.G.G.J.G.G.G.G.G.C.G.G.G.G.G.G.G.U.G.G.G.I.I.I.I.I.G.I.I.G.U.I.G.G.G.G.G.J.G.G.H.G.H.H.A.A.A.A.H.A.Z.Z.C.C.C.C.C.C.C.C.C.C.C.C.C.C.C.C.C.C.C.C.C.C.C.C.A.A.A.A.A.G.G.G.A.A.A.A.A.C.C.C.C.C.C.C.C.C.C.C.C.C.C.C.C.C.C.C.C.A.C.C.A.C.C.C.C.A.A.C.C.A.A.A.A.C.N.N.N.G.G.G.G.G.G.G.G.G.G.G.A.H.H.H.H.A.A.A.A.C.C.A.A.C.C.C.C.C.C.D.C.D.D.D.Z.B.B.B.B.B.B.D.D.D.D.D.D.Z.Z.Z.V.Z.V.V.V.Z.Z.Z.Z.Z.C.C.C.C.C.V.V.V.Z.V.5.C.B.V.5.V.Z.2.5.2.2.5.2.V.m.n.2.V.1.3.2.1.1.1.1.1.1.1.2.1.1.1.1.3.3.1.1.1.1.3.3.1.1.1.1.,.1.1.,.1.1.1.1.1.1.<.<.<.,.1.<.<.<.<.<.<.<.<.<.",
"~.J.H.H.H.H.A.C.C.C.C.C.D.C.C.D.A.C.B.C.C.C.C.C.C.C.S.Z.V.C.C.V.C.C.C.B.C.C.C.C.A.A.A.A.G.G.G.G.H.S.H.H.A.A.A.A.U.C.U.S.S.A.C.C.A.C.A.C.C.A.A.C.S.S.S.S.S.H.H.S.S.S.S.S.S.S.C.C.Z.C.B.A.B.C.Z.C.C.C.A.C.C.A.A.C.A.S.C.A.S.C.Z.S.H.Z.H.A.A.S.S.S.H.H.A.H.A.A.H.H.A.A.A.A.H.H.A.A.C.G.G.G.C.G.G.C.A.A.A.G.G.A.G.G.C.G.G.C.C.C.G.G.G.G.G.G.Y.U.G.G.I.U.I.I.G.G.G.U.G.U.U.G.G.G.G.G.J.A.A.H.A.H.H.A.A.S.A.A.H.A.Z.Z.A.C.C.C.C.C.C.C.C.C.C.C.C.C.C.C.C.C.S.S.S.Z.C.Z.A.A.A.C.H.H.A.A.A.A.A.A.C.C.C.C.C.C.C.C.A.A.A.A.C.C.C.C.C.C.C.C.A.C.C.A.C.C.C.C.A.A.C.C.A.A.A.A.C.C.C.C.G.G.A.G.H.A.A.A.A.H.A.A.S.S.H.H.A.A.A.A.C.C.C.C.C.C.C.C.C.D.D.D.Z.Z.Z.Z.V.V.V.V.Z.V.V.V.V.V.Z.Z.Z.Z.V.V.Z.V.V.V.V.V.V.V.Z.Z.Z.Z.V.V.V.V.V.Z.V.5.Z.V.V.5.V.Z.2.5.2.2.2.2.m.m.2.1.m.1.1.1.1.1.1.1.2.1.1.2.1.1.1.1.3.3.3.1.1.1.3.3.1.1.1.1.,.1.1.,.1.1.1.1.1.1.,.<.<.3.3.<.<.<.<.<.<.<.<.<.",
"~.J.J.H.H.H.A.C.C.C.C.C.D.C.C.D.Z.C.B.C.C.C.C.C.C.C.S.V.V.C.C.Z.B.C.C.B.C.C.C.C.A.A.A.A.G.G.G.G.S.S.H.H.A.A.A.A.U.C.U.S.S.A.C.C.A.C.A.C.C.A.A.C.S.S.S.S.S.H.H.S.S.S.S.S.S.S.C.C.Z.C.B.A.B.C.Z.C.C.C.A.B.C.A.A.C.A.S.C.A.S.C.C.S.A.Z.H.A.S.A.S.S.H.H.A.A.A.A.H.H.A.A.A.A.A.H.A.A.G.H.H.H.C.H.H.C.A.A.A.A.G.A.G.A.C.G.G.C.C.G.G.G.G.G.G.G.Y.Y.U.G.I.U.I.I.G.G.G.U.G.U.U.G.G.G.G.G.H.A.G.H.A.H.H.A.A.S.A.A.H.H.A.Z.Z.C.C.C.C.Z.C.C.C.C.C.C.C.C.C.C.Z.C.S.S.S.Z.Z.C.A.A.A.A.S.A.A.A.A.A.A.A.C.C.C.C.C.C.C.C.A.A.A.A.C.C.C.C.C.C.C.C.A.C.C.A.C.C.C.C.A.A.C.C.C.A.A.A.C.C.C.C.A.A.A.A.H.A.A.A.A.H.A.A.S.S.H.H.A.A.A.A.C.C.C.C.C.C.C.D.D.D.D.D.Z.Z.Z.Z.V.V.V.V.Z.V.V.V.V.V.V.Z.Z.Z.V.V.V.V.V.V.V.V.V.Z.Z.Z.Z.Z.V.V.V.V.V.Z.V.5.Z.V.V.5.V.Z.2.V.2.2.2.2.m.2.1.1.m.1.1.1.1.1.1.1.2.1.1.2.1.1.1.1.3.3.3.1.1.1.3.3.1.1.1.1.3.1.1.,.1.1.1.1.1.1.,.<.<.3.3.,.<.<.<.<.<.<.<.<.",
"~.~.J.J.H.E.A.Z.A.A.C.C.B.C.C.B.Z.C.5.V.V.C.V.Z.Z.C.S.C.Z.S.D.C.C.C.C.C.C.C.C.C.G.A.H.G.G.G.G.H.H.H.H.H.H.H.H.H.S.A.H.A.A.S.C.C.A.C.H.C.C.Z.Z.C.A.C.C.S.C.S.S.C.A.C.A.H.C.A.C.C.A.C.C.C.C.C.C.C.C.C.C.C.C.S.S.C.S.H.Z.Z.Z.C.Z.H.C.A.H.H.A.A.A.A.H.H.H.H.H.H.H.H.H.H.H.H.H.H.A.A.A.A.A.A.A.A.A.A.C.C.C.C.A.A.H.G.G.G.G.G.G.G.G.G.J.G.G.I.I.Y.Y.G.U.U.Y.U.G.G.G.G.A.G.G.G.G.G.G.G.H.A.H.U.A.U.U.A.H.A.A.H.A.Z.Z.H.Z.Z.Z.Z.Z.Z.Z.Z.Z.C.C.C.C.C.C.C.Z.Z.Z.Z.H.Z.Z.H.S.S.H.S.A.A.S.H.C.C.C.C.C.C.C.C.C.C.C.C.C.C.C.C.C.C.C.C.C.C.C.C.C.C.C.C.C.C.C.C.A.A.A.A.A.A.A.A.A.A.A.A.H.H.A.A.S.A.A.A.H.H.H.S.S.S.S.S.S.C.S.A.C.S.S.S.C.D.D.B.Z.Z.B.B.Z.B.B.B.V.V.B.B.B.Z.B.V.Z.Z.V.V.V.Z.V.V.Z.Z.Z.Z.E.Z.Z.V.Z.Z.Z.Z.V.B.C.V.V.V.V.Z.Z.Z.Z.2.Z.V.V.2.5.5.5.2.m.m.m.m.m.m.1.1.m.m.m.1.1.,.m.1.1.1.3.1.3.1.1.3.3.3.3.3.3.1.1.1.3.3.3.3.1.1.1.1.,.3.,.3.3.3.3.3.1.1.,.,.1.1.<.b.",
"~.Y.J.J.H.S.A.Z.A.A.C.C.D.C.C.D.Z.C.5.V.V.C.V.Z.Z.C.S.C.Z.S.Z.C.C.C.C.C.C.C.C.C.G.A.U.G.G.G.G.G.H.H.H.H.H.H.H.H.A.A.A.A.A.H.C.C.A.C.A.C.C.Z.Z.C.S.C.C.A.C.S.S.C.A.C.A.H.Z.A.C.C.A.C.C.C.C.C.C.C.C.C.C.C.C.A.A.C.S.H.Z.Z.Z.C.Z.H.C.H.H.H.A.A.A.A.A.A.H.H.H.H.H.H.H.A.H.H.H.H.A.A.A.A.A.H.A.A.A.A.C.C.C.C.A.A.H.H.G.G.G.G.G.G.G.G.G.G.G.U.I.Y.Y.G.Y.U.Y.Y.G.G.G.G.A.G.G.A.G.G.G.G.H.A.H.U.A.U.U.A.H.H.H.H.A.Z.Z.H.Z.Z.Z.Z.Z.Z.Z.Z.Z.Z.Z.C.C.C.C.C.Z.Z.Z.Z.H.Z.Z.H.S.S.H.H.Z.Z.Z.Z.C.Z.C.C.C.C.C.C.C.C.C.C.C.C.C.C.C.C.C.C.C.C.C.C.C.C.C.C.C.C.C.C.A.A.A.A.A.A.A.A.A.A.A.A.H.H.A.A.S.A.A.S.H.H.H.S.S.S.S.S.S.A.S.S.S.S.S.S.C.D.D.B.D.D.D.B.Z.B.B.B.V.V.B.B.B.Z.B.V.Z.V.V.V.Z.Z.V.V.Z.Z.Z.C.Z.Z.Z.V.Z.Z.Z.Z.V.5.C.V.V.V.Z.Z.Z.Z.Z.2.V.V.m.2.5.5.5.n.m.m.m.m.m.m.1.1.m.m.1.1.1.,.m.1.1.1.1.1.3.1.1.3.3.3.3.3.3.3.1.1.3.3.3.3.1.1.1.1.,.3.,.3.3.3.<.3.1.1.,.1.1.1.N.N.",
"+X~.Y.J.H.E.A.A.A.A.C.C.D.S.S.D.Z.C.B.V.V.C.V.Z.Z.C.S.C.Z.C.Z.C.C.C.C.C.C.C.C.A.G.G.U.G.G.G.G.G.U.U.H.U.H.H.G.G.A.H.A.A.A.A.C.C.A.C.A.C.C.C.Z.C.S.C.C.A.C.S.S.C.A.C.A.H.Z.A.Z.C.A.C.C.C.C.C.C.C.C.C.C.C.Z.C.C.Z.S.H.Z.Z.Z.C.Z.H.C.A.H.H.A.A.A.A.A.A.A.H.A.Z.H.H.A.A.A.A.H.H.A.A.A.A.H.H.H.H.A.A.H.H.G.G.A.A.A.A.G.G.G.G.G.G.G.G.I.I.U.U.U.Y.Y.I.U.U.Y.U.G.G.G.G.A.G.G.A.G.G.G.G.H.A.H.U.A.U.U.A.A.A.H.H.H.Z.A.H.Z.Z.Z.Z.Z.Z.Z.Z.Z.Z.Z.Z.Z.Z.Z.Z.Z.Z.Z.Z.H.Z.Z.H.S.S.S.S.Z.Z.Z.Z.C.C.C.C.C.C.C.C.C.C.C.C.C.C.C.C.A.A.A.A.C.C.C.Z.C.C.C.C.C.C.C.C.A.A.A.A.H.A.A.A.A.A.A.A.A.A.A.A.S.S.S.S.S.S.S.S.U.U.L.L.S.A.S.S.S.S.S.C.C.D.D.B.B.D.D.Z.Z.D.B.B.V.V.V.B.V.Z.B.V.Z.V.V.V.Z.Z.Z.V.Z.Z.C.C.Z.Z.V.V.V.V.Z.Z.V.B.C.V.Z.Z.Z.V.Z.Z.C.5.V.V.2.2.5.2.2.n.m.m.m.m.m.m.1.1.m.m.m.m.1.3.m.1.3.3.1.1.3.1.1.3.3.3.3.3.3.3.3.1.3.3.3.3.1.1.1.1.,.3.,.3.3.3.3.3.1.1.,.1.1.1.N.N.",
"+X~.Y.J.H.E.S.A.A.A.C.C.D.C.S.D.A.C.B.V.V.C.V.Z.Z.C.S.C.Z.S.Z.C.C.C.C.C.C.C.S.S.H.G.U.G.G.G.G.G.U.U.U.U.H.H.G.G.A.A.A.C.A.A.C.C.A.C.A.C.C.C.Z.C.S.C.C.S.C.S.H.A.A.C.A.H.Z.A.Z.C.A.C.C.C.C.C.C.C.C.C.C.C.S.C.C.S.S.H.Z.Z.Z.C.Z.H.C.A.H.H.H.A.A.A.A.A.A.A.A.Z.Z.A.A.A.A.A.H.H.A.A.A.A.H.H.H.H.A.A.H.H.H.H.A.A.A.A.G.G.G.G.G.G.G.G.I.I.U.U.U.Y.Y.I.U.U.Y.U.G.G.G.G.A.G.G.A.G.G.G.G.H.A.H.U.H.U.U.A.A.A.A.H.H.A.A.H.Z.Z.Z.Z.Z.Z.Z.Z.Z.Z.Z.Z.Z.Z.Z.Z.Z.Z.Z.Z.H.Z.Z.H.S.S.S.S.Z.Z.Z.Z.C.C.C.C.C.C.C.C.C.C.C.C.C.C.C.C.A.A.A.A.C.C.C.Z.A.C.C.C.C.C.C.C.A.A.A.A.H.H.A.A.A.A.A.A.A.A.A.A.A.S.S.S.S.S.S.S.U.U.L.L.S.A.S.S.S.S.D.C.C.D.D.B.B.B.Z.Z.Z.D.B.B.V.V.V.B.V.Z.B.V.Z.V.V.V.Z.Z.V.V.Z.Z.C.C.Z.Z.V.V.V.V.V.Z.V.B.C.V.Z.Z.V.V.Z.Z.Z.5.V.5.2.2.2.2.2.n.m.m.m.m.m.1.1.1.m.m.m.m.1.,.m.1.3.3.1.1.3.1.1.3.3.3.3.3.3.3.3.3.3.3.3.3.1.1.1.1.,.3.,.3.3.3.3.<.1.1.1.1.1.b.N.N.",
"+X~.Y.J.H.S.A.A.Z.S.C.C.S.C.S.Z.A.C.B.V.V.B.V.Z.Z.C.C.C.B.C.B.C.C.C.C.A.A.A.A.A.U.G.U.J.G.G.G.U.U.H.H.U.H.H.H.H.A.A.H.A.A.H.C.A.A.C.H.C.C.A.A.C.A.A.S.A.A.A.A.A.H.C.A.H.Z.H.H.A.Z.C.A.C.C.C.C.C.C.A.C.A.H.S.Z.H.H.Z.Z.Z.Z.Z.H.H.Z.A.H.H.H.H.H.H.Z.Z.Z.Z.H.H.H.H.H.H.H.H.H.H.H.H.H.A.H.H.H.H.H.A.J.H.H.H.H.H.A.A.G.G.G.G.U.U.U.U.Y.Y.Y.Y.Y.Y.Y.U.Y.Y.Y.Y.G.G.G.G.G.G.G.G.G.G.J.U.H.A.H.U.A.H.H.A.H.H.H.A.A.A.H.H.Z.Z.Z.Z.Z.Z.Z.Z.Z.Z.Z.Z.Z.Z.Z.Z.Z.Z.Z.Z.S.Z.Z.S.H.H.S.S.Z.Z.Z.Z.A.A.A.A.C.C.C.C.C.C.C.C.C.C.C.C.A.C.C.A.C.C.C.C.A.A.A.A.A.A.A.A.A.A.A.A.H.H.H.A.H.H.H.H.A.H.H.H.A.A.A.A.A.A.A.A.L.U.S.S.S.C.C.C.S.C.Z.Z.Z.D.D.B.D.D.D.D.D.D.D.D.V.B.Z.V.V.V.V.V.Z.V.V.V.Z.C.C.C.V.V.V.V.C.C.C.C.V.V.Z.Z.V.V.V.V.V.V.V.V.V.V.Z.V.V.2.2.2.2.2.2.n.m.m.m.m.m.m.1.1.1.m.3.m.3.3.3.3.3.3.3.1.1.1.1.1.3.3.3.3.1.,.,.m.3.3.3.3.1.<.m.3.3.,.,.3.3.3.3.3.1.<.n.1.b.1.B.1.",
"+X~.Y.J.H.E.S.A.S.S.C.C.S.C.S.Z.Z.C.B.V.V.B.V.Z.Z.C.C.C.B.C.B.C.C.C.C.A.A.A.A.A.U.G.U.G.G.G.J.J.U.H.H.U.H.H.H.H.A.A.A.A.H.A.A.C.Z.C.H.C.C.A.A.C.A.A.S.A.A.A.A.A.H.C.A.H.Z.H.A.A.A.C.A.Z.C.C.C.C.C.A.C.A.H.A.A.H.H.Z.Z.S.Z.Z.H.H.Z.A.H.H.H.H.H.H.Z.Z.Z.Z.H.H.H.H.H.H.H.H.H.H.H.H.H.A.H.H.H.H.A.A.H.H.H.H.H.H.A.A.G.G.G.G.J.U.U.U.Y.Y.Y.Y.Y.Y.Y.U.Y.Y.Y.Y.G.G.G.G.G.G.G.G.G.G.J.U.H.H.H.U.A.H.H.A.H.H.H.H.A.A.H.H.Z.Z.Z.Z.Z.Z.Z.Z.Z.Z.Z.Z.Z.Z.Z.Z.Z.Z.Z.Z.S.Z.Z.S.H.H.S.S.Z.Z.Z.Z.A.A.A.A.C.C.C.C.C.C.C.C.C.C.C.C.C.A.C.H.C.C.C.C.A.A.A.A.A.A.A.A.A.A.A.A.H.S.S.A.H.A.H.H.A.H.H.H.A.A.A.A.A.A.A.A.S.S.S.S.L.C.C.C.C.D.Z.D.Z.D.D.B.D.D.D.D.D.D.D.D.V.B.Z.V.V.V.V.V.Z.Z.V.V.Z.C.C.C.V.V.V.V.Z.Z.V.V.V.V.Z.Z.V.V.V.V.V.V.V.V.V.V.C.B.V.2.2.2.2.2.2.2.m.m.m.1.m.m.1.1.1.m.3.m.3.3.3.3.3.3.3.1.1.1.1.1.3.3.3.3.3.3.,.m.3.3.3.3.1.3.1.1.3.,.3.3.3.3.3.,.,.3.1.1.n.1.B.b.",
"+X~.Y.J.W.W.S.A.S.S.C.C.S.Z.S.Z.Z.V.5.V.V.B.V.Z.Z.C.C.C.Z.C.B.C.C.C.C.Z.A.A.A.A.U.G.U.J.G.G.G.G.U.H.H.U.H.H.H.H.A.A.H.H.H.A.A.C.C.C.H.C.C.A.A.C.A.A.H.A.A.A.A.A.H.C.H.H.Z.H.A.A.A.Z.H.A.C.C.C.C.C.S.C.A.H.A.A.H.Z.Z.Z.H.Z.Z.H.H.A.A.H.H.H.H.H.H.Z.Z.Z.Z.H.H.H.H.H.H.H.H.H.H.H.H.H.A.H.H.H.H.H.H.H.H.H.H.H.A.A.A.G.G.G.G.U.U.U.U.Y.Y.Y.Y.U.Y.Y.U.Y.Y.Y.Y.G.G.G.G.G.G.G.G.G.G.J.U.H.H.U.U.A.U.U.A.H.H.H.H.A.A.A.H.Z.Z.Z.Z.Z.Z.Z.Z.Z.Z.Z.Z.Z.Z.Z.Z.Z.Z.Z.Z.S.Z.Z.S.H.H.H.H.Z.Z.Z.Z.A.A.A.A.C.C.C.C.C.C.C.C.C.C.C.C.C.C.H.C.C.C.C.C.A.A.A.A.A.A.A.A.A.A.A.A.S.A.A.A.A.A.A.A.A.A.H.H.A.A.A.A.A.A.A.A.S.A.A.A.S.C.C.C.C.Z.Z.D.Z.D.D.B.D.B.D.D.D.D.D.D.V.B.Z.V.V.V.V.V.Z.Z.Z.Z.Z.Z.C.C.V.V.V.V.Z.Z.Z.Z.V.C.C.Z.V.5.Z.V.V.V.V.V.5.B.Z.2.V.2.2.2.2.2.2.1.1.m.m.3.m.m.1.1.1.m.3.m.3.3.1.1.1.1.1.1.1.1.3.3.3.3.3.3.,.,.3.1.3.3.3.3.1.1.3.1.3.3.3.3.3.3.3.3.<.1.,.1.n.1.B.b.",
"+X~.Y.J.W.W.S.S.S.S.C.C.S.Z.S.Z.Z.V.B.V.V.B.V.Z.Z.C.C.C.Z.C.B.C.C.C.C.Z.Z.Z.A.A.U.G.U.J.G.G.G.G.U.H.H.U.H.H.H.H.A.H.H.H.A.H.C.C.A.C.H.C.C.H.H.C.A.A.H.A.A.A.A.A.H.C.H.H.Z.H.A.A.H.A.H.A.C.C.C.C.C.S.C.A.H.A.A.H.Z.Z.Z.H.Z.Z.H.H.Z.A.H.H.H.H.H.H.S.S.Z.Z.H.H.H.H.H.H.H.H.H.H.H.H.H.A.A.H.H.H.H.H.H.H.H.H.H.H.A.A.G.G.G.G.U.U.U.J.Y.Y.Y.Y.Y.Y.Y.U.Y.Y.Y.Y.G.G.G.G.G.G.G.G.G.G.J.U.A.H.U.H.A.U.U.A.A.H.H.H.H.A.H.H.Z.Z.Z.Z.Z.Z.Z.Z.Z.Z.Z.Z.Z.Z.Z.Z.Z.Z.Z.Z.H.Z.Z.S.H.H.H.H.Z.Z.Z.Z.Z.A.A.A.A.C.C.C.C.C.C.C.C.C.C.C.C.H.Z.C.C.C.C.C.A.A.A.A.A.A.A.A.A.A.A.S.A.A.A.C.A.A.A.A.A.A.A.A.A.A.A.A.A.A.A.A.A.A.S.S.S.C.C.C.D.Z.Z.D.D.D.D.B.B.D.D.D.D.D.D.D.V.B.Z.V.V.V.V.V.Z.Z.Z.Z.Z.Z.C.V.V.V.V.V.Z.Z.Z.Z.V.C.C.C.V.5.Z.V.V.V.V.V.5.5.V.2.V.2.2.2.2.2.2.1.1.m.m.3.m.m.1.1.1.m.3.m.1.1.1.1.1.1.1.1.1.1.3.3.3.3.3.3.,.3.1.1.3.3.3.3.3.m.<.1.3.3.3.3.3.3.<.3.<.n.,.n.B.b.B.N.",
"~.~.~.J.W.W.H.S.S.S.C.D.S.Z.Z.C.V.C.Z.V.C.C.C.V.Z.Z.C.C.C.Z.Z.Z.C.C.Z.Z.Z.Z.Z.H.Y.G.Y.Y.Y.U.U.U.J.J.J.J.G.G.G.H.H.H.H.H.Z.Z.Z.Z.Z.C.S.C.C.C.Z.Z.Z.A.H.Z.A.A.A.A.H.Z.H.H.Z.H.Z.H.H.H.H.H.Z.Z.Z.Z.C.C.H.H.H.Z.Z.H.C.S.H.H.S.S.Z.Z.S.S.S.S.H.S.S.H.H.C.H.Z.H.H.H.H.H.H.H.H.H.H.H.H.H.H.H.H.H.H.H.H.H.H.H.H.H.H.H.H.H.H.H.H.J.J.J.U.U.I.I.Y.Y.Y.Y.Y.Y.Y.Y.U.G.G.G.U.G.G.J.G.G.G.J.J.H.U.!.H.H.H.U.S.H.H.Z.H.H.Z.H.H.H.H.H.H.Z.Z.Z.Z.Z.Z.Z.Z.H.H.H.S.S.S.H.H.H.S.S.S.S.S.S.S.Z.Z.Z.Z.Z.Z.Z.Z.Z.Z.C.C.C.C.C.C.C.C.C.C.A.A.S.S.A.A.A.A.S.S.A.A.S.S.S.S.S.S.S.S.S.S.S.S.S.S.S.S.S.A.A.A.S.S.S.S.S.S.S.S.S.S.S.S.S.S.S.S.C.Z.D.D.Z.Z.Z.B.B.V.V.V.B.B.B.B.B.B.B.B.B.B.B.V.V.V.V.Z.Z.Z.Z.V.V.V.V.V.V.Z.Z.5.Z.Z.Z.Z.Z.Z.Z.Z.5.5.V.V.5.5.5.5.2.2.2.2.2.1.2.3.1.1.1.1.1.1.1.1.3.m.,.1.3.3.3.3.3.1.1.m.1.1.3.3.3.3.3.3.1.1.1.3.<.1.1.<.1.1.1.1.2.,.,.3.3.3.1.3.2.2.n.n.n.b.N.B.",
"~.~.~.Q.W.W.H.S.S.S.C.D.S.Z.Z.C.V.C.Z.V.C.C.C.C.Z.Z.C.C.C.Z.Z.Z.C.C.Z.Z.Z.Z.Z.H.Y.G.U.U.U.U.U.Y.J.J.J.J.G.G.G.H.H.H.H.H.Z.Z.Z.Z.Z.C.H.Z.Z.Z.Z.S.H.H.H.Z.H.H.H.H.H.A.H.H.A.H.A.H.H.A.H.H.Z.Z.Z.Z.C.Z.H.H.H.C.S.H.C.S.H.H.S.S.Z.Z.S.S.S.S.S.Z.Z.S.H.C.H.H.H.H.H.H.H.H.H.H.H.H.H.H.H.H.H.H.H.H.H.H.H.H.H.H.H.H.H.H.H.H.H.H.J.J.J.U.Y.I.I.Y.Y.Y.Y.Y.Y.Y.Y.U.G.G.G.I.J.G.J.G.G.J.J.H.H.U.!.H.H.H.U.H.H.H.Z.H.H.Z.H.H.H.H.H.H.Z.Z.Z.Z.Z.Z.Z.Z.H.H.H.S.S.S.S.S.H.S.S.S.S.S.S.S.Z.Z.Z.Z.Z.Z.Z.Z.Z.Z.C.C.C.C.C.C.C.C.C.C.A.S.S.S.A.A.A.A.S.S.A.S.S.S.S.S.S.S.S.S.S.S.S.S.S.S.S.S.A.A.A.A.S.S.S.S.S.S.S.S.S.S.S.S.S.S.S.S.C.D.D.D.Z.Z.Z.D.B.V.V.V.B.B.B.B.5.5.B.B.B.B.V.V.V.V.V.V.Z.Z.Z.Z.V.V.V.V.C.Z.Z.V.Z.Z.Z.Z.Z.Z.Z.Z.5.5.V.V.5.5.5.5.2.2.2.2.2.1.2.3.1.1.1.1.1.3.1.1.3.m.,.1.3.3.3.3.3.1.1.m.1.1.3.3.3.3.3.1.1.1.1.3.,.1.1.<.1.1.1.1.1.1.,.,.3.3.1.1.1.2.n.n.B.n.N.D.",
"~.~.~.Q.W.W.E.S.S.S.S.Z.S.Z.Z.C.C.C.Z.V.C.C.C.C.C.C.C.C.S.S.Z.Z.C.C.Z.Z.Z.Z.Z.H.Y.G.U.U.U.U.U.U.J.J.J.J.G.G.G.H.H.H.H.H.H.H.H.H.H.Z.H.Z.S.S.Z.S.H.H.H.Z.H.H.H.H.H.A.H.H.A.H.A.H.A.A.H.A.H.H.H.H.C.C.H.H.H.Z.S.H.C.S.H.H.S.S.Z.Z.S.S.S.S.S.Z.Z.S.H.C.H.H.H.H.H.H.H.H.H.H.H.H.H.H.H.H.H.H.H.H.J.J.H.H.H.H.H.H.H.H.H.H.H.H.J.J.J.U.Y.I.Y.Y.Y.Y.Y.Y.Y.Y.Y.Y.G.G.G.I.J.G.J.J.J.J.J.U.H.U.!.H.H.H.H.H.H.H.Z.H.H.Z.H.H.H.H.H.H.Z.Z.S.Z.Z.Z.Z.Z.H.H.S.S.S.S.S.S.S.S.S.S.S.S.S.S.Z.Z.Z.Z.A.S.Z.Z.Z.Z.Z.C.S.A.S.S.C.C.C.C.A.A.S.S.A.A.A.A.S.S.S.S.S.S.S.S.S.S.S.S.S.S.S.S.S.S.S.S.S.S.S.S.S.S.S.S.S.S.S.S.S.S.S.S.S.S.S.S.C.C.D.D.D.D.Z.Z.B.B.V.V.V.V.V.V.5.5.5.V.5.V.V.V.V.V.5.5.Z.Z.Z.Z.C.V.V.V.C.Z.Z.B.Z.Z.Z.Z.Z.Z.Z.Z.5.5.V.V.V.V.5.5.2.2.2.2.2.1.2.3.1.1.1.1.1.3.3.3.3.m.,.1.3.3.3.3.3.1.1.m.1.3.1.3.3.3.1.1.1.1.3.3.1.m.m.1.1.1.1.1.1.1.3.3.3.3.,.,.1.1.n.n.B.B.B.C.",
"~.~.~.Q.W.W.W.S.S.S.S.D.S.Z.Z.C.C.C.Z.V.C.C.C.C.C.C.C.C.S.S.S.S.C.C.Z.Z.Z.Z.Z.A.Y.G.U.U.U.U.U.U.U.J.J.J.G.G.G.H.H.H.H.H.H.H.H.H.H.Z.H.H.S.S.S.S.A.H.H.Z.H.H.H.H.H.A.H.H.A.H.A.H.A.A.H.A.H.H.H.H.C.C.H.H.H.Z.S.H.Z.S.H.H.S.S.S.S.S.S.S.S.S.Z.Z.S.H.Z.H.H.H.H.H.H.H.H.H.H.H.H.H.H.H.H.H.H.H.H.J.J.H.H.H.H.H.H.H.H.H.H.H.H.J.J.J.U.Y.Y.Y.I.Y.Y.Y.Y.Y.Y.Y.Y.G.G.G.I.J.J.Y.J.J.J.Y.Y.H.U.!.H.H.H.U.H.H.H.Z.H.H.Z.H.H.H.H.H.H.S.S.S.S.Z.Z.Z.Z.H.S.S.S.S.S.S.S.S.S.S.S.S.S.S.S.Z.Z.Z.Z.A.S.S.S.Z.Z.Z.C.S.S.S.S.C.C.C.C.A.A.S.S.S.A.A.A.S.S.S.S.S.S.S.S.S.S.S.S.S.S.S.S.S.S.S.S.S.C.C.C.S.S.S.S.S.S.S.S.S.S.S.S.S.S.S.S.C.C.D.D.D.D.Z.Z.V.B.V.V.V.V.V.V.5.5.V.V.V.V.V.V.5.5.5.5.Z.Z.Z.Z.Z.V.V.V.C.Z.Z.B.Z.Z.Z.Z.Z.V.Z.Z.5.5.V.V.V.V.V.V.2.2.2.2.2.1.2.3.1.1.1.1.3.3.3.3.3.m.,.1.3.3.3.3.3.1.1.m.1.1.1.3.3.3.1.1.1.1.3.3.1.m.m.1.1.1.1.1.1.1.1.3.,.,.,.,.1.1.n.n.B.B.B.C.",
"~.~.~.~.W.E.S.W.W.W.S.S.Z.C.C.C.V.Z.Z.V.Z.Z.Z.C.S.C.C.S.S.C.S.C.C.C.Z.Z.Z.Z.Z.H.Y.U.U.Y.Y.Y.Y.U.U.U.Y.Y.J.J.J.U.H.H.H.H.H.H.H.H.H.Z.H.H.H.C.H.H.H.H.H.H.H.H.H.H.H.H.H.H.H.H.H.H.H.H.H.H.H.H.H.H.Z.Z.H.H.H.C.Z.H.Z.H.H.H.H.S.S.S.S.S.S.S.S.S.S.S.A.H.H.H.H.H.H.H.H.H.H.H.H.!.H.W.H.H.H.U.H.H.H.H.J.J.J.J.H.H.H.H.J.J.J.J.J.H.H.Y.Y.Y.Y.Y.Y.Y.Y.Y.Y.Y.U.Y.U.G.G.Y.J.J.Y.J.Y.Y.Y.U.U.U.U.U.U.U.H.U.H.H.H.H.H.H.H.H.H.H.H.H.H.H.H.H.H.H.S.S.H.S.Z.Z.S.S.S.S.H.H.H.H.Z.W.W.Z.S.S.S.S.H.H.S.S.Z.Z.Z.Z.S.S.S.S.A.A.A.Z.A.S.S.S.S.S.S.S.S.S.S.S.S.S.S.S.S.S.S.U.U.U.S.S.A.S.S.S.A.A.A.A.S.S.S.S.S.S.S.S.S.S.C.S.S.S.S.S.C.C.C.C.C.C.C.C.C.B.B.C.B.C.B.Z.V.V.V.V.V.V.V.C.Z.Z.Z.Z.Z.Z.Z.Z.C.Z.Z.V.V.V.V.V.Z.Z.Z.Z.Z.Z.Z.Z.V.V.V.V.V.V.5.5.5.2.2.2.2.1.1.1.1.1.1.1.1.3.3.3.1.1.1.1.,.,.,.,.,.3.3.1.1.1.3.3.,.1.,.1.1.1.1.1.1.1.1.1.1.1.1.1.3.3.3.1.3.3.m.,.1.n.n.B.D.B.D.D.",
"~.~.~.~.W.W.S.E.W.W.S.S.Z.C.C.C.V.C.C.V.Z.Z.Z.C.S.C.C.S.S.C.S.C.C.Z.Z.Z.Z.Z.Z.H.Y.Y.Y.Y.Y.Y.Y.U.U.U.Y.Y.J.J.J.U.H.H.H.H.H.H.H.H.H.Z.H.H.H.S.H.H.H.H.H.H.H.H.H.H.H.H.H.H.H.H.H.H.H.H.H.H.H.H.H.H.Z.Z.H.H.H.Z.S.H.Z.H.H.H.H.H.S.S.S.S.S.S.S.S.S.S.A.H.H.H.H.H.H.H.H.H.H.H.H.!.H.W.H.H.H.H.H.H.H.H.J.J.J.J.H.H.H.H.J.J.J.J.J.U.H.Y.Y.Y.Y.Y.Y.Y.Y.Y.Y.Y.U.Y.U.G.G.Y.Y.J.Y.J.Y.Y.Y.U.U.U.U.U.U.U.U.U.H.H.H.H.H.H.H.H.H.H.H.H.H.H.H.H.H.H.S.H.H.S.Z.Z.S.S.S.S.H.H.H.H.Z.W.W.Z.S.S.S.S.H.H.S.S.Z.Z.Z.Z.S.S.S.S.A.A.A.Z.S.S.S.S.S.S.S.S.S.S.S.S.S.S.S.S.S.S.U.U.U.U.S.S.A.S.S.S.A.A.A.A.S.S.S.S.S.S.S.S.S.S.C.S.S.S.S.S.C.C.C.C.C.C.C.C.Z.D.V.V.B.C.B.Z.V.V.V.V.V.V.V.C.Z.Z.Z.Z.Z.Z.Z.Z.Z.Z.Z.Z.V.V.V.V.Z.Z.Z.Z.Z.Z.Z.Z.V.V.V.V.V.V.V.5.V.2.2.2.2.1.1.1.1.1.1.1.1.1.3.3.1.1.1.1.,.,.,.,.,.3.3.1.1.3.3.3.,.1.,.1.1.1.1.1.1.1.1.1.1.1.1.1.1.3.3.3.3.2.1.1.1.n.n.B.D.B.D.D.",
"^.~.~.~.W.W.H.S.W.W.S.S.C.C.C.C.V.Z.Z.V.Z.Z.Z.C.S.C.C.S.Z.C.S.C.C.Z.Z.Z.Z.Z.Z.H.Y.Y.Y.Y.Y.Y.Y.U.J.J.Y.Y.J.J.J.H.H.H.W.H.H.H.H.H.H.H.H.H.H.S.H.H.H.H.H.H.H.H.H.H.H.H.H.H.H.H.H.H.H.H.H.H.H.H.H.H.H.H.H.H.H.Z.Z.H.Z.H.H.H.H.H.S.S.S.S.S.S.S.S.S.S.A.Z.H.H.H.H.H.H.H.H.H.H.H.!.H.W.H.H.H.H.H.H.H.H.H.H.J.J.H.H.H.H.J.J.J.J.J.H.H.Y.Y.Y.Y.Y.Y.Y.Y.Y.Y.Y.I.Y.U.G.G.Y.Y.J.Y.J.U.Y.Y.U.U.U.U.U.U.U.U.U.H.H.H.H.H.H.H.H.H.H.H.H.A.A.A.A.H.H.H.H.H.S.Z.Z.S.S.S.S.H.H.H.H.Z.W.W.Z.S.S.S.S.H.H.H.S.Z.Z.Z.Z.A.S.S.S.A.A.A.A.S.S.S.S.S.S.A.A.S.S.S.S.S.S.S.S.S.S.S.S.U.U.S.S.A.A.S.S.A.A.A.A.S.S.S.S.S.S.S.S.S.S.S.S.S.S.S.S.Z.Z.Z.Z.C.C.C.C.Z.B.B.Z.B.C.B.Z.V.V.V.V.V.V.V.Z.Z.Z.Z.Z.Z.Z.Z.Z.Z.Z.Z.Z.V.C.V.V.Z.Z.Z.Z.Z.Z.Z.Z.V.V.V.V.V.V.V.5.V.2.2.2.2.1.1.1.1.1.1.1.1.1.1.3.1.1.1.1.,.,.,.,.,.3.1.1.1.1.3.3.3.2.,.1.1.1.1.1.1.1.1.1.1.1.1.1.1.,.,.,.3.2.1.2.1.n.n.B.D.B.C.D.",
"^.~.~.~.W.W.H.S.W.W.S.S.C.C.C.C.V.Z.Z.V.Z.Z.Z.C.S.C.C.S.S.C.S.C.Z.Z.Z.Z.Z.Z.Z.H.J.Y.Y.Y.Y.Y.Y.U.J.J.Y.Y.J.J.J.H.H.H.W.H.H.H.H.H.H.H.H.H.H.S.H.H.H.H.H.H.H.H.H.H.H.H.H.H.H.H.H.H.H.H.H.H.H.H.H.H.H.H.H.H.H.Z.Z.H.Z.H.H.H.H.H.S.S.S.S.S.S.S.S.S.S.A.Z.H.H.H.H.H.H.H.H.H.H.H.!.H.W.H.H.H.H.H.H.H.H.H.H.H.H.H.H.H.H.J.J.J.J.J.H.H.J.Y.Y.Y.Y.Y.Y.Y.Y.Y.Y.I.Y.U.G.I.Y.Y.J.Y.J.J.Y.Y.U.U.U.U.U.U.U.U.H.H.H.H.H.H.H.H.H.H.H.H.H.A.A.A.A.H.H.H.H.H.S.Z.Z.H.S.S.S.S.H.H.H.Z.W.W.Z.S.S.S.S.H.H.H.S.Z.Z.Z.Z.A.S.S.S.A.A.A.A.S.S.S.S.S.A.A.A.S.S.S.S.S.S.S.S.S.S.S.S.U.U.S.S.A.A.S.S.A.A.A.A.S.S.S.S.S.S.S.S.S.S.S.S.S.S.S.S.Z.Z.Z.Z.C.C.C.C.Z.B.B.Z.B.C.B.Z.V.V.V.V.V.V.C.Z.Z.Z.Z.Z.Z.Z.Z.Z.Z.Z.Z.Z.V.V.V.V.Z.Z.Z.Z.Z.Z.Z.Z.V.V.V.V.V.V.V.5.V.2.2.2.2.1.1.1.1.1.1.1.1.1.1.1.1.1.1.1.1.3.3.3.3.1.1.m.1.1.3.3.3.2.,.1.1.1.1.1.1.1.1.1.1.1.1.1.,.3.,.,.3.1.2.1.1.n.n.B.D.B.C.D.",
"^.~.~.~.W.H.W.H.W.W.Z.Z.Z.C.C.C.V.Z.Z.V.Z.Z.Z.C.Z.C.Z.H.Z.Z.Z.Z.Z.S.A.A.S.S.H.H.J.Y.Y.Y.Y.Y.Y.I.I.I.Y.Y.Y.U.U.J.J.H.H.H.H.H.H.J.H.H.H.H.H.C.H.H.H.H.J.J.H.H.H.H.H.H.H.H.J.H.J.Q.H.H.W.H.H.J.J.H.H.H.H.H.H.H.H.H.S.S.S.S.H.H.Z.S.H.H.H.W.S.S.S.S.H.H.H.H.H.H.H.H.H.H.H.H.H.H.H.H.H.H.H.H.U.U.H.H.U.U.H.H.H.H.H.H.H.H.U.U.Y.Y.J.Y.Y.Y.Y.Y.Y.Y.Y.Y.Y.Y.J.Y.Y.G.J.Y.J.J.Y.Y.Y.Y.H.J.H.H.H.H.J.J.J.H.H.H.H.H.H.H.H.H.H.H.H.H.H.H.H.H.S.S.S.S.S.S.S.S.Z.S.S.S.H.H.H.H.S.H.H.S.H.H.H.S.H.H.H.H.S.S.S.S.S.S.S.S.C.A.S.S.S.S.H.H.H.H.S.S.S.U.U.U.U.U.U.U.S.S.S.S.H.H.H.S.S.S.S.S.S.S.S.S.S.S.S.S.S.S.S.S.S.Z.Z.S.Z.Z.Z.Z.C.C.C.C.C.C.C.V.V.V.V.V.V.V.V.V.C.V.V.Z.V.V.Z.Z.Z.Z.Z.Z.Z.Z.Z.Z.Z.Z.Z.Z.Z.Z.V.V.Z.Z.C.C.C.C.C.C.Z.Z.V.V.V.V.V.5.V.V.2.2.2.2.2.1.m.2.1.3.2.2.2.1.2.,.,.2.3.3.3.3.,.3.1.1.1.1.1.1.1.1.1.1.1.3.m.1.1.1.1.1.m.3.n.1.1.3.3.3.,.3.1.m.m.n.n.B.B.B.S.S.",
"^.!.^.~.W.H.W.H.W.W.Z.Z.Z.C.C.C.V.Z.Z.V.Z.Z.Z.C.Z.C.Z.H.Z.Z.Z.Z.Z.Z.A.A.H.H.J.J.R.Y.Y.Y.Y.Y.R.I.I.I.Y.Y.Y.U.U.J.J.J.H.H.H.H.H.J.H.H.H.H.H.S.H.H.H.H.J.J.H.J.H.H.J.J.J.J.J.J.J.J.H.H.H.H.H.J.J.J.H.H.H.H.H.H.H.H.S.S.S.S.H.H.Z.S.H.H.H.W.H.H.H.H.H.H.H.H.H.H.H.H.H.H.H.H.H.H.H.H.H.H.H.H.U.H.H.H.U.U.H.H.H.H.H.H.H.H.U.U.Y.Y.J.~.Y.Y.Y.Y.Y.Y.Y.Y.Y.Y.J.Y.J.G.J.Y.J.J.Y.Y.Y.Y.J.J.H.H.H.H.J.J.J.H.H.H.H.H.H.H.H.H.H.H.H.H.H.H.H.H.S.S.S.S.S.S.S.S.H.Z.S.S.H.H.H.H.S.H.H.S.H.H.H.H.H.H.H.H.S.S.S.S.S.S.H.H.C.A.S.S.S.S.H.H.S.H.S.S.U.U.U.U.U.U.U.U.S.S.S.S.H.H.S.S.S.S.S.S.S.S.S.S.S.S.S.S.S.S.S.S.S.Z.Z.Z.Z.Z.Z.Z.V.V.V.V.V.V.V.V.V.V.V.V.V.V.V.V.V.V.V.V.V.V.Z.Z.Z.Z.Z.Z.Z.Z.Z.Z.Z.Z.Z.Z.Z.Z.V.V.Z.Z.Z.Z.C.C.C.C.Z.Z.Z.V.V.V.V.V.V.V.2.V.2.2.2.2.m.2.1.3.2.2.2.1.2.3.3.1.1.1.3.3.,.3.1.1.1.1.1.1.1.1.1.1.1.3.m.1.1.1.1.1.m.3.n.1.1.3.3.3.,.3.1.m.m.n.n.B.B.B.S.S.",
"^.!.^.~.W.H.W.H.W.W.Z.Z.Z.Z.C.C.V.Z.Z.V.Z.Z.Z.C.Z.C.Z.H.Z.Z.Z.Z.Z.Z.Z.Z.H.H.J.J.R.Y.XXY.Y.Y.R.I.I.I.Y.Y.Y.U.U.J.J.J.H.H.H.H.H.H.H.H.H.H.H.S.H.H.H.H.J.J.H.J.H.H.J.J.J.J.J.J.J.J.J.H.H.H.H.H.H.H.H.H.H.H.H.A.H.H.S.S.S.S.H.H.Z.S.H.H.H.W.W.W.W.W.H.H.H.H.H.H.H.H.H.H.H.H.H.H.H.H.H.H.H.H.U.U.H.H.U.U.U.H.U.U.H.U.H.H.H.H.Y.Y.J.~.Y.Y.Y.Y.Y.Y.Y.Y.Y.Y.J.Y.J.G.G.J.J.U.Y.Y.Y.Y.Y.Y.U.U.H.H.J.J.J.J.H.H.H.H.H.H.H.H.H.H.H.H.H.H.H.H.S.S.S.S.S.S.S.S.H.S.Z.S.H.H.H.H.S.H.H.S.H.H.H.H.H.H.H.H.S.S.S.S.S.H.H.H.Z.A.S.S.S.S.S.S.S.S.S.S.S.S.U.U.U.U.U.U.S.S.S.S.H.H.H.H.S.S.S.S.S.S.S.S.S.S.S.S.S.S.S.S.S.Z.Z.Z.Z.Z.Z.Z.V.V.V.V.V.V.V.V.V.5.V.V.V.V.V.V.V.V.V.V.V.V.Z.Z.Z.Z.Z.Z.Z.Z.Z.Z.Z.Z.Z.Z.Z.Z.Z.V.Z.Z.Z.Z.C.C.C.C.Z.Z.Z.Z.V.V.V.V.V.V.2.V.2.2.2.2.m.2.1.3.2.2.2.1.1.2.1.3.1.1.1.1.3.1.1.1.1.1.1.1.1.1.1.1.1.3.m.3.1.1.1.1.m.3.n.1.1.1.3.3.,.3.1.m.m.n.n.B.B.B.S.S.",
"^.!.^.~.W.H.W.H.W.W.Z.Z.Z.Z.C.C.V.Z.Z.V.Z.Z.Z.C.Z.C.Z.H.Z.Z.Z.Z.Z.Z.Z.Z.H.J.H.J.R.Y.XXY.Y.Y.R.R.I.I.Y.Y.Y.U.U.J.H.J.H.H.H.H.H.H.H.H.H.H.H.C.H.H.H.H.H.J.H.J.H.H.J.J.J.J.J.J.J.J.J.H.H.H.H.H.H.H.H.H.H.H.H.A.H.H.S.S.S.S.H.H.Z.S.H.H.H.W.W.W.W.W.H.H.H.H.H.H.H.H.H.H.H.H.H.H.H.H.U.H.H.H.U.U.H.H.U.U.U.H.U.U.U.U.H.H.H.H.Y.Y.J.~.J.Y.Y.Y.Y.Y.Y.Y.Y.Y.J.Y.J.G.G.J.J.J.Y.Y.Y.Y.Y.Y.U.U.U.H.J.J.J.J.H.H.H.H.H.H.H.H.H.H.H.H.H.H.H.H.S.S.S.S.S.S.S.S.H.H.S.Z.S.H.H.H.S.H.H.S.H.H.H.H.H.H.H.H.S.S.S.S.S.H.H.H.C.A.S.H.S.S.S.S.S.S.S.S.S.U.U.U.U.U.U.U.H.S.S.S.H.H.H.H.S.S.S.S.S.S.S.S.S.S.S.S.S.S.S.S.S.Z.Z.Z.Z.Z.Z.Z.V.V.V.V.V.V.V.V.V.5.V.V.V.V.V.V.V.V.V.V.V.V.Z.Z.Z.Z.Z.Z.Z.Z.Z.Z.Z.Z.Z.Z.Z.Z.Z.V.Z.Z.Z.Z.C.C.C.C.Z.Z.Z.Z.V.V.V.V.V.V.2.2.2.2.2.2.m.2.1.3.2.2.2.3.3.2.2.,.1.1.1.1.3.1.1.1.1.1.1.1.1.1.1.1.1.3.m.3.1.1.1.1.m.3.n.1.1.1.3.3.,.3.1.m.m.n.n.B.B.B.S.S.",
"^.~.^.Q.Q.H.W.H.W.W.Z.Z.H.Z.Z.C.Z.Z.Z.Z.Z.Z.Z.Z.Z.Z.Z.Z.Z.Z.Z.Z.Z.Z.Z.Z.H.H.J.J.Y.Y.XXY.Y.Y.Y.Y.R.R.Y.Y.U.U.U.H.H.H.H.H.H.J.H.H.H.H.H.H.H.H.J.H.H.H.H.H.H.H.Q.H.H.H.H.H.J.H.Y.H.H.H.H.H.~.Q.H.H.H.W.W.H.H.H.H.H.H.H.H.S.H.H.H.S.W.H.H.W.W.W.W.W.H.H.H.H.H.H.H.H.H.H.H.H.H.H.H.~.Y.Y.J.Y.H.H.H.H.U.H.H.H.!.H.~.H.U.U.U.H.~.U.U.~.Y.Y.Y.Y.Y.Y.Y.Y.Y.Y.J.Y.Y.Y.J.J.Y.Y.U.H.H.H.Y.Y.U.U.H.H.J.J.J.J.J.H.H.H.H.H.H.H.H.H.H.H.H.H.H.H.S.S.S.S.S.S.S.S.H.H.H.H.S.S.S.S.H.H.H.H.S.S.H.H.S.S.S.S.H.H.H.H.H.H.H.H.S.H.H.S.H.H.S.S.A.A.H.H.S.U.S.S.U.S.U.S.S.U.U.S.S.S.A.A.S.S.S.S.S.S.S.S.S.S.S.S.S.S.S.S.S.Z.Z.V.Z.Z.C.Z.V.Z.Z.V.V.V.V.V.V.V.V.V.V.Z.Z.V.Z.Z.Z.Z.Z.Z.Z.Z.E.Z.V.Z.Z.Z.Z.Z.Z.Z.Z.Z.Z.Z.Z.Z.Z.C.C.C.Z.Z.Z.Z.Z.V.V.V.V.V.5.5.2.V.2.2.2.2.2.2.m.2.2.2.2.2.3.3.1.1.1.1.1.1.1.1.1.1.1.1.1.1.1.1.m.m.m.m.1.1.1.1.1.1.1.1.n.m.1.1.1.1.1.3.,.1.1.1.n.n.n.n.B.B.C.C.",
"^.~.^.Q.Q.H.W.H.W.W.Z.Z.H.Z.Z.C.Z.Z.Z.Z.Z.Z.Z.Z.Z.Z.Z.Z.Z.Z.Z.Z.Z.Z.Z.Z.H.H.J.J.Y.Y.XXY.Y.Y.Y.Y.R.Y.Y.Y.U.U.U.H.H.H.H.H.H.H.J.H.C.H.J.H.H.H.H.H.H.H.H.H.H.H.J.H.H.H.H.H.J.H.Y.H.H.H.H.H.~.Q.H.H.H.W.W.H.H.H.H.H.H.W.H.S.H.H.S.H.W.H.H.Q.W.W.W.W.H.H.H.H.H.H.H.H.H.H.H.H.H.H.H.~.Y.Y.J.Y.U.U.H.H.U.U.U.H.!.H.~.H.U.U.H.H.~.U.U.~.Y.Y.Y.Y.Y.Y.Y.Y.Y.Y.J.Y.Y.Y.Y.Y.Y.Y.J.Y.H.H.Y.Y.U.U.H.H.J.J.J.J.J.H.H.H.H.H.H.H.H.H.H.H.H.H.H.H.S.S.S.S.S.S.S.S.S.H.H.H.S.S.S.S.H.H.H.H.S.H.H.H.S.S.S.S.S.S.H.H.H.H.H.S.S.S.S.S.H.H.S.S.A.A.H.H.S.U.S.S.U.S.U.S.S.U.U.S.S.S.S.S.S.S.S.S.S.S.S.S.S.S.S.S.S.S.S.S.S.Z.C.V.Z.C.Z.Z.V.Z.Z.V.V.V.V.V.V.V.V.V.V.Z.Z.V.Z.Z.Z.Z.Z.Z.Z.Z.E.Z.V.Z.Z.Z.Z.Z.Z.Z.Z.Z.Z.Z.Z.Z.Z.C.C.C.Z.Z.Z.Z.V.V.V.Z.V.V.5.5.V.V.2.2.2.2.2.2.m.2.2.2.2.2.3.3.1.1.1.1.3.1.1.1.1.1.1.1.1.1.1.1.m.m.m.m.1.1.1.1.1.1.1.1.n.m.1.1.1.1.1.1.1.1.1.m.n.V.n.V.D.B.S.S.",
"^.~.^.Q.!.H.W.H.W.W.Z.Z.H.Z.Z.C.Z.Z.Z.Z.Z.Z.Z.Z.Z.Z.Z.Z.Z.Z.Z.Z.Z.Z.Z.Z.H.H.J.J.Y.Y.XXY.Y.Y.Y.R.R.R.Y.Y.U.U.U.H.H.H.H.H.H.H.J.H.H.H.J.H.H.H.H.H.H.H.H.H.H.H.Q.H.H.H.H.H.J.H.Y.H.H.H.H.H.~.Q.H.H.H.H.W.H.H.H.H.H.H.W.H.Z.W.H.H.H.W.H.H.Q.W.W.W.W.H.H.H.H.W.W.H.H.H.H.H.H.H.H.W.~.H.Y.J.Y.U.U.Y.Y.U.U.U.U.!.H.~.H.Y.U.U.Y.~.U.H.~.Y.Y.Y.Y.Y.Y.Y.Y.Y.Y.J.Y.Y.Y.Y.Y.Y.Y.Y.Y.H.J.J.Y.H.H.H.H.J.J.J.J.J.J.H.H.H.H.H.H.H.H.H.H.H.H.H.H.S.S.S.S.S.S.S.S.S.S.H.H.H.H.H.S.H.H.H.S.S.S.H.H.H.H.S.S.S.S.H.H.H.S.S.S.S.S.S.S.S.S.S.S.A.A.H.H.S.U.S.S.U.S.U.S.S.U.U.S.S.S.S.S.S.S.S.S.S.S.S.S.S.S.S.S.S.S.S.S.S.Z.Z.V.Z.Z.Z.Z.V.Z.Z.V.V.V.V.V.V.V.V.V.V.Z.Z.V.Z.Z.Z.Z.Z.Z.Z.Z.E.Z.V.Z.Z.Z.Z.Z.Z.Z.Z.Z.Z.Z.Z.Z.Z.C.S.C.S.C.Z.Z.Z.V.V.V.V.V.V.5.V.V.V.2.2.2.2.2.m.2.2.2.3.3.3.3.1.1.1.1.3.3.3.1.3.1.1.1.1.1.1.1.m.m.m.m.1.1.1.1.1.1.1.1.n.m.1.1.3.3.1.3.1.1.m.m.m.V.n.V.D.D.S.S.",
"^.~.^.!.!.H.W.H.W.W.Z.Z.H.Z.Z.C.Z.Z.Z.Z.Z.Z.Z.Z.Z.Z.Z.Z.Z.Z.Z.Z.Z.Z.Z.Z.H.H.J.J.Y.Y.XXY.Y.Y.Y.R.R.R.Y.Y.U.U.U.H.H.H.H.H.H.H.H.J.J.H.H.H.H.H.H.H.H.H.H.H.H.H.Q.H.H.H.H.H.J.H.Y.H.H.H.H.H.~.Q.H.H.H.H.W.H.H.H.H.H.H.H.H.Z.W.H.H.W.!.W.W.!.W.W.W.H.H.H.H.H.W.W.W.H.H.H.H.H.J.H.H.~.H.Y.J.Y.Y.Y.Y.Y.Y.!.U.U.!.H.~.H.U.U.U.Y.~.U.H.Y.Y.Y.Y.Y.Y.Y.Y.Y.Y.Y.J.Y.Y.Y.Y.Y.Y.Y.Y.Y.H.J.Y.Y.H.H.H.H.J.J.J.J.H.H.H.H.H.H.H.H.H.H.H.H.H.H.H.H.S.S.S.S.S.S.S.S.S.S.H.H.H.H.S.S.H.H.H.S.S.S.H.H.H.H.H.H.S.S.H.H.S.S.S.S.S.S.S.S.S.S.S.S.S.A.H.H.S.U.S.S.U.S.U.S.S.U.U.S.S.S.S.S.S.S.S.S.S.S.S.S.S.S.S.S.S.S.S.C.Z.Z.Z.V.Z.Z.Z.Z.V.Z.Z.V.V.V.V.V.V.V.V.V.V.Z.Z.V.Z.Z.Z.Z.Z.Z.Z.Z.E.Z.V.Z.Z.Z.Z.Z.Z.Z.Z.Z.Z.Z.Z.Z.C.C.S.S.S.C.C.C.Z.V.V.V.V.V.V.5.V.2.2.V.2.2.2.2.m.2.2.2.3.3.3.3.1.1.1.1.3.3.3.3.3.1.1.1.1.1.1.1.m.m.m.m.1.1.1.1.1.1.1.1.n.m.1.1.1.3.3.3.1.m.m.m.V.V.n.V.B.D.S.S.",
"^.~.~.Q.!.H.W.H.W.W.E.E.E.Z.E.Z.C.C.C.Z.Z.Z.Z.Z.Z.Z.Z.Z.Z.Z.Z.Z.A.H.H.A.H.H.J.J.Y.Y..XY.Y.XXR.XXY.Y.Y.Y.J.Y.H.H.H.J.H.S.H.H.H.H.H.W.H.H.H.H.H.H.H.H.W.W.H.H.H.H.H.H.H.J.Y.J.Y.J.Q.Q.Q.Q.H.H.H.H.J.H.Q.H.H.H.H.H.H.~.H.H.H.H.H.J.H.H.W.~.W.W.W.Q.Q.Q.H.H.H.J.Q.Q.!.H.H.H.H.H.Y.Y.Y.Y.U.U.U.U.U.Y.H.H.Y.U.Y.J.Y.J.H.H.H.Y.Y.Y.Y.Y.Y.Y.Y.Y.Y.Y.Y.Y.Y.Y.Y.Y.Y.Y.Y.Y.Y.Y.Y.Y.U.U.U.Y.H.H.H.H.U.U.U.Y.J.J.H.H.H.H.H.H.H.H.H.H.H.H.H.H.S.S.S.S.H.H.S.S.H.H.H.H.H.H.H.H.H.H.H.H.H.H.H.H.A.A.H.H.H.H.H.Z.A.S.H.H.S.W.S.H.S.S.S.S.S.S.S.S.A.A.C.S.S.S.H.H.S.S.S.S.S.S.U.S.S.S.S.S.S.D.D.S.S.S.Z.C.E.S.Z.Z.Z.Z.V.Z.Z.V.Z.E.V.Z.Z.V.V.V.V.V.V.V.V.V.Z.Z.Z.Z.Z.Z.Z.Z.Z.Z.Z.Z.Z.V.V.E.E.Z.E.Z.Z.Z.Z.C.S.S.S.S.A.C.C.S.Z.Z.C.C.Z.V.V.V.V.V.V.m.2.2.2.V.2.2.2.2.2.m.2.3.2.2.2.2.2.2.2.2.3.3.3.3.1.1.3.3.1.1.1.1.1.1.1.1.1.m.m.1.1.1.1.1.1.1.1.1.1.1.1.1.1.m.n.n.B.V.V.B.Z.B.C.C.",
"^.~.~.Q.!.H.W.H.W.W.S.E.W.Z.E.Z.C.C.C.C.Z.Z.Z.Z.Z.Z.Z.Z.Z.Z.Z.Z.A.H.H.A.H.H.G.J.Y.Y..XY.Y.XXY.XXY.Y.Y.Y.J.Y.J.H.J.J.J.H.H.H.H.H.H.H.Z.H.H.H.H.H.H.H.W.W.H.H.H.H.H.H.H.J.J.J.Y.J.W.Q.Q.Q.J.H.J.H.J.H.Q.H.H.H.H.H.H.~.H.H.H.H.H.J.H.H.H.~.H.H.J.Q.Q.Q.H.H.H.H.Q.Q.Y.U.Y.H.H.H.Y.Y.Y.Y.H.U.U.U.H.H.J.J.Y.Y.Y.J.Y.J.H.H.J.Y.Y.Y.Y.Y.Y.Y.Y.Y.Y.Y.Y.Y.Y.Y.Y.Y.Y.Y.Y.Y.Y.Y.Y.Y.U.U.U.Y.H.H.H.H.U.U.U.U.J.J.H.H.H.H.H.H.H.H.H.H.H.H.H.H.S.S.S.S.H.H.S.S.H.H.H.H.H.H.H.H.H.H.H.H.H.H.H.H.A.A.H.H.H.H.Z.Z.A.A.H.H.S.W.S.H.S.S.S.S.S.S.S.S.A.A.C.S.S.S.H.S.S.S.S.S.S.S.U.S.S.S.S.S.S.D.S.S.S.S.Z.Z.E.S.Z.Z.Z.Z.V.Z.Z.V.Z.E.V.Z.Z.V.V.V.Z.Z.V.V.V.V.Z.Z.Z.Z.Z.Z.Z.Z.Z.Z.Z.Z.Z.V.V.E.E.Z.E.Z.Z.Z.Z.C.Z.Z.S.S.A.C.C.Z.Z.Z.C.C.Z.Z.V.V.V.V.V.m.2.5.2.V.2.2.2.2.m.2.3.2.2.2.2.2.2.2.2.2.3.3.3.3.1.3.3.3.1.1.1.1.1.1.m.1.1.m.m.1.1.1.1.1.1.1.1.1.1.1.1.1.1.n.n.n.B.B.V.B.Z.B.C.C.",
"^.~.~.Q.!.H.H.H.H.W.S.E.W.Z.S.C.C.C.C.C.Z.Z.Z.Z.Z.Z.Z.Z.Z.Z.Z.Z.A.H.H.A.H.H.J.J.Y.Y..XY.Y.XXY.XXY.Y.Y.Y.J.Y.J.H.H.H.J.J.H.H.H.H.H.H.Z.H.H.H.H.H.H.H.W.W.H.H.H.H.H.H.J.J.Y.J.~.J.H.H.Q.Q.H.J.H.H.J.H.~.H.H.H.H.H.H.~.H.H.H.H.H.H.H.H.H.~.H.H.H.H.Q.J.J.H.J.Q.Q.Q.U.U.U.H.H.H.Y.Y.H.H.H.H.U.U.U.U.J.Y.Y.Y.Y.J.Y.J.Y.Y.Y.Y.Y.Y.Y.Y.Y.Y.Y.Y.Y.Y.Y.Y.Y.Y.Y.Y.Y.Y.Y.Y.Y.Y.Y.Y.U.U.Y.Y.U.Y.H.H.U.H.H.H.J.J.H.H.H.H.H.H.H.H.H.H.H.H.H.H.S.S.S.S.S.S.S.S.H.H.H.H.H.H.H.H.H.H.H.H.H.H.H.H.A.H.H.H.H.H.Z.Z.A.A.H.H.S.W.S.H.S.S.S.S.S.S.S.S.A.A.C.H.S.S.H.S.S.S.S.S.S.S.U.S.S.S.S.S.S.D.D.S.S.S.Z.Z.E.S.Z.S.Z.Z.V.Z.Z.V.Z.S.V.Z.Z.V.V.V.V.V.V.V.5.5.Z.Z.Z.Z.Z.Z.Z.Z.Z.Z.Z.Z.Z.V.V.Z.E.Z.E.Z.Z.C.Z.C.Z.Z.Z.Z.A.C.C.Z.C.C.C.C.Z.Z.Z.Z.V.V.V.m.2.2.1.V.2.2.2.2.m.2.3.2.2.2.2.2.2.1.2.2.3.3.3.3.3.1.3.3.1.1.1.1.m.m.m.m.1.m.m.1.1.1.1.1.1.1.1.1.1.1.1.1.1.n.n.n.B.V.V.V.Z.D.S.C.",
"^.~.~.Q.!.H.H.H.H.W.S.E.W.Z.S.C.C.C.C.C.Z.Z.Z.Z.Z.Z.Z.Z.Z.Z.Z.Z.A.H.H.A.H.H.G.J.Y.Y..XY.Y.XXY.XXY.Y.Y.Y.J.Y.J.H.H.H.J.H.H.H.H.H.H.W.H.H.H.H.H.H.H.H.W.W.H.H.H.H.H.H.J.J.Y.J.Y.J.H.H.Q.Q.Q.J.H.H.J.H.Q.H.H.H.H.H.H.~.H.H.H.H.H.H.H.H.H.~.H.H.H.H.Q.J.J.J.J.Q.Q.Q.U.U.U.H.H.H.Y.Y.H.H.H.H.Y.Y.Y.U.Y.Y.Y.Y.Y.J.Y.J.Y.Y.Y.Y.Y.Y.Y.Y.Y.Y.Y.Y.Y.Y.Y.Y.Y.Y.Y.Y.Y.Y.Y.Y.Y.Y.Y.Y.Y.U.Y.Y.U.U.H.H.H.H.H.H.J.J.H.H.H.H.H.H.H.H.H.H.H.H.H.H.S.S.S.S.S.S.S.S.H.H.H.H.H.H.H.H.H.H.H.H.H.H.H.H.A.H.H.H.H.A.A.A.A.A.H.H.S.W.S.H.S.S.S.S.S.S.S.S.S.S.C.H.S.S.H.S.S.S.S.S.S.S.U.S.S.S.S.S.S.D.S.S.S.S.Z.C.E.S.Z.Z.Z.Z.V.Z.Z.V.Z.S.V.Z.Z.V.V.V.Z.V.V.V.V.V.Z.Z.Z.Z.Z.Z.Z.Z.Z.Z.Z.Z.Z.V.V.Z.E.Z.E.Z.Z.Z.S.C.Z.Z.Z.Z.A.C.C.Z.C.C.C.C.Z.Z.Z.Z.V.V.V.m.2.5.1.V.2.2.2.2.2.m.2.3.2.2.2.2.3.3.2.2.3.3.3.3.3.1.3.3.1.1.1.1.m.m.m.m.1.m.m.1.1.1.1.1.1.1.1.1.1.1.1.1.1.n.n.n.B.B.B.V.Z.D.S.C.",
"~.~.!.~.W.H.H.W.S.W.W.S.W.Z.S.Z.Z.C.C.Z.Z.Z.Z.Z.Z.Z.Z.Z.Z.S.S.Z.S.H.H.H.H.J.J.Y.Y.Y.OXXXY.Y.Y.Y.Y.Y.Y.Y.Y.J.U.G.H.J.J.J.S.S.S.S.H.H.H.H.H.H.H.H.H.H.W.~.H.H.H.H.Q.H.H.Y.H.Y.Y.H.H.H.H.H.~.H.~.~.J.J.~.H.H.Q.H.Q.J.~.H.H.J.J.H.H.H.H.J.~.~.~.H.~.~.H.H.~.~.~.Y.~.U.H.H.U.Y.H.H.Y.H.U.Y.U.H.Y.Y.H.Y.Y.Y.Y.Y.J.Y.Y.Y.Y.Y.Y.Y.Y.Y.Y.Y.Y.Y.Y.Y.Y.Y.Y.Y.Y.Y.Y.Y.Y.Y.Y.Y.Y.Y.U.Y.Y.Y.Y.U.U.H.H.H.H.H.H.H.H.H.H.H.H.H.H.H.H.H.H.H.H.H.H.S.S.S.C.S.S.S.S.H.H.H.H.H.H.H.H.H.H.H.H.H.H.H.H.H.H.H.H.H.H.H.H.H.S.S.H.S.S.S.H.S.S.S.S.S.S.S.S.H.S.S.S.A.C.S.S.S.S.S.S.S.H.H.S.S.S.S.S.S.D.S.S.S.S.Z.Z.S.S.Z.Z.Z.Z.Z.Z.C.C.Z.Z.V.Z.Z.V.Z.Z.Z.Z.V.V.V.Z.Z.Z.Z.Z.Z.Z.Z.Z.Z.Z.Z.Z.E.Z.Z.V.Z.Z.Z.Z.C.D.S.Z.C.C.C.Z.Z.C.S.C.S.Z.Z.S.C.Z.Z.Z.V.V.V.2.2.2.2.2.2.2.2.2.2.2.2.2.2.2.2.2.3.3.3.3.3.3.3.3.3.1.1.1.1.1.1.1.m.1.1.m.m.m.1.1.m.m.1.1.m.m.m.m.1.,.,.,.1.n.n.n.n.V.V.Z.Z.D.S.C.",
"~.~.~.!.W.H.H.W.S.W.W.S.W.Z.E.Z.Z.C.C.Z.Z.Z.Z.Z.Z.Z.Z.Z.Z.S.S.Z.S.H.H.H.H.J.J.Y.Y.Y.OXXXY.Y.Y.Y.Y.Y.Y.Y.Y.J.U.H.H.J.J.J.S.S.S.S.H.H.H.H.H.H.H.H.H.H.!.~.H.W.W.H.Q.H.H.Y.H.Y.Y.H.H.H.J.H.~.H.~.Q.J.J.~.H.H.Q.H.Q.Q.~.H.H.H.H.H.H.H.H.J.~.~.~.H.~.~.H.H.~.~.~.~.~.Y.Y.U.H.Y.Y.H.H.Y.U.Y.Y.H.Y.Y.H.Y.Y.Y.Y.Y.J.Y.Y.Y.J.Y.Y.Y.Y.Y.Y.Y.Y.Y.Y.Y.Y.Y.Y.Y.Y.Y.Y.Y.Y.Y.Y.Y.Y.Y.U.Y.Y.Y.Y.U.U.H.H.H.H.H.H.H.H.H.H.H.H.H.H.H.H.H.H.H.H.H.H.S.S.S.C.S.S.S.S.H.H.H.H.H.H.H.H.H.H.H.H.H.H.H.A.H.H.H.H.H.H.H.H.H.S.S.H.S.H.S.H.S.S.S.S.S.S.S.S.H.S.S.S.A.C.S.S.S.S.S.S.S.H.H.S.S.S.S.S.S.D.S.D.S.S.Z.C.S.S.Z.S.Z.Z.Z.Z.C.C.Z.Z.V.Z.Z.V.Z.Z.Z.Z.V.V.Z.Z.Z.Z.Z.Z.Z.Z.Z.Z.Z.Z.Z.Z.E.Z.Z.V.Z.Z.Z.Z.Z.D.S.S.C.C.C.C.Z.S.S.C.S.C.Z.Z.Z.Z.Z.Z.V.V.V.2.2.2.2.2.2.2.2.2.2.2.2.2.2.2.2.2.3.3.3.3.3.3.3.3.3.3.1.1.1.1.1.1.m.1.1.m.m.m.m.m.m.m.m.1.m.m.m.m.1.,.,.,.1.n.n.n.n.V.V.V.Z.D.S.C.",
"!.~.~.W.W.H.H.W.S.W.W.S.E.Z.E.Z.Z.C.C.Z.Z.Z.Z.Z.Z.Z.Z.Z.Z.S.S.Z.S.H.H.H.H.H.J.Y.Y.Y.OXXXXXXXY.Y.Y.Y.Y.Y.Y.J.Y.J.H.J.J.J.S.S.S.S.H.H.H.H.H.H.H.H.H.H.!.~.W.W.W.W.J.J.H.Y.H.Y.Y.H.Q.Q.J.J.~.H.~.~.J.J.~.H.H.Q.H.Q.Q.~.H.H.J.Q.H.H.H.H.J.~.~.~.H.~.~.H.H.~.~.~.~.~.Y.Y.Y.Y.Y.Y.U.H.Y.Y.Y.Y.H.U.U.H.Y.Y.Y.Y.Y.J.Y.Y.J.J.J.Y.Y.Y.Y.Y.Y.Y.Y.Y.Y.Y.Y.Y.Y.Y.Y.Y.Y.Y.Y.Y.Y.Y.Y.U.Y.Y.Y.Y.H.H.H.H.H.H.U.U.H.H.H.H.H.H.H.H.H.H.H.H.H.H.H.H.S.S.Z.Z.S.S.S.S.H.H.H.H.H.H.H.H.H.H.H.H.H.H.H.A.H.H.A.H.Z.Z.H.H.S.S.S.S.S.H.H.H.S.S.S.S.S.S.S.S.H.S.S.S.A.C.S.S.S.S.S.S.S.H.H.S.S.S.S.S.S.D.S.D.S.S.Z.Z.S.S.Z.S.Z.Z.Z.Z.Z.Z.Z.Z.V.Z.Z.V.Z.Z.Z.Z.V.Z.Z.Z.Z.Z.Z.Z.Z.Z.Z.Z.Z.Z.Z.Z.E.Z.Z.V.Z.Z.Z.Z.Z.D.S.S.C.C.C.C.Z.Z.S.C.C.C.Z.Z.Z.C.Z.V.V.V.V.2.2.5.2.2.2.2.2.2.2.2.2.2.2.2.2.2.2.2.3.3.3.3.3.3.,.,.1.3.1.1.1.1.m.1.1.m.m.m.m.m.m.m.1.1.m.m.m.m.1.1.1.1.1.n.n.n.n.V.V.V.Z.D.S.C.",
"W.^.~.W.W.H.H.W.S.W.W.E.W.Z.E.Z.Z.C.C.Z.Z.Z.Z.Z.Z.Z.Z.Z.Z.S.S.Z.S.H.H.H.H.H.J.Y.Y.Y.OXXXXXXXXXY.Y.Y.Y.Y.Y.J.Y.J.J.H.H.H.S.S.S.S.H.H.H.H.H.H.H.W.H.H.!.~.W.W.W.W.J.J.H.Y.H.Y.Y.H.Q.Q.Q.J.~.H.~.~.J.J.~.H.H.Q.H.Q.Q.~.H.H.Q.Q.H.H.H.H.H.~.~.~.H.~.~.H.H.~.!.~.~.Y.Y.Y.Y.Y.~.Y.U.U.Y.Y.Y.Y.H.U.Y.J.Y.Y.Y.Y.Y.J.Y.Y.J.J.J.Y.Y.Y.Y.Y.Y.Y.Y.Y.Y.Y.Y.Y.Y.Y.Y.Y.Y.Y.Y.Y.Y.Y.Y.U.Y.Y.Y.Y.H.H.H.H.H.U.U.U.H.H.H.H.H.H.H.J.H.H.H.H.H.H.H.H.H.S.S.Z.H.H.H.H.H.H.H.H.H.H.H.H.H.H.H.H.H.H.A.A.H.H.A.A.A.A.H.H.S.S.S.S.S.S.H.H.S.S.S.S.S.S.S.S.H.S.S.S.A.C.S.S.S.S.S.S.S.H.H.S.S.S.S.S.S.D.S.D.Z.S.Z.Z.S.S.Z.S.Z.Z.Z.Z.Z.Z.Z.Z.V.Z.Z.V.Z.Z.Z.Z.Z.Z.Z.Z.Z.Z.Z.Z.Z.Z.Z.Z.Z.Z.Z.Z.E.Z.Z.V.Z.Z.Z.Z.C.Z.S.S.C.C.C.C.C.Z.C.C.C.C.C.Z.Z.Z.Z.Z.V.V.V.5.5.2.2.2.2.2.2.2.m.2.2.2.2.2.2.2.2.2.1.1.3.3.3.3.,.,.,.1.1.1.1.1.m.1.1.m.m.m.m.1.m.m.1.1.m.m.m.m.1.1.1.1.1.n.n.n.n.V.V.V.Z.D.S.C.",
"~.~.~.W.!.H.H.!.S.W.W.E.W.Z.E.Z.C.C.C.Z.Z.Z.Z.Z.C.C.Z.S.Z.H.H.Z.H.H.H.H.H.J.J.Y.Y..XOXXXY..XXXXXY.Y.Y.Y.J.J.H.H.H.H.H.H.S.S.S.S.S.S.S.S.W.W.W.W.H.H.W.!.H.H.W.H.J.J.H.Y.Y.Y.Y.Y.Q.Q.Q.Q.~.W.~.Q.J.J.~.H.Q.Q.H.H.H.~.H.H.H.~.~.H.J.H.J.Y.~.J.J.Y.U.Y.~.~.Y.Y.Y.Y.Y.Y.Y.J.Y.Y.Y.Y.Y.Y.Y.Y.Y.Y.Y.Y.~.H.J.Y.H.H.H.J.J.Y.Y.Y.Y.Y.Y.Y.Y.Y.Y.Y.Y.Y.Y.Y.Y.Y.Y.Y.Y.Y.Y.Y.Y.Y.Y.U.H.H.H.H.U.U.U.H.H.H.U.U.H.H.H.H.H.H.J.J.H.H.H.H.H.H.S.C.C.A.A.A.C.A.H.H.H.H.H.H.H.H.H.H.H.H.H.H.H.H.H.H.H.H.H.H.H.H.H.H.H.H.H.H.S.U.S.U.S.S.S.S.S.S.S.S.A.A.A.A.Z.Z.Z.Z.S.S.S.S.S.S.S.S.S.S.S.S.S.S.S.Z.Z.S.Z.Z.E.E.Z.S.Z.Z.Z.Z.Z.Z.Z.Z.Z.E.E.Z.Z.Z.Z.E.Z.Z.Z.Z.E.E.Z.Z.Z.Z.Z.Z.Z.Z.Z.Z.S.C.V.Z.Z.Z.Z.Z.V.C.C.Z.Z.Z.Z.Z.C.C.C.C.C.C.S.S.C.V.Z.5.V.5.5.5.V.2.2.V.2.2.2.2.m.m.2.2.2.2.2.2.2.2.3.3.3.3.3.3.3.,.1.3.1.m.3.m.m.1.m.m.n.n.n.n.2.2.2.2.1.1.1.1.1.1.3.3.1.1.m.n.n.n.B.V.Z.B.C.C.",
"~.~.~.W.~.H.H.!.S.W.W.E.W.Z.E.Z.C.C.C.Z.Z.Z.Z.Z.C.C.Z.S.Z.H.H.Z.H.H.H.H.H.J.J.Y.Y..XOXXXY..XXXXXY.Y.Y.Y.Y.J.J.J.H.H.H.H.S.S.S.S.S.S.S.S.W.W.W.W.H.H.W.!.H.H.H.H.J.J.H.Y.Y.Y.Y.Y.Q.Q.Q.Q.Q.W.~.Q.J.J.~.H.Q.Q.H.H.H.~.H.H.H.~.~.H.J.H.J.Y.~.J.J.Y.Y.Y.Y.~.Y.Y.Y.Y.Y.Y.Y.J.Y.Y.Y.Y.Y.Y.Y.Y.Y.Y.Y.Y.~.H.J.Y.H.H.J.J.Y.Y.Y.Y.Y.Y.Y.Y.Y.Y.Y.Y.Y.Y.Y.Y.Y.Y.Y.Y.Y.Y.Y.Y.Y.Y.Y.Y.H.H.J.J.U.U.H.H.H.H.U.U.H.H.H.H.H.H.H.J.H.H.J.J.H.G.C.C.A.A.C.A.C.A.H.H.H.H.H.H.H.H.H.H.H.H.H.H.H.H.H.H.H.H.H.H.H.H.H.H.H.H.H.H.S.U.S.U.S.S.S.S.S.S.S.S.A.A.A.A.Z.Z.Z.Z.S.S.S.S.S.S.S.S.S.S.S.S.S.S.S.Z.Z.S.Z.Z.E.E.Z.S.Z.Z.Z.Z.Z.Z.Z.Z.Z.E.E.Z.Z.Z.Z.E.Z.Z.Z.Z.E.E.Z.Z.Z.Z.Z.Z.Z.Z.Z.Z.E.Z.V.Z.Z.Z.Z.Z.V.C.C.Z.C.Z.Z.Z.C.C.C.C.C.C.S.S.Z.V.Z.5.B.5.5.5.V.2.2.V.2.2.2.2.m.m.m.m.2.2.2.2.2.2.3.3.3.3.3.3.1.,.1.1.1.m.3.m.m.1.m.n.n.n.n.n.2.2.2.2.1.1.1.1.1.1.3.3.1.1.m.n.n.n.B.V.Z.B.C.C.",
"~.~.~.W.!.H.H.!.S.W.W.E.W.Z.S.C.C.C.C.Z.Z.Z.Z.Z.C.C.Z.S.Z.W.H.Z.H.H.H.H.H.J.J.Y.Y..XOXXXY.OXXXXXY.Y.Y.Y.Y.J.Y.H.H.H.S.S.S.S.S.S.S.S.S.S.W.W.W.W.H.H.W.!.H.H.H.H.J.J.H.Y.J.J.J.J.Q.Q.J.J.Q.H.~.Q.Q.Q.~.H.Q.Q.H.H.H.~.H.J.H.~.~.H.H.H.J.Y.~.J.J.Y.Y.Y.Y.~.Y.Y.Y.Y.Y.Y.H.J.Y.Y.Y.Y.Y.Y.Y.Y.Y.Y.Y.Y.~.Y.J.Y.H.H.Y.Y.Y.Y.Y.Y.Y.Y.Y.Y.Y.Y.Y.Y.Y.Y.Y.Y.Y.Y.Y.Y.Y.Y.Y.Y.Y.Y.Y.Y.J.J.J.J.U.U.U.U.H.H.H.H.H.H.H.H.H.H.J.J.H.J.J.J.H.G.C.C.C.C.Z.Z.C.A.H.H.H.H.H.H.H.H.H.H.H.H.H.H.J.J.J.H.H.H.H.H.H.H.H.H.S.S.S.S.S.U.S.U.S.S.H.S.S.S.S.S.A.A.A.A.A.A.Z.S.S.S.S.S.S.S.S.S.S.S.S.S.S.S.S.Z.Z.S.Z.Z.E.E.Z.S.Z.Z.Z.Z.Z.Z.Z.Z.Z.Z.E.Z.Z.Z.E.E.Z.Z.E.E.E.E.Z.Z.Z.Z.Z.Z.Z.Z.Z.Z.E.C.V.Z.Z.Z.Z.Z.V.C.C.Z.Z.Z.Z.Z.C.C.C.S.C.C.C.Z.V.5.Z.V.B.5.5.5.V.2.2.V.2.2.2.2.m.m.m.m.m.2.2.2.2.2.2.3.3.3.3.3.m.3.m.1.1.m.3.m.m.1.m.m.n.n.n.n.2.2.2.2.n.n.1.1.1.1.3.3.1.1.m.n.n.B.B.V.Z.B.C.C.",
"~.~.~.W.!.H.W.!.S.W.W.E.W.Z.S.C.C.C.C.Z.Z.Z.Z.Z.C.C.Z.S.Z.W.H.Z.H.H.H.H.H.J.J.Y.Y..XOXXXY.OXXXXXY.Y.Y.Y.~.Y.~.J.H.H.S.S.S.S.S.S.S.S.S.S.W.W.W.W.H.H.W.!.H.H.H.H.W.J.H.Y.J.J.J.J.J.J.J.J.Q.H.~.Q.W.Q.~.H.Q.Q.H.J.H.~.J.J.H.~.~.H.H.H.J.Y.~.J.J.Y.Y.Y.Y.~.Y.Y.Y.Y.Y.Y.H.J.Y.Y.Y.Y.Y.Y.Y.Y.Y.Y.Y.Y.~.Y.J.Y.H.Y.Y.Y.Y.Y.Y.Y.Y.Y.Y.Y.Y.Y.Y.Y.Y.Y.Y.Y.Y.Y.Y.Y.Y.Y.Y.Y.Y.Y.Y.Y.J.J.J.J.U.U.U.U.H.H.H.H.H.H.H.H.H.H.J.J.J.J.J.J.H.G.C.C.Z.A.A.A.C.A.H.H.H.H.H.H.H.H.H.H.H.G.G.G.G.G.G.J.H.H.H.H.H.H.H.H.S.S.S.S.S.U.S.U.S.S.H.H.S.S.S.S.A.A.A.A.A.A.A.A.S.S.S.S.S.S.S.S.S.S.S.S.S.S.S.Z.Z.S.Z.Z.E.E.Z.S.Z.Z.Z.Z.Z.Z.Z.Z.Z.E.E.Z.Z.Z.E.E.Z.Z.E.E.E.E.Z.Z.Z.Z.Z.Z.Z.Z.Z.Z.E.Z.V.Z.Z.Z.Z.Z.V.C.C.Z.C.Z.Z.Z.C.S.S.S.C.C.C.Z.V.5.V.V.B.5.5.5.V.2.2.V.2.2.2.2.m.m.m.m.m.m.2.2.2.2.2.2.3.3.3.3.m.1.m.m.1.m.3.m.m.1.m.m.n.n.n.n.2.2.2.2.n.n.n.1.1.1.3.3.1.1.m.n.n.n.B.V.Z.B.C.C.",
"~.~.!.!.~.H.W.!.W.W.E.E.E.E.Z.Z.Z.Z.Z.Z.Z.Z.Z.Z.C.C.Z.S.Z.W.W.Z.H.H.H.H.H.H.J.Y.Y..XOXXXXXOXOXOXXXY.XX~.~.Y.~.J.H.S.S.S.H.H.H.H.W.H.H.H.W.W.W.W.H.H.!.~.W.H.H.W.H.H.J.J.J.Y.Y.Y.Q.Q.Q.Q.~.Q.Q.H.W.Q.Q.J.Q.Q.H.H.~.H.H.Q.J.Q.H.H.H.Y.Y.H.~.Y.Y.Y.Y.Y.Y.Y.Y.Y.Y.Y.Y.Y.Y.Y.Y.Y.Y.Y.Y.Y.Y.Y.Y.Y.Y.Y.Y.Y.Y.Y.J.J.Y.Y.J.J.Y.Y.Y.Y.J.Y.Y.Y.Y.Y.Y.Y.Y.Y.Y.Y.Y.Y.Y.Y.Y.~.Y.Y.Y.Y.H.H.H.H.J.J.J.J.J.J.J.J.H.J.J.J.J.J.J.J.J.J.J.J.G.C.C.C.A.Z.Z.A.C.C.C.C.H.H.H.H.H.H.H.H.G.G.G.G.J.C.C.C.H.H.H.H.H.H.H.H.H.H.H.S.H.H.H.H.A.A.S.A.A.A.A.A.A.A.A.A.A.A.A.A.S.S.S.S.S.S.S.S.S.S.S.S.S.S.S.S.E.E.E.E.E.Z.Z.E.Z.Z.Z.Z.Z.Z.Z.Z.Z.E.Z.V.V.Z.Z.E.Z.Z.Z.Z.Z.Z.Z.Z.Z.Z.Z.Z.E.Z.Z.Z.Z.V.Z.V.Z.Z.Z.Z.C.C.C.C.V.C.Z.Z.S.A.S.S.C.C.C.Z.V.B.V.V.V.5.5.5.V.2.2.2.V.V.2.2.m.m.m.m.2.2.2.2.2.2.2.2.2.3.3.3.m.1.m.m.1.m.1.m.n.m.m.n.m.m.m.m.2.2.2.2.n.2.2.1.1.1.3.3.1.1.m.n.n.B.B.V.B.D.D.C.",
"~.~.!.!.~.W.W.!.W.W.E.E.E.E.Z.Z.Z.Z.Z.Z.Z.Z.Z.Z.C.C.Z.E.Z.W.W.Z.H.H.H.H.H.H.J.Y.Y..XOXXXXXOXOXOXXXY.XX~.~.Y.~.Q.W.W.S.S.H.H.H.H.W.W.W.H.W.W.W.W.H.H.!.~.W.H.H.W.H.H.J.J.J.J.Y.Y.Q.Q.Q.Q.~.Q.Q.H.J.Q.Q.J.Q.Q.H.H.H.H.H.J.Q.Q.J.Q.H.Y.Y.H.~.~.Y.Y.Y.Y.Y.Y.Y.Y.Y.Y.Y.Y.Y.Y.Y.Y.Y.Y.Y.Y.Y.Y.Y.Y.Y.Y.Y.Y.Y.Y.J.J.Y.Y.J.J.Y.Y.Y.Y.H.Y.Y.Y.Y.Y.Y.Y.Y.J.Y.Y.Y.Y.Y.Y.Y.Y.Y.Y.Y.Y.H.H.H.H.J.J.J.J.J.J.J.J.H.J.J.J.J.J.J.J.J.J.J.J.J.G.C.C.A.A.A.A.A.C.C.C.H.H.H.H.H.H.C.C.G.G.G.G.J.G.C.H.H.H.H.H.H.H.H.H.H.H.H.S.S.S.S.H.A.A.A.A.A.A.A.A.A.A.A.A.A.A.A.A.S.S.S.S.S.S.S.S.S.S.S.S.S.S.S.S.E.E.E.E.E.Z.Z.E.Z.Z.Z.Z.Z.Z.Z.Z.Z.E.E.V.V.Z.Z.Z.Z.Z.Z.Z.E.E.Z.Z.Z.Z.Z.Z.E.Z.Z.Z.Z.V.Z.V.Z.Z.Z.Z.C.C.C.C.V.C.Z.Z.A.A.S.A.C.C.C.C.V.B.C.V.V.5.5.5.V.2.2.V.V.V.V.V.m.m.m.m.2.2.2.2.2.2.2.2.2.3.3.3.m.1.m.m.1.m.1.m.n.n.m.n.m.m.m.m.1.2.2.2.2.2.2.1.1.1.3.3.1.1.n.m.n.B.B.V.B.B.B.D.",
"~.~.!.!.~.W.H.!.W.W.S.S.E.S.Z.Z.Z.Z.Z.Z.Z.Z.Z.Z.C.Z.Z.E.Z.W.W.Z.H.H.H.H.H.H.J.Y.Y.OXOXXXXXOXOXOXXXY.XXY.~.Y.~.Q.Q.W.W.S.H.H.H.H.W.W.W.W.W.W.W.W.H.H.~.~.W.H.H.W.H.H.J.J.Y.Y.Y.Y.Q.Q.Q.Q.~.Q.Q.H.J.Q.Q.J.Q.Q.H.H.J.H.H.~.Q.J.J.H.H.Y.Y.H.~.~.~.~.Y.Y.Y.Y.Y.Y.Y.Y.Y.Y.Y.Y.Y.Y.Y.Y.Y.Y.Y.Y.Y.Y.Y.Y.Y.Y.Y.Y.J.Y.Y.Y.J.J.J.Y.Y.Y.H.H.Y.Y.Y.Y.Y.Y.Y.Y.Y.Y.Y.Y.Y.Y.Y.Y.Y.J.J.J.H.H.H.H.J.J.J.J.J.J.J.J.H.J.J.J.H.H.H.H.G.G.G.J.G.C.C.C.A.A.A.A.A.A.C.C.C.S.H.H.H.H.H.H.S.S.H.H.Z.C.Z.H.Z.Z.S.H.H.H.H.H.H.H.H.H.A.A.A.A.H.Z.Z.Z.A.A.A.A.A.A.A.A.Z.Z.Z.Z.S.S.S.S.S.S.S.S.S.S.S.S.S.S.S.S.E.E.S.S.E.Z.Z.E.Z.Z.Z.Z.Z.Z.Z.Z.Z.E.Z.V.V.Z.Z.Z.Z.Z.Z.Z.E.E.E.E.Z.Z.Z.Z.S.Z.Z.Z.Z.V.Z.V.Z.Z.Z.Z.V.V.C.C.V.C.Z.Z.A.A.A.A.C.C.C.C.V.B.C.V.V.V.5.5.V.2.2.V.V.V.V.V.m.m.m.m.2.2.2.2.2.2.2.2.2.2.3.3.m.1.m.m.1.m.1.m.n.m.m.n.m.m.n.n.1.2.n.2.2.2.2.1.1.1.3.3.1.m.m.n.2.V.B.V.B.B.B.B.",
"~.~.!.!.~.H.H.W.W.W.Z.Z.E.E.Z.Z.Z.Z.Z.Z.Z.Z.Z.Z.C.Z.Z.E.Z.W.H.Z.H.H.H.H.H.H.J.Y.Y.OXOXXXXXOX.X.XXXY.XXY.~.Y.~.Q.Q.Q.W.S.H.H.H.H.W.W.W.W.W.W.W.W.W.~.~.~.W.H.H.W.H.H.J.Y.Y.Y.Y.Y.Q.Q.Q.Q.~.Q.Q.H.J.Q.Q.J.Q.Q.H.H.H.H.W.~.J.J.H.H.H.Y.Y.H.~.~.~.Y.Y.Y.Y.Y.Y.Y.Y.Y.Y.Y.Y.Y.Y.Y.Y.Y.Y.Y.Y.Y.Y.Y.Y.Y.Y.Y.Y.Y.J.Y.Y.Y.J.J.Y.Y.Y.Y.H.H.Y.Y.Y.Y.Y.Y.Y.Y.Y.Y.Y.Y.U.U.Y.J.J.H.H.H.H.U.U.U.J.J.J.J.H.U.H.J.H.J.J.J.H.H.H.H.G.G.G.J.G.C.C.C.C.C.A.A.A.A.C.C.A.S.H.H.S.H.W.Q.Z.Z.S.S.H.H.J.~.Q.W.W.E.H.H.H.W.H.H.H.H.A.A.A.A.A.Z.Z.Z.A.A.A.A.Z.A.A.S.Z.Z.Z.Z.S.S.S.S.S.S.S.S.S.S.S.S.S.S.S.S.S.E.S.S.E.Z.Z.E.Z.Z.Z.Z.Z.Z.Z.Z.Z.E.Z.V.V.Z.Z.Z.Z.Z.Z.Z.E.E.E.E.Z.Z.Z.Z.S.Z.Z.Z.Z.V.Z.V.Z.Z.Z.Z.V.C.C.C.V.C.Z.Z.A.A.Z.Z.C.C.C.C.V.B.C.V.V.V.B.5.V.m.2.V.V.V.V.V.m.m.m.m.2.2.2.2.2.2.2.3.1.2.3.3.m.1.m.m.1.m.1.m.n.m.m.n.n.n.n.n.2.2.n.2.2.2.2.1.1.1.3.3.1.n.m.m.2.V.B.V.B.B.B.B.",
"W.~.Q.W.W.W.H.W.W.W.S.E.Z.Z.S.Z.Z.Z.C.Z.Z.Z.Z.Z.V.Z.Z.C.Z.S.S.Z.H.H.H.H.H.H.J.J.Y.OX3XOXY.OXOXOXXXXX~.~.~.~.~.Q.Q.Q.W.W.W.W.W.W.W.W.W.W.W.W.W.!.H.W.~.~.H.H.H.H.H.J.Y.J.Y.Y.J.J.~.W.W.~.~.H.~.H.W.~.J.J.Y.Y.H.H.H.H.J.Q.Q.Q.Q.~.J.~.H.Y.~.~.~.~.Y.Y.Y.Y.Y.Y.Y.Y.Y.Y.Y.Y.Y.Y.Y.Y.Y.Y.Y.Y.Y.Y.Y.Y.Y.~.~.Y.Y.U.H.H.J.J.J.J.Y.U.U.Y.J.Y.Y.Y.Y.Y.Y.Y.Y.Y.Y.Y.J.J.U.U.J.J.J.J.J.U.U.U.U.H.U.H.U.U.U.U.U.U.U.U.H.H.H.H.G.G.G.H.J.G.C.C.C.Z.H.S.S.C.C.C.C.J.~.H.Q.6.o.) I U U U F U L U 6.5.@XE.S.S.W.W.E.S.S.S.A.C.C.C.C.C.C.C.C.C.Z.Z.Z.Z.Z.Z.A.A.A.Z.Z.Z.A.A.C.C.C.C.S.S.S.D.S.S.S.S.S.S.Z.Z.Z.Z.Z.Z.Z.E.Z.Z.Z.Z.Z.Z.E.E.E.Z.V.Z.Z.Z.Z.Z.Z.Z.Z.Z.Z.Z.Z.Z.Z.Z.Z.Z.Z.Z.V.V.Z.Z.Z.Z.V.Z.Z.Z.Z.Z.Z.C.C.Z.A.A.S.S.C.C.C.C.V.V.V.V.V.V.B.V.V.V.V.V.V.V.V.V.m.2.2.2.2.2.2.2.2.2.2.1.2.2.2.2.m.1.m.1.m.2.2.m.n.m.m.n.m.m.m.m.n.n.n.n.n.n.m.2.n.1.1.1.1.m.n.n.V.B.B.B.B.B.B.B.",
"W.~.Q.W.W.W.H.W.W.W.E.E.Z.Z.S.Z.Z.Z.Z.Z.Z.Z.Z.Z.V.Z.Z.C.Z.S.S.Z.H.H.H.H.H.H.J.J.Y.OX3XOXY.OXOXOXXXXX~.~.~.~.~.W.Q.W.W.W.W.W.W.W.W.W.W.W.W.W.W.!.H.W.~.~.H.H.H.H.H.J.Y.H.Y.Y.J.Q.~.W.W.~.~.H.~.W.W.~.J.J.Y.Y.H.H.H.H.Q.Q.Q.Q.Q.~.W.~.H.~.~.~.Y.Y.Y.Y.Y.Y.Y.Y.Y.Y.Y.Y.Y.Y.Y.Y.Y.Y.Y.Y.Y.Y.Y.Y.Y.Y.Y.~.~.Y.Y.U.H.U.J.J.J.J.Y.U.U.Y.J.J.J.J.J.J.J.Y.U.J.J.J.J.Y.U.U.J.U.U.U.U.U.U.U.H.H.U.U.U.U.H.H.U.J.J.J.H.H.H.H.G.H.G.G.J.H.G.C.C.S.Z.A.A.A.G.J.~.C.<.#.I a a d 7 7 F S F S 7 5 5 F o.J.@XS.V.E.W.S.S.H.S.A.C.C.C.A.C.C.C.C.C.C.Z.Z.Z.Z.A.A.Z.Z.Z.Z.A.A.C.C.C.C.S.S.S.D.S.S.S.S.S.S.Z.Z.Z.Z.Z.Z.Z.S.Z.Z.Z.Z.Z.Z.E.E.E.Z.V.Z.Z.Z.Z.Z.Z.Z.Z.Z.Z.Z.Z.Z.Z.Z.Z.Z.Z.Z.V.V.Z.Z.Z.Z.V.V.Z.Z.Z.Z.Z.C.C.Z.A.S.S.S.C.C.C.C.C.V.V.V.V.V.B.V.V.V.V.V.V.V.V.V.m.2.2.2.2.2.2.2.2.2.2.1.2.2.2.2.m.1.m.1.m.m.1.m.n.m.m.n.1.m.1.1.2.2.n.n.n.n.m.2.n.1.1.1.m.n.n.n.m.m.B.B.B.B.B.B.",
"W.~.Q.W.W.H.H.W.W.W.S.S.Z.Z.S.Z.Z.Z.Z.Z.S.Z.Z.Z.V.Z.Z.C.Z.S.S.Z.H.H.H.H.H.H.J.J.Y.OX3XOXY.OXOXOXY.XX~.Y.+X~.~.~.Q.W.W.W.W.W.W.W.W.W.W.W.W.W.W.!.H.W.~.~.W.H.H.W.H.J.Y.J.Y.Y.Y.Q.~.W.H.~.~.H.~.W.W.~.Y.J.Y.Y.H.H.H.H.J.Q.Q.Q.Q.~.!.~.H.~.~.~.Y.Y.Y.Y.Y.Y.Y.Y.Y.Y.Y.Y.Y.Y.Y.Y.Y.Y.Y.Y.Y.Y.Y.Y.Y.Y.Y.Y.~.Y.Y.Y.U.U.U.U.J.J.U.U.J.J.J.J.J.J.J.J.Y.J.U.J.J.J.U.U.U.U.U.U.U.U.U.I.I.U.J.J.J.J.H.H.H.H.H.H.H.H.G.G.G.G.C.C.G.G.A.A.A.A.A.G.G.G.Y.Y.C.#.I 7 8 a 5 d d P F I Y Y Y K Y ' Y 8 4 x #.Q././.W.H.H.H.H.H.C.C.C.C.C.C.C.C.C.C.Z.Z.Z.Z.A.A.S.S.Z.S.S.S.Z.Z.C.C.S.S.S.S.S.S.S.S.S.S.Z.Z.S.S.S.S.Z.E.Z.Z.Z.Z.Z.Z.E.E.E.Z.V.Z.Z.E.Z.Z.Z.Z.Z.Z.Z.Z.Z.Z.Z.Z.Z.Z.Z.Z.Z.V.Z.Z.Z.Z.Z.Z.Z.Z.Z.Z.Z.C.C.Z.A.A.S.S.C.C.C.C.C.C.V.V.V.V.B.V.V.V.m.V.V.V.V.V.V.V.2.2.2.2.2.2.2.2.2.3.2.2.2.2.m.1.m.1.m.m.m.m.n.m.m.n.m.1.m.m.2.2.2.2.n.n.n.2.n.1.1.1.m.n.n.n.n.m.n.n.B.B.B.B.",
"W.~.Q.W.W.H.H.W.W.W.S.S.Z.Z.S.Z.Z.Z.Z.Z.S.Z.Z.S.V.Z.Z.C.Z.S.S.Z.H.H.H.H.H.H.J.J.Y.OX3XOXY.OXOXOXY.XXY.Y.+X~.~.~.Q.W.W.W.Q.Q.W.W.W.W.W.W.W.W.W.!.H.W.~.~.W.H.H.W.H.J.Y.J.Y.Y.J.Q.~.H.H.~.~.H.~.W.H.Y.Y.J.Y.Y.H.H.Q.H.J.Q.J.Q.Q.~.!.~.H.~.~.~.Y.Y.Y.Y.Y.Y.Y.Y.Y.Y.Y.Y.Y.Y.Y.Y.Y.Y.Y.Y.Y.Y.Y.Y.Y.Y.Y.Y.~.Y.Y.Y.U.U.U.U.J.J.J.J.J.J.J.J.J.J.J.J.J.J.U.J.J.J.U.U.U.U.U.U.U.Y.U.U.U.U.J.J.J.J.H.J.H.J.G.C.C.G.C.C.C.C.C.C.C.G.J.Y.~.~.~.J.N.6.o.P d 7 8 d d d g *.*.b 5 7 a J H J J H ' o.P 4 7 o.H.E.H.H.H.H.H.A.A.C.C.C.C.C.C.C.C.C.C.Z.Z.Z.S.S.S.S.Z.S.S.S.Z.Z.Z.C.S.S.S.S.S.S.S.S.S.S.Z.Z.S.S.S.S.Z.E.Z.Z.Z.Z.Z.Z.E.E.E.Z.V.Z.Z.Z.Z.Z.Z.Z.Z.Z.Z.Z.Z.Z.Z.Z.Z.Z.Z.Z.Z.Z.Z.Z.Z.Z.Z.Z.C.Z.Z.Z.Z.C.C.Z.Z.A.S.S.C.C.C.C.C.C.V.V.V.V.B.V.V.V.2.V.V.V.V.V.V.V.2.2.2.2.2.2.2.2.2.3.2.2.2.2.m.1.m.1.m.m.m.m.n.m.m.n.m.m.m.m.2.2.2.2.n.n.n.2.m.1.1.1.n.n.n.m.n.n.n.B.B.B.B.B.",
"W.Q.Q.H.W.W.H.W.W.E.E.S.Z.Z.Z.Z.Z.Z.S.Z.S.S.C.S.C.C.Z.Z.Z.H.H.Z.H.W.W.H.H.J.Y.Y.Y.OX3XOXY.OXOXOXXXXX~.~.~.~.~.~.Q.W.W.W.W.W.W.W.W.W.W.W.W.W.W.!.~.~.~.~.W.H.H.H.H.H.J.Y.Y.J.J.~.H.W.!.~.~.~.~.W.~.~.Y.J.Y.Y.H.~.J.J.Q.Q.Q.Q.Q.Q.!.~.H.~.~.~.Y.Y.Y.Y.Y.Y.Y.Y.Y.Y.Y.Y.Y.Y.Y.Y.Y.Y.Y.Y.Y.Y.Y.Y.Y.Y.Y.Y.Y.U.Y.Y.Y.U.J.J.J.J.J.J.J.U.G.G.J.J.G.G.G.G.J.J.J.J.J.J.J.J.J.U.J.J.A.U.J.G.J.G.C.G.H.J.H.H.H.H.J.J.~.~.Y.J.~.J.J.6.6.6.o.o.I F 8 8 7 P d 5 d d a g c.0XkXc.i u t t f h G J a I #.o.6 x U J.H.!.W.H.H.G.G.C.C.Z.Z.Z.C.C.C.C.C.C.C.C.C.C.S.S.C.C.C.C.Z.Z.Z.Z.S.S.S.S.S.S.S.S.S.S.S.S.Z.Z.S.S.Z.Z.Z.Z.Z.Z.Z.E.E.E.E.Z.Z.Z.Z.E.Z.Z.Z.Z.Z.Z.Z.Z.Z.Z.Z.Z.Z.Z.Z.Z.Z.Z.Z.Z.V.V.V.V.C.C.C.Z.Z.Z.C.C.Z.Z.Z.C.Z.S.C.C.C.Z.Z.Z.V.V.V.V.V.V.V.V.V.V.V.V.V.V.V.2.2.2.2.2.2.2.2.2.2.2.2.2.m.m.m.m.m.m.m.m.n.m.m.n.m.1.m.m.2.2.2.2.n.n.m.2.m.1.1.1.1.m.n.m.B.B.B.B.B.D.D.D.",
"Q.~.Q.H.W.W.H.W.W.E.E.Z.Z.Z.Z.Z.Z.Z.S.Z.S.S.C.S.C.C.Z.Z.Z.H.H.Z.H.W.W.H.H.J.Y.Y.Y.OX3XOXY.OXOXOXXXXX~.~.~.~.~.~.Q.Q.W.W.W.W.W.W.W.W.W.W.W.W.W.!.W.W.~.~.W.H.H.H.H.H.J.Y.Y.J.J.~.H.W.!.~.~.~.~.W.~.~.Y.J.Y.Y.H.~.Q.J.Q.Q.Q.Q.Q.J.!.~.H.~.~.Y.Y.Y.Y.Y.Y.Y.Y.Y.Y.Y.Y.Y.Y.Y.Y.Y.Y.Y.Y.Y.Y.Y.Y.Y.Y.Y.U.U.U.U.J.Y.U.H.U.J.J.J.J.J.J.J.G.G.Y.Y.J.J.Y.Y.G.G.J.J.J.G.G.G.G.G.J.J.G.J.J.C.C.J.J.J.J.6.6.6.6.#.%.o.o.o.` ` ) P P F 7 8 8 8 8 7 S F 7 < X. X%.b h g @.{.{.Z N l ; y , t h ) G F F ` o.7 6 d o.3XH.J.G.G.G.G.C.C.Z.Z.C.C.C.C.C.C.C.C.C.C.C.C.C.C.C.C.Z.Z.C.C.S.S.S.S.S.S.S.S.S.S.S.S.Z.Z.S.S.Z.Z.Z.Z.Z.Z.Z.S.E.E.E.Z.Z.Z.Z.E.Z.Z.Z.Z.Z.Z.Z.Z.Z.Z.Z.Z.Z.Z.Z.Z.Z.Z.Z.Z.Z.V.V.V.C.C.C.C.Z.Z.C.C.Z.Z.C.C.Z.A.C.C.C.Z.Z.Z.V.V.V.V.V.V.V.V.V.V.V.V.V.V.V.2.2.2.2.2.2.2.2.2.2.2.2.2.m.m.m.m.m.m.m.m.n.m.m.n.m.1.m.m.2.2.2.2.n.m.m.2.m.1.1.1.1.m.n.m.B.B.B.V.D.D.D.D.",
"Q.~.~.W.H.W.W.W.W.E.E.Z.Z.Z.Z.Z.Z.Z.S.Z.Z.S.Z.S.C.C.Z.Z.Z.H.H.Z.H.W.W.H.H.J.Y.Y.Y.OX3XOXY.OXOXOXXXXX~.~.~.~.~.W.Q.Q.W.W.W.W.W.W.W.W.W.W.W.W.W.!.H.H.W.W.W.H.H.H.H.H.J.Y.Y.J.J.~.H.W.!.~.~.!.~.W.Q.~.Y.J.Y.Y.H.~.H.J.Q.Q.H.Q.Q.H.!.~.H.~.~.~.Y.Y.Y.Y.~.~.~.~.Y.~.Y.Y.Y.Y.Y.Y.Y.Y.Y.Y.Y.Y.J.J.Y.J.H.H.H.H.Y.Y.U.U.G.G.G.G.J.J.G.G.G.G.G.G.G.G.G.G.G.G.G.G.Y.Y.Y.Y.Y.Y.J.J.6.6.6.6.o.o.Y F F 7 7 8 8 8 8 8 7 8 8 8 8 7 8 7 7 8 8 8 7 7 8 5 < X.lXhXBXx., < + + & & y l v.lXx.i i t f g G F ' o.7 d < _ OXY.G.H.S.A.C.C.C.C.C.C.C.C.C.C.C.C.C.C.C.C.C.C.C.C.S.S.C.C.S.S.S.S.S.S.S.S.S.S.S.S.Z.Z.Z.S.Z.Z.Z.Z.Z.Z.Z.Z.E.E.E.Z.Z.Z.Z.E.Z.Z.Z.Z.Z.Z.Z.Z.Z.Z.Z.Z.Z.Z.Z.Z.Z.Z.Z.Z.Z.Z.V.V.C.C.C.C.Z.Z.C.C.A.Z.C.Z.Z.A.C.C.Z.Z.Z.Z.V.V.V.V.V.V.V.V.V.V.V.V.V.V.V.m.2.2.2.2.2.2.2.2.2.m.2.2.m.m.m.m.m.m.m.m.n.m.m.n.1.m.1.1.2.2.2.2.n.n.2.2.m.1.1.1.1.m.n.n.5.5.B.B.D.D.D.D.",
"Q.~.~.Q.H.W.W.W.W.E.Z.Z.Z.Z.Z.Z.Z.Z.Z.Z.Z.S.Z.S.C.C.Z.Z.Z.H.H.Z.H.W.W.H.H.J.Y.Y.Y.OX3XOXY.OXOXOXXXXX~.~.~.Y.~.H.Q.Q.W.W.W.W.W.W.W.W.W.W.W.W.W.!.H.H.H.H.W.H.H.H.H.H.J.Y.Y.J.J.~.H.W.!.~.~.!.~.H.~.~.Y.J.Y.Y.H.~.H.Q.Q.Q.H.Q.Q.H.U.~.H.Y.~.Y.Y.Y.Y.Y.~.~.~.~.~.~.Y.Y.Y.Y.Y.Y.Y.Y.Y.Y.Y.J.J.J.H.H.H.H.J.J.J.J.J.J.Y.Y.Y.Y.+X+X+XOXOXOXOXOX@X@X+X+X+X+X+X+XH.C.6.6.o.o.` ) ) P P P F 7 8 8 7 L L e e D 7 S 7 7 7 7 8 7 8 8 6 6 s s s s 5 p t @.}.hXBXC , f y N & y - x.lXgXFXZ ; y y < s d a ' o.H P < P +XY.J.H.S.C.A.A.C.C.C.C.C.C.C.C.C.C.C.C.C.Z.C.C.C.S.S.S.S.S.S.S.S.S.S.S.S.S.S.S.S.Z.Z.S.S.S.Z.Z.Z.Z.Z.Z.Z.E.E.E.Z.Z.Z.Z.E.Z.Z.Z.Z.Z.Z.Z.Z.Z.Z.Z.Z.Z.Z.Z.Z.Z.Z.Z.Z.Z.Z.V.V.C.C.C.C.Z.Z.C.C.A.Z.Z.Z.Z.A.C.C.Z.Z.Z.Z.V.V.V.V.V.V.V.V.V.V.V.V.V.V.V.m.2.2.2.2.2.2.2.m.m.m.2.2.m.m.m.m.m.m.m.m.n.m.m.n.m.m.m.1.2.2.2.2.n.n.n.2.m.1.1.1.1.m.n.n.5.V.B.B.D.D.D.D.",
"~.~.^.W.H.!.H.H.E.S.S.E.S.Z.S.S.Z.C.Z.Z.Z.Z.Z.Z.C.S.W.Z.Z.W.W.W.W.W.H.H.H.J.J.Y.Y.OXOXXXY.OXXXOXXXXX~.~.~.~.~.Q.W.W.W.W.W.Q.Q.W.W.W.W.W.W.H.H.W.H.H.W.W.W.H.H.W.H.H.H.~.~.H.H.~.H.J.Q.Q.~.Q.Q.H.H.~.~.H.H.~.~.~.Y.J.Y.~.J.~.~.J.Y.~.U.~.~.Y.Y.Y.Y.Y.Y.Y.Y.Y.Y.Y.Y.Y.Y.~.Y.T.T.T.Y.Y.J.G.G.J.H.Q.+X+X+X+XJ.XXJ.J.6.6.6.6.o.o.o.o.o.o.o.%.6.<.=.o._ ) P F F 8 5 5 7 F 7 5 p p 5 d < < 5 8 6 3 n n s 6 7 8 F 7 8 d s s d s C {.9X8X{.B X.c.n , i *.@.f u , Z 9Xx.- - l 2XlX1Xi i v.{.C y t s a ) ' I F 5 x J.+XH.H.G.A.U.H.S.A.A.A.C.C.C.C.A.Z.C.C.C.C.C.C.C.C.C.C.S.S.S.Z.S.S.S.S.S.S.S.S.S.S.S.S.W.Z.Z.E.C.Z.Z.S.E.E.Z.Z.Z.Z.E.E.Z.Z.Z.Z.Z.Z.Z.Z.E.Z.Z.C.Z.Z.Z.Z.Z.Z.Z.Z.Z.Z.Z.Z.Z.Z.Z.Z.Z.Z.Z.Z.Z.Z.C.C.Z.C.C.C.Z.Z.Z.Z.V.V.V.V.E.V.5.V.V.5.5.5.5.5.2.2.5.2.2.2.2.2.2.2.2.2.2.2.m.1.m.1.2.2.2.m.2.n.3.m.2.2.2.2.n.n.n.n.n.n.n.2.1.1.1.1.1.1.2.n.n.V.n.Z.D.D.D.D.",
"~.~.^.W.H.!.H.H.S.S.S.E.S.Z.S.S.Z.Z.Z.Z.Z.Z.Z.Z.C.S.W.Z.Z.W.W.W.W.W.H.H.H.J.J.Y.Y.OXOXXXY.OXOXOXXXXX~.~.~.~.~.J.W.W.W.W.W.Q.Q.W.W.W.W.W.W.H.H.W.H.H.W.W.W.H.H.W.H.H.H.~.~.J.H.~.H.H.Q.Q.~.Q.Q.H.H.~.~.H.H.~.W.~.Y.Y.Y.~.J.~.~.J.Y.~.Y.~.~.Y.Y.Y.~.Y.Y.Y.Y.Y.Y.Y.Y.Y.Y.Y.Y.T.T.Y.Y.Y.J.J.OXJ.6.<.%.o.( _ g d b g d d 7 d 6 d 5 5 d F d 5 8 8 5 x P < 5 d P ) *.*.P 8 ( %.%.%.b p X.c._ < B  X1X8Xc.s ) ) ' ) o.,X,X*.s *.gXhXIXhXgXZ 2X8Xc., f _ @.%.b t @.v.@.+ - + y Z N ; N lXKXLXn , t 5 5 I o.I 7 5 5 %.@XJ.G.G.A.C.S.A.A.A.C.C.C.C.A.Z.C.C.C.C.C.C.C.C.C.C.S.S.S.S.S.S.S.S.S.S.S.S.S.S.S.S.W.Z.Z.E.Z.Z.Z.E.E.E.Z.Z.Z.Z.E.E.Z.Z.Z.Z.Z.Z.Z.Z.E.Z.Z.Z.Z.Z.Z.Z.Z.Z.Z.Z.Z.Z.Z.Z.Z.Z.Z.Z.Z.Z.Z.Z.C.Z.C.C.C.C.C.C.Z.Z.Z.Z.V.V.V.V.E.V.5.V.V.5.5.5.V.5.2.2.2.2.2.2.2.2.2.2.2.2.2.m.m.1.m.1.2.2.2.m.2.n.3.m.2.2.2.2.n.n.n.n.n.n.n.2.1.1.1.1.1.1.2.n.n.V.B.Z.Z.D.D.D.",
"~.~.^.W.W.!.H.H.E.S.S.E.S.Z.E.S.Z.C.Z.Z.Z.Z.Z.Z.V.Z.W.Z.Z.E.W.S.W.W.H.H.H.J.Y.Y.Y.OXOXXXY.OXXXXXXXY.~.~.~.~.~.H.W.W.W.W.W.Q.Q.W.W.W.W.W.W.H.H.W.H.H.H.W.W.H.H.W.H.H.H.~.~.H.H.~.H.H.Q.Q.~.Q.Q.H.H.~.~.H.H.Q.Q.~.Y.Y.~.~.J.~.~.J.Y.~.Y.~.~.Y.Y.Y.~.~.~.~.~.~.Y.Y.Y.Y.Y.Y.Y.Y.Y.Y.Y.Y.Y.Y.%.( 3 < , p g ) [ #.V b G P F P  X<X Xb ] b.#.g a 5 B 9X9X2X&., f <X8XkX Xb  XP.,X@.V @.jXjXjXB @.1X{.{.2Xn a I ' ( K.dX,XzXX.c.hX{.hX8XlXC &.9X*.b c.c.c.%.` G ) G 5 g f , O . ; N V %. X2XB f < s 5 5 F I ' F 8 5 _ +XR.G.C.C.A.A.Z.Z.C.C.C.C.A.Z.C.C.C.C.C.C.C.C.C.C.S.S.S.S.S.S.S.S.S.S.S.S.S.S.S.S.E.Z.Z.E.Z.Z.Z.S.E.E.Z.Z.Z.Z.E.E.Z.Z.Z.Z.Z.Z.Z.Z.E.Z.Z.Z.Z.Z.Z.Z.Z.Z.Z.Z.Z.Z.Z.Z.Z.Z.Z.Z.Z.Z.Z.Z.C.C.C.C.C.C.C.C.Z.Z.C.C.V.V.V.V.E.V.5.V.V.V.5.5.V.5.2.2.5.2.2.2.2.2.2.2.2.m.m.2.m.1.m.1.2.2.2.m.2.n.3.m.2.2.2.2.n.n.n.n.n.n.m.2.1.1.1.1.1.2.n.m.V.V.B.Z.D.D.D.D.",
"~.~.^.W.H.!.H.H.E.S.S.E.S.Z.E.S.Z.C.Z.Z.Z.Z.Z.Z.V.Z.W.Z.Z.S.W.S.W.W.H.H.H.J.Y.Y.Y.OXOXXXY.OXXXXXXXY.~.~.~.~.~.H.W.W.W.W.W.Q.Q.W.W.W.W.W.W.H.H.W.H.H.W.W.W.H.H.W.H.H.H.~.~.H.H.~.H.J.Q.Q.~.Q.Q.H.H.~.~.H.H.Q.Q.~.Y.Y.~.~.J.~.~.J.Y.~.Y.~.~.Y.Y.Y.~.~.~.~.~.~.~.Y.Y.Y.Y.Y.J.J.J.J.H.~.*._ t < u @.@.@.z.z.z._ _ %.` ,.I %.zX8XzX@.z.K.%./ g B 1XgX}.hXgXB n 8X9XgXc.B P.c.@.c.@.<X1X1XjX@.B  X2X X8XB a H 4.G @.,X(.1X@.n 2XkX8XfX%.f n *.( P @.c.c.@.F H K K } ' _ y + + i V g g t u b f s g 5 < 5 5 d o.I d 8 x 6.XXC.H.C.A.Z.Z.C.C.Z.Z.A.Z.C.C.C.C.C.C.C.C.C.C.S.A.S.S.S.S.S.S.S.S.S.S.S.S.S.S.E.Z.Z.E.Z.Z.Z.S.E.E.Z.Z.Z.Z.E.E.Z.Z.Z.Z.Z.Z.Z.Z.E.Z.Z.Z.Z.Z.Z.Z.Z.Z.Z.Z.Z.Z.Z.Z.Z.Z.Z.Z.Z.Z.Z.Z.C.C.C.C.C.C.C.C.C.C.C.C.V.V.V.V.E.V.5.V.V.V.5.5.5.5.2.2.E.3.3.V.2.2.2.2.2.2.2.m.m.2.m.1.2.2.2.m.2.n.3.m.2.2.2.2.n.n.n.n.n.m.m.2.1.1.1.1.1.2.n.V.B.Z.B.Z.D.D.D.D.",
"~.~.~.H.W.~.W.H.E.S.S.E.S.Z.E.S.V.Z.E.Z.E.Z.Z.E.C.S.W.Z.W.W.S.S.H.W.H.W.~.Y.Y.Y.~.OXOXOXY.OXOXOXXXXX~.~.~.~.~.H.H.Q.H.Q.W.W.W.W.H.H.W.H.H.H.H.H.H.H.H.H.W.H.H.W.H.H.~.H.~.H.H.~.J.H.J.~.Q.Q.H.H.~.~.H.H.H.~.H.~.J.J.Y.~.J.~.~.J.Y.Y.Y.Y.Y.Y.~.~.~.OXOX~.~.~.~.Y.Y.Y.Y.Y.J.J.J.J.XXX.< , f s c.BXlX{.C B f @.z.[ [ } H _ jXlX<Xf _ #._ %.%.f @.8XhX9X9X].b @.2Xc.X.B B B v.lX*.*.8XjX0X_ s X.*. X*.b I H F G J ` K.K.b g _ ,X4X@.8 J F 7 7 F g _ 6.( F Y Y } } ) u + , f P ) ) ) g f y + < b p 5 4 < 4 5 d I F 7 8 o.+XJ.J.C.A.S.H.H.H.H.H.A.Z.C.C.C.C.C.C.C.C.C.C.C.C.C.S.E.Z.S.S.S.S.S.S.S.S.S.E.E.S.S.Z.Z.Z.E.E.E.E.E.Z.Z.E.E.Z.Z.Z.Z.E.Z.Z.Z.Z.Z.Z.Z.Z.Z.Z.Z.Z.Z.Z.Z.Z.Z.Z.Z.Z.Z.Z.Z.Z.Z.Z.Z.C.C.C.C.Z.V.Z.Z.Z.Z.Z.Z.Z.Z.Z.Z.E.V.V.V.V.V.5.5.5.2.2.2.V.3.2.2.2.m.m.2.2.2.2.2.V.2.m.2.2.2.2.m.2.n.3.m.n.2.2.1.m.m.2.2.2.2.n.2.2.2.n.n.n.n.m.V.n.Z.V.V.Z.Z.C.S.",
"~.~.~.H.W.~.W.H.E.S.S.E.S.Z.E.S.V.Z.E.Z.S.Z.Z.S.C.S.W.Z.W.W.S.S.H.W.H.W.~.Y.Y.Y.~.OXOXOXY.OXOXOXXXXX~.~.~.~.~.J.H.Q.H.Q.W.W.W.W.H.H.W.H.H.H.H.H.W.H.H.H.W.H.H.W.H.J.~.H.~.H.H.~.J.H.Q.~.Q.Q.H.H.~.~.H.H.H.~.H.~.J.J.Y.~.J.~.~.J.Y.Y.Y.Y.Y.Y.~.~.Y.OXOX~.~.~.Y.T.OXY.Y.J.J.J.+X%.b < &.2X@.u &.fXhXlXN , V z.$.` { ' ) p B v.c.( g g *.0XzX_ u B x.1X8X XF.g B c.2X4X( %.1XjX%.s X.*.( P o.@X6._ < d G J F F J F I G 5 F a P _ d K J J I o.b d F F ' =.' K | K G < , p G G G d p f t + + o s P d p < 3 6 6 P ' I S a I J.@XC.C.H.H.H.H.H.S.A.Z.C.C.C.C.C.C.C.C.C.C.Z.A.C.S.E.Z.S.S.S.S.S.S.S.S.S.E.E.E.S.Z.Z.Z.E.E.E.E.E.Z.Z.E.E.Z.Z.Z.Z.E.Z.Z.Z.Z.Z.Z.Z.Z.Z.Z.Z.Z.Z.Z.Z.Z.Z.Z.Z.Z.Z.Z.Z.Z.Z.Z.Z.C.C.C.C.Z.V.Z.Z.Z.Z.Z.Z.Z.Z.Z.Z.E.V.V.V.V.V.5.5.5.2.2.2.5.2.2.2.2.m.m.2.2.2.2.2.V.2.m.2.2.2.2.m.2.m.3.V.n.2.2.1.m.m.2.2.n.n.n.2.2.2.n.n.2.n.m.V.n.Z.V.V.Z.Z.C.S.",
"~.~.~.H.W.~.W.H.S.S.S.E.S.Z.E.S.V.Z.E.Z.S.Z.Z.E.C.S.W.Z.W.H.H.H.H.W.H.W.H.J.Y.~.Y.OXOXXXY.OXOXOXXXXX~.~.~.~.~.J.H.Q.H.Q.W.W.W.W.H.H.W.H.H.H.H.H.W.W.H.H.W.H.H.W.H.J.~.H.~.H.J.~.Q.H.Q.~.~.Q.H.H.~.~.H.H.J.~.H.~.J.J.Y.Y.J.~.~.J.Y.Y.Y.Y.Y.Y.~.~.Y.OXOXY.Y.Y.Y.T.OXY.Y.J.J.J.) d u c.fX8X0X*.@.8XkX Xp / [ #.{  .' H ( n , *.0X@.#.d X.<X0Xc._ *.@.@.%.G.3Xb @.8X2XoXF ) I.<.F H F d 7 o.6.@XF.b F F F I I F o.U F J U Y I d d P H F X.kXBX XF J ' ' ' I H K S S 7 7 F P d t 2 2 t f , , t G ) F G P s 6 6 6 d I I F 8 8 %.5XY.C.H.H.H.H.S.A.C.C.Z.C.C.C.C.C.C.C.Z.Z.C.C.S.E.Z.S.S.S.S.S.S.S.S.S.E.E.E.S.C.Z.Z.E.E.E.Z.Z.Z.Z.E.E.Z.Z.Z.Z.E.Z.Z.Z.Z.Z.Z.Z.Z.Z.Z.Z.Z.Z.Z.Z.Z.Z.Z.Z.Z.Z.Z.Z.Z.Z.Z.Z.C.C.Z.Z.Z.C.Z.Z.Z.Z.Z.Z.Z.V.Z.Z.E.V.V.V.V.V.5.5.5.2.2.2.5.2.2.2.2.m.m.2.2.2.2.2.m.2.m.2.2.2.2.2.2.n.3.V.n.2.1.1.m.m.2.2.n.n.n.2.2.2.2.2.2.n.m.V.n.Z.V.V.Z.Z.C.S.",
"~.~.~.H.W.~.W.H.S.S.S.E.S.Z.S.S.V.Z.E.Z.S.Z.Z.E.C.S.W.Z.W.H.H.H.H.W.H.W.H.J.~.~.Y.~.OX~.Y.OXOXOXXXOX~.~.~.~.~.J.H.Q.H.Q.W.W.W.W.H.H.W.H.H.H.H.H.W.W.H.H.W.H.H.W.J.H.~.H.~.H.Q.~.Q.H.Q.~.~.Q.H.H.~.~.H.H.H.~.H.~.J.J.Y.Y.J.Y.~.J.Y.Y.Y.Y.Y.Y.~.~.Y.OXOXY.Y.Y.Y.Y.Y.Y.Y.Y.J.d 4 3 X.kX1X<X2Xc. X X@.B G / ) F g H ) I <XqXX.P _ P ` 7 P *.%.( ( %.I.6.` ) ) ( V c. XX.I ' G G I I I ' S I o.o.d 8 F S S F F P X.x 7 Y T W U 7 7 d H G @.<X9X<XF J K S F ' F F J K I F S d 3 , 2 , f s u u f b G F d 5 < 6 6 6 5 5 I Y F d 5 _ 3X@XG.G.H.H.A.A.C.C.C.C.C.C.C.C.Z.Z.Z.Z.C.C.S.E.Z.S.S.S.S.S.S.S.S.S.E.E.E.S.C.Z.Z.E.E.E.Z.Z.Z.Z.E.Z.Z.Z.Z.Z.E.Z.Z.Z.Z.Z.Z.Z.Z.Z.Z.Z.Z.Z.Z.Z.Z.Z.Z.Z.Z.Z.Z.Z.Z.Z.Z.Z.C.C.Z.Z.Z.C.Z.Z.Z.Z.Z.Z.V.V.Z.Z.Z.V.V.V.V.V.5.5.5.2.2.2.5.3.2.2.2.m.m.2.2.2.2.2.m.2.m.2.2.2.2.2.2.n.3.V.n.2.1.1.m.m.2.2.n.n.n.2.2.2.2.2.2.n.m.V.n.Z.V.V.Z.Z.C.S.",
"~.~.Y.H.W.~.W.H.W.S.S.S.Z.Z.S.S.C.Z.C.Z.H.C.Z.W.Z.S.H.Z.S.E.E.W.W.H.H.W.H.H.~.~.Y.~.~.~.~.+X~.OXY.Y.~.~.~.~.~.W.Q.Q.H.H.H.H.W.W.W.H.W.H.W.H.H.W.H.H.H.W.W.H.H.~.H.Q.Q.H.~.~.H.~.H.H.W.~.~.~.W.W.~.~.H.H.H.Q.~.~.U.U.Y.Y.Y.~.Y.Y.Y.Y.Y.~.Y.Y.Y.Y.Y.XXXXY.Y.Y.Y.Y.~.Y.OXF.b _ &.y C zX2X<X,X,XP.%.@.%.$.] f *.].@.P _ qXMX6.S I Y ' Y H K H K ' #.%.<.<.) H } ) ' #.` { V.<.) ` %.F.N.' Y H H H J J J H ' F P s n o.o.W W U F 7 8 a a P o.X.P d F J Y F d 5 a J J P 7 d x 5 < s g F d s i & + s f < , , < 3 5 d d d I I P d 5 b G.5XG.J.H.J.J.H.Z.Z.Z.C.C.V.V.Z.Z.C.C.Z.Z.S.S.C.S.Z.Z.Z.Z.H.H.H.S.S.S.S.S.Z.E.Z.S.S.Z.E.Z.Z.Z.S.E.Z.Z.E.E.E.Z.Z.Z.E.E.E.E.E.Z.Z.E.Z.Z.Z.Z.Z.Z.Z.Z.Z.Z.Z.Z.Z.Z.Z.Z.C.C.C.C.Z.C.Z.Z.V.Z.Z.Z.Z.Z.C.V.E.V.V.V.5.5.5.5.5.2.2.2.2.2.2.2.2.2.2.2.2.2.2.2.m.1.m.2.m.m.m.2.m.n.n.n.n.2.1.1.V.V.V.V.n.n.n.n.2.2.2.2.m.m.V.V.V.V.V.V.D.B.C.C.",
"~.~.Y.H.W.~.W.S.E.S.S.S.Z.Z.E.S.C.Z.C.Z.H.Z.Z.W.Z.S.H.Z.S.W.W.W.W.H.H.W.H.W.~.~.~.~.~.~.~.+X~.+XY.Y.~.~.~.~.~.W.Q.Q.H.H.H.W.W.W.W.H.W.H.W.H.H.W.H.W.H.W.W.H.H.~.H.Q.Q.H.~.~.H.~.H.H.W.~.~.~.W.W.~.~.H.H.H.Q.~.~.U.U.Y.Y.Y.~.Y.Y.Y.Y.Y.~.Y.Y.Y.Y.Y.XXXXY.Y.Y.Y.Y.J.OXI.s B 0XlXB , B X.%.%.N.z.R.N.$.b.] @.FXJXCXXXb *.<Xo.I K Y | K K } } ' { o.%.*.o.` ` ) ) ' :.,.C.N.A._ 6.3X XF.=.| ' | ' ' K J Y I P 6 < ( XXo.o.T S F F F F F H F < 4 5 d I _ 6 4 s d J a 4 o < 5 s d G G d d t y $ & t b u , < s 6 5 x 7 8 a d d s 5 d s %.0XG.C.H.C.C.Z.Z.Z.Z.C.C.C.C.Z.C.C.C.C.C.S.C.S.Z.Z.Z.Z.H.H.H.S.S.S.S.S.Z.E.Z.S.S.Z.W.Z.Z.Z.S.H.Z.Z.E.E.E.Z.Z.Z.E.E.E.E.Z.Z.Z.Z.Z.Z.Z.Z.Z.Z.Z.Z.Z.Z.Z.Z.Z.Z.Z.Z.C.C.C.C.Z.C.Z.Z.V.Z.Z.Z.Z.Z.Z.V.E.V.V.V.5.5.5.5.5.2.2.2.2.2.2.2.2.2.2.2.2.2.2.2.m.2.m.2.m.m.m.m.m.n.n.n.n.2.1.1.V.V.V.V.n.n.n.n.n.2.2.1.m.m.V.V.B.V.V.V.Z.B.C.C.",
"~.~.Y.H.W.~.W.S.E.S.S.S.Z.Z.E.S.C.Z.V.Z.H.C.Z.W.Z.S.H.Z.S.S.W.W.W.H.H.W.H.W.~.~.~.~.~.~.~.+X~.+XY.Y.~.~.~.~.~.W.Q.Q.H.H.H.H.W.W.W.S.W.H.W.H.H.W.H.W.W.W.H.H.H.~.H.Q.J.H.~.Q.H.~.~.W.W.Q.~.~.W.W.!.~.H.H.H.~.~.~.U.U.Y.Y.Y.~.Y.~.~.~.~.~.Y.Y.Y.Y.Y.Y.Y.Y.Y.Y.Y.Y.J.OX_ t @.jX1X@.b 5 G ' ) { b.b.$.z.L._ &.FXbXBX<Xs ( ) d d J K ) G g P ` @.X.X.&.B ` #.%.c.%.%.@.0X8X8X X@.o.@X0XR.I } | | | | Y Y P 4 z s 8 I o.6.U S U U U d 3 < Y I 4 4 4 < b p o o 6 g G < O   o < P G p < < < 2 + 2 t d F g f d 5 d 8 d 7 d 8 d d 7 P d 5 < @.5X+XH.H.S.Z.Z.Z.S.C.C.C.Z.C.C.C.C.C.Z.S.C.S.Z.Z.Z.Z.S.S.H.S.S.S.S.S.Z.E.Z.S.S.Z.W.Z.Z.Z.S.W.Z.Z.E.E.S.Z.Z.Z.E.E.Z.Z.Z.Z.Z.Z.Z.Z.Z.Z.Z.Z.Z.Z.Z.Z.Z.Z.Z.Z.Z.Z.C.C.C.C.Z.C.Z.Z.V.Z.Z.Z.Z.Z.Z.V.E.V.V.V.5.5.5.5.5.2.2.2.2.2.2.2.2.2.2.2.2.2.2.2.m.1.m.2.m.m.m.m.n.n.n.n.n.2.1.1.m.m.m.V.n.n.n.n.n.n.1.1.1.V.1.Z.V.V.V.V.Z.B.C.C.",
"~.~.Y.H.W.~.W.S.W.S.S.S.Z.Z.E.S.Z.Z.V.Z.H.C.Z.W.C.S.S.C.S.S.W.W.W.H.H.W.W.W.~.~.~.~.~.~.~.+X~.+XY.Y.~.~.~.~.~.W.Q.Q.H.H.H.H.W.H.W.S.W.H.W.H.H.W.H.H.H.W.H.H.H.~.H.Q.J.H.~.~.H.~.~.W.W.Q.~.~.W.W.~.~.H.H.H.~.~.~.U.U.Y.Y.Y.~.Y.~.~.~.~.~.Y.Y.Y.Y.Y.Y.Y.Y.Y.Y.Y.Y.+X#.s g _ P.@._ G H H ' a a #.$.b.N.>.` _ &.].9XX.P I _  X*.d I %.,Xc.%.5X,X&.kXMXkXF.%.8X8XP.c.8XlXhXFXMX].) o.%.X.#.:.4.=.| | | ' 7 4 3 < F ' ' ' F D U U ) s 3 4 J ' 5 4 6 d d 4 o o < F G < .   , d I F < y u u 1 + u P F F 5 t d d d d u s d d d d 8 F P d p < n F.5XW.C.H.H.Z.S.C.C.C.Z.Z.C.C.C.C.Z.S.C.Z.Z.Z.S.Z.S.S.H.S.S.S.S.S.Z.E.Z.S.S.Z.W.Z.Z.Z.S.W.Z.Z.E.E.S.Z.Z.Z.E.E.Z.Z.Z.Z.Z.Z.Z.Z.Z.Z.Z.Z.Z.Z.Z.Z.Z.Z.Z.Z.Z.Z.Z.C.C.C.Z.C.Z.Z.V.Z.Z.Z.Z.Z.Z.V.E.V.V.V.5.5.5.5.5.2.2.2.2.2.2.2.2.2.2.2.2.2.2.2.m.1.m.2.m.m.m.m.m.m.n.n.n.2.1.1.m.m.m.m.m.m.n.n.n.n.1.1.m.1.V.V.V.V.V.V.D.B.C.C.",
"+X~.~.H.!.!.W.H.E.S.S.S.Z.Z.S.S.Z.Z.Z.Z.S.Z.Z.Z.Z.S.S.S.H.H.W.W.W.H.H.W.H.W.~.~.~.~.~.~.~.~.~.+XY.Y.~.~.~.~.~.!.Q.Q.W.W.~.H.H.W.W.S.H.Z.W.H.W.Q.W.W.H.H.H.W.W.W.H.Q.Q.H.Q.Q.W.Q.~.~.W.W.~.W.H.H.J.~.H.H.H.H.H.H.H.Y.~.U.Y.Y.Y.Y.~.Y.Y.Y.Y.Y.~.~.Y.Y.Y.Y.Y.Y.R.+X#.F a G ) d 5 G I J H I 4 < d d P o.Y H F a 5 G 4.#.X.8XMXMXoXk 2XBXCX].K.$.c.BXmXBX0XF.5XXX%.c.kX{.cXbXcX].' ' ' F.0X<X<Xo.=.| Y Y 7 < 6 6 Y =.' ' ' ' I =.) x < 5 K } ' F K Y I 5 4 < S J K G , , F K H F , 2 , 3 s p d d F d 1 + u f s , O @ z d F F P d s s d d < < X.@XOXC.C.H.J.C.C.G.H.Z.S.C.C.C.C.C.C.Z.Z.Z.S.Z.Z.Z.Z.Z.S.Z.E.S.S.E.S.E.S.Z.W.Z.Z.H.W.Z.S.S.E.E.W.Z.W.Z.E.E.Z.Z.Z.E.E.E.Z.E.E.E.Z.Z.Z.Z.Z.Z.Z.Z.Z.Z.Z.Z.Z.Z.Z.Z.Z.Z.S.Z.Z.Z.Z.Z.Z.Z.Z.Z.Z.V.V.V.5.5.5.2.5.2.2.2.2.2.2.2.2.2.2.2.2.2.2.2.m.2.V.m.2.2.2.2.m.2.2.2.V.n.2.2.2.2.2.2.V.n.2.1.n.n.m.V.m.V.V.V.V.V.V.V.Z.D.C.C.",
"+X~.~.H.!.W.W.H.E.S.S.S.Z.Z.S.S.Z.Z.Z.Z.S.Z.Z.Z.Z.S.S.S.S.S.W.W.W.H.H.W.H.W.~.~.~.~.~.~.~.~.~.+XY.Y.~.~.~.~.~.!.Q.Q.W.W.~.H.H.W.W.S.H.Z.H.S.W.Q.W.W.H.H.H.W.W.W.H.Q.Q.H.Q.Q.W.Q.!.!.W.W.~.~.H.H.J.~.H.H.H.H.H.H.H.Y.~.U.Y.Y.Y.Y.~.Y.Y.Y.Y.Y.~.~.Y.Y.Y.Y.Y.XXXX<.J J J ) I F d F F a Y I 4 3 x P F S S S S J S H | ` X.kXbX9XJX'.&.kXkXc.[ ] v.bXbXnX9X*.c.c.2XkXBXbXbXnXnX9X<.4.6.0XgX9XkXXX' K 8 d U U F Y Y =.' | | | Y ' ` _ x d ' ' J 8 H J J F 8 P ' H F G d F J J U P < 4 s d d P F F 7 6 , o < s s , O X < P d 7 d 7 5 s 5 P g 5 < p *.5XR.N.G.J.S.H.S.Z.S.S.C.C.C.C.C.C.Z.C.Z.Z.Z.Z.Z.Z.S.Z.S.S.S.E.S.E.S.Z.W.Z.Z.W.H.Z.S.S.E.E.W.Z.W.Z.E.E.Z.Z.Z.E.E.E.Z.E.E.E.Z.Z.Z.Z.Z.Z.Z.Z.Z.Z.Z.Z.Z.Z.Z.Z.Z.Z.S.Z.Z.Z.Z.Z.Z.Z.Z.Z.Z.V.V.V.5.5.5.2.5.2.2.2.2.2.2.2.2.2.2.2.2.2.2.2.m.2.V.2.2.2.2.m.m.2.2.2.V.n.2.2.2.2.2.2.V.B.2.1.n.n.m.V.V.V.V.V.V.V.V.V.Z.D.C.C.",
"OXY.~.H.W.W.W.W.W.S.S.S.Z.Z.S.S.Z.Z.Z.Z.S.Z.Z.Z.Z.S.S.S.H.H.W.W.W.H.H.W.H.H.~.~.~.~.~.~.~.~.~.+X~.~.~.~.~.~.~.~.Q.Q.W.W.~.H.H.W.W.S.H.Z.S.S.H.W.W.W.H.H.H.H.W.H.H.Q.Q.H.Q.Q.W.Q.!.!.!.W.~.~.H.H.H.~.H.H.Q.Q.H.H.H.Y.Y.H.Y.Y.Y.Y.~.Y.Y.Y.Y.~.~.~.Y.Y.Y.Y.Y.OXG.P J K K ) a 5 b _ s d P P e U U U I P oX*.a J H Y } ' )  XVXmXHX9Xc.^.,.#.@.@.}.bXvX6X9X9XMX9XBXNXcXNXnXvXmXcX0X*.*.5XgX}.CX6.' K 8 8 I Y Y Y Y Y Y } | | | } ' ) s 4 < P ' S 5 5 5 G H I d < 4 d ' ' P 5 4 6 I Y K H F F F F d 7 x F F G G d s s s b 4 4 5 d p 5 3 < P ) G 5 4 B  X3XR.H.S.S.S.Z.S.S.S.Z.C.C.C.C.Z.C.Z.C.C.C.C.V.S.Z.S.S.S.E.Z.E.S.Z.H.Z.Z.H.H.Z.S.S.E.E.E.Z.W.Z.E.E.Z.Z.Z.Z.E.E.Z.Z.E.E.Z.Z.Z.Z.Z.Z.Z.Z.Z.Z.Z.Z.Z.Z.Z.Z.Z.Z.S.Z.Z.Z.Z.Z.Z.Z.Z.Z.Z.V.V.V.V.5.5.2.5.2.2.2.2.2.2.2.2.2.2.2.2.2.2.2.m.2.V.m.2.m.m.m.n.n.2.2.V.n.2.2.n.n.2.2.V.B.2.2.2.2.m.V.V.V.V.V.V.V.V.V.Z.D.C.C.",
"OXY.~.H.W.W.W.H.W.S.S.S.Z.Z.S.A.Z.Z.Z.Z.S.Z.Z.Z.Z.S.S.S.H.H.W.W.W.H.H.W.H.H.~.~.~.~.~.~.~.~.~.+X~.~.~.~.~.~.~.~.Q.Q.W.W.~.W.H.W.W.S.H.Z.S.Z.S.W.W.W.H.H.H.H.W.H.H.Q.Q.H.Q.Q.W.Q.!.!.!.W.~.~.H.H.H.~.H.H.Q.J.H.H.H.Y.~.H.Y.Y.Y.Y.~.Y.Y.Y.Y.~.~.~.Y.Y.Y.Y.XXOX` F H H J I 5 (  X0X@.s d d S W Y F F P <X&.< a } | ' ' H ( 8XBXBX<X<.:.{ <.0XBXJXVXbXcXAXnXVXmXyXvXvXvXnXcXbXnXgX].*.6.8XlX Xo.=.| S J K K Y 8.8.Y | | | | | | ' F 4 1 4 b 2.{ < 5 5 F H J , o o 4 ' ' 7 4 2 4 F K J K J a a F d d F Y Y Y J F s s < 3 3 4 < d d 5 3 1 s s ( G s , < @.5XOXS.S.S.S.S.S.S.S.C.C.C.C.C.C.Z.C.C.C.C.C.S.Z.S.S.S.E.Z.S.S.Z.W.Z.Z.H.H.Z.S.S.E.E.E.Z.E.Z.E.E.Z.Z.Z.Z.E.E.Z.Z.E.E.Z.Z.Z.Z.Z.Z.Z.Z.Z.Z.Z.Z.Z.Z.Z.Z.Z.Z.S.Z.Z.Z.Z.Z.Z.Z.Z.Z.Z.V.V.V.V.5.5.5.5.2.2.2.2.2.2.2.2.2.2.2.2.2.2.2.m.2.V.m.m.m.m.m.n.n.n.2.m.n.2.2.n.n.n.n.V.B.2.2.2.2.m.V.V.V.V.V.V.V.V.V.Z.D.Z.D.",
"+X~.~.~.~.W.H.W.H.Z.Z.Z.Z.S.C.Z.H.Z.C.Z.Z.C.Z.Z.Z.Z.Z.S.W.S.W.W.W.H.W.W.H.~.~.~.~.~.~.~.~.OX~.+X+XY.+X~.~.~.Q.Q.~.~.!.W.~.H.H.W.H.S.H.S.S.S.S.H.W.W.H.H.W.W.W.W.J.~.H.H.~.~.~.~.H.H.~.~.~.H.H.H.J.H.H.H.Q.Q.Q.Q.U.Y.Y.Y.Y.Y.Y.~.Y.Y.Y.Y.~.Y.Y.~.OXY.Y.R.XX*.g G P ) a F 5 %.0XkXc.4 p d U U z C B z n n C , ) ' } { { G _ N.,XP.N.<.#.P.CXnXVXDXDXmXVXHXbXcXcXcXvXnXmXmXnXcX9Xc.%.<.*.6.=.o.` I | ' Y ' Y Y | | ' ' | | | | Y 8 2 % , ( 3.4.G 4 5 S J 8 o o < P ' H 5 4 9 4 8 I K K S S J F 6 6 d d F H H F < 4 , < 6 5 7 d 5 s u 1 $ + s P P d t , f F.5XA.S./.A.A.A.A.A.C.C.C.C.C.C.C.C.C.C.C.C.C.C.C.S.E.C.S.Z.C.S.Z.Z.W.W.Z.S.S.H.W.W.S.S.E.E.E.Z.Z.Z.Z.Z.Z.Z.Z.Z.Z.E.E.E.E.E.E.E.E.Z.Z.Z.Z.S.Z.H.Z.S.Z.W.Z.Z.Z.Z.Z.Z.Z.Z.Z.Z.Z.V.V.Z.m.V.V.5.5.5.5.5.2.2.1.2.m.m.m.m.m.m.m.m.2.V.2.m.m.m.m.m.m.2.2.m.2.2.2.2.2.2.2.V.2.2.2.2.n.B.V.V.V.V.V.V.Z.Z.Z.Z.Z.D.D.",
"+XY.~.~.~.Q.H.H.H.Z.Z.Z.Z.H.C.Z.H.Z.C.Z.Z.C.Z.Z.Z.Z.Z.S.W.S.W.W.W.H.W.H.H.~.~.~.~.~.~.~.Y.OX~.+XY.Y.+X~.~.~.Q.Q.~.~.!.!.~.H.H.W.H.S.S.S.S.S.S.H.H.H.H.H.W.W.W.W.H.~.H.H.~.~.~.~.H.H.~.~.~.H.H.H.H.H.H.H.Q.Q.Q.Q.U.Y.Y.Y.Y.Y.Y.Y.~.Y.Y.Y.XXY.Y.Y.Y.Y.Y.Y.XX_ a P %.6.G d d P <XlXC n *.b d x ].BXFX*.n  XCX&._ #.` #.<.<.:.` c. XXX,Xc.1XFXnXbXVXnXmXcXhXcXcXMXcXvXvXvXvXvXcXcX].<XY.5.4.=.J.0XXX' ' :.=.' } | ' ' 2.o.' | | | Y < , < ) m.2.#.F I ' Y U 4 6 I J Y H F 4 4 4 5 I K K H J Y U 5 6 7 a J H F 7 2 2 y k n z s s < < , $ # O u f G ) g s < t %.5X^.C.H.H.A.C.A.A.C.C.C.C.C.C.C.C.C.C.C.C.Z.Z.S.E.C.S.Z.C.S.Z.Z.W.W.Z.S.S.W.W.W.S.S.S.E.E.Z.Z.Z.Z.Z.Z.Z.Z.Z.Z.Z.Z.E.E.E.E.Z.Z.Z.Z.Z.E.E.Z.H.Z.S.Z.W.Z.Z.Z.Z.Z.Z.Z.Z.Z.Z.Z.V.V.Z.m.E.V.5.5.5.5.2.2.2.2.m.m.m.m.m.m.m.m.m.2.V.2.m.m.m.m.m.m.2.2.m.2.2.2.2.2.2.2.2.2.2.2.n.B.V.V.V.V.V.V.Z.Z.Z.Z.Z.Z.D.D.",
"+XY.~.~.~.J.H.H.H.Z.Z.Z.Z.H.C.Z.W.Z.C.Z.C.Z.Z.Z.Z.Z.S.S.W.S.W.W.W.H.W.H.H.~.~.~.~.~.~.Y.~.OX~.OXY.Y.+X~.Q.Q.Q.Q.~.~.~.~.~.H.H.W.H.H.S.S.S.S.S.H.H.H.H.H.H.H.W.W.H.~.H.H.~.~.~.~.H.~.~.~.~.J.H.H.J.H.H.H.H.H.H.H.H.Y.Y.Y.Y.Y.Y.Y.OXY.OXY.Y.Y.Y.Y.Y.J.Y.XXN.g F ) C.6.g p G a ( @.C 9XBX&.< @.BXIXDXx.x.BXhXbX%.o.%.%.N.U.<.C. X8X0XkXkX9X2XkXgXhXhX9XhXhXbXcXcXAXAXHXAXnXcXcX9XgXMX X5.=.N.zXcXFXF.` 2.| | | | ' C.3XA.#.| | | ' I ) } ' K ' 4.:.K H K Y H Y Y Y Y Y | ' a a I =.Y Y Y I J S F F 8 J K Y < $ @ @ i N = = - - u 3 2 % & & + i s s ) ) g f < b XX.XH.S.A.A.C.A.A.C.C.C.C.C.C.C.C.C.C.C.C.Z.S.E.Z.S.Z.C.S.Z.Z.H.W.Z.S.S.W.W.W.S.S.S.S.S.Z.Z.Z.Z.Z.Z.E.E.E.E.Z.Z.Z.Z.Z.Z.Z.Z.Z.Z.Z.Z.E.Z.H.Z.S.Z.W.Z.Z.Z.Z.Z.Z.Z.Z.Z.Z.Z.Z.Z.Z.V.V.V.5.5.5.5.2.2.2.2.m.m.m.m.m.m.m.m.m.2.V.2.m.m.2.2.m.m.m.2.m.m.2.2.2.2.2.2.2.2.2.2.B.V.V.V.V.V.V.V.V.V.V.Z.Z.V.D.D.",
"+XY.~.~.~.J.H.H.H.Z.Z.Z.Z.H.C.Z.W.Z.C.Z.Z.Z.Z.Z.Z.Z.S.W.W.S.W.W.W.H.W.H.H.~.~.~.~.~.~.Y.~.OX~.+XY.Y.+X~.~.Q.Q.Q.~.~.~.~.~.H.H.W.H.H.S.S.S.S.S.H.H.H.H.H.H.H.H.W.H.~.H.H.~.~.~.~.H.~.~.~.~.J.H.H.Q.J.H.H.H.H.H.H.H.Y.Y.Y.Y.Y.Y.Y.OXY.OXY.Y.Y.Y.Y.Y.J.Y.OX_ p G ' _ g d p g p p , &.gX9Xc.s @.CXgXfXB {.kXgXBX@.2X0XCX<X_ $.^.zX8X9XgXgXqX].2XjX9XfXjXfXgXcXvXVXJXLXHXLXJX}.9X9X9XhX X#.#.3XkXhXBX X%.1.|  .4.7.4.b.3X^.<. .| Y 8 8 ' | } 5 J | ..F 4 J Y J J ' | | Y K } ' ' 8 I ' Y | Y J I ' Y J K K I 4 $ @ O l ;       = l k y y , & O + 2 s a G _ G s t < *.5XU.C.S.A.C.A.A.C.C.C.C.C.C.C.C.C.Z.C.Z.S.E.C.S.Z.C.S.Z.Z.H.W.Z.S.S.W.W.W.S.S.S.S.S.Z.Z.Z.Z.Z.Z.E.E.E.E.Z.Z.Z.Z.Z.Z.Z.Z.Z.Z.Z.Z.E.Z.H.Z.S.Z.W.Z.Z.Z.Z.Z.Z.Z.Z.Z.C.Z.Z.Z.Z.V.V.V.5.5.5.5.2.2.2.1.m.m.m.m.m.m.m.m.m.2.V.2.2.2.2.2.m.m.m.m.m.m.2.2.2.2.2.2.2.2.2.2.V.V.V.V.V.V.V.V.V.V.V.Z.Z.V.D.D.",
"+XY.~.~.~.Q.W.H.H.Z.H.Z.Z.S.C.Z.W.V.C.Z.Z.C.H.Z.Z.Z.S.W.S.S.W.W.H.W.W.H.W.~.!.~.~.~.~.Y.~.~.~.~.Y.~.+X~.~.~.~.~.!.!.W.W.~.H.H.H.H.S.H.S.H.H.H.H.H.H.H.H.H.~.H.W.H.~.H.H.~.~.H.~.~.~.~.~.~.Q.H.H.Q.J.H.H.Q.Q.H.H.H.J.Y.Y.Y.Y.Y.Y.OX~.OXOXXXY.Y.Y.Y.Y..XN.d a G ) d F d d s t t f s *.<X*.P G %.%.) G *.zX5Xc.@.9XcXVXMX_ <.4X,X2XkXcXBXgXP.P.0X0X0X8X8XMXVXcXAXLXJXAXLXLXcX9XhXMX8Xc.%.<.Y.zXBXFXF.#.4.3.4.| | :.:.^.Z.{ :.=.7 4 6 ` ' F 4 5 ' ' 4 4 7 I J F H Y | | | | ' F 4 4 J | K Y Y J F U Y Y H G P b < i f i ; = = = = + y u 3 , O O , < p p p ( ( G s u B ,X+XS.W.H.H.C.S.Z.Z.Z.V.C.C.C.S.C.S.C.S.W.Z.S.Z.Z.Z.Z.Z.Z.Z.Z.S.S.W.W.W.S.S.S.S.S.Z.Z.Z.Z.Z.Z.E.E.Z.Z.Z.E.E.V.Z.Z.E.E.E.E.E.E.E.S.S.S.Z.Z.S.Z.Z.Z.Z.Z.Z.Z.Z.Z.Z.Z.Z.Z.V.V.E.V.5.5.5.5.5.5.2.1.2.2.m.m.2.2.2.2.m.1.V.2.m.m.2.2.m.m.m.m.m.m.m.m.2.2.2.2.2.2.2.2.n.n.n.n.V.V.V.V.Z.V.D.D.D.D.Z.Z.",
"+XY.~.~.~.J.W.H.H.Z.H.Z.Z.S.C.Z.W.V.C.Z.Z.C.W.Z.Z.Z.S.W.S.S.W.W.H.W.W.H.W.!.!.~.~.~.~.~.~.~.~.~.Y.~.+X~.~.~.~.~.!.!.W.W.~.H.H.H.H.S.H.S.H.H.H.H.W.H.H.H.H.~.H.W.H.~.H.H.~.~.H.~.~.~.~.~.~.W.H.H.J.J.H.H.Q.Q.J.J.H.J.Y.Y.Y.Y.Y.Y.~.~.OXOXXXY.Y.Y.Y.R.OXX.p d ( d P o.P 5 , t p h s p ( P I H G ) K I ) X.o.%.*.qXmXmXMX2Xc..Xc.<X0XMX8X].c.<X0X0X8XjXkXBXBXcXVXLXJXJXAXLXVXgXVXVXBXc.1X5XN.F.1X X%.d 5 ) | ..| | ' :.:.' =.o.6 4 6 x I a 4 4 J o.4 4 8 I G d 7 7 K | | | =.5 4 4 H | | } H 8 8 8 S K a 5 s d g p f f i - - = = O + , f z o 2 u t < t f p P ) b s , f .X3XJ.H.H.H.H.Z.Z.Z.C.V.C.C.S.C.S.C.S.W.Z.S.Z.Z.Z.Z.Z.Z.Z.Z.S.S.W.W.W.S.S.S.E.S.Z.Z.Z.Z.Z.Z.E.E.Z.Z.E.E.E.V.Z.Z.E.E.E.E.E.E.E.S.S.S.Z.Z.S.Z.Z.Z.Z.Z.Z.Z.Z.Z.Z.Z.Z.Z.V.V.E.V.5.5.5.5.5.2.2.1.2.2.m.m.2.2.2.2.m.1.V.2.m.m.2.m.m.m.m.m.m.m.m.m.2.2.2.2.2.2.2.2.n.n.n.n.V.V.V.V.Z.Z.V.V.D.D.D.Z.",
"+XY.~.~.~.H.W.H.H.Z.H.Z.Z.H.C.Z.W.V.C.Z.Z.C.W.Z.Z.Z.S.S.S.S.W.W.H.H.W.H.W.~.!.~.~.~.~.~.~.~.~.OXY.~.+X~.~.~.~.~.!.!.W.W.~.H.H.H.H.S.H.S.H.H.H.W.W.W.H.H.H.~.H.W.H.~.H.H.~.~.H.W.W.W.~.~.~.H.H.H.J.J.H.H.Q.Q.Q.J.H.Y.Y.Y.Y.Y.Y.Y.OX~.OX~.XXY.Y.Y.Y.Y.I.s p s b t u X._ b + y s g d d 5 F J F _ c.#.o.' I o.6.*.qXMXmXhXgX2X<XXXF.<X8X].].2XkX8XgXgXbXcXBXBXVXcXJXJXJXHXHXVXcXnXnXCX9XgXqXXXC.N.G.( 4 4 < H ..| | ' } ' ' I Y U < 7 F K H 5 d I o.F 8 J ' J 8 7 7 S K | | #.8 4 4 ' ..| Y H S 8 S S J 5 < , , x d s u u y y ; = = ; u u f b s u u u , @.C t p ) ) g p < %.5XY.H.W.W.H.Z.Z.Z.Z.C.C.A.C.A.C.S.S.Z.S.Z.Z.Z.Z.Z.Z.S.S.S.S.H.W.W.S.S.S.E.E.Z.Z.Z.Z.Z.Z.Z.Z.Z.Z.E.E.E.V.E.E.E.E.Z.Z.E.E.S.S.S.S.Z.Z.S.Z.Z.Z.Z.Z.Z.Z.Z.Z.Z.Z.V.V.V.V.E.V.5.5.5.5.2.2.2.1.2.2.2.m.2.2.2.2.m.2.m.2.m.m.m.m.m.m.2.2.2.2.m.m.2.2.2.2.2.2.2.2.B.B.n.n.V.V.V.V.Z.Z.V.V.Z.Z.Z.Z.",
"+XY.~.~.Y.W.W.H.H.Z.H.Z.Z.S.C.Z.W.V.C.Z.Z.C.W.Z.Z.Z.S.S.S.W.W.W.H.H.W.H.W.~.!.~.~.~.~.~.~.~.~.~.~.~.+X~.~.~.~.~.!.!.W.W.~.H.H.H.H.S.H.S.H.H.H.W.W.W.H.H.H.~.H.W.H.~.H.H.~.~.H.W.Q.Q.~.~.~.H.H.H.J.J.H.H.Q.Q.Q.J.H.Y.Y.Y.Y.Y.Y.Y.OX~.OX~.XXY.Y.Y.Y.OX%.s p s n u , u b u + , p G a a G ) G 5 X.,X*.o.V.{ o.#.o.6.<X8X9XgX0X<XR.P.2X8XFXLXJXbXcXgXgXcXcXDXVXVXVXcX9X6XVXAXBXcXVXnXcXhXvXtXXX5X^.Q.6.< 4 4 K | | | | | =.Z.S.` I I S I | ' o.@X@X5.F I =.Y H 8 F 7 H ' 4.5.5.4.o.) 4.4.| K ' ' U F J J P 3 , u P 7 5 , , t y - - - i u s p g d i i u , C  XX.p p H ) G s < _ OX^.S.W.W.S.Z.Z.Z.Z.C.A.C.S.C.S.S.Z.S.S.Z.Z.Z.Z.Z.S.S.S.S.W.W.S.S.S.S.E.E.Z.Z.Z.Z.Z.Z.Z.Z.Z.Z.E.E.E.V.E.E.E.E.Z.E.E.E.S.S.S.S.Z.Z.S.Z.Z.Z.Z.Z.Z.Z.Z.Z.V.Z.V.V.V.V.V.V.5.5.5.5.2.2.2.1.2.2.m.m.2.2.2.2.m.1.m.2.m.m.m.m.m.m.2.2.2.2.m.m.2.2.2.2.2.2.2.2.m.B.n.n.V.V.V.V.Z.Z.V.V.Z.Z.Z.Z.",
"OXOX+X~.Y.~.H.H.H.S.Z.Z.C.S.C.V.Z.V.Z.S.Z.Z.E.Z.S.S.S.S.W.S.W.W.W.W.!.H.W.~.~.~.~.Y.~.Y.~.~.OX+X+X+X+X~.~.~.~.~.Q.Q.Q.Q.~.H.H.H.H.H.W.H.S.H.W.H.H.H.H.H.H.~.H.W.J.~.Q.H.~.Q.H.Q.W.W.W.~.W.~.H.H.Q.Q.H.H.H.H.H.H.Y.Y.Y.Y.Y.Y.Y.Y.Y.Y.~.~.Y.Y.Y.Y.Y.XXb t p f f l $ o < s s p p G a a a s t < n %.#.` %.%.o.#.!.,.n.N.2XkX<X5XI.<XMXLXLXJXJXmXcXcXMXcXnXHXHXHXHXHXcXNXyXVXBXcXbXcXgXBXvXMX<X3X3X~.A.6.o.U Y | | | | ' <..X4XG.Y | | | ..| o.+XW.H.G d H J Y K K Y ' ' 4.5.W.5.#.2.4.7.7.2.4.=.P 8 J J K I F F d 5 b @._ u i 2 & & u t s s t , O ; u 3 < B X.< s d F I F a < b I.3XE.E.E.A.A.A.C.C.C.C.S.Z.S.S.S.S.Z.Z.S.S.S.S.S.S.H.H.W.W.H.H.H.W.W.E.Z.Z.S.Z.Z.Z.S.S.Z.S.E.E.S.Z.Z.Z.Z.Z.E.E.Z.Z.E.E.E.E.S.S.S.Z.E.Z.S.Z.Z.Z.Z.Z.Z.V.V.V.V.5.V.5.V.V.V.V.V.V.2.2.m.2.m.m.m.m.2.2.2.2.2.2.2.2.2.2.m.2.2.2.m.m.m.2.2.2.2.2.2.2.2.2.2.2.2.5.V.V.V.Z.Z.Z.Z.Z.Z.Z.Z.Z.",
"OXOX+X~.Y.Y.H.H.H.S.Z.Z.C.S.C.V.Z.C.Z.S.Z.Z.E.Z.S.S.S.S.W.S.W.W.W.Q.!.W.W.~.Y.~.~.Y.~.Y.~.~.OX+X~.+X+X~.~.~.~.~.Q.Q.Q.Q.~.H.H.H.H.H.W.H.H.W.H.H.H.H.H.H.H.~.H.W.H.~.Q.H.~.Q.H.Q.W.W.W.~.W.~.H.H.Q.Q.H.H.H.H.H.H.Y.Y.Y.Y.Y.Y.Y.Y.Y.Y.~.~.Y.Y.Y.Y.OX6.s u s f t y o , < d g a d d b P s < B c.@.f ( ` %.%.c.5XB.,./.S.F.5X5X3XG.5XbXLXHXHXLXAXvXVXhXcXnXHXHXHXHXHXHXJXAXHXvXcXbXcXBXMXVX9X X3X3XY.C.S.6.6.=.......| | <.T.3X%.J Y | | | Y a o.Z.<.s < 8 F K K Y J 5 I #.=.5.4.I ' | | :.4.7.' 8 < S J K Y K J 7 g N.R.R.%.t , o , , , t i i ;     2 < p s < u 3 6 I H I ) s t s *.3X/.S.S.A.A.C.C.C.C.S.Z.S.S.S.S.Z.Z.S.S.S.S.S.S.H.H.W.W.H.H.S.W.W.E.Z.Z.S.Z.Z.Z.S.S.S.S.E.E.S.Z.Z.Z.Z.Z.E.E.E.Z.E.E.E.E.S.S.S.Z.E.Z.S.S.Z.Z.Z.Z.Z.V.V.V.V.5.V.5.V.V.V.V.V.V.2.2.m.2.m.m.m.m.2.2.2.2.2.2.2.2.2.2.m.m.2.2.m.m.2.2.2.2.2.2.2.2.2.2.2.2.2.2.V.V.B.Z.Z.Z.Z.Z.Z.Z.Z.Z.",
"OXOX+X~.J.Y.H.W.H.S.Z.Z.Z.S.C.V.Z.Z.Z.E.Z.Z.E.Z.S.S.S.S.W.S.W.Q.W.Q.!.W.W.~.Y.~.~.Y.~.Y.~.~.OX+X~.+X+X~.~.~.~.~.~.~.Q.Q.~.H.H.H.H.H.W.H.H.H.H.H.H.H.W.W.H.~.H.W.J.~.Q.H.~.Q.H.Q.W.W.W.~.W.~.H.H.Q.Q.H.H.J.J.H.H.Y.Y.Y.Y.Y.Y.Y.Y.OXOXY.Y.Y.Y.Y.Y.OXX.< k t u f < 5 P a d a a < f 8X<X_ _  X1Xc.( G o.B.%. X<X*.^.~.G.T.T.OXI.,X<XVXLXLXLXLXHXAXHXAXnXHXHXHXHXAXAXGXHXHXAXnXVXbXbXvXVXqX@.N.3XOX` ' ' 6.6.4.:.' | | | | 5.5.P 8 F ' } K J 5 4 d d 4 2 4 7 H K ' 5 o 4 Y ' ' I F K | | ' } | ' 5 < S K K J J d < _ (.M.b.L._ t < < t y ; ; ; =     , p a d s s < < d P a F ) d < s o.Y.^.Q.Z.Z.C.Z.Z.C.C.C.S.S.S.S.Z.Z.S.S.S.S.H.H.H.H.W.W.H.H.S.E.W.E.Z.Z.S.S.Z.Z.S.Z.S.S.E.E.S.Z.Z.Z.Z.Z.E.E.Z.Z.S.S.E.E.S.S.S.S.E.Z.Z.S.Z.Z.Z.Z.Z.V.V.V.V.V.5.5.V.V.V.V.V.V.2.2.m.m.m.m.m.2.2.2.2.2.2.2.2.2.2.2.m.m.2.2.m.m.m.m.2.2.2.2.2.2.2.2.2.2.2.2.V.V.B.Z.D.D.Z.D.Z.Z.Z.Z.",
"OXOX+X~.J.~.H.W.H.S.Z.Z.C.S.C.V.Z.Z.Z.E.E.Z.W.E.S.S.S.S.W.S.W.Q.W.Q.!.W.W.~.Y.~.~.Y.~.Y.~.~.OX+X~.+X+X~.~.~.~.~.~.~.~.Q.~.H.H.H.H.H.W.H.H.H.H.H.H.H.W.W.H.~.H.W.J.~.Q.H.~.Q.H.Q.W.W.W.~.W.~.H.H.J.Q.H.H.Q.J.H.H.Y.Y.Y.Y.Y.Y.Y.Y.OXOXY.Y.Y.Y.Y.Y.R.s u < f f ( ( H H G G F G < @.MX2XP _ 1X8XP.%.` ) ` o.5Xc.XX5XOX5XN._ %.G.5X<X9XKXVXHXHXHXHXHXHXHXHXHXAXAXAXAXAXZXAXAXHXHXJXcXNX9Xc.%.<.3XOX_ ' F ' 5.o.5 5 a ' | | ' Y F < 8 K K Y H 5 < 7 I 6 4 d d J J P 3 o 4 ) } J 5 8 8 | K H J J } F 8 J Y Y J S 7 5 d L._.b.L._ p p d < t ; ; Z Z = O u s g g s < 3 < 5 5 8 d d F 5 5 5 P H.3XS.Z.C.Z.C.C.C.C.S.S.S.S.Z.Z.S.S.S.S.H.H.H.H.W.W.H.H.S.S.W.E.Z.Z.S.S.Z.Z.Z.Z.E.E.E.E.S.Z.Z.Z.Z.Z.E.E.Z.Z.S.S.S.E.S.S.S.S.E.Z.S.S.Z.Z.Z.Z.Z.V.V.V.V.V.5.5.V.V.V.V.V.V.2.2.m.m.m.m.2.2.2.2.2.2.2.2.2.2.2.2.m.m.m.2.m.m.m.m.2.2.2.2.2.2.2.2.2.2.2.2.V.V.B.Z.D.D.D.D.Z.Z.Z.Z.",
"+XOXOX+X+XY.H.W.W.W.S.Z.Z.W.Z.C.E.Z.Z.E.Z.Z.E.Z.Z.W.W.Z.W.Z.W.Q.H.W.!.!.W.~.~.~.~.Y.OX~.~.~.~.~.~.~.~.~.~.~.~.~.~.~.~.~.~.H.H.H.W.W.W.W.H.W.W.W.W.W.W.W.H.Q.H.W.H.~.~.H.~.Q.J.Q.!.H.!.~.~.W.H.H.Q.J.J.H.~.~.~.W.~.Y.Y.Y.~.~.Y.OXOXOXY.Y.Y.Y.Y.OX%.4 s P $.{ G ' ' a a P P d < C qX@.8 F c.zX%.o.) K K | #.6.3XOXOX^.Y.o.%.3X,X<X2XkXBXcXVXJXHXAXHXnXVXHXHXJXBX9XVXNXnXVXJXHXHXvX9X<X X_ #.D.3X%.I I #.6.g , y , F | ' Y U 7 4 4 H ' } H 8 8 H ' H J H K H H < o 2 6 ' } K 8 8 7 Y Y < 4 8 ' Y Y Y 8.J J 7 d 7 5 / <.<.#.P P d d d f ; Z v.z.@.B i ; + & y , 1 , < 3 5 5 6 5 a d 5 5 s %.+X5.Z.H.S.Z.C.C.C.C.A.S.Z.Z.S.H.H.H.H.H.H.H.H.H.H.H.H.E.E.Z.E.Z.Z.Z.Z.Z.Z.Z.Z.Z.Z.E.S.Z.Z.Z.Z.Z.Z.Z.Z.Z.S.S.E.S.Z.Z.S.Z.S.S.Z.Z.Z.Z.Z.Z.Z.V.V.V.V.5.5.5.2.2.V.V.5.5.2.2.2.2.2.m.2.2.2.2.2.1.V.2.2.2.2.2.m.m.m.m.m.m.m.m.2.2.2.2.2.2.2.2.2.2.2.V.V.V.B.V.Z.D.Z.Z.D.Z.Z.S.",
"OXOXOX+X~.Y.H.H.W.W.S.Z.Z.W.C.C.E.Z.Z.E.Z.Z.E.Z.Z.W.W.Z.W.Z.W.Q.W.W.!.!.W.~.~.~.~.Y.OX~.~.~.~.~.~.~.~.~.~.~.~.~.~.~.~.~.~.H.H.H.W.W.W.W.W.H.W.W.W.H.W.W.H.Q.H.W.H.~.~.H.~.Q.J.Q.!.H.!.~.~.W.H.H.H.J.H.H.~.~.W.W.~.Y.Y.Y.~.~.Y.~.OXOXY.Y.Y.Y.Y.@Xn < s _ >.>.F ) ) a 5 d a d s 4 u s 7 b B C *.@.P ) H ) #.3X3X,XF.I.Y.3X3X<X0XkXkX8X8X9XcXVXcXnXVXbXVXVXnXVXgX2X9X9X9XAXHXAXHXVX{.<X<XF.$.A.,XR.o.o.>.B.( f y 4 F Y H J ` 7 < < S K Y K H J K | } K K H K H < 4 4 s a K Y S S U 8.| 6 4 F ' Y 8.K K J S 7 7 8 d a a < a P 5 4 s a h i Z z.z.@.B ; #   # + 2 , < < t f s < < P 6.P 5 6 < %.~.H.Z.S.S.S.Z.Z.Z.A.S.Z.H.H.H.H.S.H.H.H.H.H.H.H.H.H.H.E.Z.S.Z.Z.Z.Z.Z.Z.Z.Z.Z.Z.E.S.Z.Z.Z.Z.Z.Z.E.Z.Z.S.S.E.S.Z.Z.S.Z.S.S.Z.Z.Z.Z.Z.Z.Z.V.V.V.V.5.5.5.2.2.V.V.2.5.2.2.2.2.m.m.2.2.2.2.2.1.V.2.2.2.2.2.m.m.m.m.m.m.2.2.2.2.2.2.2.2.2.2.2.2.2.V.V.V.B.Z.Z.D.Z.Z.D.Z.D.S.",
"+XOXOX~.~.Y.H.H.W.H.S.Z.Z.W.Z.C.S.Z.Z.S.Z.Z.E.Z.Z.W.W.Z.W.Z.W.Q.W.W.!.!.W.~.~.~.~.Y.OX~.~.~.~.~.~.~.~.~.~.~.~.~.~.~.~.~.~.H.H.H.W.W.W.W.W.W.W.W.H.H.H.H.H.~.H.W.H.~.~.H.~.Q.J.Q.!.H.~.~.~.W.H.H.H.J.H.H.~.~.~.~.~.Y.Y.~.~.~.~.~.OX~.Y.Y.Y.Y.OXF.< s s b $.[ p ) G 5 5 5 G G d g o._ X.8X1X@.C C gX2X@.F.P.XX,Xc. X2XI.Y. XBXJXHXLXMXcXMXcXgX9XkXkX9XcXcXcXBXqX9XmXnXvXnXHXHXHXnX{.2X<X<X5X,XT.T.~.H.n.b.@.< d I ' K H P _ P I H J K K K } H K Y | } K J K I a s u 4 4 d Y K Y 8.8.| H S K | 8.8.K J J S 7 8 a F H J G H a < o o p g i Z z.x.i   = >   # + y , < f %.$._ , , u b o.I 5 s < _ +XH.Z.Z.S.S.S.S.S.S.H.H.H.H.S.S.S.H.S.S.H.H.H.H.H.W.E.Z.S.Z.Z.Z.Z.Z.Z.S.Z.Z.Z.E.E.Z.Z.Z.Z.Z.E.E.E.E.S.S.S.S.Z.Z.Z.Z.S.S.Z.Z.Z.Z.Z.Z.Z.V.V.V.V.V.5.5.2.2.2.m.2.2.2.2.m.m.m.m.2.2.2.2.2.1.V.2.2.2.2.2.m.m.m.m.m.2.2.2.2.2.2.2.2.2.2.2.2.2.2.5.V.V.B.Z.Z.D.Z.Z.D.Z.D.S.",
"+XOXOXOX~.Y.H.H.W.W.S.Z.Z.W.C.C.S.Z.Z.E.Z.Z.E.Z.Z.W.W.Z.W.Z.W.Q.W.W.!.!.!.~.~.~.~.Y.OX~.~.~.~.~.~.~.~.~.~.~.~.~.~.~.~.~.~.H.H.H.W.W.W.W.W.W.W.W.H.H.H.H.H.!.H.W.H.~.~.H.~.Q.J.Q.!.H.~.~.~.W.H.H.W.H.H.H.~.~.~.Y.~.~.~.Y.~.Y.Y.~.OXOXY.Y.Y.Y.5X%.4 s s s g h s f g d g _ ) ) ) I #.X. X8X2Xc.y 2XJXx.2X1XP.XXP.0XFXCX3XI.kXVXZXHXAXmXvXVXBX9X9XqX8X9XVXVXVXVX9XMXVXnXZXZXnXZXLXHX2X2X<X<X<X XXX3XU.U.<.<._ ` { ' | | ' ) G I I K Y } J K } J J K Y K Y ' ' ' H ) a 4 4 7 J S Y =.=.| Y J K | | | Y K I S a F F J H K } ) G s y y s p t B B N .   = = = # y u u 4 _ c.N.*.u , , , 5 P d < s < _ ~.!.W.Z.Z.S.S.S.S.H.H.H.H.S.S.S.H.S.S.H.H.H.H.H.H.H.Z.S.Z.Z.Z.Z.Z.Z.Z.Z.Z.Z.E.E.Z.Z.Z.Z.Z.E.E.E.E.S.S.S.S.Z.Z.S.Z.Z.Z.Z.Z.Z.Z.Z.Z.Z.V.V.V.V.V.5.5.5.2.2.2.2.2.2.2.2.m.m.2.2.2.2.2.2.1.V.2.2.2.2.2.m.m.m.m.2.2.2.2.2.2.2.2.2.2.2.2.2.2.2.2.V.V.B.Z.Z.D.C.Z.D.Z.D.D.",
"OXOXXXOX+X~.J.H.H.H.H.H.Z.H.Z.C.E.Z.Z.W.S.Z.W.E.Z.W.W.Z.S.S.W.W.W.W.!.!.W.~.~.~.~.Y.Y.~.~.~.~.~.+X+X~.+X+X+X~.~.~.~.J.~.J.J.J.Q.Q.Q.Q.Q.Q.Q.W.W.H.W.W.W.H.W.S.Q.H.~.~.H.~.~.~.~.H.H.~.~.~.Q.H.H.W.W.W.J.~.Y.Y.Y.~.OXY.OX.XXXXXOXOXOXXX.XT.T.,Xb s s u t _ _ , u s a t b G ) I F G d _ jXkX{.f P.0X*.,XF.T.3X X0XVXBX,X,XCXnXHXHXVXcXAXnXnXnXnXcX9XVXHXHXZXAXcXvXVXvXZXAXmXAXHXAX2X2X2X9X].- + @.I.C.#.o.` ' | | } } } K K H I H H H J J d 8 F J H K H } K K ' | | H F P 6 4 4 7 ' =.=.Y | | ' K | 8.' K S S J K ' } } ) g V V p 5 5 s t f t + + + y i t s s 6 < s %.N._ u u y y , < u 3 < s , ( +X/.W.C.Z.Z.H.H.S.A.H.S.H.H.H.S.S.S.H.H.H.S.S.S.E.E.S.S.S.S.S.S.Z.Z.Z.Z.Z.E.Z.V.Z.Z.Z.Z.Z.Z.Z.Z.Z.Z.Z.Z.C.Z.Z.Z.Z.Z.Z.Z.Z.Z.Z.Z.Z.V.V.V.V.V.V.V.V.5.5.5.5.5.5.5.5.2.2.2.2.2.2.2.2.2.2.2.2.2.2.m.m.2.2.m.m.m.m.m.2.2.2.m.2.2.2.2.1.2.2.V.5.B.B.Z.B.Z.Z.B.V.Z.Z.C.",
"OXOXXXOX+XY.J.H.H.H.H.H.Z.H.Z.C.E.Z.Z.W.S.Z.W.E.Z.W.W.Z.S.S.W.W.W.W.!.!.W.~.~.~.~.Y.Y.~.~.~.~.~.+X+X~.+X~.+X+X+X~.~.J.~.J.J.J.Q.Q.Q.Q.Q.Q.Q.W.W.H.W.H.W.H.W.S.Q.H.~.~.H.~.~.~.~.H.H.~.~.~.Q.H.W.W.W.W.W.~.Y.Y.Y.~.OXY.~.XXXXXXXXOXOXXX.XT.3XP.< s s < s C.%.o , s g s < a F d d ( p < n c._ ( _ ` N.N.A.R.T.P.<XMXgXR.jXVXnXHXHXVXvXAXnXZXGXHXHXVXAXHXGXZXHXcXvXVXnXnXZXAXAXnXJX2X2X2X9X'.Z : + N.#.( o.) I K K } K } K ' ) d 5 a H I F 7 5 d J J H H J H H K | | | K F 4 2 2 4 ' =.| =...' J.6.Y | | ' J K ' ' } ' } / %.P.$./ h d p p < s u , , u u < < < 3 3 < B V t u u ; ; + + u u 3 3 u , _ +X!.E.Z.Z.H.W.H.A.H.A.S.H.H.S.H.S.H.H.H.H.H.H.E.S.S.S.S.S.S.S.Z.Z.Z.Z.Z.E.Z.V.Z.Z.Z.Z.Z.Z.Z.Z.Z.Z.Z.Z.C.Z.Z.Z.Z.Z.Z.Z.Z.Z.Z.Z.Z.Z.V.V.V.V.V.V.V.V.V.5.5.5.5.2.5.5.2.2.2.2.2.2.2.2.2.2.2.2.m.m.m.m.2.2.m.m.m.m.2.2.2.2.2.2.2.2.1.2.2.V.5.B.B.Z.B.Z.Z.B.B.Z.Z.C.",
"OXOXOXOX+X~.J.H.H.H.H.H.Z.H.Z.C.E.Z.Z.E.S.Z.W.E.Z.W.W.Z.S.S.W.W.W.W.!.!.W.~.~.~.~.Y.Y.~.~.~.~.~.+X+X~.+X~.~.~.+X~.~.J.~.J.J.J.Q.W.Q.Q.Q.Q.Q.W.W.H.H.H.H.H.W.S.Q.H.~.~.H.~.~.~.~.H.H.~.~.~.Q.H.H.W.W.W.W.~.Y.Y.Y.~.OXY.~.XXXX.X.X.XOX^.T.Y.5XX., f s 3 d ,.b.B o d I I a a 5 b  X8X@.< 5 a ) ' } ` V.D.I.].c.N.3X4X<X,X0XFXAXAXAXnXnXnXnXZXZXZXHXVXAXHXHXLXcX2XMXNXVXnXnXVXVXVXJX2X2X2X8X].Z N j ` ` _ X.) ) ) P a F K } H d 3 2 6 G H F 7 8 F H I a 5 5 8 S K K J K H d 4 1 4 5 | | | ..' <.LXCX` | | } K | ` %.c.c._ %.).).K.) g p h p p p 5 s s 3 , 2 , 2 & + y + + 2 & ; ; x.@.+ + 2 < s s u , _ 3XE.E.E.E.H.H.A.H.A.S.S.S.S.H.H.H.H.H.H.H.H.S.S.S.S.S.S.S.S.Z.Z.Z.Z.Z.S.Z.V.Z.Z.Z.Z.Z.Z.Z.Z.Z.Z.Z.Z.C.Z.Z.Z.Z.Z.Z.Z.Z.Z.Z.Z.Z.Z.V.V.V.V.V.V.5.5.V.V.5.5.5.2.5.5.5.2.2.2.2.2.2.2.2.2.2.2.2.2.m.m.2.2.2.2.m.m.2.2.2.2.2.2.2.2.1.2.2.V.5.B.B.Z.B.Z.Z.B.V.Z.Z.C.",
"OXOXOXOX+X~.J.Q.H.H.H.H.Z.H.Z.C.E.Z.Z.E.S.Z.W.S.Z.W.H.Z.H.H.W.W.W.W.!.!.W.~.~.~.~.Y.Y.~.~.~.~.~.+X+X~.+X~.~.~.+XQ.~.J.~.~.J.J.Q.W.Q.Q.Q.Q.Q.W.W.H.H.H.H.H.W.S.Q.H.~.~.H.~.~.~.~.H.H.~.~.~.H.H.H.W.W.W.W.Q.Y.Y.Y.~.~.Y.~.XXXX.X.XT.^.^.^.Y.3X< f b s 6 5 #.%.k 2 P K H 5 a p  X9X9X8Xb F H } ' } :.m.N.<XFXFX4XI.I.P.,XzXDXAXAXAXVXVXvXAXLXLXHXHX9XvXHXAXcX].9X{.9XnXnXVXVXAXLXMXc. X X X X*.C B #.G < t P ) ) s 6 d K } H d 1 2 3 d G F d a F I F 5 5 5 5 G H H J S J P < 4 6 F ' Y K | ' #.fXlX<.' K Y K ' %.MXBXBX2Xc.v.).K._ t t t s d a a a d 5 , 2 + + = = # = O + + O N {.v.B ; + , 3 3 3 u , #.@XE.E.E.H.S.A.H.A.S.S.S.S.H.H.H.H.H.H.H.H.S.S.S.S.S.S.S.S.Z.Z.Z.Z.Z.S.Z.V.Z.Z.Z.Z.Z.Z.Z.Z.Z.Z.Z.Z.C.Z.Z.Z.Z.Z.V.Z.Z.Z.Z.Z.Z.Z.V.Z.V.V.V.V.5.5.V.V.5.5.2.2.5.5.5.2.2.2.2.2.2.2.2.2.2.2.2.2.m.m.m.2.2.2.2.2.2.2.2.2.2.2.2.2.1.2.2.V.5.B.B.Z.B.Z.Z.B.V.Z.Z.C.",
"OX+XXX~.~.~.Y.H.H.H.H.S.Z.H.Z.C.W.Z.E.E.S.Z.W.E.S.H.H.S.H.W.W.W.W.W.!.!.~.~.Y.~.~.J.~.~.~.OXOX~.~.+X~.+X+X+X+X~.~.+XJ.~.~.~.~.Q.Q.Q.Q.Q.~.W.Q.W.H.H.W.W.W.H.S.Q.H.~.~.H.H.~.~.~.H.H.~.~.~.Q.H.H.W.W.W.W.H.J.J.J.Y.~.Y.OXOX.X.X.X3X^.^.T.3X*., s s s s t < < 2 n ) H J J a g 8X9XgX2X( H ) ` ) ' 4.1.c.FXbXcXJX<XK.3X3XjXVXAXHXcXcXBXVXMXcXvXnXcXcXmX9XhXNXcX9X{.9XVXnXAXAXcXCXc.*.N.N.c.*.@.o.#.` a , , s ) x < s d H K H a s s 3 s d F F d F I F a 5 5 d F H K J H K I P F I I G a S J | ' %.4X<.K K K K H c.BXhXgXgX].).1X%.t + ; O + < d a G d d t + + ; x.|.Z : # @ + + y {.{.N = = O & % 1 u u , *.+XZ.H.C.A.Z.A.A.S.S.S.S.S.S.H.H.H.H.H.S.W.W.S.S.S.S.S.S.Z.Z.Z.Z.Z.S.Z.V.E.E.E.E.Z.Z.E.E.E.Z.Z.H.V.C.C.Z.Z.Z.Z.Z.Z.Z.Z.Z.Z.Z.Z.Z.C.V.V.V.5.5.V.5.5.5.5.5.5.5.5.5.2.2.2.2.m.2.V.2.V.V.V.m.m.m.m.m.2.2.2.2.2.2.2.2.2.2.2.2.2.2.2.2.5.5.B.S.B.B.V.Z.B.Z.Z.C.",
"OX+XXX~.~.~.Y.H.H.H.H.S.Z.H.Z.C.W.Z.E.E.S.Z.W.E.S.H.H.S.H.W.W.W.W.W.!.!.~.~.Y.~.~.J.~.~.~.OXOX~.~.+X~.+X+X+X+X+X~.+XJ.~.~.~.~.Q.Q.Q.Q.Q.~.W.Q.W.H.H.W.W.W.H.S.Q.H.~.~.H.H.~.~.~.H.H.~.~.~.J.H.H.W.W.W.W.H.J.J.J.Y.~.~.OXOXOX.X.XOXOX^.~.3X_ , _ %.V t u _ X.u < I K J H a < &.MXgXB d ) <.I..XI.V.C.2XVXcXvXbXMXXX3XXX0XVXnXAXVX9XMXCX9X9XVXHXVXVXcX9XLXJXJXJXMXBXVXAXAXHXHX2X*.3XG.*.0XCX X` 4.` G , 2 d P 3 2 2 5 F H J F s , 2 3 d d s < < p G G a 5 d d J H H H H H a H H a 5 < 8 H } } } H ' } ' K H d *.bXhXhXhX{.c.K.p t y O O + , h p < u t i + ; x.{.v.l.A # @ & + - N B ; ; O - + + 2 u u 2 < G.~.H.A.A.A.Z.Z.S.S.S.S.S.S.H.H.H.H.S.S.W.W.S.S.S.S.S.S.Z.Z.Z.Z.Z.S.Z.V.E.E.E.E.Z.E.E.E.S.C.C.S.V.C.C.Z.Z.Z.Z.Z.Z.Z.Z.Z.Z.Z.Z.Z.C.V.V.V.5.5.V.5.5.5.5.5.5.5.5.5.2.2.2.2.m.2.V.2.V.V.V.m.m.m.m.m.2.2.2.2.2.2.2.2.2.2.2.2.2.2.2.2.5.5.B.S.B.B.V.Z.B.Z.Z.C.",
"OX+XXX+X~.~.Y.H.H.H.H.S.Z.H.Z.C.W.Z.S.E.S.Z.E.E.S.S.H.S.W.W.W.W.W.W.!.!.~.~.Y.~.~.Y.~.~.~.OXOX~.~.+X~.~.+X+X+X~.~.+XJ.~.~.~.~.~.Q.Q.Q.Q.~.W.Q.W.H.W.W.W.W.H.S.Q.H.~.~.H.H.Q.~.~.H.H.~.~.~.H.H.H.W.W.W.W.H.J.J.J.Y.~.Y.OXOX.X.X.X.XOX^.OX.Xs f P.I.z.t B z.K.g g F H J G p p 2 n C X.B n <X X1X X^.N.8XnXnXnXnXBX,X,X X0XVXnXJXVX2XCX8X<XVXHXHXAXHXnXHXHXAXAXHXAXVXVXAXGXZXJX8XF.3XXX<XFXcXCXN.#.#.G g G H ) 2 * % 4 G H H d 2 & & 2 g g , % 2 4 F H a a d a F J J H 5 6 < d I a < < 8 K Y J Y Y Y | I <.5X*.B kXhXIXhX]._ G 5 a ) p o + f h , + ; ; y ; ; {.{.{.x.: O & j - & - = - i ] z.( , + 2 2 y , n .XW.E.S.Z.Z.Z.S.S.A.A.S.S.H.H.H.H.S.S.W.W.S.S.S.S.S.S.Z.Z.Z.Z.Z.E.Z.V.Z.E.Z.Z.Z.Z.E.E.Z.C.C.Z.V.C.C.Z.Z.Z.Z.Z.Z.Z.Z.Z.Z.Z.C.C.C.V.V.V.V.5.V.5.5.5.5.5.5.5.5.5.2.2.2.2.2.2.5.2.V.5.m.m.m.m.m.m.2.2.2.2.2.2.2.2.2.2.2.2.2.2.2.2.5.5.B.S.B.B.V.Z.B.Z.Z.C.",
"OXOXXXOXOX~.Y.J.H.H.H.S.Z.H.Z.C.W.Z.S.E.S.Z.W.E.S.W.W.S.W.W.W.W.W.W.!.!.~.~.Y.~.OXY.~.~.~.OXOX~.~.+X+X+X+X+X+X~.~.+XJ.Q.~.~.~.~.Q.Q.Q.Q.~.W.Q.W.W.W.W.W.W.H.S.Q.H.~.~.H.H.Q.~.~.H.H.~.~.~.H.H.H.H.W.W.H.J.J.J.J.Y.OXY.OX.X.X.X.XXXXX+XOX*.< @.XXP.z., _ P.b./ ) F a a H G d s &.kXMXMXC C ]. X XT.F.].VXDXVXVX9XXX3XXX0XVXZXVX9XcXMX<X0XVXAXHXHXVXAXHXHXAXAXAXyX}.vXAXGXZXVX XG.L.R.8XBX9XFX$.` { [ ) ) ) ) 4 o % z I K H d , + % , g s 2 $ % 3 P J J J F d d F I I < < < P I 5 < < S Y K K Y Y | ' #.*.2X8Xb %.kX8X<X( d H F H ' H , f f f y O O ; ; y O Z 2Xv.{.N # & - - & - - O f K.b.%.y + + 2 u u o X.3XZ.S.Z.Z.Z.S.S.S.A.S.S.H.H.H.S.S.S.W.W.S.S.S.S.S.S.Z.Z.Z.Z.Z.E.Z.V.Z.Z.Z.Z.Z.Z.E.E.Z.V.V.Z.Z.Z.Z.Z.Z.Z.Z.Z.Z.Z.Z.Z.Z.Z.C.C.C.V.V.V.V.5.V.5.5.5.5.5.5.5.5.5.2.2.2.2.2.2.5.2.5.5.m.m.m.m.m.m.2.2.2.2.2.2.2.2.2.2.2.2.2.2.2.2.5.5.V.Z.B.B.V.Z.B.Z.Z.C.",
"OXOX~.~.~.Y.Y.Y.Y.H.H.H.A.H.S.C.W.E.S.W.S.S.H.W.W.W.S.S.W.W.W.!.W.W.!.~.~.+X~.~.~.Y.~.~.+X~.~.~.~.+X~.OXOXOX~.~.+X+XJ.Q.~.~.~.~.Q.Q.Q.Q.~.W.~.W.Q.W.W.W.Q.Q.W.~.W.~.~.H.H.W.~.~.J.J.~.~.Q.H.H.H.H.H.!.U.Y.Y.Y.Y.Y.OXY.OX.X.X.XXXXXY.~.3XX.< _ F.%.B y u @.B g G G a ( K.<.P s  XkX8X8X8XB P.XX.XN..XF.,X8X9X2X].T.3X3X4XBXvXcXcXVX9X<X0XbXHXHXVXcXnXVXVXJXVXVXVXmXyXLXHXJX8XR.S./.U.5XCXkXP.) ' { { G 5 7 P P P b d d G H K a < p d d g 2 2 , s G J J I F a 6 3 5 P d 5 F ' I S J ' Y Y | K J J H ) %.%.).4X[ G ' ` ` ) ` ' 5 G H a g G g b b n u u y + + i x.@.C - @ & = O # # @ - y B %.@., 2 , , , u 2 , *.J.A.C.C.C.S.S.A.A.A.A.H.H.H.H.H.S.Z.W.W.H.S.Z.Z.Z.S.Z.Z.Z.Z.S.E.C.E.E.E.Z.Z.Z.Z.Z.Z.Z.Z.Z.Z.Z.Z.Z.Z.Z.Z.Z.Z.Z.Z.Z.Z.Z.Z.Z.V.V.V.V.5.V.V.5.5.V.5.V.2.2.2.2.2.5.5.E.5.5.5.5.5.5.5.m.E.2.2.2.2.2.2.2.2.2.2.2.2.2.2.2.m.m.m.n.n.V.V.Z.Z.Z.Z.Z.C.C.C.C.",
"OXOX~.~.Y.Y.Y.Y.Y.J.H.H.A.H.S.C.W.S.S.W.S.S.H.W.W.W.S.S.W.W.W.!.W.W.~.~.~.+X~.~.~.Y.~.~.+X~.~.~.~.~.+X~.OXOX~.~.+X+XJ.Q.~.~.~.~.Q.Q.Q.Q.~.W.~.W.Q.W.W.W.Q.Q.W.~.W.~.~.H.H.W.~.~.Q.J.~.~.H.H.H.H.H.H.U.U.Y.Y.Y.Y.Y..XXXOXOXOX.XXXXXY.OXXXb s d g t i y , , , g ) F d @.,XN.) s ].zX9X9XgX_ ` @.*.0X<XOXF.<X0XkXzX5XT.,X1XVXAXJXLXHXFXqX8XcXHXVXVXVXVXcX9XcXcXVXVXAXcXcXMX9X XN.Z.W.S.N.F.@.g ' ' :.[ p < < 7 } ' G s < 5 H K I P G G d d < < f s s d F J J F 3 4 < F I H H Y H K Y K J } | K K o.P.z.%.b.z.b.[ I H ) } H ) < < G P < a h s , < s f u y i i f f i ; - & & # O # # $ - y , t u , u < , , 1 , , u XXJ.C.C.C.S.S.Z.C.A.A.H.A.H.H.H.S.Z.W.W.H.S.Z.Z.Z.S.Z.Z.Z.S.S.E.C.E.E.E.Z.Z.Z.Z.Z.Z.Z.Z.Z.Z.Z.Z.Z.Z.Z.Z.Z.Z.Z.Z.Z.Z.Z.Z.Z.V.V.V.V.5.V.V.5.V.5.V.5.2.2.2.2.2.2.E.5.5.5.5.5.5.5.5.5.5.2.2.2.2.2.2.2.2.2.2.2.2.2.2.2.m.m.m.m.m.m.V.Z.Z.Z.Z.Z.C.C.C.C.",
"OX+X~.~.Y.Y.Y.Y.Y.J.H.H.A.H.S.C.W.S.S.W.S.S.S.S.W.W.W.S.W.W.W.!.W.W.~.~.~.+X~.~.OXY.OX~.+X~.~.~.~.~.+X~.~.~.~.~.~.+XJ.J.~.~.~.~.Q.Q.Q.Q.~.W.~.W.Q.W.W.W.Q.Q.W.~.W.~.~.H.H.W.~.~.J.J.~.~.H.H.H.H.H.H.H.U.Y.Y.Y.Y.Y..XXXOXOX.X.XXXOXOXOXN.s s d s t , u B B h t g d 5 _ F._ d s @.zXBXCXc.` #.@.MXDX9X,XXXMXhXcXMX<X<X8X9XHXHXHXJXLXLXJX9XcXbXAXAXVXVX9X9X9XnXAXnXAXvX8X<X8X X%.C.^.I.*. X].@.g ) #.P 4 k < p '  .7 3 < < J } d < s d F F d d u , o 2 d a F P 3 4 8 H H H H J J K ' H 5 5 } } P <XBXkX_ { :.` %.<X X@./ G t y , b ( < h h , o , u < 2 2 y f g f i y - O & + ; O $ $ 2 + , + , < g s < , , u u o X.Y.A.C.G.Z.Z.Z.Z.A.A.H.H.H.H.H.H.Z.W.W.H.W.S.Z.Z.S.Z.Z.Z.Z.S.E.Z.E.E.E.Z.E.E.E.E.Z.Z.Z.Z.Z.Z.Z.Z.V.Z.Z.Z.Z.Z.Z.Z.Z.Z.Z.Z.C.V.V.V.5.V.V.5.V.5.V.5.5.5.5.5.2.V.5.E.5.5.5.5.5.5.5.5.2.5.2.2.2.2.2.2.2.2.2.2.2.2.2.2.2.2.m.m.m.m.V.Z.Z.Z.Z.Z.Z.Z.Z.Z.",
"OXOX~.~.Y.Y.Y.Y.Y.J.H.H.A.H.A.C.W.S.S.W.S.S.S.S.W.W.W.S.W.W.W.!.W.W.~.~.~.+X~.~.OXY.OX~.+X~.~.~.~.+X~.~.~.~.~.~.~.+XJ.J.~.~.~.~.Q.Q.Q.Q.~.W.~.W.Q.W.W.W.Q.Q.W.~.W.~.~.H.H.W.~.~.H.H.~.~.H.H.H.H.H.H.H.U.Y.Y.Y.Y.Y..XXXOX.X.X.XXXOXOX3X*.< s P h f B @.z.N.] < t g < t g G I g s _ @.B n ) ` <XJXmXNX<X,XCX9XcX9XgXCXCXVXAXHXHXLXHXHXJX9X9XVXHXHXAXAX9X9XcXAXnXnXnXvX8X8XCXgX X5X,X,XP.0XMXFX%.P ) 7 4 u < a } | 5 3 < < J I , o 4 a G J J F < 2 % 2 s a a g 2 4 8 J H H H S S J H a 5 5 :.#._ <XhXhX%./ ) N.0X9XcXBX%._ v.gXZ u ( p a f , + , f , u u u ] ] f y , & $ & B @.B + 2 2 l B l y < 5 s < , , < < 2 , F.H.G.G.A.A.Z.Z.H.H.H.H.H.H.H.H.Z.W.W.H.W.S.Z.Z.S.Z.Z.Z.Z.S.E.Z.E.E.E.Z.E.E.E.E.Z.Z.Z.Z.Z.Z.Z.Z.V.Z.Z.Z.Z.Z.Z.Z.Z.Z.Z.Z.C.V.V.V.5.V.V.5.5.V.5.V.2.2.5.5.2.2.V.V.5.5.5.5.5.5.5.5.2.E.2.2.2.2.2.2.2.2.2.2.2.2.2.2.2.2.2.2.m.V.Z.Z.Z.Z.Z.Z.Z.C.Z.Z.",
"OXOXOXOXY.Y.Y.J.Y.J.H.H.H.W.S.S.W.W.W.W.W.W.W.W.W.W.W.W.W.W.Q.Q.W.W.~.~.~.+XY.~.OX~.+X~.+X+X~.~.+X+X~.~.~.OXOX~.~.+XJ.Q.~.~.~.Q.~.Q.Q.~.~.W.~.Q.Q.W.W.W.Q.W.W.Q.W.~.~.W.W.W.W.W.H.H.H.~.H.~.H.J.H.!.!.H.Y.Y.Y.Y.Y..X.XOX.X.X.XXXOXOX3X_ p s _ g ] z.@.%.z.( , 3 f s < d ) ' G g f u B f ) %.gXnXvXVX0XF.0XMX8X8XMXMXMXcXnXLXLXJXAXHXVX9X9XAXAXHXZXAXmX9XnXVXAXnXAXVX9XNXAXAXVX9XhX9XP..X<XzXXXP ) S F d a } ' | J 8 a a K } 4 , o 5 H H K H < , , , d d a s 2 4 a J H H I J S a a 5 5 F 4.' ) N.9XCX<.) *.MX9X9XhXhX8X&.bXhX}.N , p G g < , f ( %.b.K.[ h B f , u u y @.).M.K.] , y c.).@., < s p < < s u , u , X.J.G.N.G.A.H.A.A.A.H.H.H.H.H.S.Z.W.W.S.H.S.Z.Z.S.Z.Z.Z.Z.S.E.Z.E.E.E.E.E.E.Z.Z.Z.Z.Z.Z.Z.Z.Z.Z.V.V.Z.Z.Z.Z.V.V.C.V.V.V.V.V.V.V.V.5.Z.5.5.5.5.5.2.2.2.5.5.2.V.2.5.5.V.V.V.2.2.5.m.m.2.2.2.2.2.2.2.2.2.2.2.2.2.2.2.2.m.m.m.V.Z.Z.Z.Z.Z.Z.Z.Z.Z.S.",
"OXOX+XOXY.Y.Y.J.Y.J.H.H.H.W.S.S.W.W.W.W.W.W.W.W.W.W.W.W.W.W.Q.Q.W.W.~.~.~.+XY.~.OX~.+X~.+X+X~.~.+X+X~.~.~.~.OX~.~.+XJ.Q.~.~.~.Q.~.Q.Q.~.~.W.~.Q.Q.W.W.W.Q.W.W.Q.W.~.~.W.W.W.W.W.H.H.W.~.H.~.H.H.H.!.!.H.Y.Y.Y.Y.Y..X.XOXOX.X.XXXOXY.Y.b p g P g [ z.g ( ( t , u f f h ` ' I G g V  X2XP.%.*.kXVXvXVX8X<X2X2X X0XkXMXMXVXVXVXBXVXHXVXBXcXvXVXHXHXHXVXcXnXnXnXAXZXZXAXVXHXZXnXvXbXBXkX<XP.c.<XXX` I ' ` ' / } } K I P ) ' } } g , < G I H K H s p 3 s d a a 5 < < d F d a F J H J F F H } | K ' B. Xc.#.` 9X9XmXmXmXmXbXhXhXhXbX].s g P s , , s G L.K.L.] , u y , , u < V L.K.M.z., u %.z.] i , t f 5 g b s u u u s F.C.C.A.A.H.H.A.A.A.H.H.H.H.S.C.W.H.S.W.S.Z.Z.S.Z.Z.Z.Z.S.E.Z.E.E.E.E.E.E.Z.Z.Z.Z.Z.Z.Z.Z.Z.Z.V.V.Z.Z.Z.Z.V.V.V.V.V.V.V.V.V.V.5.5.V.5.5.5.5.5.2.2.2.5.5.5.5.5.5.5.V.5.2.2.2.2.V.m.2.2.2.2.2.2.2.2.1.1.2.2.2.2.2.2.m.m.m.V.Z.Z.Z.Z.Z.Z.Z.Z.Z.S.",
"OXOXOXOX~.Y.Y.J.Y.J.H.H.H.W.S.S.W.W.W.W.W.W.W.W.W.W.W.W.W.W.Q.!.W.W.~.~.~.~.~.~.OX~.+X~.+X+X~.~.+X+X~.~.OXOXOX~.~.+XJ.~.~.~.~.Q.~.Q.Q.~.~.W.~.Q.Q.Q.W.W.Q.W.W.Q.W.~.~.W.W.W.W.W.H.H.Q.~.H.~.H.H.H.!.!.H.U.Y.Y.Y.Y..XOXOXOXOX.XXXOX3X%.5 s s G d g h d d t t < s ( p g ) a F G V c.8X<X1XN.N. XCXcXcXVXVXvX9XP.3X0X<X8XkXkXkXMXMXcXBXzX8XcXVXHXJXVXgX8XBXVXnXnXAXZXZXAXVXAXAXJX8X<X4XzXkX<X<X*.P H ' :.) ' ) F d < 3 d ) K K a d ' } H H I F d d a F S F a G P G G d 6 < 5 F K K H H K K K K K ' #.' ' ` 9XmXnXmXhXmXcX9X9XBXlXc.o.G s & O X u s %.K.@.t , , , , t u , , B z.%.V t u B _ l & X + s P G G f t u s u X.OXB.A.A.G.G.A.A.A.H.H.H.A.S.C.W.S.S.W.S.Z.Z.S.Z.Z.Z.Z.S.E.C.E.E.E.E.Z.Z.Z.Z.E.E.E.E.Z.Z.Z.Z.V.V.V.V.Z.Z.Z.Z.V.V.V.V.V.5.5.V.5.5.V.5.5.5.5.5.2.2.2.2.5.5.2.5.5.5.5.5.2.2.2.2.V.m.2.2.2.2.2.2.2.2.2.2.2.2.2.2.2.2.m.m.m.V.Z.Z.Z.Z.Z.Z.Z.Z.Z.S.",
"OXOXOXOX~.Y.Y.J.Y.J.H.H.H.W.S.S.W.W.W.W.W.W.W.W.W.W.W.W.W.W.W.!.W.W.~.~.~.~.~.~.~.~.+X~.+X+X+X~.+X+X~.~.OXOXOX~.~.+XJ.~.~.~.~.Q.~.Q.Q.~.~.W.~.Q.Q.Q.W.W.Q.W.W.Q.W.~.~.W.W.W.W.W.H.H.Q.~.H.~.H.H.H.!.!.H.Y.Y.Y.Y.XXOXOXOXOXOX.XXXY.3X_ 5 s t b p h ) d d s s t f _ f s d ) #._ ( c.<X<Xc.N.G.F. X9XnXnXvXAXMX5XXX0XCXCXCXBXgX9XqX9XgX8X2XcXAXcXcXMX9X8XMXVXnXnXHXHXAXAXHXAXHXMX X,X<XkX].*.5X%.a G J ) ) ` G G d 3 3 5 H } K H } ) a 5 H G < 4 < a J J S s < 5 F G d 6 s < d H K S 8 J K K K J K Y Y ' _ &.bX9XcXbXmXhX9X{.8X2X%.$.#.u + # X u g p B f , t t < , , , i y y i i o , , t u + + + + t f ) G g < u u u s G.A.S.A.G.G.A.A.A.A.H.H.H.S.Z.W.E.S.H.S.Z.Z.S.Z.Z.Z.Z.S.E.C.E.E.E.Z.Z.Z.Z.Z.E.E.E.E.Z.Z.Z.Z.V.V.V.V.Z.Z.Z.Z.V.V.V.B.5.5.5.V.5.5.V.5.5.5.5.5.5.2.2.2.2.V.2.5.5.5.5.5.2.5.5.2.V.m.2.2.1.2.2.2.2.2.2.2.2.2.2.2.2.2.m.m.m.V.Z.Z.Z.Z.Z.Z.Z.Z.Z.S.",
"OX+X~.~.OXY.Y.Y.~.J.H.W.W.W.W.W.H.H.H.H.H.H.H.H.W.W.W.W.W.W.W.!.!.!.~.~.~.~.~.+X~.~.~.~.+X+X+X~.OXOX~.+XOXOXOX+X~.~.~.~.~.~.~.~.~.~.Q.^.Q.Q.^.Q.~.~.~.!.~.W.W.!.W.W.Q.Q.Q.Q.Q.Q.H.H.W.~.H.~.~.~.J.~.~.J.Y.Y.Y.Y.XX.X.X.X.X.X.X.XOXOXg s f u s p $.b.` G 5 g g _ 2X2XB ( %.%.@.@.2X X].*.I.U.~.P.9XVXnXAXCX8X X<XVXAXHXJXVXcXmXMXkX8X}.VXLXKXVX9XMXMXcXCXVXvXHXHXHXAXAXAXZXJX8X9XgXMXMX<X*.*.*.b G H ' { ' ' I I 7 5 8 H | | | ' 5 4 4 d g < 2 , 5 F J F , @ X % g F 6 6 d F H J < 3 a J K K K Y Y I b X.{.c.X.6.8X}.cX9X2X2XK.b.M.D.@.o y < g g < p s u s < < b u y y i i y i @.B y , y u t , , + y g a p s u , z u X.XXG.H.G.C.A.A.A.A.A.A.A.A.Z.W.W.S.W.S.Z.Z.S.Z.Z.Z.S.S.E.Z.E.E.E.E.E.E.E.E.Z.Z.Z.Z.Z.Z.Z.V.V.V.V.V.V.V.V.V.V.V.V.V.5.5.5.5.5.5.V.V.5.5.5.5.5.5.2.2.5.5.5.5.5.5.5.5.5.5.5.5.5.2.2.2.2.1.3.3.2.2.1.1.1.1.1.2.2.2.2.2.m.V.V.Z.B.Z.Z.D.Z.D.S.S.",
"OX+XOXOXOX~.Y.Y.~.J.H.W.W.W.W.W.H.H.H.H.H.H.H.H.W.W.W.W.W.W.W.!.!.!.~.~.~.~.~.~.+X~.~.~.+X+X+X~.OXOX~.+XOXOXOX+X~.+XH.~.~.~.~.~.~.~.Q.^.Q.Q.^.Q.~.~.!.!.~.W.W.!.W.W.Q.W.Q.Q.Q.Q.H.H.W.~.H.~.~.~.J.~.Y.J.Y.Y.Y.Y.XX.X.X.X.X.X.X.X3X*.s f < b b g $.D.#.P a d d *.kXgX*.s ( %.@.c.2X X2X<XXXI.U. XkXVXnXnX2X X].CXZXGXHXnXAXHXHXVX8X9XVXKXLXLXnXcXcXNXVXAXNXVXJXHXHXZXHXnXvXVXhXBXbXVXkX,XOXU.*.o.) P 4.4. .{ ' } d 5 S ' | | | | < 4 < g g < + o 6 F J G , $ @ o g d < < 8 F H F < 4 8 H J H K I I o.8XgXgX2X%.o.2XcX{.hXgX1X(.L.M.m.@., t g ( 5 5 s < p s p p s y + f f i y @.).1XB + y s t t y O ; u t < k , u u s s c.J.H.C.C.A.H.A.A.H.H.A.S.Z.W.W.S.W.S.Z.Z.S.Z.Z.Z.S.S.E.Z.E.E.E.E.E.E.E.E.Z.Z.Z.Z.V.V.V.V.V.V.V.V.V.V.V.V.V.5.5.5.5.5.5.5.5.5.V.V.5.5.5.5.5.5.2.2.5.5.5.5.5.5.5.5.5.5.5.5.5.2.2.2.2.3.3.3.2.2.2.1.2.2.1.2.2.2.2.2.m.V.V.Z.V.Z.Z.B.Z.Z.D.S.",
"OXOXOXOXOXOX~.~.~.J.H.W.W.W.W.W.H.H.H.H.H.H.H.H.W.W.W.W.W.W.W.!.!.!.~.~.~.~.~.~.+X~.+X~.+X+X+X~.+XOX~.+X+XOX+X~.~.+XJ.~.~.~.~.~.~.~.~.^.Q.Q.^.Q.~.~.~.~.~.W.W.!.W.W.W.W.W.W.Q.Q.J.J.~.~.H.~.~.~.W.~.~.J.Y.Y.Y.Y..X.X.X.X.X.X.X.X3X_ u u p ` #.) ( %.( f s s d X.<X8X%.p g g %. X X XMXMXkX2Xc.0XFXcXnX9X<X X2XMXJXHXHXHXHXHXAXHXmXJXLXHXHXLXbXnXvXAXAXAXvXJXJXHXHXAXHXHXnXcXbXbXbXBXkXXX3X~.C.%.#.<.E.:.:.{ m.{ F J Y | | | | | H 5 5 ) I < 4 < d F J F d p 5 d d s 2 % 3 d J S 8 8 J K K ' 4.#.B 8XhXhX}.hXc.2XDXDX'.Z hX8XV g >.>.` a G ) g f s p a d a d t , + C ,XK.f i v.v.).c.y , t < , + ; - & + & % u t < f , X.~.E.A.H.A.A.H.H.H.H.H.S.Z.W.W.S.W.S.Z.Z.S.Z.Z.Z.S.S.W.Z.E.E.E.E.E.E.E.E.Z.Z.Z.Z.V.V.V.V.V.V.V.V.5.5.5.5.5.5.5.5.5.5.5.5.5.5.V.V.5.5.5.5.5.5.5.5.5.5.5.5.5.5.5.5.5.5.5.5.2.2.2.2.2.3.3.3.1.1.1.1.2.2.2.2.2.2.2.2.m.m.V.Z.V.Z.Z.B.D.Z.Z.D.",
"+XOXOXOXOX~.~.~.~.J.H.W.W.W.W.W.H.H.H.H.H.H.H.H.W.W.W.W.W.W.W.!.!.!.~.~.~.~.~.~.+X~.~.~.+X+X+X~.+XOX~.+X+X+X+X~.~.~.~.~.~.~.~.~.~.~.~.^.Q.Q.^.Q.~.~.~.~.~.W.W.!.W.W.W.W.W.W.W.Q.Q.Q.~.~.H.~.~.~.W.~.~.J.Y.Y.Y.Y..X.X.X.X.X.X.X.XY.b u u p ` #.F < s u t 5 < s b l N s f b _ c.c.c.8XcXcXvXCX<XzXDXVXAXBX0X5X0X8X9XVXHXmXHXHXJXJXcXHXHXLXHXLXnXVXAXAXAXZXcXLXJXHXHXHXcXcXcXcXbXbXcXBX<Xc. X.XY.C.U.!./.:.' ) { /. .' ' K ' | ..| :.' H ' ' H g G F F F F F F F F d s % % 3 d F S F J H J H o.#.X.B kX{.hX9XBX@.8XbXPXhXC 2Xc., p ) { ) ) ) a %.,X%.s G H F p < , + B (.(.] , c.c.c.@., t u t 2 ; - # O # $ + s p < u u u ~.E.A.!.A.A.A.H.H.H.H.S.Z.W.W.S.W.S.Z.Z.S.Z.Z.Z.S.S.W.Z.E.E.E.E.E.E.E.E.Z.Z.Z.V.V.V.V.V.V.V.V.V.5.5.5.5.5.5.5.5.V.5.5.5.5.5.V.V.5.5.5.5.5.5.5.5.5.5.5.5.5.5.5.5.5.5.5.5.2.2.2.2.2.3.3.3.1.2.2.1.2.2.2.2.2.2.2.2.m.m.V.Z.V.Z.Z.B.B.D.Z.Z.",
"+XOXOXOXOXOX~.~.~.J.J.~.W.W.W.W.W.S.W.H.H.H.H.H.W.W.W.E.W.W.Q.!.W.!.!.~.~.~.~.+XOX~.+X~.~.+X~.~.OXOX+XOX+X+X+X~.~.+X~.~.~.~.~.~.~.Q.Q.^.Q.Q.^.W.~.W.W.~.~.~.~.~.W.W.W.W.W.W.W.W.H.H.~.~.H.~.H.W.~.~.Y.J.Y.Y.XXOX.X.X.X.X.X.XY.3XN.t u u s ( P p < < u < 5 5 s 3 y i u f B 2X8X2X*.8XMXcXBXCX2XzXJXnXnXVX0X0X0XkX9X2X9X9XLXJXVXcXVXJXnXHXHXnXAXVXcXyXVXvXcXJXKXLXLXnX9X9XcXVX9XfXkXBX9XkXMX<XXXY.I.Y./.:.5 < 5 o.7.| 8 4 8 { 4.| d d ' | ' ' ' ) G J G F a d d d d d 5 6 d d F J K K K H H _ B B b &.fXBXkX*.) c.gXnX}.&.P.%.) G ' ) a ( p b ,X<X,Xf d F a s t + 2 , ( %.b s B @.N ; + + i + $ O # + ; y u f t t t < u < *.H.C.S.Z.A.C.C.A.A.A.A.C.H.S.Z.W.S.Z.Z.S.Z.Z.Z.S.S.W.Z.E.Z.E.E.E.E.E.E.Z.Z.Z.Z.V.V.V.V.V.V.V.V.5.5.5.5.5.5.5.5.5.5.5.5.5.5.5.5.5.5.5.5.5.5.5.5.5.5.5.5.5.5.5.5.1.1.1.1.2.1.3.1.3.2.1.3.1.1.2.2.1.1.2.2.2.2.2.2.2.m.V.V.B.D.Z.Z.Z.Z.Z.Z.",
"+XOXOXOXOXOXOX~.~.Y.~.~.W.W.W.W.H.H.W.H.H.H.H.H.W.W.W.E.W.W.Q.!.W.~.!.~.~.~.~.+XOX~.+X~.~.+XOX~.OXOX+XOX+X+X+X~.~.+X~.~.~.~.~.~.~.Q.Q.^.Q.Q.^.W.~.W.W.~.~.~.~.~.W.W.W.Q.W.W.Q.W.H.H.~.~.H.~.H.W.~.~.Y.Y.Y.Y.XXOX.X.X.X.X.X.XY.3XX.t u u u s u t u u u t g d s X.9XhX@.u &.<X2X1X%.5XkXMXCXkX X2XVXnXVXMX<X0X9X8XkXkXqXqXcX9X9XBXLXLXHXnXnXHXHXcXVXLXLXLXJXvXAXAXcXcX9XMXBXDXqX8XkXhXhXDXnXCX0XY.T.Y.^.#.P s 4 G 7.K 4 4 4 ) 4.H < < S | | J < 5 d ) G F d s < 6 d d d d d d J K K K K F b c.1X0X Xn @.&.X.b _ ] {.FXhX{.I.>.) } } ) 5 g p *.<X<X0X@.5 5 5 5 s , 4 < t t s s i i ; ; + + & & & O ; ; ; y s p < t < s u < _ .X5.A.C.C.C.C.Z.A.A.A.C.H.S.Z.W.S.Z.Z.S.Z.Z.Z.S.S.W.Z.E.Z.E.E.E.E.E.E.Z.Z.Z.Z.V.V.V.V.V.V.V.V.5.5.5.5.5.5.5.5.5.5.5.5.5.5.5.5.5.5.5.5.5.5.5.5.5.5.5.5.5.5.5.5.1.1.1.1.2.1.3.1.3.2.2.2.2.1.2.2.1.1.1.1.2.2.2.2.2.m.V.V.B.D.Z.Z.Z.Z.Z.Z.",
"+X+XOXOXOXOXOX~.~.~.~.~.W.W.W.W.H.W.H.H.H.H.H.H.W.W.W.E.W.W.Q.!.W.~.!.~.~.~.~.+X~.~.+X~.~.+X~.Y.OXOX+XOX+X+X+X~.~.+X~.~.~.~.~.~.~.Q.Q.^.Q.Q.^.W.!.W.W.!.~.!.~.~.W.W.Q.Q.Q.Q.Q.Q.H.H.~.~.H.~.H.W.~.~.Y.Y.Y.~.XXOX.X.X.X.X.XOXOX.Xb < f b t u , n v.1X*.s d s n hXmXbX].u c.8X9X1XF.N.5XzX5XI.T.P.2X9XkX2X8X9XmXmXgXqX2X8X8X2XgXJXHXHXHXHXJXVXcXMXLXHXHXHXLXvXVXvX9X9XcXBXnXVXBX9XBXhX9XnXnXVX5XY.XXXXOX%.#.) 5 ` 4.J 8 4 < ' :.a < < 8 ' G < , o o t I F d 3 2 2 < 6 5 d d G J J J K J s &.BXlX8XgX*.g P (  Xc.X.X.@.B @.<.{ ' ) { ' ) g p %.4X X0XX.g %.*.( s 5 a d p t , i - ; ; ; + + & - & ; + , y i X & s s 5 p t t s R.G.H.C.C.Z.Z.Z.Z.A.A.C.S.Z.Z.S.S.Z.S.S.Z.Z.Z.S.S.E.Z.E.E.E.E.Z.Z.E.E.Z.Z.Z.Z.V.V.V.V.V.V.V.V.5.5.5.5.5.5.5.5.5.5.5.5.V.V.5.5.5.5.V.V.5.5.5.5.5.5.5.5.5.5.5.5.1.1.2.2.2.1.3.1.2.2.2.2.2.1.2.1.1.1.1.1.2.2.2.2.2.m.V.V.B.D.Z.Z.B.D.Z.S.",
"+XOXOXOXOXOX~.~.~.~.~.~.W.W.W.W.W.W.S.W.W.W.W.W.W.W.W.E.W.W.W.!.W.!.!.~.~.~.~.+X~.~.~.~.~.~.~.Y.OXOX+XOX+X+X+X~.~.+X~.~.~.~.~.~.~.Q.Q.^.Q.Q.^.W.!.W.W.~.W.!.!.!.W.W.Q.Q.Q.Q.Q.Q.H.J.~.~.H.~.H.~.~.~.Y.Y.Y.Y.XXOXXX.X.X.XOX.X3XN.s s b g s u , @.8X1X2XB d p B cXhXbX&.u X. X{.{.P.R.F.N.S.!.P.0XMX9X].<X9XVXKXLX9X9XVXVXCX9XgXVXHXHXAXHXHXVX8XMXLXHXHXHXAXVXnXJXkX8XBXVXnXVXCX9XMXcXhXVXnXCX.XJ.XXXX,X,Xb.{ #.4.4.' 8 8 J :.' F < < J ' P < & # O , ) G < 3 2 2 6 d s s d G J H ' ' P s ].BXlXgXBX*.F I c.fXCX@.X.<X8X@.) ' ) ) / ' H g g s c.,X#.g b F..XN.d a S G f u y y = # O O - + y B V u u u y & O O u p G d < s , *.Y.C.C.C.Z.Z.Z.Z.A.A.C.S.Z.Z.S.S.Z.Z.S.Z.Z.Z.Z.S.E.Z.E.E.E.Z.Z.E.E.E.Z.Z.Z.Z.V.V.V.V.V.V.V.V.5.5.5.5.5.5.5.5.5.5.5.5.V.V.5.5.5.5.V.V.5.5.5.5.5.5.5.5.5.5.5.5.1.2.2.2.2.1.3.1.2.2.2.2.2.2.2.1.1.1.1.1.2.2.2.2.m.m.V.V.B.D.Z.D.B.D.D.S.",
"+X+X+X+XOXOX+X~.~.Y.~.~.!.!.W.W.W.W.E.E.E.E.E.S.W.W.W.W.W.W.W.Q.W.~.!.~.~.~.~.OXOX~.OXOXOXOXOXY.+X~.~.~.+X+X+X~.+X+X+X~.~.~.~.~.~.~.~.~.W.~.~.W.!.!.~.~.W.H.W.W.H.W.~.~.~.!.W.H.~.~.~.H.~.~.~.~.Y.Y.Y.~.~.Y.OXXXXXOX.X.X3XXX3Xo.s s s s d s u  X<X2Xc.3 b d s @.}.{.C n P ( X.2X0X0X0XXXU.I.<XVXVXVX8X2XcXKXLXLXJXJXHXJXLXVXcXAXHXZXGXAXHXcX9X9XJXKXKXLXVXHXcXMXqX8XMXbXAXnXgX8XVXcXcXBXFXzXC.Z.G.3X,X3X(.M.3.4.4.4.| | |  .| J 8 a } ' G 4 # # O , P a d s 3 3 d d 7 s 5 d ' } G a 5 s s *.<X0Xc.G G %.fXhXDX'.{.VXbXBX_ G G G G G d p g f g ( H G a %.4XP.P a d s y ; , y #   # - - + %.K.z.V h b , & # O p g d d 5 s < _ .X6.C.C.Z.A.C.C.C.C.Z.Z.Z.Z.S.Z.Z.Z.Z.Z.Z.Z.E.E.E.E.E.Z.E.Z.E.E.E.E.Z.V.Z.V.5.5.5.5.5.5.5.5.5.5.5.5.5.5.5.5.5.5.5.5.5.5.5.V.V.V.5.5.5.5.5.5.5.5.5.5.5.5.5.5.2.2.2.2.2.2.3.1.1.2.2.2.1.2.3.2.2.2.2.2.3.1.2.m.2.m.V.V.V.V.S.D.Z.Z.S.S.",
"+X+X+X+XOXOX+X~.~.~.~.~.!.!.W.W.W.W.E.E.E.S.E.E.W.W.W.W.W.W.W.Q.W.~.~.~.~.~.Y.OXOXOXOXOXOXOXOXY.+X~.~.+X~.+X+X~.~.+X~.~.+X~.~.~.~.~.~.~.W.~.~.!.!.!.!.!.W.H.W.H.H.W.~.~.~.!.W.H.~.~.~.H.~.~.~.~.Y.Y.Y.~.Y.Y.XXXXOXOX.X.XOXOX3X_ p s b d g a s *.2X XB , < s s f x.{.2XB ( G c.CXkXkX0XzX^.T.CXmXmXVX0X XDXLXLXLXHXHXAXHXHXHXnXAXHXAXHXHXAXVXCXkX2XMXgX}.AXAX9XMXkX<X8X9XcXbX8X8XNXVXMX2X2XF.H.W.H..X,X3X^.3.4.4.4.4.........4.| ) ' | ' H < o X , s P d g s 3 < d a 8 7 6 d H J 5 5 6 d 7 d *.( a H F %.lXbXfX&.hXhXIXBX*.d ( V a g b _ f f g G H H G ( z._ p 5 d < + & & - = # # - - + $.M.z.( 5 s y + O + d a 5 s p p t f XXN.C.C.Z.A.C.C.C.C.Z.Z.Z.Z.S.Z.Z.Z.Z.Z.Z.Z.E.E.E.E.E.Z.E.Z.E.E.Z.Z.Z.Z.V.5.5.5.5.5.5.5.5.5.5.5.5.5.5.5.5.5.5.5.5.5.5.5.V.V.V.V.5.5.5.5.5.5.5.5.5.5.5.5.5.2.2.2.2.2.2.2.3.1.1.2.2.2.1.2.3.2.2.2.2.2.3.1.2.m.2.n.n.V.V.V.D.V.Z.Z.C.S.",
"+X+X+X+XOXOX+X~.~.Y.~.~.!.!.W.W.E.E.E.W.W.E.W.W.W.W.W.W.W.W.W.W.W.~.~.~.~.~.Y.OXOX~.OXOXOXOXOX~.~.~.+X+X~.+X+X~.~.+X+X~.+X+X~.~.~.~.~.~.!.~.~.!.!.!.!.!.W.H.W.H.H.W.~.~.~.~.W.H.~.~.~.H.~.~.~.W.Y.Y.~.~.~.XX.XOXOXOX.X.XOXOXI.g s ( P g G F P p f n + C c.8XX.@.BX9X9XB G #.8XkXkX0X0XzX3XR.kXbXmXCX<X<XCXKXLXLXnXHXAXLXHXHXHXAXHXHXHXZXAXJXFX0X<X5X,X<XCXVX6XCXkX<XqXMX9XCX X8XNXNXMX X4XG.Z.Q.W.J.XXOXC.2.7...:.4.......| | :.4.| | ' ) ) P G ) ' H a 5 6 s d d d F F I H K J 5 < 6 7 7 P ` ) P F F F X.( d B 9XbXIXFX@._ gX8X_ t ].MXc.u d G I H H J F d 8 5 G 5 + @ $ & ; ; ; & & + ] b.z.f , < y y , s a a < < s < t < F.N.C.C.Z.A.C.C.C.C.Z.Z.Z.Z.Z.Z.Z.Z.Z.Z.Z.Z.E.E.E.E.E.Z.E.Z.E.E.E.E.V.V.5.5.5.5.5.5.5.5.5.5.5.5.5.5.5.5.5.5.5.5.5.5.5.5.5.5.5.5.V.5.5.5.5.5.5.5.5.5.5.5.5.5.5.2.2.2.2.2.3.1.1.1.2.2.1.2.3.2.2.2.2.2.3.1.2.m.m.1.B.V.V.V.Z.V.D.Z.C.S.",
"+X+X+X+XOXOX+X~.~.Y.~.~.!.!.W.W.E.W.W.W.W.W.W.W.W.W.W.W.W.W.W.W.W.~.~.~.~.~.Y.OX~.~.OXOXOXOXOX~.~.~.+X+X+X+X~.~.+X+X+X~.~.+X~.~.~.~.~.~.!.~.~.!.!.!.!.!.W.H.W.H.H.W.~.~.~.~.W.H.Q.~.~.H.~.~.~.W.Y.Y.~.~.~.XX.XOXOXOX.XXXOX3X*.p g _ a d F G G a < , B gXgXBX].n gXhXlXB ) $.<XlX0X8X0X0XT.R.P.8XCX8X X,X2XBXJXvXbXHXHXHXHXHXHXAXHXHXHXnXAXVXCX2X2X<X<X XMXVXcXVXMX2X9XgXqX0Xc.8XNXVXMX XOX~.Y.6.6.XXJ.J.1.2.=.J a ' ..| J 5 5 H ..| | K a a F } } } } H d s 6 5 5 a F H J H J F 5 5 7 7 I I I ` %.%._ F 8 5 H ` @.jXFX2XB kXhXcX0XB cXhXkXX.p G F F J J H F 5 8 G a , O $ + - + + $ # + , [ _ t , 2 , u t t h p s t s < < < %.I.C.C.Z.Z.C.C.C.C.Z.Z.Z.Z.Z.Z.Z.Z.Z.Z.Z.Z.E.E.E.E.E.Z.E.Z.E.E.E.Z.V.5.5.5.5.5.5.5.5.5.5.5.5.5.5.5.5.5.5.5.5.5.5.5.5.5.5.5.5.5.V.V.5.5.5.5.5.5.5.5.5.5.5.5.5.2.2.1.2.2.3.1.1.1.2.2.1.2.3.2.2.2.2.2.3.1.2.m.m.2.2.B.V.V.Z.B.D.Z.C.S.",
"@X@XOX+XOXOX+X~.~.~.~.~.!.!.W.W.W.W.W.E.E.E.W.W.W.W.W.W.S.W.W.!.W.W.~.~.~.~.Y.OX~.~.OXOXOXOX~.~.+X+X~.+X+X+X+X+X~.+X+X~.+X+X~.~.~.~.~.~.!.~.~.!.~.~.H.~.W.H.~.H.W.W.W.W.W.W.W.W.Q.Q.U.Y.~.~.~.~.Y.Y.~.~.Y.XX.XOX.XOX.XOXY.3XX.< P 4.#.G F F J G g f 2XhX9XgX{.y C &.@.b ` >.N.4XzXzXzX,X!.^.A.I.5X.X,X5X4X0X0X<XBXHXHXHXHXHXHXAXHXHXHXHXAXnXNXmXVXJXLXVX}.CXcXVXMX9X9XqXkX0X X0XNXNXkXXXT.5Xo.6 6 *.R.C.V.4.I 8 4 5 4.} < , 4 < | ..' 5 a a a J } } } G d b F F G F 8 d J J H H H } ' H Y ' ' %. XgX*.3 5 8 ) ` I I ' p c.bX}.bX].&.cX9XhXc.p G H a F F J S 7 8 I I s , 2 & O O + + # @ f g g t + $ + + , u s t t t t t t < _ Y.N.D.D.S.S.S.C.C.Z.Z.Z.Z.Z.Z.Z.Z.Z.Z.Z.Z.Z.Z.Z.Z.E.V.E.Z.Z.Z.Z.Z.Z.V.5.5.5.5.5.5.5.E.E.E.E.E.5.5.5.5.5.5.5.5.5.5.5.5.E.5.5.5.5.5.5.5.5.5.5.5.5.5.5.5.5.2.5.1.1.1.2.2.3.3.1.1.1.2.2.2.2.2.2.2.2.2.2.2.2.2.m.m.B.V.V.V.Z.Z.B.D.S.A.",
"@X@XOX+XOXOX+X~.~.~.~.~.!.!.W.W.W.W.W.W.E.E.E.E.W.W.W.W.S.W.W.!.W.W.~.~.~.~.Y.OXOX~.OXOXOXOX~.Y.+X+X~.+X+X+X+X+X~.+X+X~.+X+X~.~.~.~.~.~.!.~.~.!.~.~.H.~.W.H.~.W.W.W.W.W.W.W.W.W.~.~.H.H.~.~.~.~.Y.~.~.~.Y.XX.XOX.XOXOXOXOX.XB < ` 3.<.o.d G H G ) V 8XBXBXkXB f @.{.@.@.<.V.B.F.P.<X XF.T.3X4X4X.XP.5X0X<X5X0X0XcXHXAXHXHXHXHXAXHXHXHXHXAXAXcXJXLXHXGXLX9XcXDXVXVXJXFXgXgX0X X0XNXVX0XXX3X5Xf 3 3 v R.C.2.4.Y U s 5 4.' 4 , 4 5 ..| a 5 d d g I } | ) a 5 p H I F 5 < s d d H I K } I a I } o.<.{.{.8Xu 8 a P o.#.' J a c.hXBXMXn @.kX9XMX&.s h g a a F S S F F I d < u t , # O y + . O _ [ #.g + @ + ; , u u t t , , t t < f P.C.D.C.S.S.S.C.C.Z.Z.Z.Z.Z.Z.Z.C.Z.C.Z.Z.Z.Z.Z.Z.E.V.Z.5.E.E.E.Z.V.5.Z.E.Z.Z.V.V.E.E./.W.W.W.E.E.Z.Z.Z.E.W.W.E.E.E.5.5.5.2.5.5.5.5.5.5.5.5.5.5.5.5.5.5.5.5.1.1.1.2.2.3.3.3.3.1.2.2.2.2.2.2.2.2.2.2.2.2.2.m.m.B.V.V.V.Z.Z.D.D.S.A.",
"@X@XOX+XOXOX+X~.~.~.~.~.!.!.W.W.W.W.W.W.E.E.E.E.W.W.W.W.H.W.W.!.W.W.~.~.~.~.Y.OX~.~.OXOXOXOX~.Y.+X+X~.~.+X+X+X+X~.+X+X~.+X+X+X~.~.~.~.~.!.~.~.!.~.~.H.~.W.H.~.W.W.W.W.W.W.W.W.W.~.~.~.W.~.~.~.~.Y.~.~.~.OXXXOXOXOXOXOXOXOXF.n u ( <.%.b < s d F p t z *. XX.< c.gXgX<Xc.G.A.U.A.F.P.F.F. XCXFXVXVXgXkX X2XkXCXMXmXHXAXHXAXHXAXVXHXHXAXAXHXHXmXLXLXHXHXLXNXVXZXZXHXAXVXcXhXkX,X5XVXcX<X,X,X0X_ 4 3 X.Y.W.E.4.' I d G 4. .a 4 5 } ..| I 7 3 , 4 5 ' | d < 4 < H K d 4 < 3 3 < a H G 5 4 4 I :.#.G. X8X<Xs a I @.fXlX8X` h C &.@.n s f *.0X].n s V c._ a F a a J H F 5 < s b < + X b u . X _ { ` g + $ y y ; - 2 2 , V %.f t i t *.I.B.S.C.C.C.C.C.Z.Z.Z.Z.Z.Z.C.C.Z.Z.Z.Z.Z.Z.Z.Z.E.V.E.V.E.E.E./.E.E.E.E.5.5.1.<.<.<.:.#.#.#.<.<.<.<.<.<.<.<.<.<.4.7.7.E.5.5.5.5.5.5.5.5.5.5.5.5.V.V.5.5.5.1.1.1.2.2.3.3.3.3.3.1.2.2.2.2.2.2.2.2.2.2.2.2.m.m.V.V.V.V.Z.Z.Z.C.S.A.",
"@X@XOX+XOX+XOX~.~.~.~.~.!.!.W.W.W.W.E.E.E.E.E.E.W.W.W.W.W.W.W.!.H.W.~.~.~.~.Y.OX~.~.OXOXOXOX~.Y.+XOX~.~.+X+X+X+X~.+X+X~.+X+X+X~.~.~.~.~.!.~.~.!.~.~.H.~.W.H.~.H.W.W.W.W.W.W.W.W.~.~.~.~.~.~.~.~.~.~.~.~.OXXXOXOX.X.X.XOXOX*.u u 5 _ ( p s t d P b s 4 4 p g s @.{.9X0XF.G.G.G.T.5X4XzX X0XFXnXZXZXVXFX<X8XFXcXVXcXAXAXLXAXHXAXAXHXAXAXHXHXmXmXKXLXHXLXJXVXAXAXAXVXVXcXMXcXMX<X<XMX9X<X,X5X5XXX_ _ C.H.V.7.4.{ } H | ....4.' | | ....H d 4 2 1 4 K | d 5 < < J J d < 3 3 4 4 d G g u 2 4 8 =.` #.%.c._ p G ` kXBXhXFXc.s C gX].u o.G f b f f s P.jX1X( a a a S H P 8 < s P d + o s b o + G ) h t 2 & y ; + + & 2 y c.P.@., i , @.Y.B.S.C.C.C.C.Z.Z.Z.Z.Z.Z.Z.C.Z.Z.Z.C.C.Z.Z.Z.Z.Z.Z.W.W.^.W.Z.5.#.#.#.o.o.#.%.%.%.%.*.*.*.*.%.%.%.%.%.%.%.%.%.o.` ` ) ) o.#.<.5.Z.Z.5.5.5.V.V.V.V.V.5.5.5.2.1.1.2.2.3.3.3.3.3.1.2.2.2.2.2.2.2.2.2.2.2.2.m.m.V.V.V.V.Z.Z.Z.S.S.A.",
"OXOXOXOXOXOXOXOX~.~.~.~.~.W.W.W.W.W.W.W.E.E.W.W.W.W.W.W.S.W.W.W.H.H.~.~.~.OXY.OX~.~.~.OXOXOX~.~.+X+X~.~.+X+X+X~.~.+X+X~.~.~.~.~.~.Q.~.Q.~.~.~.~.~.!.!.~.W.W.W.W.Q.H.Q.H.H.J.Q.Q.~.J.J.J.Y.~.~.~.Y.~.~.~.~..XOXOXXX3X.XOX3X_ u u u u s 5 p s f f f f 5 P P d s t C @.c.%.J.I. X0X<X1X8X8XkXCXvXnXAXcXkX9X9XJXJXJXHXAXAXAXAXHXAXHXAXAXAXVXVX{.9XKXLXLXHXvXVXVXCXCXMXkXkXcXcXVX0X<X<X0X5XT.S.!.~.+X^.E.E.E.7.7.4.4.4.7.................} H 4 o 1 < K | } J 5 F J K J d 6 < 5 d J F s u < 7 ' J J G _ _ b s U F *.BXbXBX%.f hXnXPXgX%.G H G / a _ ,X2XxX] 5 F S S J I a 5 I H I u + , 3 g p a h , y 2 y y - & O O - i %.F.] < u , n .XB.S.C.C.V.V.V.V.V.Z.Z.Z.V.V.V.Z.Z.C.5.H.C.Q.^.W.S.C.#.#.o.X.X.%.*.c.c.]. X X2X8X1X8X8X8X8X0XkXzX0XkXjXjXfX1X8X8X8X8X1Xc.c.*.@.%.6.5.Z.E.E.5.5.V.V.5.5.V.5.5.5.2.2.2.3.3.3.2.2.2.2.2.2.2.2.2.2.2.2.2.2.m.m.V.V.V.V.Z.D.D.S.S.S.",
"OXOXOXOXOXOX.XXX~.Y.~.~.~.W.W.W.W.W.W.W.E.E.W.W.W.W.W.W.S.W.W.W.H.H.Y.~.~.OXY.OX~.~.~.OXOXOXOX~.+X+X~.+X+X+X+X~.~.+X+X~.~.~.~.~.~.Q.~.Q.~.~.~.~.~.!.!.~.W.W.W.W.Q.H.Q.H.J.J.Q.Q.Y.J.J.J.Y.~.~.~.Y.~.~.~.~..XOXOXXX.X.X3XXXb s u n u b X.s s s u u u s g P s B *.9X@.p #.~.XX<X8X8X0X8X0X0X8XMXVXMX9XkX<X2XJXHXHXHXHXHXHXHXHXHXHXAXAXAXHXLXMX9XkXHXZXnXnXAXBX<X<X<XqXqXcXcXcXMX<X<X5X5X3XS././.W.E./.5.:.) 3.3.3.7.7.:.7.......| H } | } < 4 4 5 | | } ' K H K H H F d 8 F G H F d s d F J J J P T.,XF.X.7 F u C x.B g g 2XbXbX].P I ) ' ' G @.P.2X1X/ a F S S F a a F J J I s , o < d F G s + - y + + + + O O ; y B _ u , 2 2 2 I.H.C.D.V.V.V.5.5.5.V.V.C.C.V.V.5.Z.W.!.H.C.<.%._ _ X.%.*.F.XX0X0X0XkXkXkXkX0X8X2X2X2X2X]. X X X X X<X8X8XfX8X2X8X2X2X{.1X1X8X0X5XF.6.6.C.C.V.V.V.V.V.V.V.5.5.5.2.2.2.2.2.3.2.2.1.1.2.2.2.2.2.2.2.2.2.2.m.m.V.V.V.V.Z.Z.D.S.S.S.",
"OXOXOXOXOXOX.XXXOXY.~.~.~.~.W.W.W.W.W.W.E.E.W.W.W.W.W.W.S.W.W.W.H.H.Y.~.~.OXXXOX~.~.OXOXOXOX~.~.+X+X~.+X+X+X+X~.~.+X+X~.~.~.~.~.~.Q.~.Q.~.~.Q.~.~.W.W.~.W.W.W.W.Q.H.Q.J.J.J.J.Q.Y.Y.J.J.Y.Y.~.~.Y.~.~.~.OX.XOXOXXX.X.X3Xc.u f s s f %.%.%.s s f y y N l u n 9XhXmX2X_ #.:.6.3X0X0X0X0X4X3XN.5XzX4X5X3X<X8XFXHXHXHXHXAXvXHXHXHXHXAXZXAXHXHXVXkX8XcXVXAXAXAXHXgX9X9X9XBXcX9XBXBXqX5X5X5X5XH./.^.W./.6.#.o.4 5 3.7.4.' 5 5  .7.:.a 4 4 K | ' 8 8 ' | | | | | Y F F H H K K J J J H d F G F H J a _ ).).2XP.7 7 n C N n b d b %.%.f g ) ` ' ) G %.P.2X%.d G a S a a 5 5 F J J H d , , p 5 d h V + - i i B N y ; ; ; u u , < , 2 2 + @.T.C.D.V.V.C.C.Z.Z.V.C.B.C.E.!.W.5.4.` ) _ @.*. X8XkXCXCXBXkX0X8X].c.@.X.b n s < < < < < < < 4 < p s b ( _ X.%.*.c.P.,X,X<X2X<X2X2X9X].c.*.Z.V.V.V.V.V.Z.V.5.2.2.2.2.2.2.4.2.3.3.1.3.3.2.1.1.1.2.2.2.2.m.m.V.V.V.V.Z.Z.Z.S.S.S.",
"OXOXOXOXOXOX.XXXOXY.~.~.~.W.W.W.W.W.E.E.E.E.W.W.W.W.W.W.H.W.W.W.H.H.Y.~.~.OXY.OX~.~.OXOXOXOX~.~.+X+X~.+X+X+X+X~.~.+X+X~.~.~.~.~.~.Q.~.~.~.~.Q.Q.~.W.W.~.W.W.W.W.Q.H.Q.Q.J.J.J.J.Y.Y.J.J.Y.Y.Y.~.Y.~.~.~.XX.XOXOX.XXX.X5X@.u s f b b 6.N.%.u f , l }.nXVXx.N cX}.mX&.( :.Z.%.%.3X4X2X4X3XZ.E.Y.Y.3XOX3X.X XqXJXJXJXLXHXnXHXHXHXHXZXAXHXAXAXVX8X8XMXAXAXAXZXAXAXVXVXVXnXVXbXMXCX8XX.N.0X5X^.+X#.) E.5.6.U 4 4 } 7.| < 4 o ' 4.' 4 2 , J | | ' | } S S K | ' J a 8 I H K K H F a F G F G G H H a P P.).1Xc.8 P ].lXhX8X%.d H I H a a P ) ) ) G _ P.%.p d J 8 8 5 5 5 5 a J J F p < 5 s , 5 a V + O f ] %.2XB ; ; y u u u , y y + + n XXA.S.V.V.5.C.5.Z.W.~.H.5.<.#.) ` #.6..X0XzXzXkX9X].c.@.C C B u u u < 5 5 s 6 7 6 d d d F P ) b d 7 8 5 5 5 5 d d g b V _ @.*.c.{.{.].c. XI.A.C.C.Z.V.E.V.V.2.5.2.2.2.2.4.2.3.3.3.3.3.3.3.1.1.2.2.2.2.m.m.V.V.V.V.Z.Z.Z.S.S.S.",
"OX+X+X+XOX+XXXOX~.~.~.~.~.H.W.!.W.W.E.E.W.W.W.W.W.W.W.W.W.W.W.W.W.~.Y.~.~.~.Y.OXOXOXY.Y.OXOXOX~.+X+X~.+X+X+X+X~.~.~.+X~.+X~.~.~.~.Q.~.~.Q.Q.Q.Q.~.!.W.~.~.~.~.~.Q.H.~.Q.Q.Q.Q.Q.~.J.J.~.J.Y.Y.~.Y.~.~.~.XXXX.XOX.X.X.X,XB u s g B s ( %.B , u i {.HXbXbXVXN ].cX].].%.C.OX3X#.N. X X,XN.m./.^.3XOX3X3X3XXX X<XCXCXFXVXcXVXJXJXAXZXAXHXAXAXAXgXfXkXFXAXnXZXZXAXAXAXvXnXnXcXNXCX*.P 4.5X5X3X<.5 5 I 5.4.I 4 < ' 7.:.5 , 4 K 4.' < , 4 } | | | | H 4 < S ' G d < s G H K H d < < 5 F F F F F H H ) %.z.c.b a o.BXhXhXBX2Xg ) ' ' J F F a a a a p / a a F a 8 5 d F F d 8 8 F a 5 5 s < o , p g i + i f @.v.@.+ ; ; o , 2 , , , + + 2 c.Y.S.S.B.5.S.W.V.#.) ) ( o.%.F.4X0X0X8X2Xc.@.C z 3 < < < 6 < s s 6 6 7 5 d a d 7 8 J H F F P d 6 5 5 5 5 a a 5 d p s , , p 5 b _ %. X Xc.c.c.F.H.Z.E.E.E.V.2.2.2.2.2.2.2.2.2.1.3.3.3.3.3.1.1.2.2.2.2.2.n.V.V.V.V.Z.Z.D.S.S.S.",
"OX+X+X+XOX+XOXOX~.~.~.~.~.H.W.!.W.W.E.E.W.E.W.W.W.W.W.W.W.W.W.W.W.~.Y.~.~.~.Y.+XOXOXXXY.OXOXOX~.+X+X~.+X+X+X~.~.~.~.+X~.+X+X~.~.~.Q.~.~.Q.Q.Q.Q.~.!.W.~.~.~.~.~.Q.H.~.Q.Q.Q.Q.Q.~.J.J.~.J.Y.Y.~.Y.~.~.OXY.Y.XXOX.X.X3XXXn s s b s t t < < , u l cXPXnXmXDXN i @.8XzXN.U.5XF.#.3X5X0X5XT.U.S.^.^.OX,X<X5X4X,XXX<X].9XCXBXcXvXcXvXAXAXHXHXAXAXgX8X8X2X9XAXnXnXnXnXAXHXVXcXmXMXCX*.P 6.5X5X@XI < 5 J 2.4.I 5 G 4.7.4.5 < 5  .7.:.a 4 P | | | | Y a < < F Y d d 5 5 F H K H < 2 3 5 F F F F F H ' 4.b.` p 5 a o.CXhXbXgXc.b I ' } J S J F G a p h p p a F F 5 5 d d F F 8 8 7 8 5 p s , o , g p i + y i N C y + ; y @.B + ; y , + + X @.OXS.S.W.H.<.` ( ` %.XX<XqX0X0XjX8X2X&.B s < < 4 6 8 8 8 8 8 7 7 8 8 7 F F H I G K J F d 8 8 6 5 5 5 a 5 5 F P d G b 3 4 6 5 < < 5 g ( %.c.P.*.*.H.!.W.E.Z.V.5.2.2.2.2.2.2.2.1.1.1.3.3.3.3.1.2.2.2.2.2.n.V.V.V.V.Z.Z.D.S.S.S.",
"OXOX+X+XOX+XXXXX~.~.~.~.~.W.W.!.W.W.E.E.E.E.E.E.W.W.W.W.W.W.W.W.W.~.Y.~.~.~.Y.OXOXOXXXY.OX+XOXOX+X+X~.+X+X+X+X~.~.~.+X~.+X+X~.~.~.Q.~.~.~.~.~.~.~.!.W.~.!.!.~.!.Q.H.~.J.Q.Q.Q.Q.Y.J.J.~.J.Y.Y.~.Y.~.~.OXOXY.XX.X.X.X5XF.s s X.F.*.B t s _ g u l nXnXmXnXgXV V _ ,XF.*.OX5X%.A.5XOX,X<X<X2XP.I.3XXX0X0X8X0X<X X2X9XJXVXVXvXcXcXvXAXAXAXHXHXVXbXMX8X2XcXnXnXnXVXnXHXAXbX9XvXcXCX<X*.XX0X5X@XP 4 4 ' /.4.' ' 4.4.>.2.:. .4...| 4.:.:. .| | | | K S 5 a K K J G F F F J K J 5 3 5 7 F J F F F } ` { >.#.a a F a c.9X&.Z _ b Y Y H a S J H H g X.BX{.f p G J G g ( @.` P d 7 7 8 a d s < , s b t + # - ; - X + y X B v.v.; O y , , + X l 3XS.1.#.) _ *.2X<X1XkXjXkXkX2Xc.X.z 3 < 5 8 8 8 8 7 7 7 7 7 7 7 8 S 8 S S S a a S J p 5 S D 8 8 d 7 a F ' <.#.p a I ;.+.e 4 < < 5 a a P ` o. X X%.%.*.R.G.Z.5.2.2.2.2.5.2.2.2.2.2.2.2.2.1.1.2.2.2.2.2.n.m.V.V.V.Z.Z.S.S.S.S.",
"OXOX+X+XOX+XXXXX~.~.~.~.~.W.W.!.W.W.E.E.E.E.E.E.E.W.W.W.W.W.W.W.J.J.Y.Y.~.~.Y.OXOXOXOXY.OXOXOXOX+X+X~.+X+X+X~.~.~.~.+X~.+X+X~.~.~.Q.~.~.~.~.~.~.~.!.W.~.W.!.!.!.Q.H.~.J.Q.Q.Q.Q.Y.J.J.~.J.Y.Y.Y.Y.~.~.OXOXY.XXXXXX.X5X%.t f *.<X0X@.< _ #.` s , ].JXJXVXX.%.) ) ) ` %.U.G.%.I.F.I.0XkXBXBX8XP.3X<X0XkXkXqX8X8XMXAXAXLXVXAXVXNXAXAXAXAXHXHXHXLXJXLXgXhXnXAXAXAXAXHXcX9XhXcXcXMXqX8XoXqX5X@X+XX.o.E.E./.E.E.4.4.4.4.3...7...4. . .....| } | | | K } ' ' K K K I H J K K H d s s d J J F F F H ) ) { ` a a S F n &.2XhX0X_ F J X._ G H K H h <XcXbXc.p G J G h ] ,XG.P a a F a G P , , < s f , X O - - $ O & + + B v.x.: O ; , , + * 2 %._ ( #.G.5X1XjX8XjX8X].@.B , < < 5 8 7 7 7 7 7 8 8 8 7 S S S F J J J H H H d a G #.b x ;.;.+.8 7 s 5 p ` <.#.p p P o.W +.z t f P d F H a 4 u @. XF.@.X._ #.W.E.5.2.2.5.2.3.2.2.2.2.1.1.1.1.2.2.2.2.2.n.m.V.V.V.Z.Z.S.S.S.S.",
"+X@XOXOXOX.X.XXX+X~.~.~.W.H.W.W.W.W.E.S.W.W.E.E.W.W.W.W.W.W.W.!.U.Y.Y.Y.Y.~.~.~.~.OX~.Y.OX+X~.~.~.OXOX~.+X+X~.~.~.~.+XY.~.~.~.~.~.~.~.~.~.~.!.~.!.!.!.!.~.W.W.~.~.~.~.~.~.~.~.~.Q.Q.J.J.J.J.Y.Y.Y.Y.Y.OXXXXXXXXX.X.X<X_ s b  X<XzX@.< o.#.` V y y C @.f b N.<.) ` ' ) <.Y.6.N.I.0X0XkXMXnX9X4X3X<X0XkX9XMXqX].FXJXAXHXnXAXAXZXnXZXZXAXZXAXHXHXAXHXVXhXBXAXAXAXAXHXvX9X9XcXcXBX9X9XqXqX5X@X@X@X@XQ././.E.7.7.2.4.4.7.4.} K } | 4...| 5 4 < ' | | | ' ' K K ' ) H K K K K F F d a S J F F a 5 a ) G G a 8 F G B lXbXhXMXc.u c.9X0X%.F I H b 8X|.bX2Xf ) H a g R.c.%.a S J H I G g o X y y y y f y & - & + y , , i @.@.; = - + o t ( ( @.z.3XzXzXzX8Xc.@.b p 4 < 5 7 d a S J 7 7 7 7 F I I Y Y I J H Y I S 7 U I G < < a G p < W h.o.< t + X X b %._ p < b o.+.o.5 p t t s g a < , o o f 6.5XR.%.g d ` W.1.2.2.5.5.2.2.2.2.3.1.1.3.2.2.2.2.2.2.5.V.V.V.V.Z.S.S.S.S.",
"OX@XOXOXOX.X.XXX+X~.~.~.W.H.W.W.W.W.E.S.W.W.W.W.W.W.W.W.W.W.W.~.U.Y.Y.Y.Y.~.~.~.~.OX~.Y.~.+X~.~.~.~.~.~.+X+X~.~.~.~.+XY.~.~.~.~.~.~.~.~.~.~.~.~.!.!.!.!.~.W.W.~.~.~.~.~.~.~.~.~.Q.W.J.J.Y.Y.Y.Y.Y.Y.~.OXXXXXXXXX.X,XXXb b u *.qX].f s s ` g f f u , s G %.G.6.) #.{ ' 1.3X.XB.3X<XkXMXVX9X9X<X5X<X<X0XkXqX8Xc.<XBXJXVXAXHXHXHXHXLXAXvXHXAXHXAXAXAXAXgXMXVXAXAXVXAXAXVXcXNXMXMXMXqX9XqX0X5X@X+X6.P d V.7.7.:.J H 4.7.' 8 8 5 } 4.| S 4 1 4 d | | J a H } ' I a a K K K H d d d d F F F F d g g _ #.#.%.o.F G g <XBXhXMX&.n 8X'.{.c.F } H g c.].gX@.t ) ) d a %.N.` d G d a G G p o @ 2 y y B B B , + + + ; y - y i i O X + u @.*.Y.3X5X4X,X2X*.X.f < < 5 a F S F I H J J J S 8 8 I ` ) ) H F a F J J ' a < < 5 5 < < d g t < 8 U d < u + . O o 5 5 5 p p < x s s t , , t t p u y o + f 5 _ XX3X3XN.b s #.Q.E.5.5.2.2.2.2.3.1.1.1.2.2.2.2.2.2.V.V.V.V.V.Z.S.S.S.S.",
"OX@XOXOXOX.X.XXX+X~.~.~.!.H.W.W.W.E.S.S.E.W.W.W.W.W.W.W.W.W.W.!.U.Y.Y.Y.Y.~.~.~.~.OX~.Y.~.+X~.~.OXOXOXOX+X+X~.~.~.~.+XY.~.~.~.~.~.~.~.~.~.!.~.~.!.!.!.!.~.W.W.~.~.~.~.~.~.~.~.~.Q.Q.Y.Y.Y.Y.Y.XXY.~.OXOXXXXXOX.X.X5XF.u n u u l k f f < t u s u l l p b %.5X%.` B.` ` A.,X,XY.3XG.0XMXcX8X5X3X3X5X<X,X<X5XF.XXXX5X0XCXLXHXHXHXJXJXJXvXVXnXHXAXAXAXVX8XkXVXZXVXHXHXAXAXVXNXvXCX].k X.CX0X5X@XF.5 4 o ) E.5.F 4 4 H 2.' 5 5 S | 4.| 5 4 2 4 d _ 5 < 4 5 ` G 5 < 5 K K K F < 3 3 < d G F a d d p s %.4X8X2Xc.g G P c. X X( z oX2X8X#.H H S g p b b s a d G a a J ) G b c.].%.f d < o , t u y l B @.V , ; ; ; - # O X o t _ z.,X5X5X3XR.*.@.b s < 5 p p a F J J I H I I J F F a 8 a J a 5 p d a p s d G S G , X X * 2 3 , y t < < 5 5 p s f , o , 5 a a p t o O + , u < < t u , , u u s g p 4 f %.c.F.5X*.z P 6.W.2.5.2.2.2.2.2.2.2.2.2.2.2.1.2.B.V.V.V.Z.Z.S.S.S.S.",
"OX@XOXOXOX.X.XXX+X~.~.~.!.H.W.W.W.W.S.S.W.W.W.W.W.W.W.W.W.W.W.~.U.Y.Y.Y.Y.~.~.~.~.OX~.Y.~.+XOX~.OXOXOXOX+X+X~.~.~.~.+XY.~.~.~.~.~.~.~.~.~.~.~.~.!.!.!.!.~.W.W.~.~.~.~.~.~.~.~.~.~.~.Y.~.Y.Y.Y.XX~.OXOXOXOXXXOX.X.X5X%.u k *. X&.u u f t y u u B gXBXc.b _ %.` #.~.` #.Y.P.F..XI.C.G.8X8X<X.X3X3X<X<X<X<X5X5X5X.X.X X&XmXAXHXHXJXAXVXVXcXvXHXHXAXAXVX8XfXvXAXVXcXHXZXVXAXnXvXcXC k u qXqX5X@XXX, < < G E.6.7 4 < a 2.4.H J ' ....| F 4 4 4 _ P < 4 o 5 ) 5 5 3 5 H ' H a < 2 2 4 5 H F F F d 5 s c. X{.2Xc.b g s n B 3 X.*.X.B n G ) J ) %._ b p F a a a 8 S J } d @.gX9XlX@.s 5 p s t u , y f B %.B ; - ; ; O + B %.G.^.^.3XP.z.@.g t < 5 5 8 a 5 G } K K ' H G F J F F a 8 a F S a < < p f c.<X@.< a P t + O + < < + O , p < 5 p s s , y u p p a a a t O # ; + + + , f , , , t t f g t , , , n @.@.*. X%.d o.Q.5.5.2.2.2.2.2.2.2.2.2.2.2.2.5.V.V.V.V.Z.S.S.S.S.",
"OX@XOXOX.X.X.XXXOX~.Y.~.W.H.W.W.W.W.H.S.W.W.W.W.W.W.W.W.W.Q.W.W.Y.Y.Y.Y.Y.~.~.~.~.~.~.Y.OX+X+X~.~.~.~.+X+X+X~.~.~.~.~.~.~.~.~.~.~.!.~.~.~.~.~.~.~.~.W.W.~.W.W.~.~.~.~.~.~.~.~.~.~.~.Y.~.Y.Y.XXXXY.Y.OXOXOXOXOX.XXX5XX.u *.zXkXCX@.k B s s f k 8XBXbXFX@.( H } :.4.` <.<.<.XX2Xc.N.S.N.F.c. X,X,X<XMXVXFX0X0X5X X X8XVXvX9XAXLXHXZXAXJXvXyXVXVXvXNXNX2X2XcXVX9X9XnXHXAXnXvXVXDX&.n n zX<X5X@X@X_ 4 < #./.5.F < 5 H 7.4.............| H S } | ' F 4 , J ' J a p 5 K } J a 5 u % % d J J F F d < s z.).2X2XP.g s ].CXVX9X].F._ B @.X.g ( F.c.{.2XB F J a a a J S J 5 @.2X9XlX@.5 5 d p < t , , - - N - = # + u %.K.(.3X(.T.%._ n , 4 < 5 a G F a a F ) } ) } F 8 a a a a a S a a a J 4.( , , @.lXBXCX_ h G _ h < s d 5 X X o 5 4 , < u + X O , < p s p G p , O O ;   . + u t < < t t t t y + + + + < B _ _ *.P.B b C.V.E.2.2.2.1.1.2.2.2.2.2.2.V.V.V.V.V.Z.S.Z.S.!.",
"OX@XOXOX.X.X.XXXOX~.Y.~.W.H.W.W.W.W.S.S.E.W.W.W.W.W.W.W.W.Q.W.W.Y.Y.Y.Y.Y.~.~.~.~.~.~.Y.~.+XOX~.~.~.~.~.+X+X~.~.Y.~.~.~.~.~.~.~.~.!.~.~.~.~.~.~.~.~.W.W.~.W.W.~.~.~.~.~.~.~.~.~.~.~.Y.~.~.Y.XXXXY.Y.OXOXOXOXOX.X.X,XB s <XqX9XkXc.u b g b f n 8XCXJX2X%.` ' } ' ' 4.m.<.I.zXMXzX3X<.F.0XzXkX0X XMXvXvXVXkX0X<X<XCXKXLXKXVXAXAXAXAXHXAXmXVXcXvXVXNXVXFXMXcXCXCXqXnXHXAXnXAXVXJXVX&XqXqX5X5X@X@X@X<.#.E.E.E.=.F F 4.7.....7.4.4.4.....| ......| | d d ' | ' F 5 H } } K F d 3 2 4 d H J J a p < u @.z.%.%._ d X.CXbXnXnXVX%.( 8XBXlX@.B %.{.{.{.v.G a 5 5 p a F F 5 _  X X%.g a d d 5 s < s u - = O O X i @.K.3X3XT.*.@.B f t , < f b g F ) H ) ' ' ` F G a 5 5 a F F F a d a a 5 G %.B , i B B c.2XB p h G p < s G ` , + s P _ , < u X O X o < < , 4 < s + + + ;   . + i f t t , t t y y + + + + , , < b b f %.@.d #.W.2.2.2.1.1.2.2.2.2.2.2.5.V.V.V.V.Z.S.Z.S.!.",
"OX@XOXOX.XOX.XXXOX~.Y.~.W.H.W.W.W.W.S.S.E.E.W.W.W.W.W.W.W.Q.W.W.Y.Y.Y.Y.Y.~.~.~.~.~.~.Y.~.+XOX~.~.~.~.~.OXOX~.~.Y.~.~.~.~.~.~.~.~.!.~.~.~.~.~.~.~.~.W.W.~.W.W.~.~.~.~.~.~.~.~.~.Q.Q.~.~.~.Y.Y.XXXXXXOXOXOXOXOXOX.XR.b u <XCXkX<XB s g p , u f _ 8Xc._ N.%.o.` 4.' ' :.<.<XcXvXVX0Xc.kXMXMXCX8X].CXcXvXVXkX0X2XJXLXHXHXHXAXAXAXJXHXHXAXvXAXLXAXmXAXLXLXLXbXDXVXNXLXLXVXnXAXGXAXVXCXMXMX0X5X@X+X+X+X/././.7.7.7.7.7.7...7.} 5 G :.......| K K | | | | | K I ) K ' | } K H d s d F F J J J a g b u u g g d F I _ <XFXbXmXFX_ %.BX}.mX9XB c.{.}.}.].t f *.c.B t d G d d b P H J a J J J a < < k - $ o u @.R.5X3XK.@.n 3 2 , , o g #.$.[ d G G G [ $.[ ( p p d 5 F a ' _ b p < < s p < , , , , , p p , o < p < , + + f g s s x *.oXv < s 2 o , p p 4 B f X + + O , 2 X X X + f u + & y y y y y y y y y & O o / :.) ` @.b ` E.2.2.2.2.2.2.2.2.2.2.V.V.V.V.V.Z.D.Z.S.!.",
"OX@XOXOX.X.X.XXXOX~.Y.~.W.H.W.W.W.E.S.S.E.E.W.W.W.W.W.W.W.Q.W.W.Y.Y.Y.~.~.~.~.~.~.~.~.Y.~.+XOX~.~.~.~.~.OXOX~.~.Y.~.~.~.~.~.~.~.~.!.~.~.~.~.~.~.~.~.W.W.~.W.W.~.~.~.~.~.~.~.~.~.Q.Q.~.~.~.~.XXXXXXXXOXOXOXOXOXOXOXF.f u n @.X.n s s f n N y f t t f ` #.I.6.%.N.<.,.:.<.<XVXbXhXqX2XMX9X9XMX X].CXcXVXVXzX<X2XLXAXHXHXAXHXHXAXHXAXAXLXHXLXHXJXVXLXHXHXHXbXhXJXAXAXvXcXJXAXHXZXAXMXqX].0X5X@X@X@X5.W.E.E.E.E.7.7.7.4.7.| 5 5 5 ' ......| } S ' | | | J 5 4 F ' } } K J d 5 d I H F G F H G 6..X Xs p g F ) d < f ].9XmX{.B @.8XgXbX].s @.{.{.8XB s F.kXgX{.u s o.@Xx a 8 K J J J H H ) s , , + l @. X5XOXN._ b u , , o + y f #.b.D.#.5 d g G [ $.$.g u , s 5 d a ) ( f , , , s < o , u , o < G G 4 4 _ P , o X O + o < 8 5 *.X.4 5 u u < a ` b t ,Xc.X - + o o y y + + y i , + o , , , , , , & & + - X + / ' #.%._ X.P G V.2.2.2.2.2.2.2.2.2.V.B.V.V.V.Z.S.Z.S.!.",
"OX3X@X.X.XOX+XXXOX~.Y.~.H.H.W.H.W.W.S.S.E.E.W.H.W.W.W.W.!.W.W.!.~.H.~.~.~.~.~.~.~.~.~.~.~.~.~.~.~.~.+X~.~.~.~.~.~.~.~.~.~.~.Y.~.~.W.~.Q.~.~.Q.Q.~.~.~.W.~.W.W.W.W.J.J.J.Y.Y.Y.Y.!.!.~.~.~.~.OXOX.X.X.XOXOXOXOX.X5X*.s b p b s f u f v.}.hXl N u p P ) ` ` _ *.jX<X,X1.1.0XBXhXMX4XF.0X0X8X0XN..XzXMXBX8X,XXX8XKXAXGXGXZXAXAXAXAXAXJXHXHXHXHXLXLXHXHXHXHXcX9XcXVXBXMXMXVXAXAXVXVXMXC o X.5X@X@X#.5 P E.E.E.4.a P E.7.| J b < < } ....} H < 4 J | | H 4 4 < 5 ' | ' G < , 3 < G G s < 7 P P N.R.P.b < X.%.].c.n + + &.9X9X{.B _ <.N.P F d %. XI J H %.0X8X2Xf a P 0XX.P F Y J S H G d g < t V %.,X5XP.%.X.B f t , t , u u l i B $.#.) 5 p 5 a #.` [ p X X t d d 5 a d u , o < p a 5 d p a 5 J H F g #.` H G < o X O O p 8 5 < 4 6 < , , < ) ) < , X.B , t ( u . O u f & + o , g p t t t t , & . . & y y y , < , g #.` ( < a 4.E.2.3.3.1.2.2.B.B.B.n.V.V.Z.S.S.S.S.",
".X3X@X.X.XOX+X+XOX~.Y.~.H.H.W.H.W.W.S.S.S.E.W.W.W.E.W.W.!.W.W.W.~.H.~.~.~.~.~.~.~.~.~.~.~.~.~.~.~.~.+X~.~.~.~.~.~.~.~.~.~.~.Y.~.~.W.~.Q.~.~.Q.Q.~.~.!.W.~.W.W.W.W.J.J.J.Y.Y.Y.Y.!.!.~.~.~.~.OXOX.X.X.XOXOXOXOX.X3X@.s s ( o.p s u &.bXIXmX'.@.t p P b d ) #.].gX8X<X>.>.P.8X<X XT.A.6.<X<XP.b.<.c.9XcX9X<X5X<XkXAXHXHXvXcXcXAXHXJXHXHXLXJXVXvXvXHXHXHXAXcXcXcXBXVXVXMXcXNXvXvXcXtXj 2 1 XX@X@Xd 4 < 4./.E.a < < :.E.| H G < J | ....} 5 4 4 J 4. .J < 4 6 5 ' | ' d 4 , , 5 G d 4 4 6 P P ` z.z.t f %.c.9XhXfXl < <XgX9XgXc.g G P P F G b b G H ) p X.].B t h g _ b d d H F G F < < f X.c.T.3XF.%.@.B n j 1 2 u u u i & O X < ( g p < p a a G g h f X . t g a 5 a g s , < s p < d g < a ' H J a < b G a g s u , + , G J a < < 4 , f _ f G p , + + , t ( ( t . . t h , o X B <.) G P g h _ + . . @ & & y + + + , a G ( s < 5 :.V.1.2.3.2.2.V.B.B.m.V.V.Z.S.S.S.S.",
".X@X@X.X.X.X+X+XOX~.Y.~.W.W.W.H.W.W.S.S.S.S.S.E.W.S.W.W.!.W.W.W.~.H.~.~.~.~.~.~.~.~.~.~.~.~.~.~.~.~.~.~.~.~.~.~.~.~.~.~.~.~.Y.~.~.W.~.Q.~.~.~.~.~.~.~.W.~.W.W.W.~.Y.J.Y.Y.Y.~.~.!.!.~.~.~.~.XXOX.X.XOXOXOXOXOX.X3X_ s s F.R.X.u l ].bX}.mXhXf s B c.2Xc._ %.<X0X0XXX:.4.3./.5.6.A./.Z.~.<X2XI.<.P.0XbXbXVX XP.*.kXCXMXqX0X8XMXJXHXHXHXHXBXcXcXnXHXHXHXAXmXcXcXNXnXnXNXcXMXMXcXcXCXC X B 0X@X@X%.< 5 4./.4.p < 4 #.E.4.4.' J | ..| ..| J 5 5 ' ....K 5 5 S K | | G < < < 5 F I a < < 5 G G G P g p s %.z.{.gXlX@.h *.gX}.jXB X.c.'.2X( g B ].*.f B %.B u s s f s s d 5 5 5 5 5 t V %.R.^.T.N.%.@.@.B y O - - y y u y O     O u f y , t s a a a a p , X O o f a a p p p p p s + + , z + X 5 I G p X @ $ o , < d d g g F F a 5 4 o n  X X@.p , X X , y X y _ h X X t p h f X i %.` ( h G h V V , o - O O O y , X o p h p b s < 5 #.E.2.2.5.5.5.5.5.V.V.Z.Z.S.S.S.S.",
".X@X.X.X.X.X+X+XOX~.Y.~.H.H.W.H.W.W.S.S.S.S.S.E.W.S.W.W.!.W.W.!.~.H.~.~.~.~.~.~.~.~.~.~.~.~.~.~.~.~.~.~.~.~.~.~.~.~.~.~.~.~.Y.~.~.W.~.Q.~.~.Q.~.~.~.~.W.~.W.H.W.~.Y.Y.Y.Y.Y.~.~.!.!.Y.~.~.~.XXXX.X.XOXOX.XOXOX.X.Xb < _ 5X5Xc.s u @.BXcX9XB s g  XBXFX9X( _ c.c.*.F.#.4.3.4.2.5.C.C.Z.OXCXCXCX,Xc.lXbXnXnXkXF.z.0X8X8X<X8X8X9XJXHXHXHXVXcXcXNXJXAXHXHXAXAXHXVXnXvXvXMXNXNXNXMXMXMXqXc.<X0X3X@X@X%.o./.E.Z.P 4 d E.4.....2.7.....| | ..| ' { ..| ....' K | | ..| d < s 5 a G I d < u p G H F a d b t g @.2X2X@._ H H ].1X@.f *.CX9XcX*.s c.kXCX&.@.kX Xb u @.2XX.p s 5 p < p ( %.P.,X3XN.%.@._ n i ; ; #   = = + + y O . . O s s * O , s g a p t t , X X , p p p , , p a d < X X , t X X 4 d G < X . @ X o < s 5 p a a a a d g < u c.<X%.s u + o u , X X p G t , s p t f o X < p < t f < , f ( b , X O O y i & + u g g p < u , 5 #.E.3.2.5.5.5.2.V.V.Z.Z.S.S.S.S.",
".X@X.X.XOXOX+XOX~.Y.~.~.!.!.~.W.W.W.E.E.W.E.E.E.W.W.W.W.W.W.W.!.~.~.~.~.~.~.~.~.~.Y.~.~.~.~.~.~.~.~.~.~.~.~.~.Y.~.~.~.~.~.~.Y.~.Q.Q.Q.Q.~.~.W.~.~.~.!.W.~.H.W.H.H.~.~.Y.Y.Y.~.~.~.~.~.~.~.Y.XXXX.X.XOXOX.XOXOX3XF.s t ( 5X,XX.s f t B C u 3 s _ kXbXgX*._ ) B @.9XCX6.` %.*.H.6.*. X X<XCXVXVXFX9XgXbXnXDXfX<X2X8X<X<X8X9XcXcXBXAXHXAXcXmXvXnXHXHXHXnXAXLXHXLXAXvXcXNXSXBXcXcXcXiXqXzX0X0X<X@X@X@X/././.E.<.` B.E.2.7.4.4.7.....4. .....4...........4.' | | | | ) F G G H G d p u t p F G a / %.P.c.f s G P #.) J J I H J ) X.<X8X8X_ a @.1XCX{.x.fX2X*.i 2XgX8Xf < < t _ N.,X,X3XK.%.@._ f u u i ;           # - y y y + y t t X . O , f , + o u < , t p f , X O + s 5 p p , o < g < 4 p a a < o 2 u o X 1 % X o 3 8 8 a / { z.u o @.b < u t p s , X X < a p s u , X X f ( f o o y u , X + t _ / , O O y y y y + i g g s u u < 5 o.E.2.2.1.5.5.V.V.Z.Z.Z.A.S.H.",
".X.X.X.X.X.XOXOXY.Y.~.~.W.W.!.H.!.W.W.S.W.E.E.E.W.W.W.W.W.W.W.!.!.~.~.~.~.~.Q.W.~.Y.Y.~.~.~.~.Y.~.~.~.~.~.~.~.Y.~.~.~.~.~.~.~.~.Q.Q.Q.Q.~.~.W.~.~.~.!.W.~.H.W.H.H.~.~.Y.Y.Y.Y.Y.~.~.~.~.~.Y.XX.X.X.XOXOXXX.X.X3X%.< f f @._ f f h f u < < s d ( kX9XkXF.F #.0XMXcXkX X X8XCX5X*.CXLXJX9X9XVXvXnX9X8XMXBXkX8X0X0X8X0X0XqXJXJXAXVXVXNXNXvXAXHXHXHXHXHXnXAXLXHXHXJXVXVXVXJXJXcXBXMXCXqX0X0X*.< o.5X+X1.I I 1./.E.V.{ 4.V.7.7.7.7.' J ' ....| J S :.....F < a | | | } I ) G F d d p < , 5 F G F %.P.).c._ 5 F F G 5 F H H ) ) P b B X._ G G f @.].@.B 1Xc._ i 1XfX1Xu < B N.3XT.T.,X%.@._ f , i l l + O     .     # - y y , + y u u O O + , f y X O u < < g a g f + X & f p < s t < g g P < < t p 5 , < b p o 2 % X X , b 5 a { >.M.b , , < , o , d b , X o p a a p , * . X s ) b u + + y y @ O , p _ g o O ; + y + ; ; f f t y i u 4 5 o.E.2.5.5.5.5.V.Z.Z.Z.S.S.H.",
".X3X.XXX.X.XXXXXY.Y.Y.~.H.H.!.H.!.W.H.H.W.H.E.E.W.W.W.W.W.W.W.!.W.H.H.W.J.H.H.H.Y.J.Y.~.~.Y.Y.Y.~.~.~.~.~.~.~.Y.~.~.~.~.~.~.Y.~.Q.Q.Q.Q.~.~.W.~.~.!.!.W.~.H.W.W.H.~.~.Y.Y.Y.Y.~.~.~.~.~.~.Y..X.X.X.XOXOXXX.XOX3X@.< f g d G g g @.N.@.d 6 6 P d *.<X5X_ G #.zXhX9X9X2XzX8XkX2X8XLXvXVXVX}.VXmXcX0X,X<X<X<X4X0X0X0X8XqXJXLXLXLXHXVXNXVXnXVXHXHXHXHXHXAXHXHXHXHXLXnXVXAXHXVXcX[.l X.qXzX X< < 5 @X+Xd 4 o a Z.V.G 5 F 4.7.7.7.' 5 5 a | ..G 4 o d 3.H o , 4 G 4.| ' ' P 5 5 p d 5 < < 8 F H H <.N.c.K.( a G P @.@.( g &.8XgX9X&.b b F G P b n k 3 s _ G h f X.c.f f *.(.L.L.T.c.X.f u , , & - + + l - .   ; y y ; y ; + O + ; y + y y t f g B + X < 5 < < G { >._ o u V t + , ( g < < b < X X , < 5 d p p 5 5 < o g $.R.#.h ` $.M.( h g p o X , u y o 4 s d F a p , o . X P ) G b , X O - & X , t , u f n .   O - + ; y y + O - k u 4 5 #.5.2.5.5.5.V.Z.Z.S.S.S.S.",
"@X3X.XXXXXXXXXY.J.J.H.W.W.W.!.S.W.W.H.S.!.E.E.E.W.W.W.W.W.W.W.W.H.H.H.H.W.W.H.H.~.H.H.~.~.~.~.~.~.~.~.~.~.~.~.Y.~.~.~.~.~.~.Y.~.Q.Q.Q.Q.~.~.W.~.~.!.!.W.~.H.W.W.H.~.~.Y.Y.Y.~.~.~.~.~.~.Y.Y..X.X.X.XOXOXXXOXOX5XB t p ( ` G d g N.N.%.b 5 6 F g u C X.b G _ <X{.<X].<X8X9X0X<X8XAXmXVXMX{.MXcXMX<X.X5X4X5X<X<X0X4X<X2XJXLXGXLXHXcXVXAXnXnXHXHXAXZXAXvXnXLXLXLXAXvXVXAXAXHXvXl 2 o ].CX*.< < s XX6.< 1 < 5 5.E.a 5 5 ' 7.4./.G 5 6 5 K 4.< 4 , < ` 5 , % 4 d :.| ' P p 5 < 5 d 8 5 d G H H J _ ` %.$.g G G F.8XkXP.V hXnXIXnX9XB b _ P d _ qX<Xn g d g G h < < X. XP.K.(.I.%.P p g ( V y ; - y , i y + ; i i u i y - O O O ; y i , t s g s V , , t t u t ) { { #.f t p , o + b < o o d s . X o s 5 5 < 5 F F d 5 b.L.b.L._ ( [ V < ( ` o.y X , f o X < G G F a s u + X o ] G < u , o o + y + y y + o t B - . O y ; + ; ; - + + y u < < 8 o.E.2.5.5.V.Z.Z.S.S.A.A.",
"<X<XXX@X@X@X@X@X@X@X@X+XQ.^.W.C.W.E.W././.!.W.W.W.W.W.W.W.W.W.W.W.W.!.H.W.W.W.W.W.W.W.W.!.!.!.!.U.!.~.~.~.~.~.~.~.~.~.~.~.~.~.~.~.!.~.~.^.~.W.~.W.W.!.!.~.H.W.~.H.W.~.~.~.~.~.~.Y.Y.~.~.~.Y.XX.XOX.X.X.X.X.X3XXXn u g ` 4.H p b N.z.( < 5 d F g C 9XlX].G I F. XI.%.I.5X0X0X3X XCXBXCX Xc.<X0X5X,X4X5X X<X<X<X0X3X3X,XCXLXHXHXVXcXVXVXnXAXHXvXvXmXnXnXVXAXHXAXvXVXAXHXAXAXVX&.@ l qXqX5X%.( 6.5XC.< 4 4 G E.E.J 4 a 4...4.E.G 5 5 5 8.7.d 4 4 5 o.5 2 4 5 ' :.' F 6 5 5 5 d F a H I I H H H G G ( ( a ( ( ,X8X8X%.B bXIXIXmX9XB {.8X].u _ 0XzXB ].9XkX@.t _ P.XXP.,XP.@.b s a ) M.$.$.V + + t b f s < g g V f i + y y ; + ; i t t s p s d h p f t + + n ` :.#.V u , b s , f g , . . p P u o 5 ) < , 4 < 5 5 d P K.K.b.m.{ g < 4 X i ,X5X@.i c.c.n o 4 d P 5 5 < X + B _ V u O X , b f ( g h < i + + , @.X.+ , u t , , y i u f p g a 5 < 5 #./.E.Z.Z.Z.S.E.S.G.G.",
"oX<X5XXX%.o._ _ U U o.<.Z.^./.^.Z.Z.E././.W.W.W.W.W.W.W.W.W.W.W.W.W.!.W.W.W.W.W.W.W.W.W.!.!.!.!.!.!.~.~.~.~.~.~.~.~.~.~.~.~.~.~.~.!.~.~.^.~.W.~.W.W.!.!.~.H.W.~.H.W.~.~.~.~.~.~.Y.Y.Y.~.~.Y.XX.X.X.X.X.X.X.X3XP.u u d ) 3.G p p g f b X.d d F P 8XbXbX{.g G _ _ ` #.$.R. X].c.*.<X8XXX*.XX.X%.%.*..X<X8X0X0X<X5XY.Y.XX<XLXHXLXnXyXvXVXvXHXcXcXvXnXHXHXLXAXnXVXHXVXAXAXVXnXnXAX9X9XMXqX5X0X5X5X@X5X%.n b 5.E.E.4.' :.7.4.4.7.I 5 5 J | ..' 5 a ) :.a 4 < ' :.:.' G 6 6 5 d F J H ) d p g G H G F d p p ( G @.zX].g b MXDXnXJX].C hX{.2X@.u n B f BX9X].@.c.,XR.,X,X@.V b b g _ >.M.{ $.V , u ( ( s < g ` ` _ V y + ; y ; ; + f ] _ p 5 d P g a f , X X o G ` h < t < s f p p g p X X p _ n < G ` < 4 < < < < < b K.z.M.,.[ p 5 b X ; @.Y.B B ,XF.*.o 5 ( G < < y X X g V f - . O , G ) ) a p , i y + < b , + u t t t i y + , s p h f f 5 5 p #.!.Z.V.Z.S.E.S.G.G.",
"@X5X*.X.*.].&X9X9X].&.n x Y =.7./.^.^.E.!.W.W.W.W.W.W.W.W.W.W.W.W.W.!.W.W.W.W.W.W.W.W.W.!.!.!.!.!.!.~.~.~.~.~.~.~.~.~.~.~.~.~.~.~.!.~.~.^.~.W.~.~.~.!.!.~.H.!.~.H.W.~.~.~.~.~.~.Y.Y.~.~.~.Y.XX.X.X.X.X.X.X.X5X*.u u s d ) p 5 b s @.1XzX<Xb 7 d ].VXJX&.g ) o._ #.<.#.*.9XnXNX[. X,XU.G.I.XX X X*.%.1X0XkX0X<X X<X0X8X9XNXHXAXAXAXAXNXyXJXcXcXcXAXHXHXHXHXZXAXHXAXnXVXnXnXnXvXVXMXqXqX5X5X.XOX@X+X+X+X~./.E.E.E././.7.4...7.4.H H | | | 4.| 4.4. .| ' ' 4.| | ' I a 8 d d d G G < o * , g ) H ( h g h G / G o._ G g @.2X2X{._ b 9X9XMXC l C u s @.B %.R.P.,X,Xz._ _ _ f s _ ] b. .M.[ p f B f u i 2 b ` [ _ y O O = ; = O + _ >.:.` 5 s d a p s , + o s G 8 a a s < < < a a F a , o g p o t ) F P 5 d p < 4 o s z._ [ ` u , ( g + o p ( , f N.P.n < ` m.m./ < u X @ y + O   O + P ) G a , o X , b p s i O   + t t u y + X O t f ; ; y s p < 5 #.E.E.V.E.S.A.A.G.",
"0X@.*.CXFXVXNXNXVXJXFXCX<Xo.F J ' <.^.^.W.W.H.H.W.W.W.W.W.W.W.W.W.W.!.W.W.W.W.W.W.W.W.W.!.!.!.!.!.!.~.~.~.~.~.~.~.~.~.~.~.~.~.~.~.!.~.~.^.~.W.~.~.!.!.!.~.H.!.~.H.W.~.~.~.~.~.~.Y.Y.~.~.~.Y.XX.X.X.X.X.X.X.X5X%.u u s P P d d d B 4X0X8X<Xs 7 7 n ].&.u ( <.,XF.%.<.` <XJXZXGXAX<X.X^.C.6.<XFXCXzX<X0X8X0X0X0XCXJXJXJXLXJXHXAXHXAXJXJXyXJXmXcXvXAXHXHXHXHXAXAXZXAXAXnXVXVXAXnXcXMXqX0X<X@X@X5XXXXXW.W.E.E.:.4.E.7.4.G H 4.......:.J J | ....' K ' | ....H J K { } F F G d d F p 2 $ @ o P ) G g @.K.N.) G H G g G g u B C l f b X.9X*.u *.MX*.< @.z.3XR.3XP._ @.@.B y , u u t @.z.$.V f f i i i y , t p t t O O O ; ; ; O o [ >.:.) d g d G 5 < , < s P F G F G 5 4 < < p d G a d d g , o , G Q.o.4 a d p < 4 _ _ a G < X O p p o 2 f p < t ( b o b M.m.>.{ p t , o + ; - X O , _ / G s , + o , ) a p y O   + i y y , + O O t i # # + y f p < 5 <.E.E.E.S.A.A.A.",
"&.].JXMXCXCXFXFXDXVXhXcXCXFX8X@.F J K 7.+X!.H.H.W.W.S.H.W.W.W.W.W.W.W.W.W.W.W.W.W.W.W.W.W.W.W.W.!.U.H.H.!.~.U.~.~.~.~.~.~.~.~.~.~.~.~.!.~.~.!.!.~.~.!.!.~.H.!.~.H.~.~.~.~.~.~.H.Y.Y.Y.~.OXXX.XOX.X.X.X.XOXOX5X_ < u d P ) G d 6 B zXjXzX*.5 8 8 d 5 5 G %.,X2X,XN.%._ qXVXnXnXnXMXR.OX~.N.zXDXVX9XgXCX8XkXkXqXFXLXHXJXAXLXLXLXAXAXJXJX6XNXVXnXAXVXAXHXVXVXVXAXHXAXAXcXcXNXNXNXBXMX8X0X.X@X5X%.6 b H.W.E.` 5 K E.5.P 4 4 J 7.....d < < ' 4.I 4 4 a '  .H < < a } ' } I F d d d s % $ 2 u P G 5 _ K.I.T.%.a G g G F g C 9XhX2XB s P d a d c.c.@.%.3X3XT.T.] ( @.B + + ; ; - # # ; l t , i # # # + b ] f , o & O O X y f f p / >.>.#.) p g G G p b d G H H a a J G F p s u t u , < F a < o X , ) #.3 o < d 5 p d a 5 h < o O X < g u , < s p < o o , < ,.M.M.[ p s t t [ $.K.V O + g p < f f , p a ) G s t i y f t O ; u t i u i y =   = O u s u < G C.E.V.S.A.Z.Z.",
"&.FXMXJX9X].'.'.{.gXCXJXBXhXBXCXF.P Y J ' /.Q.Z.W.W.W.H.W.W.W.W.W.W.W.W.W.W.W.W.W.W.W.W.W.W.W.W.!.U.U.U.!.~.!.~.~.~.~.~.~.~.~.~.~.~.~.!.~.~.!.!.!.~.!.!.~.H.!.~.H.~.~.~.~.~.~.H.Y.Y.~.~.OXXX.XOX.X.X.X.XOX.X3X( u s d H G g G d f *.<Xc.b < b d d I } } $.,X,XP.%.<._ 8XCXnXVXMX<XR.3XOXc.0XFXmX9XcXgX9X0X8X9X9XVXHXJXcXLXLXHXHXHXJXJX9XcXAXAXAXAXVXVXVXAXnXvXnXAXVXNXVXNXcXcXVXqX<X0X<X3X<Xn 4 5 C./.5.p a H 2.2.5 4 < 5  .7.| < < < ) :.5 2 2 5 ' ' F < 3 5 H | ' H a d d d s , , < s d d 5 ` A.N.F.*.h ( %.$.) g 8XgX9XMX0Xb G J G G ( %.F.T.T.R.%._ @.@.i + + # ; = > >   - j y y - # . . l b.m.] , + - + X u u s ( ) ` ) ) g p 5 d a g t s h a a a < < p g h < , , y + O , g H B o , t G d < 4 < p 5 d G G V t < , X X 5 P t o B c.F.%.i , < p [ { ` p < < , ] >.M.M.$.+ + s t o , f ) ) F a a t t t f b + O ; u t t i y - - O = # ; f u < 5 _ ~.V.S.S.Z.Z.",
"9XFX9XC & + & + 2 l C ].BXJXVXcXDXoXb I J K 7./.W.W.W.S.W.W.W.W.W.W.W.W.H.H.H.H.W.W.W.W.W.W.W.W.!.U.U.U.!.~.!.~.~.~.~.~.~.~.~.~.~.~.~.!.~.~.!.!.W.W.W.!.~.H.~.~.H.~.~.~.~.~.~.H.~.~.~.~.~.OXOXOX.X.X.X.XOX.X.Xb s s ) ) _ $.b.( a 5 5 < u &.9XgX&.( ) H ` N.N._ o.` ) Y.5X0XzX.XC.~.R.5X<X2X8XkX0X<X2X0X0X5X<X X0X<X<X<XVXHXHXHXHXHXHXcXcXBXVXAXAXAXAXLXHXAXnXVXAXnXAXAXLXVXcXgXqX<X0X<X3X5XX.4 _ ~.+X<.< p I E./.G , 4 a 3.7.} 5 < 8 | 4.a 4 4 I  .' H 5 < a } ' } H a 5 5 5 p d d G ) s p 5 ( ` #.<._ ( A.K.T.%.g  XBXgX8X*.b d d _ %.R.R.L.T.c._ ] c.B + + ; ; y : =   > - n u y y - O & + B D.M.@., + , u B b < , t p p u , , , 5 5 p s X X < p u + X O + i y + X ; # #   O t g f , p a 5 p p 5 a F a S a s + O u _ , < F ' < o %.,X(.,XB o g g 5 < < p < , , _ <.{ $.@., , p p o o p ) G d < , , t t u u + O + i t u - # # f i O = O i f p , < %.W.S.S.Z.Z.",
"@.2Xl + y y y y y y + & N '.BXJXbXJXqX( Y K K 7./.W.E.E.W.W.W.W.W.W.W.W.S.S.S.S.W.W.W.W.W.W.W.W.!.!.!.!.!.~.!.~.~.~.~.~.~.~.~.~.~.~.~.!.~.~.!.!.W.W.W.W.~.H.~.~.H.~.~.~.~.~.~.J.Y.~.~.~.Y.OXOXOX.X.X.X.X.X3XF.s u s ` ` M.z.$.) a ` d 4 c.JXnXnXVXn P ' ' H ) #.%.#.' :.A.G.G.C.~.~.5XzXqXkX8X0X<X X X0X<X<X0X<X X X5X<XcXHXHXHXHXHXHXvXMXgXNXAXnXAXHXHXHXHXAXAXAXAXHXAXAXHXDXMXzX8X0X<X.X@X XX.<.3X3X+X( 5 4././.m.g d 4.2.E.' a F | 7.7.{ p G  . .| } d 5 H ' } K H F d d d d G G H ) p p p d H ) _ p ` K.N.R.%.s f @.].@.f f P %.N.K.L.L.L.%._ c.%.f + ; - - i i ; =   = i t t y y y - y - u N.b.B + y u t s < < , , t < , X o t b s s u . O f g u + . . O ; O # + y ; X O O , , 4 5 a a t < s a d a F _ d < O # t s s s G I < , u @.%.( , , 5 s 5 < < < t , o f %.) ( p , i p s , , d G h , + & y , u u u u i y u t i + . . s B ; O O i f g , , g H.E.E.Z.Z.",
"g f u l y - y - - - - - - & B c.MXJXLXbX@.b Y K 4./.E.E.W.Z.S.W.Z.S.H.H.H.H.H.H.W.W.W.W.W.W.W.W.W.W.W.W.!.!.!.!.~.~.~.~.~.~.~.~.~.~.~.~.~.~.~.~.!.!.!.!.~.W.~.~.H.Y.~.Y.Y.Y.Y.Y.Y.Y.~.~.Y.XX.X.X.X.XOXOX.X3Xc.t u f ( { M.M.#.a 5 d a u cXmXmXmXbXl s G ) H ` N.C.~.<.1.!.!.U.Y.3X0XqXqX0X8X0X,XG.I.<X<X9XCXDX9X].,X3X<XcXnXAXAXAXVXHXcXMXMXMXVXVXAXAXAXHXHXHXnXvXLXHXAXHXHXJX9XqX0X0X<X5X@XXX5XOX%.` Q.^.C.W.2././././.m.E.E.m.4.7.7.3. .3.4. . . .| ' } } ' ' } K J G G g s s s f P H P g s d ) ` ` ) G %.$.$.) g %.( g g b @.N.A.A.A.R.z.] %.c._ + , u u y - y y - = - y y y y y y y y - - ; i y ; y y y t t u t , , , , , + , s < < b < X X a H p , o o , u o o t h h p < p , o < a G a , o o , d < o , P p O # O + , , a 8 F 5 o o , p s 5 6 4 4 3 4 < p < < t t f ] ] y y s 5 s 5 a g B c.l o B ( t t f s %.c.y & - - # O t ( f , y y u f f u , _ /.E.E.E.",
"g g g n l - y j y - - - y i u u n ].VXDXDX*.G Y K :./.E.E.Z.Z.W.Z.S.H.H.H.H.H.H.W.W.W.W.W.W.W.W.W.W.W.W.!.!.!.!.~.~.~.~.~.~.~.~.~.~.~.~.~.~.~.~.!.!.!.!.~.W.~.~.H.Y.Y.Y.Y.Y.Y.Y.Y.Y.Y.~.XXXX.X.X.X.XOXOX.X3X*., u f g ( $.#.d 5 5 P a s 9XDXnXDX].i  X.XG.) #.C.N.OXB.5.D.^.3X3X0X8X9X9XqX<X X.X3X5X4X<XVXLXLXJXFX2X3X5XMXAXAXAXHXAXLXcX9XgXcXNXVXVXJXAXHXHXHXnXAXHXAXAXAXNXBX9X8X0X0X0XXXb d XXG.5 4 o.^.^.) 5 ' /./.m.E.:.G ` 7.7.:.a 5 H ....:.' H ' ' | | ' I G a G G d < , , , ( _ ` ` g p ' { { ` G h g a p _ H.o.G ` *.N.<.N.D.N.%.@.z.%.t o i f f i y y y y ; ; y y , i y y y - & & - - # & - y & , y y y , , , + , y t u u , , p b , , ) ) P < t b < f , , d F J J G ) s < g g 5 g , X X , s , X X 5 g y O O + f g p F F 5 o % < b g h < X.z o o , p p p t , z.,X5X@., p d 5 5 p g ).1X&.l 0X_ o y t t ( _ + + O O O + p p < y - ; y f f f u , #./.E.E.",
"a ) ) ( l l l i y y y y y i f f p u @.lXbXJX].d K K =./.E.E.E.W.Z.S.S.H.S.S.H.H.E.E.E.W.W.W.W.W.W.W.W.W.!.!.!.!.~.~.~.~.~.~.~.~.~.~.~.~.~.~.~.~.!.!.!.!.~.W.~.~.H.Y.Y.Y.Y.Y.Y.Y.Y.~.OXOXY.XX.X.X.X.XOXOXY.5X@., t b b < d p 5 7 5 d d s &.9X&XX.u *.zXzXqX_ %.G.F.5XB.<.T.5X5X<XkX8X9X9X0X<XR.5X5X0X0XqXAXZXZXLXCX<X4X0XBXHXHXAXHXAXJXcX9X9XcXVXCXqXVXJXHXHXHXAXvXHXAXHXAXVX}.qX8X0X0X0X*.< 5 6.*.< < G 3X<.5 8 4 ' /.m.` < < 5  .V.p o 4 4 ' 7.I 4 4 < I  . .) 5 3 5 G G s o O + , ( ` ` ` ( d ) ` ` ) G _ ] _ p ( %._ *.N.<.%.N.K.b.%.%.c.B o t V _ n i y y y i i + i y y y u y y - # # # & - & - & # O O + - - & + + + , y u , i $ X 4 ( ) ) < < g d P g p s s p g G H H ) G G g s , o 2 u , , s G < X X 5 G s , , @.b.$.5 5 d s < , a ) ] ( %.zXc.X X + p p p , f ,XP.(.c.t h g s , o _ ,XP.v.B &.O O O , t t t + O # # ; y t , X # # # ; y u f i , d A.E.E.",
"f o._ g - y u u - - y y y i i s s g u C hXcXHX].F Y K =.E.E.E.W.Z.S.S.S.S.S.S.H.E.E.E.E.W.W.W.W.W.W.W.W.Q.!.!.!.~.~.~.~.~.~.~.~.~.~.~.~.~.~.~.~.W.!.!.!.~.W.~.~.H.Y.Y.Y.Y.Y.Y.Y.Y.~.~.OXY.XX.X.X.X.XOX.XR.5XX., u b b 5 s 5 d d d 5 d d s z b x _ XXqX9XqX_ %.R.XX4XC.#.3X5X<X4X<X2XgXcXMX2XR.4X<X0X<XCXLXHXLXLX9X8X0X0XMXAXHXHXAXHXJX9X9XVXLXcX8X8X9XJXHXHXAXAXZXAXnXHXHXVX}.9XkXqX0X0Xc.4 6 J.*.< < d 3XC.5 d 5 ' /.E.) < 5 5 { 4.< 4 4 <  .:.< 4 3 < a { ' a < 3 6 d G s o * + u ( ( ` ` ( h G ) ) a ) %.N.P.b s @.F.*.%.*.N.A.%.%.z.@.f , f _ ] f y - y y y u f u i - - y y y y #   # @ & y + - - O O # & - - ; & + , y y y 2 + X o p H ) p o X < P a p p s p < < 5 ' G < 5 G d t + X + n g h g G d o o g G p , t $.>.>.g < 5 < < t G <.%.$.dXdX@.O + , t 5 t , f ,X(.(.@., h g g , o @.1X(. Xi + # O X i , o y + O # # # + t u O       O ; i y f t , %.!.E.",
"y B b f j - u u - = - : = # - y u u k u @.CXbXJX].7 Y K =.Q.E.E.S.Z.H.H.Z.Z.Z.Z.S.S.S.S.S.W.W.S.W.W.W.W.W.!.!.~.~.~.~.~.~.~.~.~.~.~.~.~.~.~.~.~.W.~.~.Q.~.~.~.~.H.Y.Y.Y.~.~.Y.Y.~.~.~.OXXXXX.X.X.X.XOXOX.X.XB t t b f < d 5 p b s b g d a G I ' F %.MXCXF.b R.<X0X3Xo.C.5X<X<X<X3X<XJXHXLXkXP.0XkXgX].].CXJXFX8X<X0X0X0XMXVXHXAXHXLXMX}.NXLXLXVX8X8X9XDXHXAXAXAXHXAXHXHXHXAXVXMXMXkX0X<X0X*.*.5XF.< 5 <.OXOXG 5 5 4./.E.4.5 4 a m.4.5 < < F E.{ 4 3 4 < G  .' a 3 3 5 d d d s s t b g g P ( h d G / G p / b.%.X.%.c.K.*.%.$.A.L.%.%.%.n + y B _ B i - - - y y t ( ( t y # = # # - & O O - - ; O - & & & # - - ; y & , y u u O O + i s s G g t o X X < G G G d s , o o 5 ( p < < < b u X O & _ ) ` ) G a < b G d a < < %.b.#.t , p < , < @.b.$.%.o.%.i + s s 2 o , t p b.,Xc.i , / / { G , t P.)._ f y + , t l X O + & & - # . . + u 2 + O = + y i y f f o u C.E.",
"y y u f - - @.B & # - j - # - y u u u u y &.JXcXDXc.S Y K =.E.W.H.Z.Z.H.Z.Z.Z.Z.S.S.S.S.S.W.W.S.W.W.W.W.W.!.!.~.~.~.~.~.~.~.~.~.~.~.~.~.~.~.~.~.W.Q.!.W.~.~.~.~.H.Y.Y.Y.~.~.Y.Y.~.~.~.OXXXXX.X.X.XOXOX.XOXXXf u t V s 5 d d p s X.*.X.g a J J J H F X.X.G P R.3XR.N.<.OX3X,X4X5XT.XX9XnXVXMX X4XCXFXFXkX2X2X2X X<X4X0X0XqXCXJXAXAXVX9X8XLXLXHXJXcXqX9XBXHXAXAXHXGXGXHXHXHXAXVXVXMXMX0X<X<X<XqXoX5XF.6.@X!.5XY.#.:.E.2.E.E.4.) #./.m.` a d 4.2.m.P 4 5 a ' 4.' F 5 6 7 d d d d d d d s s s p p ( ` ` _ g h ] %.z.I.c.$.z.K.K.N.%.@.B y , - y i f y - - + + & + f B p u i # = = # O + - & - - # O @ # # # O & y , 2 , t u u y @ O + s ( ( p s u & 2 , ) G d d d s s , t _ P p p b %.X.n o + u G `  .' a p 5 G ) a g d o B %.( , + s g < p #.b.N._ 5 s o o p s + o , s ) _ [ ] f t { ' | { g t V t < s y + t f y X O + y + ; - # . 2 u u y - O y i - ; u f 2 , ` /.",
"i i i & l B @.@.y y i y - - i u s f u t k + &.KXnXFX*.x Y K 2.^.H.H.Z.H.Z.Z.Z.Z.S.S.S.S.S.W.W.S.W.W.W.W.W.!.!.~.~.~.~.~.~.~.~.~.~.~.~.~.~.~.~.~.!.!.~.!.~.~.~.~.H.Y.Y.Y.Y.~.Y.~.~.~.~.OXXXXX.X.X.XOXOX.XOXF.u u u f p p I I d @.FXBXkXB d F J J J F P ) g $.$.{ #.2.S.U.3X,X5XN.N.N.<X9X2X<XR.5XCXJXKXFX<X<X8X<X<X4X0X0X0XMXVXVXNXcX<XFXKXLXLXAXcXVXVXAXHXHXHXHXGXGXHXHXAXHXAXVXMXkX0X<X8XoX X@XOX5X@X+X!.^.3X!././././.E././.E.m.m.E.4.2.2.3.7.4.H H '  . .' J 8 7 d 7 d d d d d d g ( X.%.@._ #.#.` h p %.P.I.F.c.c.F.P.z.@.B i y i y i i , & - + i f n l + y u u u u # # O y B f + ; - & #   # # # # + y t t t u n B u & O & _ ( t t f t + , b g ) a < < p p d G ) G g P %.F.<X@.B u b ( a G { ` p p 5 ( G a 5 3 u B < , + + s F J J ) b.#.H H d o X p s + o 2 < ) ' / ) G G { ' K J ' ) t o , f y + + f i i y + y y + - y , p f t , y i - #   # y u l , a 1.",
"i B l y y c.B u u f u y - - f t u u k u y y O Z JXHXFX*.I Y Y E.W.H.Z.Z.S.Z.Z.Z.Z.S.S.S.S.S.W.S.W.W.W.W.W.!.!.~.~.~.~.~.~.~.~.~.~.~.~.~.~.~.~.~.!.!.~.~.~.~.~.~.H.Y.Y.Y.Y.~.Y.~.~.~.~.OXXXXX.X.X.XOXOX.XOXN.u u u s s d H I P @.VX}.gX@.< a F H F F P ( B c.K.(.^.<.B.5.U.OXN.N.,XzXMXCX0X X3XT. X8X8X]. XkXMX0X<X4X0X0XkXMXNXAXAXcX9XgXAXAXVX9X9XLXHXHXHXHXHXHXGXGXHXHXVX9XNXcXMXkXqX<X].n b @XXXOXH.4.!.W.W.E./.E.` ` /.V.E.m.m.m.m.m.2.7.7.4. .4. ...4.4. .} F G F 8 5 s d d p d _ $.N.%.N.N.$._ g %.P.P.F.F.%.P.P.c.@.B u + - - y f _ V y + + B %.%.%.n + + u u s u & - f %.R.z.i ; - #   # O O O O , u s u u u u u y & O l X.( u f y - + + t g G d p s g G d d J H G ) N.F.c.c.B s G ) g G ` G p g g d G P p n 2X4X%.f y , 5 J K K a G H F ) P 4 < s p < , 4 < a ) G p a F H J J H a G f , < f + O y , @.jX@.X i - X y s p a d , o , u + # >   + i f < < o.",
"i N l : - C &.u n u u i = - u f i y y y j - j O N JXJXBX*.P Y ' W.H.Z.Z.Z.Z.5.5.Z.S.S.S.S.E.E.S.W.H.W.W.!.!.!.~.~.~.~.~.~.~.~.~.~.~.~.~.~.~.~.~.~.!.W.W.!.!.!.~.H.J.Y.Y.Y.Y.Y.Y.Y.Y.^.OX.X.X.X.X.XOXOXXXOX%.l i u s p F I F d f gXVX9Xj , < d ` d b *.B B kXlXlXgX<XB.m.1.<.N.<XkXMXMXkXCX X.XU.XXXXT.T.<XqXcXMX<XkXBXVXVXAXAXAXAXvXVXAXcX9X8X9XcXLXHXAXHXHXHXHXHXnXZXJX].k 2XBXMXkXqX<Xx 6 s R.OX3X) a #.^.E.E./.H 4 5 3.E.2.3.m.m.m.4.4.H J 4.7..... .' >. . .{ ' ' I a d d p a / %.%.%.%.#.#.P _ F..XF.c.c.%.,XP.@.V y y y - & y y B #.#.u + B b.<.>.b.] + y s p s s k y z.,XP.1X@.+ - ; O & y y y u g g , + + ; t t y + O j B u u l # =   # X t ( a p g ) P c.%.F J H ) N.F.P.%.s d P ( ) F 5 5 a P P a J ) g *.1X,X1X@.b 7 a I H 8 a / G F 5 F G I G a F d G a 4 < 2 + , t d a G a , t f p g g X O y f c.2Xc.+ - . . + p a a p < o t t y +   O y t f u , f ",
"@.y i ; - y &.u u y y l = = i i - & & - y y y : # N LXLXCX*.I K =.Q.E.Z.Z.Z.5.5.Z.S.S.S.S.S.E.S.W.H.W.W.!.!.!.~.~.~.~.~.~.~.~.~.~.~.~.~.~.~.~.~.~.!.W.W.!.!.~.~.H.Y.Y.Y.Y.Y.~.~.Y.Y.T.OX.X.X.X.XOXOXOXXX3X%.i ; i u p F H S a < C x.B 2 2 4 d _ b 0XCX2X@.BXhXhXcX X<.E.m.S.,XzXBXVXcXMXkX X3X^.5X5X3X3X4X9XVXNX9XCXAXZXZXZXZXAXAXHXLXLXKXVX8X8XDXLXHXAXZXHXAXnXnXZXZXVXB f @.CXMX8X0X5XX.4 _ OX3XOXG 5 ( ^.E././.a < 5 4.2.a a { m.m.4.a 5 5 S 4.7.| S a '  . . .{ ' H a d d d a ) $.%.z.%.) ( c.,XP.c.*.c.,X X@.f , + - - - - - y 2 n %.%.u o ( m.M.>.b.%.i i s p 5 < , t (.(.).1XC + + ; ; i u t p d a g y O # O u f f y O + y u f i     > = # y f 5 5 P _ ( <X*.d G G g _ %.%.] d P _ ` _ x b *.b b d a H G f c.4X,X,X_ 5 a d a 4 4 5 p _ 5 5 J H H J J ) >.M.{ < 4 X X X , d a g t ; ; t g a d + * u , B c.c.i O O X + g p < , u u , & , + + & y i t f y ; ",
"c.y j - - y b f + = - - # - j k & # # = - j - - : # Z KXVXMX*.U I 7.E.W.Z.E.Z.Z.Z.S.S.S.S.S.S.S.W.H.!.W.!.!.!.~.~.~.~.~.~.~.~.~.~.~.~.~.~.~.~.~.~.~.W.W.!.!.!.~.H.Y.~.Y.~.~.~.~.Y.Y.T..X.X.X.X.XOXOXOXXX3X@.y ; i < a J K H 5 s p t u , 2 4 d d  XgX2X8Xc.8XkX<XF.%.U.U.U..X<XMXBXnXcXBX0X.X.X3X5X5X3X3X<X9XDXcXhXVXnXAXVXAXAXAXAXAXHXLXLXVX9XgXJXLXHXAXAXHXAXnXnXZXZXnX].C ].CXkXqX5X.XOX6.OX~.Y.OX` a #.~.Z.E./.) 4 a 4.' 4 < 5 3.m.{ < < 5 8 | :.S 8 5 J  . . . .} H F d d F H J ` ` ( V *.,X Xc.c.c.0X2X@.f , , y y y ; ; - - - & u X.u , f p ( >.,.#.f < s f p p < u f z.R.,X@.y + , i y t f d d d o.c.i . O + s g g s , y s f f + . > : :   O u s a G ) ( ( P G G _ c.c.X.` G x L ) U X.*.{.9Xx.u g a H G < B 5X*.#.I 5 d p < ( b 4 4 s < ) ) H F S S ' :.M.m.H 5 , + , s g g h i = > y g P g s t f t + C B t g t , p p < X X V t O O O + i y + + y i y + ",
"c.l - - = y n n y = - - - - & y - # # - - i y + y j # Z KXAXMXv I Y 5.W.W.E.E.Z.Z.S.S.S.S.S.S.S.W.H.!.!.!.!.!.~.~.~.~.~.~.~.~.~.~.~.~.~.~.~.~.~.~.~.W.W.!.!.!.~.H.Y.Y.Y.~.~.~.~.Y.Y.T..X.X.X.X.XOXOXOXOX.X_ ; ; i < a J K H a 5 p s s < < < d o.8X}.9XkX%._ 2X].*.Y.OX^.~.R.<XMXMXcXMXkXXX.X,X4X5X5X5X5X<XkXFX9XMXBXVXVXVXAXAXAXAXHXAXHXHXVX9XBXJXHXHXHXHXAXnXnXZXZXZXAXJX8XCX8X0X5X3X.X@X@XOX5X3X+XH.H.+XJ.~.Z./.E.) ' /.` 4 4 H 2.m. .< 5 8 a 4.' 5 8 5 J  . . . .} G G F F H } } J G %.4X2Xv.v. X8XzX&.u , , , y , & y ; - - ; - & + o i u < s b P a 5 < s b f s s k y u s V u + y y u , t V _ G J F %.*.X.+ , f t s h g s g g s f &.: . :   : '.c.X.g a F G F F d ( c.2X2X%.G P X.oXo.U X.<X9X}.hXB s d ' ' s 4 b ( ) 5 4 5 p @.0X Xn 3 6 d H S a a 8 8 H >. .m.H 5 < 4 < d G g h i = . , g u < < s h < X + + < a G g s f , . . i i X . O + y y O O + y i + ",
"<XB + : = = - y k y y l i + O = - y & - i u l l y y - # }.KXAX&Xx U I Q.Q.E.E.E.Z.S.S.S.S.S.S.E.H.S.!.W.W.!.!.!.~.!.!.~.!.~.~.~.~.~.~.~.~.~.~.~.~.!.W.H.~.~.~.~.Y.Y.Y.Y.~.Y.Y.~.Y.^..XT..X.X.X.X.XT.OXOX.XB y - i t a K H H d *.o.< s p P a 5 ( kXgXBX2Xg ` 9X9XzXN.^.^./.S.OX5X0X0X0X<X.XOX5X0X8X0X0X4X,X,X<XkX0X8XVXVXnXAXAXAXAXAXHXVXAXVX9XBXVXHXHXHXHXnXvXVXZXHXZXAXVXBXMX8X3XN..X.X,X5XY.) %.OX+X+XOXG.3X~.Z.E./././.E.) ) m.m.7.7.F 5 S | 3.4.F 8 8 ' 4.:. . .' G g d F } ' ) ] 1XdX).v.{.2XkXc.f , , , u u , y l y + = = # O + y j , _ %.o.( s 4 d g g g f , l : O X , , o u u f t u c.5X5X@.a d o.*.%.) _ P u *.X.b P G G p X.CX{.N . l hXhX8XlXc.g ) H F d 5 %.c.c.2X_ P P %.oXoXX.*.<X{.}.hXB B o.=.4.( 4 g ( , o + , < @.,X,X_ d F S D Y S 8 8 8 8 ) { ' 8 8 a d d ) ) G g t , , g g + X + u ) a , y . X p ( u , t + .   # ; + l - O ; - # # # - l + ",
"3X%.& - = # = - u u + y i y - = i i i i y y y n u i ; - : VXZXVX].b I ' W.W.E.W.S.S.S.S.S.S.S.W.H.H.!.W.W.!.!.!.~.!.!.~.!.~.~.~.~.~.~.~.~.~.~.~.~.~.W.H.~.~.~.~.Y.Y.Y.Y.~.Y.Y.Y.Y.^..XT..X.X.X.X.XT.^.OXI.b y y y t J K K F _ FXF.< d s g ) F d ].'.&.f a ` <XqX5X%.<.m.m.1.G.XX X XXXR.^.3X5X0X0X0X0X0X3X,X,XjX0X8XMXVXnXAXnXAXAXAXAXVXnXvXcXMXNXVXAXVXAXvXvXVXnXAXnXAXnXcXcX0X_ I ` 6.5X5Xd < 5 C.~.~.o.< _ Y.!.W.^././.E.E.m.E.7.7.7.{ ' 4.3.3.2.{ Y o.' d / 4.} J a g ( a G _ F.1X2X2X).1XkX].N y , t u i u u u B @.l + O O O + , u + X.5XOX%.< , , g g g b u & X . . & n s u u s f , %.5XR.,XP.p 5 _ #.' H ) P c.JXCXB G H F d ].9XgXgX; {.MXgX9X].c.s G o.o.*.x X.c.P.K.V P X.*.*.oXX.*.8X2XlX2Xu X.o.=.6.X.5 G G B , + n _ s f b p P a Y ;.;.;.D 8 8 7 8 5 5 8 F G F a ` g a a / p g F g X   # t ' } p + . X t g , + , + O O . . B P.{.i + + ; i O - y ; ",
"T. Xy - l Z > = j - =   # - y y & y l - = # # - f f y i O Z KXnXJX].x F ' E.W.W.S.S.S.S.S.S.E.W.H.H.!.W.W.!.!.!.~.!.!.~.~.~.~.~.~.~.~.~.~.Q.~.~.~.!.W.H.~.~.~.~.Y.Y.Y.Y.~.Y.Y.Y.Y.^..X.X.X.X.X.X.XT.^.OXN.s y y i p H K F 5 s *.P 5 P X.%.%.a h B ].@.t d G *.G.<.,.` m.E.C.<X<X<X XXX3X^.3X5X0X0X0X0X4X3X3X3X,X<X8XcXJXHXHXnXnXAXAXVXVXVXHXHXHXnXVXnXVXVXHXVXcXvXHXVXVXnXbXgX8Xd F a o.4X3Xd 8 5 #.3XH.5 < 4 #.+XQ.%.d ` V.7.7.#.:.7.7.7.m.#.` m.4.2.` 5 < 4 4 } K S a a p ( F.5X<X Xc.].8X2XB y u i u u i i f u g ` ` f , , t , u f g t F.5X.X X< p b b s 5 t l & O X + f P s d s < u , *.5X3XXX_ d F G H ) #.o._ qX9X9X@.F ) G b 9X6X}.bXB {.hX}.hXv.b b 6.a.a.oXa.U %.o.( G P +.o.6.o.U C ].9X].n < o.+.+.=.+.7 H ' _ , s *.%.%.g s F.P._ o.0.~ ~ ^ 8 7 7 5 5 8 S I d P _ p t p a H G G G 5 O = O t ' J a s o o p h + X , t f f ; ; v.,XP.@.+ i b.D.f y i , ",
"+X3XC & N ].- = l -     = - y y - - u y # # - y f f f y ; # |.KXmXJX].v F ' E.Q.E.E.S.S.H.S.!.W.W.H.!.!.W.!.!.~.~.!.!.~.~.~.~.~.~.~.~.~.W.Q.~.~.~.!.W.H.~.~.~.~.Y.Y.Y.Y.~.Y.Y.Y.Y.^..X.X.X.X.X.X.XT.OXOX*.u y y i s H S d 5 s < d p %.zXFX%.5 g <XJXCXf p a F #.E.>. .^.G.,XFXJXJXMXXX3X3X3X0X0X0X0X0X0X0X3X5X5X4X8XMXJXAXHXAXHXAXAXNXAXAXHXHXHXHXnXAXAXAXVXJXnXcXAXAXVXJXcXgXkX%.G ) N.4X4X_ < d 6.3XN.< 4 < <.+X5.< < 5 #./.H 4 < ' 7...' 5 < ' 7.4.a < 3 3 4 H { ' G ( $.5X<X Xc.c.1X<X@.k u u i l l y - + + t #.>.,._ < p f ( < t V f _ F.F.X.< g f s t 5 s , o + f _ _ a F b b @.@.u b %.N.( g G a F ) <.N.<.%.].9X].b J I d 5 ].MXMX]., &.kX}.gXx.t %.@Xp.oXp.+.L < g g g 6 L L U E o.L n O.n 6 8 o.6.;.;.E 7 Y { G 4 _ o.%.%.d %.5X X Xb D Q ^ ^ 8 _ *.b 5 U o.I d P.,X@.< p a J S F d < X O + f g p g p < u G g , o i ] K.%.; O c.).c.c.O @.M.m.B + ; i ",
"Y..X*., u B i B _ f y ; = = - - = ; t f O & u b u u k k i y : nXLXvXJX6Xn 7 ' E.^./.!.S.H.H.!.!.H.H.W.W.W.W.H.H.~.U.U.~.~.~.~.~.~.J.~.~.J.Y.Y.W.Q.Q.Q.Q.Q.H.~.Y.~.~.Y.Y.Y.Y.XXY.Y.^..X.XOX.X.X.XY.Y.~.3X@.y y y y u 6 P b 6 d d P d *.CXqXn d s 2XKX0Xs P P I :.B.B.N.T.c.CXVXnXAXFX3X^.I..X5X0X0XqXgXkXBXjX<X5X5X<XkXJXJXAXAXAXAXAXVXAXHXHXHXLXLXAXnXnXHXHXJXcXVXJXJXVXBXgX9XqX0X X0X0X0X,XXX%.F.OXOXT.` g %.^.~.<.< < 5 #.#.4 , o < 3.4.5 , , a 3.:.5 < < 5 F ' #.%.F.5X5X,Xc.&.{.kXc.n f k k - = = # . .   X u #.#.:.( 5 ) #.P t y i i u < s p b s , , 4 < d p h _ { ` ) F b n 2XlXlX&., p 5 G / G a ) #.b.b.<.#._ %.( g ) F a d s %.@.s h g ].<X].n s XX<XoXw.*.*.X.c. Xv.B t d +.;.+.F e X.+.+.E 6 U o.E E e D Y H G p < d P d f XX X<X*.n @.%.P 5 @.,X,Xc.e ;.6.s _ ,X).).f , ( ) S F d 4 o , i , O o t s f u p b s t V z.(.z.; X @.,X2XC X X.N.%.; # + i ",
"OXY.XXb t u f X.N.f f l - = # - = ; i f i u b b y y y u u y & N mXLXmXAXMXX.d I Z./.E.W.H.H.W.H.H.H.H.H.H.H.H.H.~.U.U.~.~.~.~.~.~.J.~.~.J.Y.Y.J.Q.Q.Q.Q.Q.H.~.Y.~.~.Y.Y.Y.Y.XXY.Y.^..X.XOX.X.X.XY.~.+XOXX.y i y i , n CX*.6 8 d F a s X.n u ( g i X.n ( <.` H :.1.L.$.T.c.CXVXAXJX8XI.^.I.T.XX2X0X0XkXMXbXBX4X5X<X<X8XMXcXvXLXHXHXJXHXVXHXHXHXLXLXAXnXnXJXAXVXVXcXVXMXgX0X8X8X8X0X0XN.%.<X<XXX3X3XOXOX3X3XY.3X^.3X+X( 5 G /.( , , < < :.2.H 4 < H 4.:.H < < P ) #.^.4X<X2Xc.*.c.zX2XB u b f , o + O . .     # + , P #.` d P ) a p u y O + y u s s t u X.@.X.z _ ) / ` ' ) H H g @.lX{.fX Xs g ) { { { h o.@.z.b.#.o.F 8 5 g P a F F P d a ( d g b s < 5 d o.R.@.X. X*.*.2X8XlX2Xu P +.a.o.7 U o.W W +.o.6 4 L o.+.L ' { ,.$.P 7 d d f _ _ _ n <XjX1Xc.V c.c.v.P.d o.6.< %.,X).).f f R.N.G P < f ] V f + . O , f + + , t s < ; B ).z.y O B 2XZ ; O y @.f . = = - ",
"OXY.OX*., y y n B , - y i + ; - y - ; y n b b u - - - y f i i y y [.LXnXnXVX*.s U 5.Q.W.W.W.H.H.H.H.H.H.H.H.H.H.~.U.U.~.~.~.~.~.~.J.~.Y.J.~.Y.J.Q.Q.Q.Q.Q.H.~.Y.Y.Y.Y.Y.Y.Y.XXY.Y.^..XOXOX.X.X.XY.OX+X.XB y y ; i u n c.( g a a J F 5 < < d H G < , 5 ` %.` ' | >.D.>.^.N.,XCXJXzXP.I.^.3X3X,X,X5X0XkXMXbXBX4X5X<X8X9XcXcX9XHXLXLXAXHXLXLXHXHXHXJXVXNXcXDXVXBXVXvXVXMX8X8X0X0X8XzXF.H H I.5X.X3XXX_ d %.OX~.~.~.` #.^.2.E./.` < < 5 ' 7.4.4.' ` :. ...4.` o.%. XdX4X3XP.x.c.kX0X@.f s n f t / ` b.[ t + - j u f f u s d P d 5 p u y + = # O 2 < 2 , c.jX1X0Xc.@.) / ) ) G H I p &.lXfXkX*.P g { `.`. .G a d %.b.o.F 8 W P < f ( D U I G G I P 6.J.U o.o.I G ) G @.].*.{.8XfXhX2XP U E o.P P o.o.W Q +.E 6 o.6.;.+.L ` >.M.M.` ) ,XP.P p d < %.jXjXjX@.g %.z.z.$.F I d < ( K.5Xz.t @.(.)._ , t z.z.f i ; = O y i O . O + s f .   N i + O ; i O # # # + ; =   # O ",
".XY.~.R.l + y j B & $ & u f y y y + # ; y u i l - - - y u u u u u y &.LXHXmXVX&XU F 4.W.W.W.W.H.J.H.H.H.Q.J.H.H.~.U.U.~.~.~.~.~.~.J.~.Y.J.~.Y.J.J.Q.Q.Q.Q.H.~.~.Y.Y.Y.Y.Y.Y.XXY.Y.^..X.XOX.X.X.XXXOX+XR.n y y ; i u y o s g a S H J 5 s p d ( d 5 s a ` %.` ' ' E.!.,./.E.<.c. XF.Y.3XOX3X3X,X,X<X<X0XlXMXkX4X<X8XgXMXVXVXvXVXVXcXcXNXAXLXAXAXAXcXVXcXcXVXVXBXVXBXBXMX8X8XkXkX0XzXc./ H #.,X3XOX_ < < 4 6.+X+Xo.4 a :././.m.V._ G 4.E.7.4.4.4.4.:.:.| { <.5XzX0X5XXX%.c.8XjX&.f u s u u , _ $.M.M.b.@.y + i g P u o , p a d G g t , ; C O X , t , B 1X2X2X2XjX,X) ) ) / ' { #.p @.kX1XX.U F G { M.`.{ H a G ) ) F 7 Y W b u i f L U I a G I o.6.6.6.o.=.) H H I X.*.].jXgXlXgX@._ U 8 < a ) ` o.=.;.W 7 U 6.a.6.e 8 #.M.{  .H ) XX5X%.d ( <X*.&.].C u u @.F.$.G a F 5 5 d g B g p _ (.,XB o ] z.%.t + ; + ; l B #   # + b u .   O i ; O O # = # = - - ; O - B , ",
"OXXXY..XC & j i B k + X u f u k u y # # : & - - y 2 y u s b u u s b s X.VXLXmXVXMXX.7 o.5./.W.!.H.H.H.H.~.~.~.~.~.!.!.~.!.~.U.~.~.~.~.Y.Y.Y.Y.Y.H.H.H.H.Q.Q.Q.~.Y.Y.Y.Y.Y.Y.Y.Y.Y.^..XOXOX.X.X.XXXY.OXN.f y y ; y y y u u t a J J J 5 p B oX0X*.s 5 P #.) H ' ' <.~.b._.D.E.D.6.N.Y.,X5X5X<X<XgXhX9X8X0XkX8X0XkXMXnXVXVXVXVXgX9X9XcXMXcXJXVXcXNXmXVXAXnXVXbXBXBXcXMXkXkXlXlXzXkXMX<XX._ *.3X,X5Xo.< 5 5 o.+XS.a 5 5 ' /.E.m.E.E.V.` F ' 7... .:.` %.P.4XzXzX0X,X%.c.<XzXc.B f f u u & X , _ b.{ [ _ y #   & b t X @ , d G d g s u + y y + t ` ` ` _ <X1X1XdX1XP.P I ) {  . .D._ s L 7 U o.7 d ` M.`.{ } ) I J S J H I ) f N = O < z p p g F +.6.6.o.o.o.P I W =.o.z *.<X8X2XZ u _ I d 7 G ) I ) o.o.Y F P %.%.7 8 7 o.N.[ / J J #.#.) b 2X9XkXX.y l C l , B h a a F d d s < < d F F ( B o t $.z.f X X i ] V y B O . X & f t , + y ; & O - O # # # - - + f %.$.` ",
".X.XY.XXc.2 2 y n z 2 2 u f u u s u O O - - = - y u u u u n n u b d F d n 9XKXbXvXCX*.d ) 5.+XW.H.H.H.H.~.~.~.~.~.!.!.~.!.~.U.~.~.~.Y.Y.J.Y.Y.Y.H.H.H.H.Q.Q.Q.~.~.Y.Y.Y.Y.Y.Y.Y.Y.^..XOXOX.X.X.XXXY.OXc.l - - & y , , , t t F J G 5 p 3 ].CXqXCXb ( <.<.` ` 3X#.1.1.1.D.E./.S.A.5X<X<X0X<X0XCXVXVXBXkXzX0X0X0XMXVXVXVXVXnXVXqXkXMXBXMXMXJXJXcXcXVXAXnXZXHXVXBXbXvXBXBX9X8X8XjX8X8X8X0X5X5X5X3X5X3X_ _ %.N.H.~.) 5 a 4.E.Z.m.m./.) 4 < p #.:.#.C.3XzXzXjX8X2Xc.%.,XzXc.@.V f f u y + X X y f ( h h i O # . + g f * X , d d d P f , i u t h [ :.{ :.) ] 4X4X4X4X%._ I ) #. . .L.[ x D 8 o.Y 8 F I ' } K } ' } K K } } ` ( B N . = l < s b d 5 o.6.o.d F 8 7 o.;.+.;.E n X.u @.c.@.b P b p G G G F F F F G g p 5 5 F F P %._ g G G d P G %.MX9XBX].&.MXnXVX@.o 5 d a G G d < 4 4 s J F s , X f [ [ , ; i c.K.[ i ; N N + 2 f t t u , + + - 2 + # = # ; - + V #.{ ` ",
".XOXT.R.XXn , u u n f s t f s t s f b u i i - - u u & # & j j , , u d 8 d s ].JXbXcXFX Xn P <./.Q.H.H.~.Q.Q.~.~.~.!.!.~.U.~.U.~.~.~.~.~.J.J.Y.Y.Q.J.H.H.Q.Q.W.H.~.~.Y.Y.Y.Y.Y.Y.~.^..XOXOX.X.X.XXXR.3X%.l - - & u n u s t p J J s X.u , C CXFX8Xb #.5.<.%.<XzXc.4.:.4.E.D.L.c.CXFXCXzX X XzXCXcXMXBXCX0X0X0X0XMXVXVXVXVXVXVX9XMXcXcXcXVXLXAXVXnXnXAXnXnXnXVXbXbXAXHXHXcX2X<X1X1X0X<X5X3X3X3X5X,X,X.XN.I.Y.U.~.C.` #.~.6.<.m.m.m.) 5 < , B F.0XzXzXzXjX4XP.z.c.1XP.@.B l y y t t o X y i l , t b ( V + + f h / ` u o < P ( @.X.z , < t g { >. .{ } H a ` I.I.%.U o.F ` C.{ { K.( F U I ' ) ) d F 7 W o.Y |  .{ {  .>.$.V Z =   N u < b ( b s d P d x 6 6 4 E ;.^ -.-.L d X.<X<X0X@.o f , s g p d F F ) ` ) / G P G G d d d p b X.X._ F %.MXMX{.'.JXmXmXnXhX; s p d 7 F F < 4 o < I H < u o f p t i i V ,X$.] f @.1X2XB + ; + , p u , + , < , + # O # ; + f %.[ h ",
".XOXY.I..X@.u B n b b p < s f u f s g s f f i y n y & # = = j y & + s d 7 d t @.CXVXmXVXkX@.P o.Q.~.W.W.W.W.J.Y.~.!.!.!.!.~.U.Y.~.~.~.~.J.J.Y.Y.Q.J.J.J.Q.W.W.H.~.~.~.Y.Y.Y.Y.Y.Y.^..XOXOX.X.X.XXXY.3X%.l & ; & n b s s s d H I *.gX{.C % B X.n ) H ) )  XzX0X%.:.' 4./.E.N.lXVXvXBXCX<XP.zXkXMXkXkX0X0X0X0X0XkXVXVXVXVXVXBXcXVXNXnXVXLXHXHXHXHXnXVXAXHXHXHXVXHXHXHXHXLXlX<X<X0X<X5X3X3X3X3X,X3X,X,X3XR.T.Y.^.^.!.H.<.G 5 ) m.m.#.< b c.MXCXMX8X0X<XP.z.z.P.c.@._ V u y y , _ %.@.i u n & o , f ( V f B _ ' :.1.g p ( g _ X.f b < , ( #.{ ' ' o.I J { #.` P 7 U W S ) #.} ' [ ) D S J :.>.>.` 7 ;.t.h.W '  .>.>. .M.#.f N . ; i _ o.g %.<Xz d G P x W -.L +.;.;.Q r.U d *. X X1X@.X B i t f b ( x d G G / ) ) ) ) P 5 6 < B 1X8X8X4X) G B &.C BXnXmXnXnX}.l n 4 4 4 a F 5 < 4 s ( 5 o o , f , u f , , @.] V B 2XP.,X@.+ ; ; , t s s i i , , , + + # = + y B B i ",
"XX.XOXY.Y.F.z X.0X*.f B b s s y y y u < t u u B b u y & = - - - - & & < b d d 5 n &XVXVXBXCX2XC _ <./.^.W.W.J.J.Y.Y.~.!.W.~.J.Y.Y.~.Q.W.W.W.Q.Q.~.~.~.~.~.Y.Y.H.~.~.Y.Y.Y.Y.Y.Y.Y.^.^.OX.X.X.X.XY.Y.3X@.u y % y < < d d < d g _ 8X}.gX2X2 , 5 F ' d a F ) C.#.` :.} :.D.m.^.CXmXAXVXCX<XI.5X0XkXkX8X0X0XkXlXkXgXVXvXvXVXBXCXvXnXAXVXHXHXAXHXHXHXAXnXHXHXHXAXHXHXHXHXHXJXFX2X<X5X4X5X5XG.C.OX,X3XR.N.I.3XT.A.%.B.U.S.' 5 8 I :.#.%. XCXFXCXqX0X,XF.z.z.z.z.%.%.] s < 2 u , V K.z.z._ t s o t g [ { z.@._ $.>.{ } G g g p 5 g d s < B [ ,.o.=.;.;.=.' M.M.M.,.U U D D D U Y } ' ) J J ' >.>.,.#.=.a.;.h.U '  .>.>.M.M./ G b , t P 6.=.d  XzXB / ) U Q ~ ;.;.;.;.;.;.6.' P F. X4X X; O N y f @.{.kX@.< @.%.g ` <.<.P < u u , c.2X2X2XjX` d n Z C DXHXnXGXcXX.b 4 o 4 5 a J J H s u o X . . u s o o u , + y y X l 2X2X,X@., + + & , b o.B , o y u , + -     # # = - ",
"XX.XOX~.J..X_ _ 0X4Xb s b s s y ; - f f u t , u s f u i + - i f y y - + < d F d 6 3 X.9XFXbXVXBX XX.o.%.~.+XJ.J.Y.J.H.!.W.~.J.Y.Y.~.Q.Q.Q.W.J.J.~.~.~.~.~.~.U.H.~.~.Y.Y.Y.Y.Y.Y.Y.^.^.OXOX.X.X.XY.Y.T._ u y 2 1 u p s _ *.b s n 9X9X9X2Xy < H K F 8 S F F G g %.#.) ' Z.1.F.kXBXBXMXkXXXT.3X5X0X<X1X<X0XjX0XkXgXVXHXMXkX8XkXVXVXVXHXHXHXHXLXHXHXnXHXAXHXVXHXHXHXHXJXLXJXJX8X<X5X5X5X*.P F #.3XN.g s s %.Y.` a g <.!.' a S P #.5XCXCXzX0X<XXXF.%.%.%.%.z.z.@.V t t u k u < @.b.$.$.( ( _ ( ( / [ >._ , p ( / / F g _ V p d I G 5 4 g ` ' ;.-.~ ~ ;.:.>.M.M.>.J S S U U F ' ' ` / 8 F ' >.>.3.` o.=.;.Y I ' J ' >.>.} J H I U I o.=.=.P F.2XB ) H T ^ ^ ~ W W W ;.+.o.o._ X.P. XB O = i < _ @.2XgXB _ 4XjX@.b $.o.< @.&X{.C 2X2X2X2X1XB @.fXBX&.Z VXJX}.k d F 6 4 4 < s p a d 5 , _ C O O f < X 1 u , 2 + X y + @.2X@.p g f , ; y s _ B + X , u t t y #     = = = ",
".X.XOX~.Y.Y.F.s @.*.g p G g d f u u s s u y , y u s s s s < 5 P ) ) b , , < s P d d < z *.CXDXbXMXMX2Xc.@.%.6.+X+X~.H.H.H.Y.J.J.Y.Y.~.~.Q.Q.Q.J.H.~.~.~.~.~.~.~.~.~.Y.Y.Y.Y.Y.Y.^.^.^.OXOX.X.X.XXX.XI.B i y 2 1 n p f 0XMXn u u C 9XMX&.o p H K H S J J P _  XCXFX@.) <.F. X X0X0X5X3XY.F.I.T.T.5X5X4X3X3X5X5X0XkXCXkXqXkX9XMXBXVXVXVXAXHXHXHXZXVXHXVXnXVXHXHXnXHXJXHXFXJX1X,X4X5X3X_ I F ' 3X%.< 6 6 o.Q.P s p ' E.5.` X. XCXCXzX4X5X3XF.z.%.%.%.z.c.@.B i + + & k n f t b ,.>.$.$.M.>.) g h ) P 4 , o , p ( $.,X4X@.h ` ) H a < d I =.;.~ ~ ;.;.:.,.M.M.{ I S ) o.o.' | ' _ u 4 4 P >.{ ' H J Y K I ' ) ) J ' { ' I I Y Y Y =.=.o.' ) ) ) ) G F o.W W o.o.I P b F.6.*.%.%.@.; = O f P $._ 2X&.b ( c.1Xc.p g t &.gX2XgXv.v.1X1X4X@.B kXgXhX9Xj n ( d P } } H G s b , o o t , V M.L.V t n , o x f t y , _ c.B + f f G >.{ h l 2Xc.l ; O + y y , t u ; O = = ; ; ",
".X.X.X~.Y.R.XX_ < f g d g G d g n z z 6 s , y y y y u s b s 6 8 H } b , < u < t s b 7 7 4 n ].BXDXbXcXBXMX].%.%.F.J.~.W.W.W.W.H.~.Y.~.~.Q.Q.Q.Q.H.~.~.~.~.~.~.~.~.~.Y.Y.Y.Y.Y.Y.^.^.^.OXOX.X.X.XOXOXF.f i y 2 , b s , ].].& u u + l C 2 1 < I K ' ' ' H b <XJXvXLX&X%.3XzXCXzX XXXY.I.XX0X0X5XT.3X,X.X,X3X3X4XzXkX8XkXMXCXCXMXkXBXcXcXcXVXAXnXnXnXVXVXcXHXLXHXcXcXvXcXbXMX8X1X,X3X5X6.G I <.3XN.< < d 6.5.5 < 5 #.<.%.,XCXzX4X3X3XU.z.$.[ %.%.c.%._ f t t i : : # - f f t p [ ` ( ( ) G h ( o.o.U o.L x s s %.zX2X4X5X( I H { [ %.P Y ;.;.;.;.;.6.#.4.>.#.) U I #.<.<.#.' ' f o 2 4 5 ) H } F F | ' { :.:.#.:.#.>.,.) Y ' Y Y Y o.o.) F I ' ) I G I Y =.=.o.) g g F.F.F.%.%.N O O y ] #.<.` X.B b P g %._ t < B {.{.hX8Xx.@.c.P.F.B ].hX}.hX8Xf d F } ' | ' ' I ) X.4 o o y V ` { { ( , , u b P t u y i z.$.%.V o n #. . .h C 9X8XC . = u t ; O , u i ; O = - ; ",
"OX.XXXOXY.J.Y.F.s s f b g p s B f x ! D e d s u O = y i y @.kXf < B b s G g < , , t d F 7 7 8 ( c.MXVXnXcXNXMXoX&.%.6.+X^././.W.H.J.H.~.Q.Q.Q.Q.H.H.~.~.~.~.Q.~.~.~.~.Y.Y.Y.Y.Y.^.^.^.^..X.X.X.XXX.X*.f i y y u f s s k i 2 u s u , , y 1 4 5 ) #.5. .G B BXVXvXVX&Xc.kXCXVXBXjXXXR.c.CXFXCXFX2XP.R. X2X5X,XjXjXqXMXgXMXnXvXMXMXcXVXVXVXDXbXnXnXVXVXVXHXHXHXnXvXnXZXnXnXVXVXBXfX1X4X5Xz.N.T.T.3Xz.%.B.S.S.` g _ *. XzXzX4X3X_.L.<.#.#.%.z.z.%._ g p s u u i : :   # f f V ) H F s o o n u , 4 ;.a.;.;.;.U 5 @.zXkX0Xc.U ;.=.,.M.M.$.o.;.;.;.;.o.U ) _ %..X6.F o.1.<.<.) ' P o X o 4 ' ' | { a a ' ,.>.>.>.>.:.` #.$.` ' ' :.=.*.6.6.J H I I G ) ' ) <.=.=.=.I I U F.oX*.$.z.i O . ; _ #.{ ` _ _ g b d p s _ s B {.fX<XX.b G ) H I P *.8XhXfX%.G J I ' ' ' ' I F H _ P < , h `  .{ ) t X , s P ( t + + i ( [ z.%.+ o g #.` < n 8X2Xy   & %.B O   O y i ; ; #     ",
"OXOXXXOX~.Y.Y.Y.X.< s *.N.b t B b U t.j.E 7 d x y : y - l 2XMX&.x.zXX.t G ( s s f t p d F F F F 6 n &.9XBXcXcXNXCX<X*.%.6.~.^.!.H.J.~.W.W.W.Q.J.H.H.~.~.~.~.W.W.~.~.Y.Y.Y.Y.Y.Y.T.^.OXOX.X.X.X.XXX.X%.f i y t u f t f u , i u s u t k 2 y &.c._ #.#.G p n BXnXnXFX].9XMXbXnXnXkX3XI.8XFXbXbXCX2XP.zXFXMX4X,XzXkXkXgXcXVXnXvXMXMXBXJXVXcXcXcXnXbXVXVXVXVXnXcXnXAXvXnXnXbXVXBXgX8X4X4X5X3X(.(.T.R.R.R.L.L.A.K.P.,X0XzX4X,X(.L.>.{ #.<.N.z.@.g f h s p t u t y O .   # i f u g a P 2 X &.8Xl o 6 ;.-.-.~ ;.W 8 B  X@.@.o.6.-.;.<.>.M.>.Y U W o.Y U F U X.3XXXJ.o.) 4.<.) F H a < , p #.3.3.2.) 4 , p $.>.>.>.>.' ) o.( a ` 4.5.6.;.6.U Y ) J J I ` ) ) ' =.=.W J ' X.J.5XF.$.) V + . . s #.` ' _ ( s g d o.XX<X*.< _ %.b g G F J J ' Y F ( C B ( a F ) ' { #.` H H ` ` G F d P ` ' G g , X , s P b , X t u B %.$._ + X , g f s t C B O # + *.( O   O y y y ; =   > ",
"OXOXOXOX^.Y.U.Y.N.f t %.5X@.< u f p E a.E 8 P d b b b u f 8XBXx.{.lXc.t s d ` ` ' g t , < p F J F 7 7 b @.qXVXcXcXMXCXqX].%.*.H.~.~.~.J.H.Q.Q.J.H.Q.~.~.~.H.W.W.~.~.Y.Y.Y.Y.Y.Y.^.^.OXOX.X.X.X.XY.R.X.u y y u n u i i y y u s @. Xn y y {.VXBX8X_ G X.@.s  XVXFX0X*.kXbXcXcXbXkX5XA.0XCXBXVXFX].2XFXBXCX0X<X0XkX9XcXBXVXnXvXMXMXbXJXHXbXnXZXnXnXnXnXZXAXnXnXAXHXnXvXVXBX0X0X1X4X,X(.(.(.^.T.U.I.I.P.K.N.K.5XzXzX5XT.L.b.$.#.#.<.%.%.( s p s t t t u u u p s , + + y l O X + s P , B zXdX)._ 8 ;.;.-.;.;.D e U o.P ) ;.;.y.y.=.{ >.#.F Y 4.6.6.o.6.U %.F.F.N.%.a H J H ' K } ) ) >.4. .>.>.h O ; ; B b.>.>.{ H d o o G ,.4.6.-.~ ;.U o.' S J ) { ' ) H ' ' J Y o.' o.*.6.) ' %., O . u o.' ' P o.%.%.V c.,XP.P.g h a d F a G J K Y H ' ) B v.1X%.g F I ' ' G }  .M.$.d d U P 7 b 4 , s < s < < n < , s s , @.%._ y + t u , , s s , @ O + X.u y - y y , y ; = = = ",
"OXOXOXOX^.Y.U.U.Y.@.< X..X_ u u f s 5 6 7 F d s P P P b < c.CXC v.CXc.u B n 5 I ) g u - + , d F F F S a d b *.MXMX9X9XBXFXCX X@.%.*.J.+XQ.Q.W.Q.W.W.W.~.~.~.J.J.Y.~.~.Y.Y.Y.Y.Y.^.^.OX.X.X.X.X.XY.R._ u y y u n u i u , i u f P.zX].+ Z DX}.}.VX@.%.zXzXV B c. X#.#.2X9XCXMXgXkX,XF.<XkXMXkXMXc.8XCXBX0X<X4XjXkXMXcXMXBXVXVXMXMXcXVXVXVXVXnXHXHXHXAXAXAXAXAXAXAXnXnXcX{.<X5X5X5X(.,XT.(.R.I.P.,XR.P.,X4XzXzX4XP.N.b.,.,.<.<.%.X.b s < 5 < 3 L E v 3 u t d ( b B u , + O   O u s < _ dXdX4X*.F S W o.o.o.Y o.6.o.<.#.;.;.;.W o.' { ) I 5.E.4.6.6.U U o.6.6.J.o.8 I ) I } } ) g p ) | | >._ , ; = X u #.' ' H I d s X.,.>.4.6.;.;.;.D o.G F J ) ` I H I J 8 F ' ' ' P P P F { #.f X + s F I H ` N.N.N._ %.,X,X_ G a ) P g o.o.H H H I H F *.jX2X1XP S Y J F F ' >.M.n.G F I 8 4 s o o 5 ` s , , u f s p f , l B _ f , t , o 2 d d < o & + + + y y y y y y - ; ; = ",
"OXOXOXOX^.Y.Y.Y.T.N.s b %.g s n n z x P F d y u d G P ( f f B f _ %.P b c.{.X.3 g P u y - y , < s P J J J F d X.oXMXbXhXhXCXJXCX].@.X.o.6.Q.+X+XQ.Q.W.H.J.J.Y.~.Y.Y.~.~.~.Y.Y.Y.Y.Y.T..X.XXXXXY.OXF.f i y y u u u f p p t u t c.MXC + C JXbXnXVXB  X8X8X%.o.<.<.` ` G.XX1XjX4X,XR.5X0X4X0XjXzX2X,X4X4X<X5X4X0XfXMXcXMXBXBXBXMXkXcXVXVXnXnXVXLXVXJXLXnXvXAXHXHXVXnXVX8Xc.,X3X5X,X,XP.c.v.2XfXBXkX<XjXzX4X,XL.N.b.m.m.>.#._ b s < < < u < 4 +.t.y.t.v 4 p ) _ _ %.%.%.l N : N B , d 5 %.Y.6.I I I ,.D.n.#.I ' o.' b.b.:.' I ) #.{ ' ' ) B.1.5.o.Y ) I I 4.:.#.P d P P G ) / f : ; ( H } [ f i = = o g ' ' =.;.;.' o.#.>.M.,.6.o.W U F _ %.b.$.` ) I o.;.;.o.U o.' _ P. X*.( #.b.V p d F F I I #.B.N.N.` X.<._ I H F _ _  X1XjX%.a P I ) P %.4X1X,XI J J S S F #.m.#.' F ' :.' J F f , < b u o , f , , p s u X + , f s < < + o 5 a 5 p u & .   y i y y & + y y y ; ",
"OXOXOXOX^.Y.Y.Y.H.T.( s g g s f y 2 s F G g i i d F G g g g f f b g P ( ].2X&Xn t b f y + - l c.s < F H K S J 7 6 X.8XCXMX9XmXvXFXCX8X*.%._ o.<.H.@X+XQ.~.J.J.J.J.U.!.!.~.~.Y.Y.Y.Y.Y.Y.Y.Y.XXY..X*.l y i i u t s s ) / t u u n B y u u &.9XVX&.j 0XkX2X,XI.{ #.D.B.#.N.T.,XI.I.5XjXdX,X,X1X0X<XP.3X3X5X4X4XkXcXMXbXMXBXBXMXBXBXBXVXVXVXVXJX9X].9XLXcXVXVX}.BXVXVXVXCX2X<X,X2X<X2X4XzXFXFXFXBX8X8X,XP.N.C.b.b.n.$._ G p < 4 4 3 u z s 4 3 r.y.9.Q w P $.#.#.) $.L.(.v.O . C n d I ' #.#.6.I ' 3.L.M.L.>.H K ' ' >.M. ./ >.b.L.>.} 4.<.<.:.' ' ' :.4.' ' ` ` I I 4 d ` ( t ; >   f } ' ) f N ; O , d Y =.;.;.;.Y ' >.>.>.#.P d o.G ) D.T.K.L.{ / #.6.;.;.a.W Y I ] P.c.%._ A.#.) G J H H I o.=.o.` ) I I ) G J J F ) *.<X2X1Xc._ o.#.N.P.z.).4X%.H K K K H H G ) G a I { 4.| } ' b o < u < < s u o + < d u o + + g P s , X o 5 8 d g 2 $ . O , i , + O # - ; ; ; ",
"3X3XOXOX^.Y.Y.!.S.~.*.p g ( ( , @ X 1 s I G i u P I P g g f B B b ( P b @.c.*._ B B X.n u k ].KX&.y c.%.I J J J 7 6 x X.<XMXNX9XgXBXCXCXqX X*.X.U o.<.H.+X+X+X+XH.H.H.H.W.!.~.~.Y.Y.Y.Y.Y.Y.Y.Y.OX@.y y i u f f a G [ / t f u y , u s s u 2 u y X.0X0X<X4XN.` R.5XXXN.N.U.U.L.T.<X0X4X,X,X0X8X8X5XR.5X4X4X8XVXmXbXcXcXcXMXgXMXBXnXnXnXnXnXHX{.2XnXJXVXMX].8X9XMXBXVXgX2X8X8XgXBXFXFXzXzX4X,XT.T.U.A.5.4.#.` ( g < 4 4 < 6 d s 3 < < < < s 7 U E 6 5 H :.>.` ` L.L.K.,X@.2 n F ' o.=.=.o.o.o.#.3.M.L.D.{ } ' {  . . .}  .M.L.D.>.' | :.| ' { >.M.M.3.{ ' ` ` F U 8 P P s ; >     ( ' | ` t ; X + g I W ;.;.;.;.T I ' { <.%.V *.XXH ' >.b.M.M.{ ' 6.;.;.;.i.E I J _ N.N.X._ o.' ' ' Y Y Y W o.Q Q W S ) [ $.{ ) F F P c.2X X X Xc.` <.K.1X2Xc._ a ) {  .} J H ) / 7 8 F ' 4.:.G s u , o , F G F h + o 5 I d 5 < g ` ( l B B g S H 3 + $ & + , t f u + O # # = = = ",
"3X3XOXOX^.Y.Y.!.H.H.Y._ p b _ s + O y s I G t , d F G F d ( c. X%.s _ ( n n b b l & , u n B ].BXN C jX4Xo.F I J S F S 7 s B c.qXkXMXMXBXVXFXCXMXoX%._ ( _ o.%.6.~.+X+X+X^.~.W.!.~.~.Y.Y.Y.Y.Y.Y..X_ y j i t u p G G ` G p V u B B u t _ *. Xn s s n ( _ ` #.%.3X<XXXU.b.L.^.L.R.5X2X,X,X<XjX0X0X4XR.5X0X<X8XDXHXVXBXMXBXkXgXgXbXbXbXcXbXcXDXCX8XMXVXcX2XlXCXkX2X9XMXkXCXFXFXBXkX1X<X,XR.R.T.G.<.%.` I d 5 < < 4 s B b s ( P d s @.%.f s p ` %.%.] ` ' } { ` P ( L.K.K.F.b 6 Y ' | =.o.o.I o.:.,.M.M.:.' {  . . . .| ' >.M.M.>.{ ' ' } } ' >.M.M.>.>.' ' { { I Y Y ' G p l A   X P :.| #.s i t V / I ^ ;.;.;.=.Y Y ' ` #.K.c.X.P :.' { >.{ { ' { =.o.U L E x H ) ) #.o.o.o.o.o.=.' I Y Y o.;.Q Q =.I '  .M.M.' F a d o.P.c.].9X].%.N.,X{.2X XG H [ $.M.,.J ' :.>.I 7 U I ' ' 4 4 , , 3 U F J G g , , P I G P h / $.V &.lXP.( I F + @ O O i u s ( ( < O #     > = ",
"3XOXOXOX^.Y.Y.Y.~.H.Y.6.p g P _ t i f < a P u y u g P I Y o.F.c.6.L o.*.*.B _ @.N N : O f u C c.N B P.P.@., 5 P U F F F F d d b X.*.2X9XgXBXBXBXCXFXkX<Xc.@._ b P ) :.5.Q.Q.+X+X~.J.J.J.J.J.J.Y.R.B y y y t s s d G ' / h u C 8X].1 b %.9XCX@.( s b _ ` #.3.>.^..X.XC.n./._.L.L.T.(.(.,X1X1X5XT.,X,X,X4X3X<X8XCXCXBXlX8X8X8X8XgXgXgXkXjXkXCXzX X2X2X{.2X8XhXgXlXBXBXlXzX4X,X(.T.^.^.A.N.%.@.B u t u , o 4 4 < @.N.$.%.( G G g %.).,X%.t g b.K.z.[ ' ' ' ' H 4 o ` <.#.` P P ) ) Y | o.J 8 I 4.m.M.M. .' | | | |  .| } '  .{ ' ' ' ' Y Y ' ' ' :.>.'  .m.>.,.' Y =.' Y 7 u i f F H ' #.d n X.P H ) U ~ ~ ~ ^ =.=.=.' ` #.b.#.g o.` } M.M. .{  . .4.Y o.%._ ( N.b.%.<.o.=.=.=.o.o.I I I ' ' ' =.#.4.I ) >.M.>.' H ) _ G _ &.9X9X9X2X@.2X<X1X%.( { [ b.,.{ } { M.>.) I D S 8 I J a 7 L +.;.+.e d p ( G G F F I g g f B xX2X1X@.5 s - O O & y , p P ) h y # .       ",
"3X3XOXOX^.Y.Y.Y.J.J.H.~._ d G ) ( %.z._ G g f , i u G I Y =.6.6.;.+.o.c.P.%.g ] @.x.Z i B  X8XzXfXN %.c.@.i u s P P 7 F S S S F 7 6 z C &.].9XgXBXBXCXCXCXCXzX8XF.%._ P P ` #.6.J.+X+X~.J.J.J.J.I.f y y i y u t 5 G ' h ( u ].CX*.u b  XBXhXc.g ( I.Y.:.}  .:.<.U.*.N.L.D.m.L.L.L.D.(.4X8X8X,XF.,X,X,X,X5X<X2X2X2X X2X1X<X8X8X9XgX8X<X2X{.2X<X<X0XjXzXCXCXBXBXkX0X1X,X,XT.3X^.B.1.#.` ( p t u < , , + B l o @.*.b.#.$.#./ d g %.(.,XK.p g D.b.$.{ ' } '  .' d < P ` ' H I <.G.C.=.' ' ) F I ' 3.M. .' ' ' ' } | | =.=.o.' } ' '  .| Y Y Y =.5.{ }  .M.M.M.3.:.' Y =.Y F 4 5 I K Y ' G b *._ P ) G F Q Q W W =.| ' Y ' ' ) _ o.) ) >.M.M. .{  . .K H Y.R.%.%.K.N.N.6.6.;.;.Q o.o.J ' o.o.H :.,.<.4.G / { M.$.I ) P.(.#.P &X9X9X9X9X&.@.%._ V [ { $.z.` G H ` >.` ' ' F 5 5 J } ' U ;.;.-.a.L 5 g g d 8 U I I d p , @.xX2X4X@., y O O & - + o < d / G + O - # = . ",
"3XOXOXOX^.Y.~.Y.J.J.J.~.N.d F G @.).K.b.P b u y i i t g Y =.;.;.y.;.*.z.z.%.( G F.2XP.@.B lXkXfXlX@.c.c.%.@.C N l B P F 7 8 7 d 7 d 7 7 8 d P @.c.oX8XkXMXMXBXCXCXCXMXqX].%.X.) ' o.<.5.W.Q.Q.+XG.s u i y + t s p g ) g V t C ].B g g @.JXBX_ 5 %.A.N.<.:.:.:.:.) *.4X5XU.L._.L.L.D.N.(.0XkXzX4X4XP.P.<X1X1X<X<X2X2X2X8X9X9X8X9X9X9XgXgXcXBXDXJXFXJXFXCXzXjX1X<XXXR.G.J.6.%.` P s < , 4 < p p p 5 f 2XFXlXf @.%.$.#.<.>.G a d %.T.3X$.g a %.$.#.` } ' ' K ' #.' ` ` ' ' ` OX4X0XXXo.<.A.B.:. .' {  .:.| ' K ' | Y ;.;.;.o.Y ' | | } ' Y o.5.4.' } } m.M.>.m.4.' ' ' =.Y I ' Y K =.=.U o.=.I 4 , , t x Y | | | | | K I I F ) H ` ,.M.M.M.>.{ ' ' :.:.N.F.$.%.N.<.b.<.6.;.-.Q ;.o.Y ' I P ` D.$.M.>.G / _ ` G _ R.,X).,X*.].9X}.vX0XX.g _ z.( [ { { ` F U o.o.H / { #.` F ' Y | K D ;.;.;.;.U 7 d d 8 Y o.;.D 7 f < f 2XxXP.B O # # @ & O @ o , g ( t O # y i l y ",
"3XOXOXOX^.Y.~.Y.J.J.~.J.XX_ F G [ K.M.K.( b f y i V @.( G Y ^ ~ ~ ;.6.c.c.@._ P _ c.F.@.B zXkXfXBX&.X.P.z.K.Z Z C C 6.o.Y U 7 7 d F S S S S 8 7 6 n X.*.].<XqXqXcXMXMXVXFXCXzX X*.o.o.o.o.#.<.*.%.u u y ; + y s f p h h g f , , b g g f &.&.s P %.C.A.#.) ' 4.,.#.I.4X XT.^.^.^.^.^.3XT.2X1X1X<X2X2X<X1X<X<X1X8XjXBXBXBXBXBXCXFXFXFXFXFXCXMX8X9X<X Xc.c.*.%.%.%.%.o.o.) d < 4 4 , < s _ %.#.I ) G %.zXjXlXX._ <.<.<.1.o.F 5 a o.<.%.#.' F ) ` ' H ` } K K K } } ' ' ' } ` 5X<X XF.F.N.N.Z.:.' | 4.4.:.| | ' } K W ;.;.6.' ' Y Y ' | :.' ` o.Y Y Y K >.m.m.>.{  .:.' Y Y =.H F F =.=.I ' ' ' p t t s < ) 4. .:.:.' H H I =.' ' :.3.>.>.>.M.:.#.3.3.>.N.N.N.$.<.<.<.#.;.=.;.;.U U Y ' 6.N.%.z.b.D.` / $.K.<.) %.P.).2X2Xc.X.8XhX].X.g %.4X,X%._ ` ) H o.;.;.;.H } { ` ` ' ' H F F F =.=.o.o.Y U o.P 8 o.=.W D o.%.%.< V @.g t + + + y * X & + u f f , X O y y ; y ",
"OXOXOXOXY.~.Y.Y.Y.Y.J.J.+X6.a P ) M.K.K._ s B , f z.K.z._ I W ;.;.-.6.F.2Xv.c.c.c.c.c.@.( @.2XkX{.N y @.K.N.c.*.*.*.4.7.6.o.I d d s 6 S S S S S S 8 8 7 d b _ *.c.2XqXkXBXBXFXJXCXMX9X Xc.*.%.@.X.C C C B B n n f u t t f s s f p d d p < < p a P %.%.g < G >.#.6.%.R.,X3X3XT.3X,XR.P.c.c.P.2X2X2X8XfXfXgXlXlXlXBXBXBXVXCXCXCXlXjX4XXXN.%.#.o.o.` ) ' ) ' ' ) P g < 4 < p / [ { $.>.M.m.M.n.o.Y U ) 5XjXjX_ o.W o.' I F F a P ) I I } K K H H H I ' ' } K H K '  .' | | #.5X,X.X6.6.C.B.1.' K K ' ' ' ' ' ' ' } ' 7.5.=.| | | |  .4.:.:.} H } } K Y K ' ' H >.M. .,.' Y H a < 5 P F K ' ' ' ) ) ) ( / )  .>._ , < b G } I K Y ' 4.4.:.:.` <.m.,.m.4.4.<.$.#.>.{ :.' =.=.o.D D Y U 6.P.c.,Xz.` ` ) #.z.z.b.[ %.R.P.P.2XP.g ) %.%.) G P.).c.z.] B a I 6.=.;.;.Y H :.' K H d P c.,X%.d ' ' ' F o.=.) 8 I o.U ' =.#.*.f o , g [ %.] t , < f s u & & - ; + i y + O . ",
"OXOXOXOXY.Y.Y.Y.Y.Y.J.J.J.+X` G G { K.K.B s z u _ b.z.b.%.G Y ;.;.;.6.*.v.2X2X2X2Xc.f V @.@.B &.@.C l l z.K.z.%.o.=.=.=.=.F G P X. X*.x S S S F S F J S S 7 7 d s n X.@.c.].2X9XMXFXJXLXJXFXCXFXBXBXBXBXlXkXjX0X1X<X Xc.c.*.*.%.@.@.@.@.X._ _ _ ( ( _ _ @.@.*.*.c.*.c.F.c.P.P.P. X X2X2XjXjXjXjXfXkXlXCXkXlXlXkXgXgX8X2X].c.&.@.@.[ ` ` o.o.#.=.:.o.' Y J F a 4 4 s _ %.b.M.M.M.>.3.m.m.m.2.o.=.o.F %.K.%.) Y U I Y I H H ) N.<.` } K K K } ' ` { { { ' } '  . .{ :.` ` ) ( _ _ ( o.#.4.' J K K K K J J } { ' ' I ' ' K ' ' } K H ` ' } } K } K } ' Y Y H G 3.M. .>.4.H J F < s d a J ' #.{ ` ` ) / h g ` _ u + o t H H J ' =.=.=.=.=.=.o.:.1.1.:.{ ` ' #.:.{ ' ' ' o.Q U Y =.o.o.5Xc.c.2XK.) ' ` %.<.$.b.%.` %.z. X0X_ _ >.M._.` ) P.z.c.c.jX2Xb ) 6.=.;.o.' H I H H H g c.2X1X,X_ / H G P ' o.I F F U I ' o.o.o.< < t ] M.M.b.g t g p g s X O O i i V i O . . ",
"3XOXOXOXY.Y.~.Y.Y.Y.Y.J.J.~.J.G P P %.%.p 6 E +.U %.$.b.z.( ' =.;.+.X.y ; N {.2X<X@.p _  X1X2Xc.G.%.- A N C @.%.X.L x o.5.:.) ) <XkXBX<Xx X.*.&.X.b 7 8 7 7 x b d d s s s x b P b X.O.*.2X8XlXBXFXJXJXFXFXBXBXBXlXBXBXBXMXBXBXBXBXBXBXBXBXBXBXBXBXBXCXCXCXCXCXCXBXBXBXBXBXBXCXBXFXCXFXCXBXBXBXlXzX0X8X0X<X X Xc.%.@.@.] _ ] ] _ ` #.#.o.) U F d < < < 4 < 4 f @.B B R.K.K.M.M.,.:.` 1.5.7.=.=.=.Y } { { ' ' G F F ' ' K } ` 3X,X3X$.' | | ' V %.$.#.{ ` ) #.>.{ _ ( p h G < X @.b d H H H H } ' | Y J S } ' ' H d a a 5 5 5 5 8 a d F H I I I ' #.' ' I 5 a >.m.M.m.} J H I I ' P p p ( %.G G [ / h f t ( B u + o t H J I =.;.-.;.;.;.;.;.o.<.` '  .' ' ,.,.>.{ ' Y o.W W =.;.o.*.0Xc.P.(.b.` } ' o.o.' ' F F U *.,X%.d { M.L.M.) ) %.*.@.1XlX1X` G <.#.#.' } K ' ' I F X.c.].2XN.` ) g c.<X@.` ) S J I H Y ' o.) a p p { M.M.<.( s s s z.F.u X , u u f i + O + ",
"3XOXOXOXY.Y.~.Y.Y.Y.Y.J.J.J.~.o.a P d %.o.U ;.;.o.P <.N.$.` :.=.=.U u i : ; N P.*.( b *.fX{.1X).` o.N A Z &.*.6.o.4 3 X.6.1.4.#.*.8X8Xc.( XXkXfXkX*.e W W ! e 7 7 F F 7 7 7 7 8 7 7 6 6 z f B C C C &.x.2X8XgXlXBXMXBXBXBXBXBXcXbXcXhXgXgXgXhXhXhXhX9X9X9XhXhXhXhXhXhX9X9X2X2X].].].c.c.c.*.@.@.X.( _ @.%.@._ P G G #.` $.` ) ` G F a 5 5 < 5 s P X.%._ s X.1XlXlX@.@.<.$.>.>.:.` ` ' o.o.=.=.Y ' ' | ' } ' ) d S H } } } ' K.,XP.%.} } K a , i %.` _ ) < h ) h , , < p g f N x.b 5 a 5 a a F a J F F G ) ) g g g p p t < 3 3 3 5 5 5 d P ' I d G a I 8 5 p / ` { ) F ) G a a a 5 < , t p G ) a p s f t n f B t p G / K I ;.;.;.~ ~ ~ -.;.D 7 5 ) ` I G { M.M.M.,.' U D =.=.=.' X.0Xc.P.(.b.#.' I ) I G 7 7 D D *.o.7 o.` :. ./ ) ` I P c.fX1XdX` G $.$.{ ' ' ` #.#.` G o. X1X X_ G d *.1X1X1XP.I a ' ' =.=.=.' H ) d p [ { #.` p p p %.(.).@., < t u u u , , u ",
"3XOXOXOX~.Y.~.Y.~.~.~.U.J.J.H.H.P F d I OX%.o.+.U P %.N.$.#.=.=.7.#.u f y i B < g ( P %.fX2X{.1X%.` _ B c.P.I.G.6.%.X.X.6.:.:.4.#.#.o.o.o.N.1X1XdX,Xo.y.y.;.-.W D D S S D 7 7 e x e 7 7 b d d d 6 6 < < < < b _ @.x.].8X<X2X8XgXkXlXgXlXBXFXFXFXCXCXCXCXMXkX8X8X2X Xc.*.*.%.#.o.o.` ` ' ) I ' o.' ' ) G I H d d F F o.I G a a F 8 8 8 P ) #.G.$.` ` 4.) d F.jX2XfX].x o.o.Y ) '  .4.:.=.=.o.' | ' ' ' K a G _ g ' ' } } ' ) / ( t 5 F J F a o o < 5 < < < < < < p g g p t i N x.u t u t < < < < t < t u , y N N y y y y y 2 2 y t t p p 5 5 5 5 5 5 8 8 d a d a p p t 3 , , , , , , 2 , [ M.M./ t u u t t t p h G G H J Y =.=.=.;.;.;.;.=.D F _ R.XX6.` ` M.M.M.D.{ J K =.=.8.Y ) .X XF.G.>.>.>._ ` $.` _ ) ) F D S W ;.;.S J ) #.` } I F.<XdXz.G J ` #.{ ` #.%.%.N.<.` P ` #.G d g s  X1X{.2X,XP o.<.o.Q y.;.D ` T.%.p g 5 5 4 4 t f  X,X,X_ s %._ < u + + u u ",
"3XOXOX.XY.Y.~.Y.~.~.Y.U.J.J.H.H.<.d F d o.o.d I ) ( _ %.o.#.o.=.4.6.B B @.@._ p a G G _ 2X8X8X2X%.` _ [ N.N.C.6.Z.U 3 4 o.#.:.4.<.4.4.4.6.o.@.z.P.%.o.y.;.~ ~ y.;.;.o.' Y U E S D S 7 S S F S S S 7 7 F d d 7 6 s u < u t u f B B B B B C C X.X.@.X.X.@.X.X.B B b b d b G G I H I J J J K I Y I I J U Y I F 8 F F F F I I P F P o.o.o.P #.<.b.` ) #.4.#.G %.jXfXjX%.U o.o.o.F ` 4.>. .:.=.' | ' } ' ' K ) p g [ :.' ' { :.{ ( 5 < p g d d p u u s b s s z x b s < s s t i ; N x.+ o o o , , , , + y y + l Z l O & + + + & ; ; ; + y i u t u < < s 5 < < 5 5 < < < , 2 % & & & - 2 2 & + / M.$.t , y y , t t p a a a a a H I S D W ;.;.;.U I ` XXXXF.F.C.,.M.M.M.b.` S Y Y Y Y Y G _ XXF.<.{ M.M.#.%.%.$.$.$.$.o.U T -.~ ;.D J J G ) I I ( .XN./ a ) 4.>.:.#.#.$.z.K.N.#.I S F d %. XX.*.1X2X2Xz.f %.6.o.Q y.;.D o.I.%.s s x ;.+.< t f c.2X@., N.zXN., , f f , , ",
"3XOXOX.X~.~.Y.~.~.~.~.Y.J.J.H.H.U.( 7 d ' F G { D.b._ h ` =.;.;.v % y B %.%.$.` G ' ` ) @.v.C l b #.#.` #.N.Z.6.6.o.v 3 x o.=.=.4.4.4.4.=.4.` ( ` o.' =.t.~ ~ ~ ~ ;.6.6.6.;.6.o.' o.W ~ ^ ^ ;.D S S S S 8 7 7 7 7 7 S 7 7 7 8 8 5 5 5 p d p d d x x P P P ) X.o.o.o.o.X.I d 8 d 5 F H H H I 5 < 5 4 D ~ ~ W D 8 Y K K K Y ' o.=.=.=.=.#.#.$.#._ { 4.3.{ I _ B &.F.#.4.' o.Y H #.:. .'  .:.{ I F } ' | | ' G ) ( G ) G ( ) G s t s t t t s t s u u u u < , , , , + + + + ; ; l.Z O & - - y y y - - # # C C #   @ @ + + # # = = = - ; - & - & & 2 y y y y , , , , + & $ & - - & & - y - & y i y + # @ $ + + + , , < 5 p a a a J H S Y Y J G I o.J. XoXXXo.>.M.M.M.D.) J I R ]. X X%.b _ H.[ M.M.>.` ) #.$.z.z.z.[ _ F.6.6.6.P I G d 5 _ %.g G F F a #.n.>.>.#.#.b.N.N.>.#.} H a X.0X8X].B c.P.%.%.%.X.6.o.W ^ T S ) 6.o.d 7 o.;.;.6 < t b b < p T.zX@.t ( $.#.g , ",
"3XOXOX.XY.~.Y.~.~.~.~.Y.Y.U.U.U.Y.%.d d I I F #.M.M.z.o.d o.;.;.o X l f @.b.b.<.' ` ` %.@., + B b %.#.#.<.<.6.5.6.+.E 3 x <.o.=.=.=.4.4.4.=.4.#.` #.' =.;.y.-.~ ~ ;.6.4.7.=.=.4.4.=.=.;.~ ~ ~ ;.Y H F F S D U I Y I I S S J Y } ) ' ` ) a F F S 7 7 F F F I H H 7 d P _ ` ` ` P ) ` ` { ` ) g b P U W ~ ~ -.W F ' Y Y K I ' =.=.W o.=.) ) $.$._ ` ,.:.` b < * X g :.#.` ' ' ` } ' { ' ` { ) G d < a I I F P d , < s t t < < , y , , , , , o , , + + + , + + & & & # # = - ; |.A . @ # & # # = = . : Z A   # = = = # # = = = = = # = = = = # # # + + ; ; - & - & - - = = # # # # # # & O # # = # = # # @ # + + + , , t p p d d F H F d G P P ) o.F.XXo.I ` :.>.m.<.G S o.MXvX9XbX8XB P ` #.$.>.>.` G #.,.M.b.$.] ).).,XP.%.I.%.g p _ 2XzXN.d F F ` N.,.>.<.#.` <.b.$.#.' H H g  XfX2X2Xn p h %.,X5X%.U Y S S S F 7 S F F d x o.! < V t < 5 p p _ @.i t [ { $._ , ",
"3XOXOXXXY.Y.Y.Y.Y.Y.Y.Y.Y.U.U.U.G.G.I F d U 7 ' L.M.L.#.< 4 ;.o.4 s o.#.#.#.>.#.` ` z.P.,Xz.@.@.g ] <.<.b.D.%.#.;.;.W D o.4.' ' =.7.7.5.4.,.b.L.>.#.<.<.#.6.;.;.;.=.=.7.7.7.7.=.:.:.=.;.~ ~ ~ ~ =.Y ' I U U ) <.M.>.m.' J K '  .M.M.M.M.{ F a F H H ) ) ` ' :.` 8 I #.$.z.b.#.G I I ' { ' ` _ _ P o.;.;.o.' #.` ' ' ' { >.M.>.4.=.o.) P ` ( P d H ` | ` 1 & # $ d { ' ' ' ' ' ) H ' { #.` ( g s < < < < , , % % & & ; ; + + + + + + + + O O # # & & & & ; - - - = = # =   N |.>     # > = = = . A Z : .                                           # #       # # # # # # # = > >       # # # # # # # # # # # + + + ; , t , , , + , + , y u s ( G I F H J H H H ) ` ) H %.kX}.9X9X]. XP F ( n h G / a g ) ` _ G P P.,XP.%.c.,XK.V f <X8X2X,X_ B 2XP.%.$.:.#.I F ` <.#.' K K H b  X2X2X Xb d G 2X2X2X%.I S F I ` ` J J F ) %.X.b < c.zXz., G F p < o + o B $.#.f o ",
"3XOXOXXXY.Y.Y.Y.Y.Y.Y.Y.T.Y.Y.Y.U.H.#.G 8 L a.o.{ M.M._ s 4 W W Y ' #.4.4.` ' ) #.K.P.).4XP.K.[ V ] #.<.D.$.d 4 W y.;.;.6.4.2.:.' o.Y 4.n.M.b.b.>.>.<.#.:.4.;.;.^ W =.=.7.7.=.=.4.=.=.=.;.;.~ ~ Y Y ' ` Y H [ D.M.M.m.:.K K ' >.M.M.M.M.M.) F H ' ' ' ` { >.#.` ) { >.M.M.$.{ ) H I } ` >.<.$.) I I U F ` m.D.` ' '  .>.M.M.M.>.U U I #.#.#.` d G ) ) d 2 = > $ b ) H I G G G G G F G G s t u s u i y y & & # # = - = = = = # # = = = = = = = = = = = = = = = # >   #     UXZ .       > > > . A N   .                                                                                     # # #     # # # # # # # ; ; y y y ; + # # # - ; + f ( P F F H H I F H ' I ) ( c.9X9X{.x.c.s _ oX8XX.h g ] %.( a d d d b @.%.%.).).).f f c.2X2X%.s *.kXjX%.#.#.%.I J J J H I K ' #._ @.2X2X@.g F d %.jX,Xo.F H ) %.%.#.I J H ` z.P.] ( jXjX).f ` ) ( u + $ o < _ ] , o ",
"3XOXOXXXY.Y.Y.Y.Y.~.Y.Y.T.T.Y.U.~.Q.J._ 6 L a.;.G { M.[ P L U o.o.Y ' :.#.' :.) <.I.P.).dXK.K.$.h _ #.#.>.` d 4 ! j.;.;.6.4.D.D.4.' H #.m.D.M.m.#.o.#.` ' =.' Y ^ ;.;.;.=.=.;.;.;.;.=.Y ^ ^ ^ W Y | >.M.,.>.{ M.M.M.,.K Y Y :.M.M.M.M.M.M. .H K  . .{ ' ' { { #.) ' { >.` ' ' ' H G ) >.m.m.m.M.) I H >.L.L.M.,.' ' { M.M.M.M.m.F S ' :.,.n.` ( ` P s < 2 & & & , < < , , , , , , , , t , t y y 2 2 & + $ & # # = = = = = = = = = = # # # # # # #     # # # #       #   A }.: .       >   = N N   = # # # # # # # # # # # # # # = # # #     >                                                               # # # # ; ; ; y y i ; ; # # # O - y u s ) ` o.P F I F F P P f c.c.@.( g X.8X9X2X<X( V ,X2X2X@.< P o.6.b 5 P z.,X@._ z.%._ G G P c.jXjXP.g %.kX X| 8.Y Y } ` <.F.c.B ( ) J I g _ @.@.` G F ) _ $.<.%.F J H { >.$.` ] 4XzXz.[  .' _ t , i g g p p g g ",
"OXOXOXXXY.Y.Y.Y.Y.~.Y.Y.T.T.Y.Y.H.H.~.%.d 6 E +.) ) ` P x X.*.o.o.o.o.' o.<.4.o.%.P.).,XdXK.z.%.%.%.I ' ` P o.E Q y.;.;.o.' 4.m.4.' Y ' ` :.#.' Y I Y Y ' =.=.=.;.;.;.;.;.;.;.;.;.;.;.=.Y Y ' o.' :.,.M.>.M.>.>.M.M.| Y ' Y  .4.M.M.M.M.>.' } } {  . .| ' ' >.{ } ' ' ' } } ' ' ) G / D.m.m.M.m._ g g K._.M.M.b.H / { L.M.M._.{ d d G _ %.] s s p t , y y y y y 2 2 y 2 2 y y y - - - y + - ; & - - - & - - = = = = = = = = = = = = # # # = = = #   # #   # # #   > >   l.'.. # # #     # Z l O - - - - - - - - - - - - - - - - - - - = # # # # # #     # #                                                     # # # = - ; y y ; - = # #   . # $ , u g ( b P P d o.( p f s ( ( a a c.8X9XkX<XX.f ).jX2X_ x *.F U U 7 5 h g g %.(.K./ ' :.) ( %.%._ F o.8X XY Y o.I ' >.$.N.K.( G a S P F. X2X_ a J J G %.I.N.( b ) H ` :.#.) h c.c.( #.{ ' / , i c.b.$.f < ) G ",
"OXOXOXOXT.Y.Y.Y.~.~.!.!.^.^.Y.Y.~.~.Y.J.) 7 7 I o.) d 3 X o *.*.o.X.o.I o.=.;.W o.P.K.4X,XK.b.N.,XF.I P 8 6 e +.-.Q Q ^ o.o.=.4.' ' ' ' Y o.o.o.Y Y Y W o.o.o.;.;.;.;.;.;.;.;.;.~ ;.;.^ ' 4.,.,.#.` ,.>.M.m.:.} { } K K K K K K |  .3. .} | ' ' K ' | ' } } } } } K H K K K K } ' ` b g b._./.n.t + ; i K.L.L.%.< u t _ b.b.@.t 2 2 y y y y y , 2 2 2 2 2 y 2 2 & - - & & & & ; ; & & & - - - - - - - - - - = = = # # # = = = = = = = = = # # # #   # # = = = = = >   : IX:   & - :   A '.l X & - - y y j j j & j y y & & & j y y y & @ & - = = # # : : # # O O - & - # #       #   .       . .                           # # # ; ; - - - ; # # # + u t < < 3 < < %._ 5 s f g F H p c.gX9XkX<XB t g %.] < o.+.o.o.U P G a a 5 o.N.( ) :.:.` d 5 a J K J *. XI ' @.@./ $.z.N._ ` $.` 8 _ 2X2X2Xc.8 J a 8 I ` b ].8X8X%.) G a a p < , < g ' ) f + , P.,XK.V < g G ",
"OXOXOXOXY.Y.Y.Y.~.~.!.!.^.^.Y.Y.~.~.U.Y.<.F 8 ) #.#.6.v 4 4 *._ 4 s o.o.=.;.;.o.I N.N.K.(.K.b.b.P.%.o.5 s v v E +.+.;.;.;.;.7.=.' ' ' =.;.;.;.;.o.6.a.;.;.;.;.;.;.;.;.;.;.~ ~ ;.~ ~ ~ ;.o.>.M.>.>.` ' |  . .Y I ' } Y Y Y Y Y K K ' ' } Y K H J K K K J H H H K H J H K K H H I / _ B , h %.b.] - - # O t g g t y 2 y , p t , , & + & & ; & - - & & 2 2 & & y y - - - - - - - - - - - - - - - - = = = = = # # # # # # # # # = = = = # # # # # # # # # # = = = = = =   |.'.. = - :   Z '.: X 2 y y y j y y 2 2 1 y 1 1 1 2 1 j 2 1 % & & l - & & & & - & @ O & j y y j j @ # # # # = # #         .   .                       # # O ; ; ; ; ; = =   # y i y y , , , B b < t p a a F g f c.0XMXc.s s h h ) ( ) +.6.a.X.< p 5 d g b g 5 a ` ` g _ @.I S K J o.X.X.qXBX8X@.( #.) ) $.$.$.G d  X2X2X%.a G P o.) 7 b 0X9XkX,X) a a ) <.%.p , 4 5 d u o X @.,XK.t h ,XP.",
"OXOXOXOXY.Y.Y.Y.~.~.~.!.^.^.!.!.~.~.U.Y.Y.X.7 d ' ' 6.6.o.o.o.I < b =.=.;.;.;.! U #.A.A.^.<.<.N.,XF.*.b u i s P ` ' ;.;.;.;.;.W Y Y Y =.;.;.~ ;.;.6.a.;.;.0.t.;.;.;.;.;.~ ~ ~ ~ ;.;.;.W #.>. .>.>.` J Y Y K Y K Y Y Y Y Y K K J K J S S S S S S S J S F S F F S S F F F F S 7 d s n u y o o , + - # # & + , + y u i y y ; & , y ; ; - y y y y y y y y y y y - - - - - - - = = - # = = = # # # #         = # #   # = = = # # = = # # = = = = = = # # # # = = = = : = Z }.M @ & : # Z ].& & j j j j j y 1 j y 1 j 2 2 2 9 2 j 1 & 1 1 j j j & j j 1 j j $ $ 1 j j j k n 2 % 9 j - : : : - = # # # =     .                           # # # = = - ; = = ; ; y y y 2 , + , , t t p p p p < 4 X.*.z t G >.M.M.>.` 6.*.*.n &.c.c.u f X.( G H a t v.fXfX1Xg J J S s 9XBX9X9X=Xo.S S { $.z.M.) 5 %.<XF.( d ` (. X5X%.g *.qX8X( F H ) D.M.L.$.u , 5 d d t + X C f i 1XjX2X",
"OXOXOXOXY.Y.Y.Y.~.~.~.~.^.^.!.!.~.~.U.Y.R.6.P 8 Y ' ` 4.=.I Y ' P ) =.o.o.U L x ) ) ) ` %.#.d f <X X@._ i i i f z.<.6.;.;.;.;.o.' #.o.o.W ^ ;.=.6.=.6.;.;.;.y.;.=.=.;.;.;.;.~ ;.;.T Y Y {  . .>.,.4.J U U H K Y K K H J S S F F S 7 7 7 7 7 e 6 d 7 7 7 7 6 6 6 6 6 6 5 6 6 6 6 < y & y j & - - - & & : j : : y y y i y : - y j y y y y y y y y y y y y - - - - # # # # #   # # # # # # = # # = # = = = = = = = = = = = # # # # # # # # = = = = # # # - - - - - - : }.x.j j l O Z '.& y k k 1 j j y 1 1 2 1 1 1 2 2 9 9 2 j % % 2 1 9 1 2 9 2 2 k 1 9 1 k k j k j k k % k c n l l j j j - # - : : :   =     . .   .                       # = ; # = # - - - - & & & & y t t t u t u 6 U o.X.s < P <.,.>.M.#.P  XX.&.fXfXkX&.i s g G H a @.BXhXhX1XV F J S b gXVXDX9XO.a.Y S ' M.M.{ G d 3 B f p g I.,X). XP.d a B n F Y H { L.z.M.L.@., p P P g & . @ X @.jXxX2X",
"OX.XXXXXY.Y.Y.Y.Y.Y.Y.Y.~.~.~.~.U.Y.Y.Y.Y.Y.` P 7 F F U o.U F I ' ' ' ' ` d y l t ( X.( s < 5 b &.2X%.z.Z N i _ K.M.<.6.;.;.=.o.$.b.b.<.Y =.o.:.<.>.4.4.6.6.6.#.=.=.=.=.-.-.~ W Y K Y K K '  .4.` I J F J F S S S 7 7 7 7 6 7 6 s 6 3 3 3 1 1 2 2 2 2 2 % % % % % 1 2 % % j % & - - - - : : j j : - - - # & # # = = - - - - = = - - = = = # # # # # # #     .           = = # # # # # # # # = = # & & & - - - = = = = = = # # # # # # - & & & & - - - - - j y j = '.|.N & l = '.'.& l j j 1 y 9 1 1 1 1 1 1 1 1 1 2 2 2 1 1 1 1 1 y 9 1 9 j 1 1 9 1 1 k 3 k k k k 1 1 k k k k l j y l j y & - j : -     =   - y - = . .       # # # #           = = = = = = # + ; ; ; - y y y y y 2 D ;.;.6.x u s ] ,.D.N._ , s B 2X1X2XfXx., t _ G J G @.BXhXhX2X( F S a g &.{.x.y z 6.U Y I ' ' / ( @.&.x.C , B P.2X2X,X%.G ( _ ( W ^ I ` D.M.M.b.@.< p P g < + =   . B ,XP.@.",
".X.X.XXXY.Y.Y.Y.Y.Y.Y.Y.Y.Y.Y.Y.U.Y.Y.Y.J.Y.N.) 8 F o._ I Y I ' Y ' ' ' #.V o + , , u k s b *.*.B P.K.z.x.B B %.b.M.>.#.o.Y ' :.$.$.z.$.o.=.=.<.$.` ` ` ` #.#.#.#.' ' o.;.~ ^ =.' K K K } K H G d 7 S F F 7 7 7 7 7 7 6 6 u u u u y y 2 & & & & & - = = # # # l : . # : C # : # # # # = # # # # # # # # # # # # = = = = = # # # # # = = # # # # #   # # # # # = = = # # # = # # # - = = = = - - : y y y y y & & = = = = = = = = & & - - - & & & - - - - - - y - Z }.N : : : {.Z $ j j j 1 1 j y 1 1 1 1 1 1 1 1 9 1 1 1 1 1 1 1 1 j 1 1 9 1 1 1 9 1 1 k k k k k 1 k 1 k c n k 1 k l j y y j l j l @ : : & j j n N #     .   # - = = #           # # = = = = = = = - ; - - - - - - , U ;.=.;.x u t < b %.` g g b B 2XjXlX2Xf t < h a J G b <XlXlX%.h H J a < o = = B , P Y W =.I F G z.xXfX9X9XB p / %.*.@.g ( N.zX%.T W o.I ` { #._ h p 5 g s , + + ; O ; f V ( ",
"OXOXOXOXY.Y.Y.Y.Y.Y.Y.Y.Y.Y.Y.Y.Y.U.Y.U.Y.J.~.#.H I 0X<X) ' o.o.=.=.;.=.` o.g B n + . . 4 X.<.<.#._ %.#.%.[ #.#.<.,.,.#.4.:.#.#.#.{ ` #.o.=.=.=.' G [ $.b.$.#.#.#.o.=.o.;.-.;.=.=.K K K G d 7 6 d 7 7 8 7 7 7 7 6 3 3 u 1 y y y - & & & & & & - - - - : : : = l }.Z . > }.Z : N # # # # = # # > = = = = = = = = = = = = - = # # # # # # # = = # # # # # - - y j - - - # @ - # # - - : - j j j j y y y y - & & # # = - = - - j j j j j j j - & & - - - - j y & l }.Z & & : }.Z & k k j 2 9 9 9 1 1 1 1 1 1 1 1 1 9 1 1 j 1 1 1 1 1 1 1 1 1 1 1 1 1 1 3 3 k 0 0 0 0 1 1 z n n 0 k c k k 1 k c k l j 1 M k k k n l #   . . & l j : =                 # # # = = = = = = = - - - - - + 2 < _ ) P g s , y , o G ' ) ` b B %._ h p p p h G a a h X. X@.a H ' { ( o N : Z @., 5 7 Y Y Y o.P _ c.2X8X1Xf ) K a 5 a F o..XN.o.U o.o.S F G a p g < p < + , f h h V ; + ( ` ",
"3XOXOXOXY.Y.Y.Y.Y.Y.Y.Y.Y.Y.Y.Y.Y.U.Y.H.G.Y.G.H.' d @.4X#.o.o.;.;.;.;.;.=.Y :.<._ 2 @ X 1 X.%.J.W.6.C.#.:.:.:.` 4.<.,.>.>.,.#.) ` #.' ' ;.;.;.;.=.I #.N.I.A.C.#.I ' ' Y W Q W W W Y J F 5 6 6 6 6 6 6 6 s s s u 2 1 2 y & & - - = = = = = = : : = = = = : : : > : mXC . : 9XN # = = = = & # & & & = # # = = = = = = = - - & # # = # # # # = # # = - - - - j y y y - - & O - # # - - - y j j y y j j j j & & # # & = - - - j j k k j j j 1 & & & - - - - y y - &.Z = # l 6XC 2 c k k j j 9 1 2 2 1 1 1 1 1 1 1 1 1 1 1 j 1 1 1 1 1 1 1 2 1 1 1 1 1 3 3 3 3 3 9 1 0 2 k z c k z c z k 3 k k z k c 1 C m 0 w c m $   . = M c l l #                         = # = #   = = = - - - y & , t < 5 p s p t , & , ` { ' ` _ < p ( #.( p p ` M./ a h _ ( p J K 4.Z.X.X O ; N N t 6 W ;.;.;.6.6.) h B %._ g '  .F 5 F 5 P %.` P F D S 8 F F b 6 < _ %.b o + t g / g ; . f ) ",
"3X3XOX.XOXY.Y.Y.Y.Y.Y.Y.Y.Y.Y.Y.Y.Y.U.H.H.H.H.H.<.P ( XX5.o.o.o.;.;.~ ~ ;.^ ' :.#.` b b X.n u B %.N.<.:.:.` ` ` ` #.#.{ M.M.:.` %.N.<.I o.;.;.^ ;.W ' 4.<.5.=.I ) $.$.[ Y W e 7 d 7 3 3 6 6 6 6 6 s s s u y 1 & @ # # # # # # # # = = = = : = = = # = : = = : : : N mXA . M nX: l l j C j & j j y y & & & = = = = - - - y y & & # # j j # # # - & - : - : j j y & & - & & j & # j j y j j j j y j j j - - # # # - - 9 j - y k c k k j k j & & & - - - - y - N x.- # Z }.M k m k k y 1 1 2 2 & 1 1 j 1 1 1 1 1 1 2 9 j 1 1 1 1 1 9 1 1 1 1 1 1 9 0 k 3 3 3 0 9 1 3 0 z c z z z k z 3 0 0 0 k z z c m 0 w z n & @ @ C C l m C #     . . .                           # # = - - y y y , , p p p s t s u i , _ {  .>.b t z.M.M.$.t p { M.` a F ) ,.) J J ' >.@.i + ; i t < X.i.y.t.+.*.XX#.G G ) H K ' ' p t , < P ) ` %.%.b a I P P o.o._ c.%.@.+ o , t t +   : i g ",
"3X3XOX.XOXY.Y.Y.Y.Y.Y.Y.Y.Y.Y.Y.U.U.Y.H.H.H.H.H.!.o.g ) 6.o.o.W =.;.;.;.~ ^ =.4.4.4.4.4._ , + y *.F.%.<.:.' ` #.{ :.>.,.M.M.>.` #.$.<.) F o.=.o.W U U Y ' ' Y I #.M.M.M.#.8 7 6 s t 3 3 6 6 6 6 s s u u y & # # # # # # = & & & & & @ @ & & # # - - - = = # : N l : Z mXl . &.}.y C y &.M - l k k j 1 9 & & = = = - j j k k k j & # j j # # & - & : j - & j j j & & & & - j & & j k k k k k j y j j : - & # # & j j 9 j & 1 z z z k k k j & & & - = - - - - &.l O Z [.9 c X.v k k j 2 2 2 1 j j j 1 9 1 1 1 1 1 1 1 1 1 1 1 1 1 0 9 1 1 1 1 1 1 1 0 3 3 3 1 9 1 0 0 w z 0 0 0 0 z 0 0 z 0 k z z m 0 3 z c 9 * l O.m 0 X.X.9 .     =                             # # # # - & y y y y y u f p u t p p t f f / ) G < f $.M.M.$.t h {  .) a J }  .{ J a g o.*.@., t p 5 L i.r.r.i.+.+.6.) H {  .} K } / t , y B ) :.N.I.P._ d %.*.F.*.+._ o._ V t , , f X.i = N , g ",
"3X3X+X.XOXY.Y.Y.Y.Y.Y.Y.Y.Y.Y.Y.Y.Y.Y.H.H.U.H.H.H.S.) d o.6.o.Y o.=.=.=.=.;.=.=.=.:.:.#.` o.B @.&.c.P.P.XXX.#.$.>.{ M.M.M.M.>.' ) #.` ) I I ' ' P I I I I ' ' I [ b.M.K.` a 5 d s s 6 s 6 s s s t u y & # # # # = = = - j j j 0 z z 3 3 0 2 1 j j l l l j & & C Z : : &.6X: @ }.C j k C Z : l k 0 z 0 9 9 & # # - j k k c c z j & & j k # = & j & - j j & y j j j & & & j 9 & - j 1 k n k k j j j : - & # # & j k k z 9 1 9 c v v z 0 k j j - - & & & & & Z N . '.'.9 m E E c k 9 1 2 2 1 j j j 9 j 1 1 1 1 1 1 1 1 1 1 1 1 9 1 9 1 1 1 2 0 0 2 1 0 1 3 3 3 1 3 0 0 w w 0 0 0 0 z 0 z 0 k k k z z 3 k 0 0 2 m O.k q O.X.9 X $ - : - = =                             # O # & ; ; - - - y u t u u a ` ) p t t ) ` u u V V p t t h [ { $.G 5 {  .} G B @.{. X<Xb p g g ;.t.y.r.f.E D S G $.{ >. .K H a , , V ( _ <.K.).,X@.( XX X XX.6 x P d 5 5 _ f B %.N . O t / ",
"3X3X+X.X.XY.Y.Y.Y.Y.Y.Y.Y.Y.Y.Y.Y.Y.Y.U.U.U.H.H.H.Q.6.d F o.=.Y 4.5.2.4.;.;.;.=.=.' '  .' ` f y V @.P.XX XX.%.>.>.{ $.>.M.,.>.' ` ' Y o.o.' ) #.<.<.#.#.' ' ' I ) [ b.[ G G 8 d 5 5 6 s 6 s s s u y - # # # # # # - & & k k z z x v w x z z v z 0 k k n n c k 1 &.Z l l ].'.& M [.j n l '.: k 0 w z w 0 9 9 & & & 9 k k c v c 0 & & 9 k = = & & & - j j 2 2 1 j j & # & j 9 & - j 1 k n k k j j j : - # # & & j k z c 9 2 9 v R v c w k j j : & = - & & l C   '.&.j X.E R R z k % 2 1 9 j j k y k 2 1 1 1 1 1 1 1 1 1 1 1 1 k 1 1 1 1 1 1 2 2 1 1 9 1 1 3 3 3 0 0 w w 0 3 0 0 0 0 0 k 0 k k k z 3 0 0 0 z m E q c X.m 4 % j j l l l : #                               # # # # = = = = ; y y y , g [ ` _ , B <.<.b u u t p p s h { M.$.#.5 G H J ( c.].c.P.%.P ( ) G +.i.r.i.;.W ;.=.' >.{ M.' } ' { g 4 5 G ` L.,Xc.@.f _ ,X0X Xb 5 8 P 5 5 p ( t f b s k + g / ",
"3X3X.X.X.XY.Y.Y.Y.Y.Y.Y.Y.Y.~.Y.Y.~.Y.U.U.U.U.U.!.A.J.o.d U ' 2.m.m.m.5.=.;.;.;.;.=.:.4.>.#.I 4 < g #.4.#.` #.:.:.' { ,.,.>.:.` ` o.=.;.;.=.' #.,.b.L.L.#.' ' { { ` ` ` a d d d d 5 6 7 d 7 5 s 2 & # # # # & & 9 k c 0 z v n x x x x x x w v X.X.c w w L R E v k &.Z j l &XZ * &.&.k j e.N k w z v x z k k 9 & & y k z v v v z 2 & 1 l - = & & y y 1 j 9 1 1 j j & # & j 1 & - j 9 n n k k 9 9 j - - # & & j k z c z 1 9 0 v R v w 0 c c 9 & & & & y y l : '.Z l O.E E R E 0 1 1 1 0 0 0 0 k 3 3 0 w 0 z k 1 1 1 1 9 1 1 1 1 1 1 1 1 1 1 1 1 2 1 1 1 1 0 0 0 0 0 0 0 3 0 3 3 0 0 0 z 0 3 z z 0 0 0 0 c m m q w E v w c c m c n C j X - : = # - -     .     # #           # # = = = = = ; ; ; , t _ ] g , _ $.#.( < p g ( g t V $.>.$.N.g G H J [ P.c.F.A.( ) #.>.#.U a.f.;.Y =.~ ;.' $.{ { } { >.M.$.a F F ) c.B &.'.@.f %.<X%.5 a P a p g t , , < 8 ;.;.;.P g ",
"3X3X.X.X.XXXY.Y.Y.Y.Y.Y.Y.Y.~.Y.Y.~.~.U.U.U.U.U.!.!.~.J.P d ' :.m.m.>.2.;.;.;.;.=.=.<.>.>.:.` ' ` #.4.' ' #.$.>.` ' ` >.$.,.:.' #.6.;.;.^ ;.=.` ) [ >.{ { } ' >. .:.>.#.a d d d p 5 7 7 7 s s y & # # # # : c 9 k z m m w x x x e x v v x e e e E +.O.r w r E O.X.9 &.&.j C [.l j ].c M Z Z k w x L v z 0 k 9 2 & y k z v L v z 1 2 1 k - & & y y j & j j 1 9 j j & # = j 1 & - j 1 v v z k 9 j j & & # & & k 0 w c c 2 0 z v R R w w c c 2 $ & & & y l : '.Z j O.E E E E E 0 j 1 u 0 w w w 3 3 w z z w 0 1 1 1 3 3 0 k 1 1 1 1 1 1 1 1 1 2 2 9 1 1 1 1 0 0 0 0 3 0 0 0 0 3 3 3 w w z 3 0 w w 3 0 0 v c m 0 q v v v v w v v E m 4 * l l - = j l - #                           # # # = = = = - ; y t f t , V @.g t t ( $.{ _ t B K.$.N.[ < G } H _ (.P.F.#.G ) <.<.#.P 7 E e Y =.~ ;.S ) } J } >. .M.>.J J J a o &.LXDXCXB s s b G H g < G ] y X f b L ;.;.W ` h ",
"3X3X.X.X.XXXY.Y.Y.Y.Y.Y.Y.Y.Y.Y.Y.~.Y.Y.Y.Y.U.U.!.!.W.~.6.d H I #.m. .4.5.;.;.=.;.6.4.:.:.:.#.o.#.:.4.{ [ $.%.N.#.' ' 4.<.<.` Y o.=.;.;.;.;.;.=.o.{ ' } J H {  .>.:.>.#.a d d s p 6 7 d 6 u y & - # # # & l m v z v v E L v z x v x x v L v x w w v *.+.m r r R +.+.k &.Z & C ].& Z O.j N &.k w x L v z w k k 9 + & k z v L v w j 1 1 k j & y y - j & 1 j 9 0 k j & = - j 9 & j k 1 v v c 0 0 j j & & # & 9 k k z n k 1 0 v R E L x v c k % & & & & : - '.e.9 m X.E E X.R m 0 0 3 z z w 6 3 z x z 0 k 9 1 1 3 3 0 0 0 0 1 1 1 1 1 1 y 1 2 1 1 2 1 1 1 1 1 1 1 1 3 3 3 3 0 0 0 0 0 w z 3 w w 0 3 w z z z w w c c L x e x R X.w 4 0 m c % j l l y =   . O #                       # # # # = = = - ; y y u , , + y < g $.M.$.[ h f @.@.@.h < / } H a o.$.` P a F ` #.#.G 5 5 I ' 5.;.W 8 S Y Y F #.>.>./ a / G G t 9XDXhXBX@., g [ ` $.( t ] ] + X B < 4 R o.o.%.] ",
"3X3XXX.X.XXXY.Y.Y.Y.Y.Y.Y.Y.Y.Y.Y.~.Y.Y.Y.Y.U.U.!.!.!.C.Q.<.8 I Y :.4.:.o.=.=.;.;.;.o.o.:.:.4.:.<.1.3.{ #.<.z.%.N.#.' #.` ` I Y Y Y ;.;.-.;.;.o.:.:.4.:.' K '  .:.:.>.` d d s 5 p p d d s t ; = - & & & j k m R v x x L X.X.L x L L v e v v v L L E X.*.#X+.E v L O.*.n &.C & &.&.& e.l l &.M z x R L x w w k j & & k z v L R w 0 9 0 k j $ j y - j & y j 9 0 k j & & - k 9 1 j k k v v c 0 0 k j & & & - 9 0 0 z c 0 0 w v E E R r m m 0 % & & 2 & = Z [.j m O.E E E X.R r 0 0 w w w w v v z 0 3 3 1 1 0 0 w z w 0 3 0 1 1 1 1 1 1 1 1 1 2 2 1 1 1 1 1 2 1 1 1 0 3 0 0 0 3 0 0 0 w w w 0 0 w z z z w 3 w w c v e e v x R c 0 v E c 4 k n n l $ . # - l l .                         # # = = = - - y B _ _ u + y t ( b.M.M.[ p t , , p ( G } H H d 5 < a 5 Y o.Y o.) a / ` ` I ' U S U =.=.7.I G ) / a ) $.b.b.B @.DXDXkXl < / { { M._ V [ ( o i n , o X P %.%.@.",
"3X5X.X.X.XXXY.Y.Y.Y.Y.Y.Y.Y.~.Y.Y.Y.Y.Y.~.Y.U.U.!.!.!.H.~.H.o.7 U I :.:.=.;.;.;.~ ^ W Y ' o.:.' o.1.2.:.{ #.[ #.%.R.o.` ` ' Y } ' ) o.;.;.;.+.=.4.4.,.m.#.F I ' :.:.I a d 7 6 6 s s d d < u y & & & & 2 k m R o.X.x x v U X.o.L e v L v x x w e L v X.O.+.$X$Xw.+.E E +.E e.C j &.C C Z & C C z e L E x z 0 z k 2 2 k k v L R w 0 0 0 k k & k j - & & j j 1 0 k 9 & & j j 1 y 1 k v v v c 0 0 9 & & & & j 9 0 k z z z 0 z R R E R v m c k % * & y $ : [.c c E E E W E E r 0 0 w E E R v z 0 9 1 3 3 w v v e v r w w w w w 0 3 3 k k 1 1 1 1 2 2 2 2 9 2 2 2 2 1 0 0 0 0 0 0 0 0 w w w 0 w w w w w w w w z x x v e v x v v x v c c 2 v v v n y X j l C N # =     . O # #             # # # # = - # y _ #.] t y y y t #.b.%.g t u t t p _ _ a a g P s u < Y =.;.=.G G ) >.M.M.' S J Y o.=.=.7.#.a g / ( ` L.L.$.$.f v.1XN , p `  . .{ / ) ] g t B + X . X B z.z._ ",
"3X5X.X.X.XY.Y.Y.Y.Y.Y.Y.Y.~.~.Y.Y.Y.Y.Y.~.~.U.U.!.!.!.H.W.H.C.) 7 U ' =.o.7.;.;.;.;.^ W ' Y Y ' ' ` #.:.{ ' #.N. X XR.%.o.' ' :.,.b.<.` ! U I ) >.n.D.B.) 7 F U I H S F 7 p 6 6 s s s s < z k % % 1 l C c c E E +.E x L x X.E E L x v L v e x e e L v E O.+.q.w.p.p.r.E E O.].l j &.M &.k n X.c e L R x z w w z y 2 k k v L R w w 0 0 k k 2 k j - & & j j k k k 9 2 & j 9 9 j k k v x L v w 0 0 j & & & j 9 j k w v c w v R E E v v v c 9 % & j & - &.C m R E E W W E v q v E O.E r 0 3 0 0 0 1 w v L L D D e e e e e e w e w w 3 3 3 2 1 1 0 1 2 2 2 2 1 2 2 2 1 1 1 1 1 0 0 0 w w 0 3 w w w w w w w w w r e e e x x v e e w w z z R w R w % n C m l @ & - & @ j l : #             # # # # = = & y V ` _ u i y i t h g h p , u _ h p / h , 5 g _  X].%.o.=.;.=.a a { M.M.M.{ J K K =.6.7.=.:.#.K.c.,Xz.%.$.{ $.] + X + u p / ` ) / p / ] h g f + . O i f %._ i ",
"3X5X.X.X.XY.Y.Y.Y.Y.Y.Y.Y.Y.~.Y.Y.Y.Y.Y.~.~.U.U.!.!.Y.H.W.!.S.H.P d F Y =.=.;.;.;.;.o.W o.o.Y =.=.#.#.4.:.#.b.R.).v.c.%.o.o.' ,.b.z.M.b.) ) { _ / ` _ P e 8 6 8 P F F F a p 5 5 6 s s u u z R v v z k c X.X.E o.X.X.X.v L x L L E L v v v x v x x L v R E +.q.+.q.O.q.p.+.m O.].9 c &.C n k m v v v E L v w w z k 1 j k v L E x w k 0 0 k 9 9 j - & & j j k k k 9 9 1 j 9 9 1 k z v L L v r w 9 j & & & j j k k w v c v v E W E v R m z 2 % & j $ C C m m w R E W ! R r E +.O.R w 0 w w w w r R L L D D D L L U L D L L L L L v v z w 0 0 k 0 0 1 2 1 2 1 1 1 1 1 1 1 1 1 3 0 0 0 3 3 3 w w w w 6 6 w w w w e e e x x w w e w w e r x L z 3 v m m m j j k k q m m 9 $ #               # # # = = - # y y y y i y y u h h h u t f ` G / ( , X < b X. X X%.W =.=.F a G M.M.>.<.` J H J ' 5.4.4.4.%.,X2X1Xv.( ` { [ g f X.y , 5 d a h p G ` ) G h g o + V ( ( ( , + ",
"3X5X.X.X.XY.Y.Y.Y.Y.Y.Y.Y.Y.~.Y.Y.Y.Y.~.~.~.U.U.!.Y.Y.H.S.E.S.U.6.P P 7 o.=.=.;.7.5.=.=.=.=.=.o.4.:.' <.,.#.#.I.,XP.P.%.' ' ' >.b.M.L.>.` $.{ $.#.P 5 s 7 x x 7 F I I 7 8 d 8 7 6 6 u y u s L o.X.O.E w R O.E X.E O.E E E R L L L L E v v v e x v v E E +.+.+.a.+.w.O.O.w.q.m O.w.9 C O.n k k X.L v E E v w w z k 1 j k v L E v c z 0 0 k 0 9 j : & & j j k z z 9 j j y k 0 0 k z z L L v r w 9 j & & & j 1 k k z E v v R E W E L v v k 1 & & & j C C X.0 m E Q ! R R +.O.E r r m m v w v L R R E U U U L L D L D L r e e w w w 3 0 0 0 0 0 0 0 1 1 1 1 1 1 1 1 1 1 1 1 1 1 1 3 0 3 3 3 6 6 w w w w w w w w w w x 6 w w x x w e r v L x w z R m X.0 1 k c c E z 2 j & #               # # # = = # - - - y i i y + B b.D.%.f u t ) ` [ @.i + < P _ c. XX.Y =.o.8 a a ` >.<.>.` a G F F ` 4.<.` X.1X1X2XB p ) ` ) g c.%.f , s d f u , _ ' G a p B f ] [ { { ( , o ",
"3X5XOXOX.XXXY.Y.Y.Y.T.T.T.T.T.T.~.~.~.~.^.~.Y.Y.~.!.U.U.!.!.W.S.H.5.P P d o.' 4.E.m.V.4.;.=.=.=.| :.' #.o.' ) ` %.%.%.) ' ' Y ' >.L.>.G ` #.>.{ { { g P b.M.b.#.F U Y I d 7 7 7 7 6 1 y , n E o.o.o.+.E R E R o.X.o.+.R E E R L L L v v v L L e 6 x E E +.r.r.+.u.O.p.O.E O.O.w O.&.9 O.m c w X.E r E E L 6 w z z k 1 k x L E R v z z 1 z 0 9 9 j & & & 0 z n z 1 k j 2 k k 0 c c w L v v x w 9 j & $ & j 1 1 k z E v L E ! ! E v v c 9 & & & 2 c m O.w v X.+.+.E +.*.+.R E E E E v v E X.E E E U U L L L v r e w 0 3 3 3 2 2 1 1 1 1 9 2 2 1 1 u y j j 1 1 1 1 1 1 1 1 1 1 1 0 3 3 3 3 0 0 w w 3 0 w w w w w w w w e e e w e e e v e w w v c m c 3 w v m m 0 1 j j #                 # # # # # & y i u @.%.f , , z.L.M.b.g t t ` ' ` ( , o s G F H d < 5 d d F G } K H :.) p X.F.P._ h a G < < c.%.g h f t p h %.z.@.t p a p f # . f _ g < , k _ { { { [ p < l ",
"3X5XOXOX.XXXY.Y.Y.Y.T.T.T.T.T.T.Y.~.~.~.^.Y.Y.Y.~.!.!.!.!.!.W.E.S.S.#.( b P ) <.D.M.m.1.o.=.=.o.' :.' ' ' 4.#.' _ o.o.o.=.Y Y ' ' ) I F ) ` { ` { >.) ` L.M.K.L.I Y Y Y I 7 8 7 8 6 1 u u < L o.;.o.E +.E R +.L X.E X.E e v L R R E L L v x L L x 6 x E +.+.r.q.+.p.q.+.R +.X.v 0 X.m z X.v x E +.v E E R w w z z k 1 z e L ! E L v z 1 z 0 9 9 j & & & 0 z n z 1 k y 1 k k 0 c c w v v v v z 9 j & $ & k 1 1 k z R L R ! ! ! E L v z 9 1 & & j n X.c v E X.+.+.*.w.O.+.+.+.X.E R E W o.E E L D D L v v r w w 3 0 3 3 0 1 2 2 2 3 2 2 % % 2 1 1 2 2 2 2 2 2 2 2 2 2 2 1 1 1 1 1 3 3 3 3 3 0 w 0 3 0 0 3 w w w w w w w w w w e e x w w w v v c c 0 0 w v m 0 0 k y - O # #               # # # # & y , f %.%.B + , %._._.%.t f p / ) ) V y y t p S S E E 5 5 d a H '  .' S d *.zXfXCXP.( { $._ 4 t p g ( V u < b _ K.@.t g p g B # . O n s , * o ] { { { G s , c.",
"3X5XOXOX.XXXY.Y.Y.Y.Y.Y.Y.T.T.Y.Y.~.Y.Y.^.Y.Y.Y.~.!.!.!.!.!.E.W.S.S.U.#.) P x o.5.,.4.4.#.o.' o.` ` :.' ' 1.<.o.o.=.;.;.;.W o.o.o.I D D D U I I [ $.) ) #.b.z.%.) I H K ' G 7 7 5 6 < s _ X.x E +.+.+.E O.v R +.R L E X.E E E E R E R E R v v v v x e e E +.+.a.+.a.$Xw.E E +.E c w O.c m m R X.+.R R +.E w w z z k 1 z e L E E L v z 3 z k 9 j j & & & 0 z v z k 0 2 y k k z v v w L L v v z 1 9 & $ & k 1 1 z z L R R ! ! ! E v w 0 2 % 1 1 k m v x X.E +.w.w.w.*.+.O.+.O.E E +.E E R R L L D L R R E L L v v v v r r r v e r 3 3 3 1 1 2 2 2 2 2 2 2 2 2 2 2 2 2 1 1 1 1 1 2 1 1 3 3 3 3 3 w 3 3 3 3 w w 6 6 w w e w w e e e w e x v v v w 0 0 w w v w 3 0 k y & + & - #               # # @ - i u t f @.l - , f K.%.t t g d a h p t u i , < 4 W y.h.E 6 5 5 ` >.:.' ` _ 8XkX8XlX@._ L.M.>./ < + , f B 5 U U 6 X.f g u , u N ; O y u g 5 X o ] [ [ ] t , B 1X",
"3X5XOX.X.XXXY.Y.Y.Y.Y.Y.Y.T.T.Y.Y.Y.Y.Y.^.Y.Y.Y.~.!.!.!.!.!.E.W.W./._.S.#.P e e o.5.:.4.>.4.:.o.#.[ { ` ' :.<.#.o.=.;.;.;.+.U o.o.Y D D D U U I P ) ) [ %._ _ V h G H Y Y I F d 7 s < 6 6 X.*.E W +.+.W E O.R R E R L E E E E E E E E E E E E L L v v v L E +.+.a.+.w.d.w.R E E v w z m c X.R O.+.E R +.E w w z z z 3 0 w L E E L L x w z k 9 j j & & & 0 z x z k 1 2 j k k z v v x v L v v z 1 9 & $ & k 3 3 z w L E R R W W R v w 3 1 2 1 9 c v z X.E O.p.p.+.+.+.+.+.+.+.+.+.E +.+.+.o.+.+.+.O.o.o.o.+.+.+.+.W W E E R E E R R v z w 0 3 1 1 1 1 1 1 k y k 3 3 3 1 1 2 2 2 2 2 2 3 3 3 3 3 3 w 3 3 0 3 w 3 w w w w w e e e e w e e e w w 0 w w w w w 3 0 0 3 1 1 k j j - #             # # @ - i t p t y y y y y t < u f g a p f f B f V V < w i.t.r.v 5 5 p / / / ) %.c.x.lXCX2Xp [ L.M. .{ f X ; + t g o.o.E 4 p p + ; + y i N i f ( P 4 , g h / f i y P.,X",
"3X5X@X+XOXOX.XY.T.Y.Y.Y.Y.T.T.Y.~.Y.Y.Y.Y.Y.Y.Y.~.!.!.!.!.!.!.W.E.E.E.E.S.<.P L d ` `  .4.>.,.n.b.b.,.#.` ) #.:.o.=.=.=.=.o.' ` ` ' I I I I F P F d ` z.z.z.@.t t d H K Y Y H F 7 d 5 s 3 X.*.E E +.+.+.E E E v R E v L E E o.E E E E E E W E E R L v v v E O.+.+.q.O.p.d.+.E R L r z c c E X.+.+.+.E +.E e w x z z w w x x L o.L R v z 0 k k 9 j & & & 0 z x z z 1 2 k k 0 v R x v v L L v z 0 j & & 9 0 0 3 w e L E R E +.W L r 0 3 2 2 9 k v v O.E O.p.p.+.O.+.+.+.+.+.+.+.+.q.+.+.+.+.+.+.+.+.+.+.+.+.+.+.+.+.+.+.W E L D D D L L L v z 0 0 1 1 2 2 1 1 0 k 3 1 1 1 2 2 1 1 1 3 3 3 3 3 3 3 3 3 3 3 3 3 3 3 3 3 3 w w w w w w w w w w 0 0 w w w w w 6 w w 0 k k k 0 j - # =           # # # O , ( / g u y y y s b f t s g d p f f f ( ` [ ( 6 *.+.e d g ( < p t _ @.).1XB B @.s 5 _ M.M.{ ) s % O O y b =.o.X.6 s f y O - y @.B t g g ( ( ( G a s f y B 4XL.",
"3X5XOX+XOXOX.XT.T.Y.Y.Y.Y.T.T.Y.~.Y.Y.Y.Y.Y.Y.Y.~.!.!.!.!.!.!.!.W.E.E.E.Z.Z.#.x x 7 ) 4.4.>.M.L.L.D.M.>.{ ' ' :.' ` Y ' o.' ` ` ` ' ' ` #.o._ P 5 < %.z.z.c.@.V s d F H ' ' ' I U x P v 3 v *.q.Q +.E +.+.E R E L L L L v L L E +.+.o.E R L R W o.o.R v v v O.a.w.p.+.+.p.w.+.E L v e z c X.O.+.+.+.! +.E e e x v x w w z x L W E E L x 0 k k y j - & & 0 z x z z 0 2 k z 0 z E v x L L L L w 0 j 2 % 9 3 0 0 w v v E R W +.E v r 0 3 2 1 0 c m E E O.w.w.q.E +.+.+.q.w.u.u.q.q.r.q.q.q.+.+.+.+.+.+.+.+.+.+.+.+.+.+.+.+.+.+.E E R L D e e e e w 3 1 2 2 2 2 2 3 3 2 1 2 2 2 2 2 1 1 1 1 3 3 3 0 3 3 3 3 3 0 3 3 3 3 0 w w w w w w w w w 0 0 0 w w w w 6 6 e z 0 0 0 k k 9 & # #           # # # @ + ) / g u 2 y u f f f t _ %.( B B , , G { { G 5 6 6 5 a ` _ t B B @.v.1XxXB , p P s f ] [ G _ b 1 + - l u I D < 6 s f ; O = i V t f g g g a G G g f , y P.(.L.",
"3X5XOX+XOXOX.XT.T.T.Y.Y.T.T.T.T.~.Y.Y.Y.Y.Y.Y.Y.~.!.!.!.!.!.W.W.W.W.E.E.E.Z.W.%.x x x ' 3.m.M.M.m.m.,.:.` ' ' ' <.G.%.) ` I ' ` ' ' ' :.{ <.%.b @.&.B %.).v.z.] ) F J ) [ #.#.P x O.O.a.X.c v +.;.;.W ! +.+.X.E R E L E R E E L R E +.+.a.O.R v R E O.E R r v O.p.d.=Xq.w.d.+.E R D w w z m +.q.+.r.Q +.E L x x v x z w z w v E W L L v w k k y j j & & k z x z z 0 1 k z w z X.v x L L L x z 0 9 9 1 9 0 0 w w e L E R W +.E v r 0 3 1 0 c m E O.O.w.w.q.E +.w.w.w.w.w.u.u.u.r.r.+.+.+.r.r.r.u.a.p.p.p.p.p.p.w.w.+.+.+.O.O.O.X.E E E L D D e e z k 0 3 3 2 2 2 2 2 2 2 1 1 1 1 2 % 2 2 2 1 1 1 0 1 3 0 0 3 3 0 3 0 w w w w w w w w w w w w q 0 w w w 6 e e z 0 q q k j & & & & #         # # # # + f f i y 2 y 2 y y y V K.c.c.CXZ + t p _ G a d 8 d G G ( u i n y B 2X1Xx.y u b P s f n s 4 6 X.s , u u i , < s s s i + - N ; , u u u g G ) ` ) G 1 , @.5XL.^.",
"3X5XOX.XOXOX.XT.T.T.Y.Y.Y.T.T.Y.~.~.Y.Y.Y.Y.Y.Y.Y.!.U.U.!.!.!.W.!.!.W.E.E.E.V.W.%.x x x #./.M.M.M.n.<.#.` ' ' I #.N.*._ ( o.%.o.) { ` ` #.%.I X.lXFX8X@.v.c.%.` ) I ' >.B.D.b.( 4 O.O.+.$X+.O.E ;.;.+.Q R E E E R E R R +.E E +.+.O.E E E +.a.w.O.E E R O.O.E v m q.p.-Xq.w.p.+.R D e z 0 c O.u.+.q.+.r.W L v e x x x x x w v L W E L v w k k 1 j j - y k z v z z z 0 k 0 w v X.x x L L L v z 0 0 9 9 9 0 w w w e L R ! E +.E r w 0 0 3 w c R X.+.q.q.q.O.q.p.p.d.d.p.p.u.q.+.+.+.+.+.*.+.+.O.O.O.O.O.O.*.w.p.p.#X$X$X$X$X#Xp.*.+.o.W W U L L e x z z 0 0 0 1 1 2 2 2 2 2 2 2 2 2 % % 2 2 2 2 1 0 1 3 3 3 3 0 3 0 w w 0 3 w w w 6 6 w w w w w 0 w z w e e w w w w w k 2 & & & - #         # # # # & y y & - y y u u y y B c.z.v.gXj , V B p h d d d F a 5 g y - $ & y v.@.+ y u b s u u u o n X.X.f y u u i u u f f i + O N N O n s , u ] #.>.>.` 6 2 z ,XL.L.!.",
"5X5X3X3X3XOX.XT.T.T.Y.Y.Y.Y.Y.Y.T.T.T.T.Y.Y.T.T.U.U.U.U.U.!.!.!.!.!.W.W.S.S.Z.C.H.%.7 x U #.L.M.M.>.<.` ' ' I I ` %.X.@.&.8XgX8X%.X._ @. XX.U o.lXBXJX].B #.I I F F I #.U.N.R.%.P U +.X.+.a.+.+.+.+.+.+.E R R R E E E R E +.+.E E +.+.+.+.E X.+.p.oXw.O.E X.+.w.E E q.p.$Xw.w.q.! L e z z q E u.q.q.r.-.+.U e L x x L v v w v L W U L L c z z 1 j j y k z x v z z z z z z 0 z O.v e L L L v w 0 0 9 1 1 w 0 0 w e L L W W E E v c 0 3 w c m X.*.*.+.+.O.w.#Xw.w.d.p.q.+.O.R v v c k 1 2 % o o o 2 1 1 3 w z v v L R E X.O.O.+.+.+.+.o.E E U L L x x e 6 3 0 0 0 1 2 2 2 2 2 2 2 2 2 2 1 1 3 3 0 0 0 0 0 0 0 0 3 0 0 0 0 0 w 0 3 0 3 w w w w w w w w x x e w w w w w 0 9 9 9 1 y #           # # # # ; ; ; - i s ( _ f i f V B B N + g ` [ _ , u s d g 5 d b y # - - - & y y y 2 2 2 1 & + , B X.X.y y + i i f t f f y O   : . y u ( g _ <.,.>.M.B < , c.~.S.!.!.",
"5X5X3X3X3XOX.X.X^.T.Y.Y.Y.Y.Y.Y.T.T.T.T.Y.Y.Y.Y.Y.U.U.U.U.U.!.!.W.!.!.!.E.S.S.D.B.Q.o.7 D 7 #.B.<.#.#.%.#.` *.*._ _ *.kXbX9X}.hXkXB @.fXfXc.X.U B c.8XC s x F U ) #.#._ ` %.N.o.I o.+.+.E q.+.+.+.Q ! Q +.E R D E W +.+.o.O.a.a.a.+.+.+.+.+.+.O.O.+.p.$X$X*.O.*.p.u.+.w.p.p.w.q.+.! r w w c E u.u.+.i.r.;.! e L x x e L v w c v E U L L v w c y j j y k x x x w z n z z z 0 0 O.R w L L v v w 0 0 0 1 3 w w w w e x L E E E E v w q w c v E *.p.*.+.O.w.[.[.#X#Xw.O.m q 3 4 o o X O $ & - y j - - - y y 2 u u z x z w w 3 w w e v v L L L D D D D x x w e 0 3 3 3 3 0 3 2 2 2 2 1 1 1 1 3 3 3 3 0 0 0 0 0 0 0 3 0 0 0 0 0 0 0 3 0 0 w w w w w w w x x e w w w w z w 3 q 0 0 0 1 & #       # # # # # = ; ; + y f _ _ f u u , y y + i ( _ ( f + + t g h p h b - O = # # & y i y i 2 + $ & y o t B u y y & y i i f i i i O O X : - , ( 6.#.#.b.m.$.u 2 B 3XH./.^.Z.",
"5X5X3X3X3XOX.XT.^.Y.Y.Y.Y.Y.Y.Y.^.^.^.^.Y.Y.Y.Y.Y.Y.U.U.U.U.!.!.W.W.!.W.W.E.E.E.Z.Z.~.o.e L D Y ' <.<.6.%.4XlXBX,XB 2XhXhX9X{.gX8XB v.1Xv.v. Xb x 8 7 x X.*.P F #.z.c.c._ P P I U o.+.+.+.+.+.r.+.! ! ! W +.W W E E +.*.a.a.w.w.$X%X%X%Xp.w.q.+.+.O.Q +.a.$Xp.w.*.p.#Xw.#X#X#X+.+.Q R r c c O.q.f.r.u.i.+.W e L v x e L E z v L L U L L L w z k 1 j y u n z z w z v z z z w w X.v r L L v v w 0 0 0 0 0 w r w w w x r R O.E E v w w w m O.w.w.p.w.O.w.[.&X#Xw.O.c 9 % * * $ - : : : : = & # # O       # # O O X + % y k z x v v R R R R R L D e e e e x x x r w 3 3 3 3 3 2 2 2 2 2 1 3 3 3 3 3 3 0 0 w 0 0 0 0 0 3 0 0 0 0 0 0 3 0 w 6 w w w w e x w w w w w w w w 0 w z 0 9 & = #         # # # # - ; - ; y u b b f u g t y i i f _ ( , y & O y u p d G b y $ # @ # - - i %.b._ @.@.B v.i , f _ [ ] f + & u i O # n t u u j + 2 B %.g f _ ] p y u F.Y.W.Q.W.Q.",
"5X5X3X3X3XOX.XT.^.T.Y.Y.Y.Y.Y.Y.^.^.^.^.Y.Y.Y.Y.Y.Y.U.U.U.U.!.E.W.W.!.W.E.E.E.E.E.E.5.Y.o.e U U o.6.<.6.*.c.2XlX*.( 2XfX9XgX{.8Xc.B x.2X).).{._ F F F _ c.{.%.P %.z.c.,XX.d U D D E E +.r.+.E W +.W ! L R ! Q +.+.*.+.*.a.$X=X:X=XwXuXaXaXuXrX=Xd.p.a.w.+.+.p.p.w.*.w.#X#X#X#Xp.+.+.E r r v E w.i.s.u.s.Q W v v L x x v E v c E L L L L L x z k 1 y y u n z z z z v z z z z c E L e L L v v w 0 0 0 0 3 w c w w w x r R +.E E R v r m O.w.w.w.*.O.[.[.&Xe.M 9 % $ @ & = : = = #   . . . . . .               # # = # O $ 2 2 3 0 z v R E E E W E L x w w 6 6 w e e r w w 3 3 1 2 1 1 1 0 3 3 3 3 3 3 0 0 0 0 0 0 3 0 0 0 0 0 0 0 3 w w 6 w w w e x e w 6 w w w w 0 w w z w 0 9 & = #         # # # # - - # ; y i l f f s ( g y + , f f f x.8X{.- , , s g p s , y + - - - ; ] K.b.@.c.,Xv.x.i y V b.>.$.( , y B u O O f g a f i + + y b b _ _ n , 2 X.OXZ.W.~.H.~.",
"5X5X3X3X3XOX.XT.^.T.Y.Y.Y.Y.Y.Y.Y.Y.Y.Y.Y.Y.Y.Y.Y.Y.Y.!.U.U.!.E././././.E.S.E.E.E.E.Z.C.H.#.7 U o.6.6.6.%.#.o.o.' ` %.c.8X].B @.@.X.@.c.P.*.c.( 7 P ) *.fX{.fX@.@.N.P.%.) o.o.E D L a.+.u.r.+.W W W +.Q W ! +.+.p.$X=X=XrXrXrXrXiXiXuXuXuXiXaXaXiX7X7X*X&X#Xw.w.#X#Xw.#X#X#X#X#Xd.u.+.E v R E q.u.g.u.f.+.W L e v x x x E R w v E L L L L v z k j y y u n z v z z z z z z z c R v e L R L e w 0 z 0 3 3 w e e w w e v R O.O.O.v L L O.w.-Xw.w.O.[.[.[.&.c 9 * $ & #             .                       . . . . . . . . . O @ @ * 2 3 6 e e e L L v e e e w w 3 3 3 0 0 0 3 3 3 1 1 1 3 3 3 3 0 0 0 0 0 0 0 0 0 0 0 0 0 3 9 3 3 0 0 w w w w e e e e 6 w w w w w w 0 w e w k 9 j # #       # # # # & - ; + ; y + y u f g ( ( i y i y X Z gXgX{.- , u s t t t t t y y y + i V [ z.] V B B + y i _ $.$.$.f + u ` ) , y f p h V u , i z.(.] %._ y + n XXJ.!.!.H.H.G.",
"5X5X3X3X3XOX.XT.^.T.Y.Y.Y.Y.Y.Y.T.T.Y.Y.Y.Y.Y.Y.Y.Y.Y.!.U.U.!.E././.W.W.S.S.E.E.E.E.S.C.D.!.%.d ) o.' ' o.=.o.=.=.=.6.*.*.B @.jXjX].c.%._ P _ _ b P P _ 2XlX8X%.@.P.P.F.X.+.*.o.E W ;.+.r.r.a.;.;.;.-.-.r.s.f.;XuXiXiXiXiXtXtXiXiXiXpXpXpXrX7X[.[.7XpXpXaXaXaXqXuXuX7X-X&X&X&X&X#Xd.p.a.R R E Q u.s.g.f.r.Q L w x x x x v E w x v E L L L L z n j y y u n z z v w z z z z c c R v e L E L e w 0 k 0 3 6 3 w e e w e v R +.+.+.R X.X.w.*X].&.*.#X[.].&.q % * $ = #     .                                         . . . . .   . # @ $ 2 3 z z w w w e e e e w w w w 0 3 3 3 3 3 3 1 1 1 3 3 3 3 0 3 0 w w 0 3 3 3 3 0 3 3 9 9 3 3 0 0 w w w w e e e 6 6 w w w w w w w w w z k 9 & # #         # # # & & - l y i C C y f ( ( h i B _ i O N {.{.y & t u s s u u t t , y y y u g h f , i , & & l l t _ ] b t + u ) ) p ( ] h h ( n i P.,X(.K.@.B ; y c.R.H.Z.!.H.H.G.",
"5X5X3X3X3XOX.X.X^.T.Y.Y.Y.Y.Y.Y.T.T.T.T.Y.T.Y.Y.Y.Y.Y.!.U.U.!.!.W.W.W.W.S.S.S.S.E.E.E.5.C.A.~.#.7 U o.' Y Y =.7.;.;.;.o.) P c.CXbX9XfX Xb P P ( P P F G g _ _ _ @.z.P.P.*.p.oXp.+.o.;.;.a.r.a.t.r.-.r.r.u.g.;XeXaXpXpXpXpXtXtXrXrXrXrXrXrXrXrX&X*.O.O.+.*.a.oX-X-X=X=X*X&X&X&X&X&X&X#X#X+.E +.E +.u.%Xf.i.+.L e e v x v e E v w r E L L L v z c k j y k x x w v 0 c z z v z c R R v L L L e w w 0 0 w w 3 w x v w w v R +.O.+.m O.*.[.6Xe.*.].[.e.O.9 $ $ - =               # #                                     . . . . .   . . . X 2 3 w w w e x e v v v x x e w w 6 3 3 3 1 0 1 3 3 3 0 0 3 3 0 0 0 3 3 3 0 0 3 3 9 9 0 3 0 0 w w e w w 6 6 6 w w w w w w w w w w w 0 1 & # #         # # # ; & y n u c. X XB < B n , , _ @.f & - i - + y u t s s u i y y y y i y , u g < t u i i u l 2 , , t , , u f t t g ` #.) p g u B ,X).(.(.P.u , %.OXH.J.J.U.J.H.H.",
"5X5X3X3X3XOX.X.X^.T.Y.Y.Y.Y.Y.Y.T.T.T.T.T.T.Y.Y.Y.Y.Y.!.U.!.!.!.!.W.W.W.S.S.E.S.U.S.Z.5.Z.S.S.~.%.5 F o.Y Y Y o.;.+.o.o.' I @.{.{.v.C B P P s 4 4 d F F H F 7 %.4X Xc.*.q.%X$X:X:Xa.+.i.t.i.i.i.i.i.s.s.f.u.g.wXwXrXtXtXtXtXpXpXtXtXtXrXrXrXrXuX:Xa.o.W E E O.+.+.*.w.oX-X-X-X&X&X*X&X-X%X+.+.+.Q u.f.d.f.+.E e e v x v v R X.3 r v o.D U v z k k k y k z v w v 0 c k 0 c R w v L L L L L e 0 z 0 3 w w 6 6 x L e w r R O.+.w.m w.[.6X[.w.w.[.e.C 9 * $ : # . .         # # =                               >   >     . .   > . . .   . @ * 1 z w 3 3 6 3 6 w w e e e e w w w 0 3 1 3 3 3 3 0 0 3 3 3 3 3 3 3 3 0 0 0 0 9 9 0 3 0 0 w w w w w 6 6 w w w w w w w w w w w 0 0 9 2 # #         # # O ; - y t f c.1Xc.f , f y y i B f u y + y + + y u t s f u y y y y y i y , b b u , y y i i - y y u k u i f f f t ( #.$.[ s f t f ,X).P.4X&.o b Y.W.W.J.G.J.J.H.G.",
"5X5X5X3X3XOXOXOX^.T.Y.Y.T.T.~.Y.^.^.T.Y.T.T.T.T.Y.~.!.U.!.!.!.!.!.!.W.E.S.S.S.S.W.S.S.S.S.S.S.S.^.%.5 x ) Y Y U W E E U ` ) _ %.@._ _ _ ( _ &.N X z U J F P P *.2X1X X*.O.u.g.d.uXaXp.u.i.t.s.s.s.g.%X%XwXwXwXwXuXrXtXtXpXpXpXpXNXpXpXiXrX*X#Xw.a.r.;.o.W W E E E E o.o.6.6.oXqXrX*X7X#X#X#XO.q.Q u.d.f.;Xq.E v z v v e v v +.w e L E U U L v 0 k k u z s v 3 n z c c w c R z v L L E E L x 3 0 0 3 3 w w w e x L e r E +.w.w.O.[.}.}.[.[.].w.m & # # :     .         # = =       .   # # # # # = =         = # # = # #   . > : O # . .   . O $ k z z 6 6 6 3 3 0 0 w w w w w 6 3 3 3 3 3 3 3 0 0 0 0 3 3 3 3 3 3 3 1 2 1 9 3 3 0 w w 3 3 w w w w w w w w w w w w w w w w 0 1 9 j # #       # # - ; - & y i N B V _ ( < + ; y + o f b t y + y u u u u u u y y y y y - y u B f i - - y y - - - y f B f f y f f f h ` %.g , , f t B v.1X&.+ u G.Z.E.H.H.H.H.U.G.G.",
"5X5X5X3X3XOXOXOX^.Y.Y.Y.T.T.~.Y.^.^.T.Y.T.T.^.^.Y.~.!.U.!.!.!.!.!.!.W.W.S.S.S.S.E.E.W.S.S.S.S.S.B.^.%.5 P U o.o.Y 7 6 3 P ` ` <.L.I.6.%.( ,XFXCXX.b Y Y I P P @.%.*.*.a.u.g.%Xd.d.eX:X%Xr.+.i.i.i.u.d.%XwXwXwXrXpXpXpXpXNXpXpXiXrX7X*X#X=X#Xw.*.O.X.E E L x 6 6 6 6 7 d x x X.O.].tXtXrX&Xw.w.q.+.+.;Xd.f.a.E L z c x e v v +.E 6 L W o.U R x w z z 6 z z z 0 c z c c w z v c w x v L E L x 3 0 3 w 6 w 6 x x x L v R E +.w.].].}.}.[.].w.e.m 1 @ # :               # = = = >       # # # # # # = = #   O O @ # @ $ & & =       j j - O .     # @ % 3 z z z z w 0 0 0 w w w 6 3 3 3 0 0 0 0 0 0 0 0 0 1 1 1 1 1 3 0 0 1 1 1 3 0 0 0 3 3 3 w w w w w w w 6 w w w w w w w 0 0 3 0 1 & #       # # - - y ; O O - + ( $.%.p , f f y + i s p f i i y ; ; y y y y y y y - - & f t t , y + & l N ; - , f f i i &.fX@.f h h h t B @.f u i N B + , *.+XW.E.U.S.H.H.U.G.G.",
"5X5X5X3X3XOXOXXX^.Y.Y.Y.T.T.Y.Y.^.T.T.Y.^.^.T.T.Y.~.!.U.!.!.!.!.!.W.W.W.E.E.S.S.S.S.E.E.W.S.S.E.E.S.~.*.6 x U o.#.5 o , ( #.#.<.,.<.<.<.#.T.1XlXX.7 U I S I I I ( z X.:X$X$XwX%Xf.$X:XeXg.r.y.y.s.g.%X=XwXrXuXiXiXtXtXtXNXtXrX*X&X#Xw.w.+.O.E O.v z k y + X X X X O O X * % % % 2 n ].pXrX*X#Xw.q.E u.$Xu.f.+.v z w x x e E O.w.w X.+.+.+.R m w x z w v z w z w v z v z c v x e e x L L L x 3 0 3 w w w 6 x x e v E O.O.w.[.[.[.[.}.].e.w.m 9 * # :             # # = =   A A . .   # = = & & # # & & 2 1 2 % 2 k 9 & & : = . . j n k k & O .   # . . X % 1 z z w 3 3 3 3 3 6 z 0 0 0 3 0 3 3 0 3 1 9 1 9 9 3 3 3 3 1 1 1 0 0 0 3 1 3 0 0 3 z w w w w w w w w w w w w w z x w w 9 & >       # - - - O - Z N = + ( %.V t ( ` ) ( y - f _ [ [ i = = > = = - y y y - & # $ u f p t u , @.&.N - - & + y y B fXFXc.s h h f ] c. X@.y i y + , %.~.S.W.E.U.H.H.H.G.G.G.",
"5X5X5X3X3XOXOXXX^.Y.Y.Y.Y.Y.Y.Y.^.T.T.Y.^.T.T.T.Y.~.!.U.!.!.!.!.!.W.W.W.E.S.S.S.E.E.E.E.E.E.E.E./.E.C.+X%.4 P P ` _ u _ %.<.<.#.>.' ' %.%.%.@.B b o.` F F F I I o.o.v O.uX=X%X=X;Xf.$X;Xf.t.j.t.i.f.%X=XwXrXiXpXpXpXpXNXtXtXuXuX%Xd.+.+.+.X.c 2 y + + O O O O O O O O X O O $ & y + * Z tXtX*X#Xw.q.O.:Xf.u.+.R z w z x e E X.#XE O.+.+.r.+.E r E v v R R v v x v x U L v z v r r v L L L e 3 0 3 w w w w 6 v x e O.O.O.].[.}.[.[.[.].w.X.q % # :         # # = # # = = . Z A .       # = - - - # & k z v z 0 0 c m 9 & & :   . & c z z k 9 @ . .   # # X $ 2 3 3 3 3 3 3 3 3 3 3 1 1 1 1 1 1 1 1 3 1 1 9 1 3 3 3 3 1 2 2 2 3 0 0 0 0 3 0 z 3 6 w w w 3 w w w w w w e w w w 6 3 2 & # .   # # # - - : }.bXhX{.l u V y , g ) ' g + + g _ { { N = > >     ; y , y & & @ + f g g %.B y  X*.y - - - N , y y @.8XB < g V V v.c.c.c.f y y , X.~.W.W.Z.H.U.H.H.H.G.G.G.",
"5X5X5X3X3XOXOXOXOX^.Y.Y.Y.Y.Y.Y.^.^.Y.Y.^.T.T.T.Y.Y.~.H.!.!.!.!.W.W.W.W.E.W.W.W.W.W.W.E.E.E.E.S.E.E.E.H.+X6.5 b d ( ( _ %.<.N.#.#.` ) %.%.<X%.f %.dX4X XP P U U o.a.a.O.*.uXwX-X%X;Xf.f.i.t.t.t.t.s.%XwXrXrXiXiXpXpXpXpXaXaXeX>Xh.r.;.o.L c & O O O @ $ $ 2 2 3 3 3 < < < + * O O & & X l 6XSX*X#Xw.w.p.;Xu.+.R R z x v x X.w.w.w.O.w.w.p.w.+.R E X.+.+.X.O.O.v E E X.X.O.E R r r R L D R r 6 w 3 w z 6 w 6 x e r O.w.&.[.}.}.[.].].].&.c 9 O : >       # # = = = = = =   UX> .       # - & # - y k k z L v v x w m n 9 9 : # . & l z v w c z k 2 + O O # O X * * % 2 1 3 3 3 3 1 1 1 1 1 1 1 1 1 2 1 1 0 1 1 9 1 1 1 1 1 1 9 1 1 2 2 2 0 3 0 z 3 3 3 w w w 6 w e e e w w w 0 3 2 * & & - # # = - X Z DX}.}.bX&.X y - ; t V b u + + V { { $.N = > > = ; i y , y y y i u g ( ( _ u y n y + & ; @.).@., u n f g [ %.%.V c.v. X@.y i , X.R.G.H.W.Z.S.S.S.H.U.I.I.I.",
"5X5X5X3X3XOXOXOXOX^.Y.Y.Y.Y.Y.Y.^.^.Y.Y.^.T.T.T.Y.Y.~.H.!.!.!.!.W.W.W.W.E.W.W.W.W.W.W.W.E.E.E.S.E.E.E.E.W.+X<.p d d d g ( o.*.%.#.4.' ' X.CXF.g ).dX2XjX*.x U D o.*.a.oXw.w.aX=X$X$Xg.s.s.y.y.j.h.h.:XuXiXpXpXpXpXiXiXtX=X#Xu.-.-.+.;.E 4 % # = & - & 2 1 3 z x x x d d d s 1 % + X O : O @ e.SXaXp.w.$Xg.f.+.E L x w v v +.#Xq.oXw.#X#Xp.p.u.+.E +.p.p.+.+.a.X.E o.X.X.w.*.O.E L E E L R r 6 w w 0 c w w 6 x x r +.w.&.[.}.[.[.e.e.&.m 9 $ : >       # # # = = # = =   > Z .         & - & - : j k w x r L R R w v v z 9 j & . & n z v v r x c z 0 % X X O O O O @ $ $ 2 2 2 % 2 2 2 2 2 2 1 1 1 0 0 1 1 1 2 4 2 1 2 9 2 1 1 2 2 2 9 0 1 0 0 3 3 0 0 w w 3 6 w e w w w w w 0 0 2 9 9 1 & # # = - @ N FXJXDXhX: # # # - - y y y y y g #.$._ , ; ; ; ; y i y 2 2 y y y u b B B t , y y y + + @.@.B @.o.%.*.p %.z.%.K.@.B z.@.i i , _ @XC.S.H.H.A.S.S.S.H.U.I.I.I.",
"5X5X5X3X3XOXOXOXOX^.T.T.Y.Y.Y.Y.^.^.Y.Y.T.T.T.T.Y.Y.~.H.!.!.!.!.W.W.!.W.U.U.W.W.W.W.E.W.E.E.E.S.E.E.S.H.H.H.^.C.P d s x x d b o.o.' ' ' ` 6.3X( #.T.,X4Xc.d I U L oX$Xw.p.w.p.aX=Xg.g.s.g.s.t.y.t.s.%XuXpXpXNXNXNXpXpXpXrXw.+.W ! W v 2 @ . # : 1 1 3 3 z x x x x x d d 7 d z s 3 < + * @ = . C pXaXd.%Xu.i.a.E U L x v O.+.#Xp.w.#X-X&X#X#Xw.p.O.w.p.p.w.+.p.+.o.+.*.O.w.p.+.+.+.+.+.R R L w w w w z w 6 w e e v +.w.e.[.}.[.].e.e.O.9 & # : .   # # # # = - - = #   . : A           = - & = - & 1 3 w L L L L r L v v k j $ X 1 c r r E E r z w z c 3 % * @ @ # # O O @ @ @ @ $ % % % % 2 2 1 1 0 0 1 1 1 2 2 2 2 % % 2 1 1 1 2 1 1 1 1 1 2 1 3 3 0 0 3 w w w w w w 0 w 0 0 w w w 0 1 - # # = # - # N '.'.=   & - = # # = - + n u t n i , G #.V t t t , y y y y - - & - y & - - ; i u y i @._ @.%.D.b.N.%._ z.%.F.@.+ f i i y n XXG.C.H.H.H.A.S.S.S.H.G.G.G.G.",
"5X5X5X3X3XOXOX.X.X^.T.T.Y.Y.Y.Y.^.^.Y.Y.T.T.T.T.Y.Y.~.H.U.!.!.!.!.!.!.W.S.U.U.U.U.W.E.W.E.E.E.E.E.S.H.H.!.S.!.!.J._ s d x d s s I o.I o.o.) o.` I ) %.o.) ) P *.*.R a.:X=X=Xw.w.uXeXg.s.g.s.j.t.s.f.%XrXtXtXtXtXpXpXtXiXuX:X>X>Xo.E k & # # j j 1 1 3 3 3 6 x x x x d 7 x z 7 7 d s u 2 + @ = . j pXpX=Xf.u.$X+.E L U v O.w.$X#X].&X&X&X[.#Xp.u.w.w.p.p.u.w.p.+.Q +.w.*.w.#Xq.q.a.r.a.R R L e w w r w c 6 e e e v +.w.e.[.}.[.e.w.O.c 2 # :     # # # # & & - : #   Z |.HXKXZ .       = : & @ $ y 1 0 w R D e r r R r m c 9 @ X 1 z R R L E O.w c w w v z 0 % * @ @ @ @ # # # & $ % % % % 2 2 2 1 1 1 1 1 0 0 0 1 9 9 j j 9 1 2 2 2 2 2 % 2 % 9 1 3 0 3 3 3 0 0 w w 0 0 0 q w w w w 0 k - # = = - y ; & X . Z mXC O - = : = & y u , , + + V :. .G p V u + - y - y - - # = # - - ; ; y u f f f V %.] D.n.b._ h %.%.@.i y y f i u XXG.G.C.H.H.H.A.S.S.S.H.G.G.G.G.",
"5X5X3X@X3XOXOXXXOXOX~.Y.Y.Y.Y.Y.^.Y.Y.Y.Y.Y.Y.Y.Y.!.~.U.U.U.U.U.U.U.U.S.S.S.S.S.H.E.S.S.S.S.E.W.W.H.H.H.W.!.!.W.U.+X*.P s g s s d P o.U U o.+.o.o.' ' ' { o.o.L +.a.+.a.-XrXrX=Xd.;Xh.g.g.g.g.g.%X=XuXiXtXtXiXiX7X=X$X$X+.+.+.W W v $ . & l j j 2 9 j C Z C n 6 x F d s % 2 v S F F x s y y O # . : AXNXwX%X%Xp.O.E E L E q.$X#X-X&X&X*X[.-X#Xp.w.#Xp.u.u.p.u.+.+.+.w.w.w.d.w.q.$X+.u.E E L L e e e w w w w w v R O.e.e.[.6X].&.+.X.1 & = =     # # # O & : :   : }.KXKXLX|.> . .     # y % & & 2 k e v L L r D e L R v m 9 @ X 0 w X.O.+.E +.O.M m c q w w w 0 0 1 2 2 2 2 2 % y 1 2 2 1 2 1 9 9 1 1 1 1 1 1 1 1 1 2 2 & & & $ & & & & @ @ $ & 1 3 3 3 3 1 3 0 w w w w w w w 0 0 0 j - - = - & f n i y - Z HXHXmX: - Z l - y N y y y ; = i [ [ f i i i l - i y - ; - - O = - j ; ; ; l B u y f f f N.S.$./ ( g p , i y j y u XXR.G.C.A.H.H.H.A.S.S.H.H.H.G.G.G.",
"5X5X3X@X3X.XOXXXOXOXY.Y.Y.Y.Y.Y.^.Y.Y.Y.Y.Y.Y.Y.!.!.~.U.U.U.U.U.U.U.U.S.S.S.S.S.H.H.H.H.S.S.H.H.H.H.H.H.W.W.W.W.W.A.~.G._ g s s n 6 x U L o.;.+.o.' =.' =.' o.a.O.+.+.*.w.*X7X=X%Xf.f.f.g.g.g.g.g.=XuXrXrXrX=X-X#Xp.a.;.;.;.W o.U z X # l k 2 1 j j C KXKXKXCXO.6 b P < O # x F F F x s u y + & @ . N JXpXwXwX%Xu.+.E R E +.p.#X-X*X*X*X[.*X#Xw.#X-X#Xp.w.u.u.q.r.+.w.#Xw.#Xd.w.%Xq.u.+.R L D D e r R r r w X.E E O.e.].[.[.e.+.O.m - = = = = # # = # : Z l . Z HXKXKX}.: . . . .     # y 2 % 2 u s w e L D D L e L R R R q . @ 0 q O.w.O.+.+.+.O.E R v v v e w w w 0 0 k 3 1 1 1 2 2 % 2 2 2 2 2 2 2 2 1 3 3 1 2 2 % % & & & & & & & & $ & & & 2 1 1 2 1 1 1 1 3 6 w w w w 0 0 9 1 & # = - j i f s y y O &.HXnXnXl - i + - i i ; ; ; - = ; f V i + l x.{.'.Z y ; - - = l : ; ; ; ; + , u t u n _ b s ` b.$.M.[ b f , y u k F.R.G.A.A.H.H.H.A.A.S.S.H.H.H.G.G.G.",
"5X5X3X@X3X.XOXXX.X^.Y.Y.Y.Y.Y.Y.~.Y.Y.Y.Y.Y.Y.~.!.!.~.U.U.U.U.U.S.S.U.S.S.S.S.S.H.H.H.H.S.S.H.H.H.H.H.H.W.W.W.W.!.W.H.U.OX%.( s s z z z U L U ;.o.Y o.o.I Y U +.:X$Xp.p.#X=XiXrX=X%X$Xd.f.f.g.g.s.g.$X%X#X#Xd.d.$X>Xa.;.+.W o.E z y O - n w 0 0 9 l l mXKXKXKXKX&.k n o . # n b x d s z k k 1 2 2 * . [.JXpXrXwXw.w.+.+.E +.u.%X-X*X*X7X*X-X#Xw.#X#Xp.#Xw.u.u.+.u.q.w.=Xe.#X#Xw.d.r.r.i.E R L D e r E m v m O.*.O.O.e.[.[.].e.+.E c & = = = = = = # : HXHX: A KXKXHXZ   9 w.C .       # y 2 2 9 u u w e R D L L D R L R E 4 X 9 0 c Z ].].&.O.+.+.Q Q O.R R v v e w w w w 0 0 1 9 2 2 % 2 2 % % 2 2 2 2 1 1 1 1 1 2 2 2 1 & & & & & & & & & & & % % % % % & 2 1 0 0 w w w 0 0 0 0 k j - = # = & u f u i - l {.}.C - i ; - - - - = = : : >   = ; ; . Z IX{.|.x.i i y ; : Z = y i y i , u @.b d o.;.o.6 %.M. .M.b._ , y n B F.I.U.A.A.H.H.H.H.A.A.S.S.H.H.H.G.G.G.",
"5X5X3X@X3X.XOXXX.X^.Y.Y.T.Y.Y.Y.~.Y.Y.Y.Y.Y.Y.~.!.!.~.U.U.U.U.U.H.S.S.S.S.S.S.S.H.H.H.H.S.S.H.H.H.H.H.H.W.W.W.W.Z.W.W.H.H.~.Y.%.b < f s s b U U L o.o.6.o.o.a.X.O.#X:X:XuX-X=XrXuX=X:XeX%X%X;X%X;X;XeX=X%X$Xd.a.a.+.+.Q W W e v X.2 @ 9 c r m c c k l C '.cXKXKXKXZ y +   . 3 e w 6 6 w w z 0 3 w z & : JXSXtXrXrXw.w.p.+.E q.f.-X7X*X6X7X-X#Xp.#X#Xp.p.u.p.q.+.q.$Xw.uXw.w.=Xd.q.s.+.t.+.R L D L L +.+.O.X.].w.].w.e.[.[.].w.+.v c #   = = - - = = : mX|.A GXKXmXl : M +.u.O.X     .   1 2 1 0 3 3 w L R D L ! ! ! L R E 4 * 9 q X.'.|.|.}.[.O.+.Q +.Q E R L v v r r w w w w 0 9 9 2 % % % & & % 2 2 1 1 1 1 1 2 2 2 2 2 2 & % % % 2 2 2 1 2 2 % % % % % % & 2 2 3 3 0 0 0 0 0 0 0 j & & # # # , b u y y y =   + i y ; ; ; - - > > : : > > N x.x.; N {.{.|.{.N ; i ; : = = u n B @.@.@._ X.o.=.;.=.b X.D.M.b.( u 2 y B R.Y.!.H.A.S.H.H.H.H.A.A.S.H.H.H.H.G.G.G.",
"5X5X3X@X3XOX+X.X.X^.Y.Y.Y.Y.Y.Y.Y.Y.Y.Y.Y.Y.Y.~.!.~.!.U.U.U.U.H.H.H.U.S.S.S.H.H.H.H.S.S.H.H.H.H.H.H.H.H.W.W.W.W.W.!.W.W.H.H.!.~.^.%.b p s s s b b *.*.6.6.+.*.>Xp.q.+.a.f.eXeXwXwXwX=X%X%X%X;X:XwXuXuXrXrX-Xw.+.+.o.W W W D O.&XVXl % m O.! Q Q O.+.Q Q O.m e.6XVX'.# . > . r ! ! ! D D L L v v L L n * '.LXNXtXpXpX#Xp.a.Q Q f.-XrXtX7XrX-X-Xp.p.#X#Xp.p.u.q.q.+.#X#X&X7Xw.-X:Xw.i.r.+.r.W E D U W +.w.].&.#X[.&X&X[.[.[.[.p.O.w 1 .   # = - - j j j l : '.KXnXl c m E ! Q +.* .     . & 1 1 0 3 6 r R D ! W ! ! Q ! E m * q c k &.}.}.}.[.}.[.*.+.+.Q R L L D r r e e w w w w 0 0 1 2 2 % % & & & % & 2 2 2 2 1 1 1 1 1 2 1 1 k z k k 3 0 0 3 3 3 0 0 3 3 0 3 0 0 0 3 w 0 0 0 0 0 0 9 & # # # y u u y y ; - Z C = y i l i N : > > > > > : {.fX8Xi ; l x.{.x.i i ; ; > = ; b _ @.P.F.@._ @.U 6.6.o.n f %.] f + y k _ U.U.W.W.E.H.H.H.H.H.H.H.A.S.S.H.H.J.J.G.G.",
"5X5X3X@X3XOX+X.X.X^.Y.Y.Y.Y.Y.Y.Y.Y.Y.Y.Y.Y.Y.~.!.~.!.U.U.U.U.H.H.H.U.H.S.S.H.H.H.H.S.S.H.H.H.H.H.H.H.H.W.W.W.W.!.!.W.W.W.H.!.U.U.^.J.%.d s g b z X.*.a.a.p.+.#X=X;Xi.r.q.q.d.$X%X%X%X%X$X$X%X%X%X=XrXuXuXeXeX:Xf.+.W W ! +.7X6XyXC o E q.Q y.t.q.q.9.9.y.q.O.[.AXHXmX=   . m y.~ ~ ~ Q Q W E L D L L c M HXAXvXpXpXrX#Xw.+.Q i.%X7XtXrXrX#X#X#Xw.p.p.u.u.p.w.*.p.q.7X].rX&Xw.wXf.q.i.Q +.Q +.L U W +.p.7X[.*X6X6X6X6X6X6X&Xp.E 0 % .   # # - - j k z c l mXKX].m +.Q Q ! Q Q q .     . & 0 3 w w w ! ! D ! W Q Q Q Q Q c * c k e.}.}.}.}.}.}.7X-Xp.+.E E U L D D D e w r e w w 0 0 1 1 2 % % & & & & & & % % 2 2 1 1 1 1 k z z w w 0 3 0 0 0 0 w w w w w 0 w w 0 0 0 w z z w 3 2 2 1 1 1 & # # i u i i , l }.nXVXZ O N B i y - ; =       = C v.C y i , y i u f i =   > ; i _ ) ( @.X.*.%.X.o.` ' _ n i y y - - k X.U.!.W./.W.W.H.H.H.H.H.H.H.H.S.S.H.J.J.J.G.G.",
"5X5X5X@X3XOX.X.X.X^.T.Y.Y.Y.Y.Y.Y.Y.Y.Y.Y.Y.Y.~.!.!.!.U.U.U.U.H.U.U.U.H.S.S.S.H.H.S.S.S.H.H.H.H.H.H.H.H.W.W.W.W.!.U.H.H.H.!.W.H.H.H.^.+X^.#.d g b z v w.w.p.#Xp.-X=X%X>X$Xu.r.u.i.s.g.f.;X;X;X:XeXeX=X%X%Xf.i.-.Q Q Q Q p.uXrX6X9XC 2 E Q q.s.t.q.r.y.t.y.r.w.SXKXKXKXZ . . r y.Q ~ ~ Q Q Q Q ! ! R E R q tXAXAXvXvXNX=Xw.q.Q t.$X*XtXtXwX#X#X#X].#Xu.q.r.a.p.*.w.#X[.rX&XrX-X#X:X+.q.r.Q +.+.Q D ;.+.u.iXyXyXyXyXyXrXtX7X&Xw.m 0 * O # # # - - j k 0 k O.pXiXO.Q y.! ! W W +.m .     . & k 0 w e D ! Q ! Q Q 9.9.k.Q E % M l &.yXvXyXyXyXyX*X*.Q ! ! R ! L L L D D e e e w w w w w 3 1 1 2 % & & & & & & & & % % & 2 1 j 0 9 3 0 0 w c c w w c v x c w w w w w 0 0 w w w x z w 0 3 3 3 1 & # @ & y y y + @.JXbXJXZ # &.B y i l y ; = = = ; t f u u u u i , s i N Z Z = , ( ) _ b < < X.o.<.N.%.#.( b B - = - u %.Y.U.!.W.W.W.W.U.U.H.H.H.H.H.H.S.S.H.J.J.J.G.G.",
"5X5X5X3X3XOX.X.XOX^.Y.Y.Y.Y.Y.Y.Y.Y.Y.Y.Y.Y.Y.~.!.!.!.U.U.U.U.H.U.U.U.H.S.S.S.H.S.S.S.S.H.H.H.H.H.H.H.H.W.W.W.H.U.H.H.H.H.U.W.H.H.W.W.!.^.^.G._ s b x w c =X=X#X#X=X-X#X%X:X;Xh.s.s.s.f.i.d.f.f.f.%X%X$Xd.f.s.i.i.f.>XaXpXrXrX&XcXN 1 E u.t.s.q.y.y.y.y.y.q.+.#XKXKXKXZ . . q y.Q ~ 9.9.9.Q Q Q Q Q Q ! m ].JXZXVXvXpXiXp.q.Q r.$X=XtXiX=X#X-Xp.].-Xq.q.+.q.w.#XO.#X].*XtX6XrX=X%Xp.Q t.r.Q Q r.! +.a.u.rXyXyXyXvXyXtXtX*X-Xw.c 9 O @ # # # - & 9 w m O.q.w.q.q.Q Q Q Q Q Q Q +.X     . & z w e L ! W Q ~ Q 9.9.9.k.O.c 9 M Z cXVXvXyXyX}.[.w.+.Q W ! W ! L L D D r e w e e w w z z 0 0 1 2 2 2 & $ $ $ & & & & & % 2 2 1 2 2 2 3 3 3 3 3 3 0 w w w w w r w w w q w w e e x x x c z z z 0 1 - # + y y i i B 9X9XN y N x.B i l N B i ; ; ; i V g t t u u u B f f {.PXbXB g _ _ ( P o.+.U #.<.b.N.A.%.V i + O C P.~.!.S.U.W.W.W.W.U.U.H.H.H.H.H.H.S.S.U.U.U.J.G.G.",
"5X5X5X@X3XOXOXOX.XY.^.Y.Y.Y.Y.Y.^.~.Y.U.Y.Y.Y.Y.!.!.!.U.U.U.U.H.H.H.H.H.H.H.H.H.S.H.H.S.H.H.U.U.H.U.U.!.U.U.U.U.U.U.U.U.!.!.!.!.!.!.!.!.~.U.~.OX6.b z x x +.%X=X-X#X-X$Xd.f.g.g.h.h.h.h.g.f.f.g.s.g.g.%XuXuXaXaXpXpXNXNXpXtX=X*X9Xl 9 O.g.q.t.q.y.y.t.y.Q Q Q +.=XVX'..   . q q.Q Q Q 9.9.9.Q 9.Q 9.9.Q m C JXZXAXnXvXpX#Xd.+.r.d.=XtXtX-Xd.%Xw.].=Xa.+.+.$X*.].[.w.&X&XtXMXtXrXwXeXq.Q +.r.+.-.u.+.f.d.*XNXvXvXvXvXyXtX-Xw.X.q % # # # # # # & q ! y.Q q.q.q.k.Q Q Q Q 9.Q Q +.9 .   . 2 v v D R ! Q Q ~ 9.Q 9.q.q.O.& M O.cXvX6XyX6XyX6XtX=X+.Q W E L e e e e w w w w r z e w w 0 0 0 0 0 1 1 & & & & & & & & % 2 1 y 1 u u u 3 0 0 0 w w w w w w w w w r w w r r r w w w e x r w 0 0 9 & & # @ 2 f g V _ l y @.&.l x.V u n B V f f f i i V ( V g p V %.c.%.V fX{.B ] _ ) ( p =.;.;.7.` M.$.N.c.B + + u %.3XY.H.W.W.W.H.H.H.H.S.S.S.S.H.H.H.A.A.L.U.U.A.U.U.U.",
"5X5X5XOX3XOXOXOXOXY.^.Y.Y.Y.Y.Y.^.~.Y.U.Y.Y.Y.~.!.!.!.U.U.U.U.H.U.U.U.U.H.H.H.H.H.H.H.H.U.U.U.U.U.U.U.!.!.U.!.U.!.!.!.!.!.!.!.!.!.!.!.!.~.H.H.~.+XY.o._ U v +.$X=X=X$X$Xf.g.s.s.u.i.i.i.s.s.s.h.h.;XwX=XrXrXtXtXtXvXvXvXvXtX=X&X9Xj 9 O.q.q.t.y.y.y.j.y.Q Q t.t.q.m .     . r y.Q ~ Q 9.9.9.9.9.Q 9.9.t.O.M HXAXAXAXnXvX*Xp.r.r.d.=XrXtX%Xd.d.w.#X#X*.p.*.O.*X&.].#Xw.w.&XtXNX6X=XuXf.+.Q +.r.r.u.q.u.#X&XtXvXvXvXvXvXrXd.r.v 4 % - # @ O # # & r ! y.Q q.q.q.q.y.y.9.9.9.9.~ Q E X   . 2 L D D ! W Q Q Q ~ 9.k.q.w.9 M O.6XyXyXyXpXvXvXtXw.+.Q Q R r r e w w w w w w w e w w w w 0 0 0 0 1 1 2 % & & $ & & & $ % % 2 1 2 1 u u 3 0 0 0 w w w w w w w w w w r r D D D r r w w 0 q 1 9 2 & & & # # & B %.@.V u C *.B l v.u n f u f B @.@.k B B _ _ g V ] v.v.z.] @.V ( _ _ V u b 6.;.;.=.#.K.K.c.V + y B *.+XW.H.W.W.W.W.H.H.H.H.S.S.S.S.H.H.S.A.S.L.U.U.A.U.U.U.",
"5X5X5XOX3XOXOXOXOXY.^.Y.Y.Y.Y.Y.^.~.Y.U.Y.Y.~.~.!.!.U.U.U.U.U.H.!.!.U.U.U.U.U.U.U.U.U.U.U.U.U.U.U.U.!.!.U.!.U.U.!.!.!.!.!.!.!.!.!.!.~.U.H.~.~.J.J.J.OXXX6.*.+.+.+.f.>Xd.d.s.s.i.t.0.y.y.t.t.t.j.g.eXeXuXiXpXaXpXNXNXNXvXvXpX=X#X}.: & m g.t.y.9.y.t.s.y.Q Q t.j.y.q.#     . r y.Q 9.Q 9.9.9.9.9.Q 9.9.r.O.j nXAXAXAXnXNXrXd.t.+.f.=X7XrX%Xp.w.d.#Xp.w.oX].].X.7Xe.#Xp.p.w.-XrXpX*X*XuXu.+.Q +.i.u.i.q.%X#XrXNXvXvXZXNX7Xd.Q r 4 2 & & $ @ @ # & 0 E k.Q q.q.q.q.q.q.y.y.k.9.9.Q r.2 .   9 E D T W Q Q Q Q 9.q.u.&Xq c *.#XrXtXvXNXNXpXrX-Xu.+.Q ! R L L v v e e e e e e e w w w w w w 0 0 0 1 1 2 & & $ @ @ # # $ $ & & & % 2 2 1 1 0 0 0 0 0 0 w w z r e r r r e e r r w q q 2 % % & $ & $ # # # - B B i y y i B + C ].y f B B f B @.@.O.=X:X*.s V f c.v.{.z.] V ] @.c.@.@.x.u =.6.=.o.b B B O i B %.I.^.!.W.H.W.W.W.W.H.H.H.H.H.H.S.H.S.H.H.A.S.L.U.U.A.U.U.U.",
"5X5X5XOX3XOXOXOXOXY.^.Y.Y.Y.Y.Y.~.~.Y.U.Y.Y.~.~.!.!.U.U.U.U.U.H.!.!.!.!.!.U.U.U.U.U.!.!.!.!.U.U.U.U.!.!.!.!.U.U.U.!.!.!.!.!.!.!.!.!.~.!.H.~.~.H.J.Y.J.J.@X@X@Xa.a.q.f.h.f.i.t.y.9.9.9.9.y.y.t.j.s.g.%XuXrXrXiXiXNXNXAXNXNXNX=X].cX: @ M g.s.y.y.t.s.h.t.y.y.y.9.9.r.#     . M y.Q 9.9.9.9.9.9.9.k.k.y.u.&.l yXAXAXAXNXNXrX%Xi.+.f.=X7XrX$Xq.d.%Xw.p.&Xe.&X[.&X&.[.w.p.f.f.d.-XrXNX[.p.eXu.-.Q +.i.h.u.$X$X*XNXvXvXAXSX*Xu.R 6 4 2 2 2 & O @ # & & k q.t.g.eXeXwX%X$Xu.r.q.k.9.Q y.E X . q ! T W Q Q Q Q 9.y.g.-Xq c O.#X7XtXSXVXvXtX7X-Xu.+.Q Q Q W ! L L L L v e e e x x x z w w w w 0 k k 0 1 1 1 2 & & $ @ @ @ $ $ $ $ & & & 2 2 1 3 3 0 0 0 0 w w w w r v v L L L r r r q 4 % % % % % $ $ $ # & - + y l j - y l {.Z B c.].8X2X@.@._ p.$Xu.>XX.d p *. Xv.z.%.( %.c.2X{.kXc.t x _ _ z , + X i @.N.^.^.E.W.!.H.W.W.W.W.H.H.H.H.H.H.H.H.H.H.H.A.S.L.U.U.A.U.U.U.",
"5X5X5X@X3X.XOXOXOX^.Y.Y.Y.Y.Y.Y.Y.Y.U.U.Y.Y.~.~.U.U.!.U.U.U.U.!.!.!.!.!.!.!.!.U.!.!.!.!.!.!.!.!.U.~.U.!.~.U.~.!.U.U.!.!.!.!.~.~.~.~.~.~.~.~.~.~.Q.Y.J.Y.R.XX@X>X%X$X$Xf.h.h.s.i.t.y.y.y.9.9.9.y.j.s.g.wXiXNXSXSXSXSXAXSXAXNXuXw.yXN # M d.h.t.y.s.g.h.t.y.9.y.9.y.+.#     . R 9.9.9.9.9.9.9.9.y.y.y.t.g.Z Z yXAXAXAXAXtXrX;Xt.+.$X%X-X=Xf.r.:X#Xw.-X#Xw.w.].7X7Xe.w.u.i.f.f.#X-XwXiX&Xw.f.t.+.Q r.h.>Xd.;X-XtXvXvXNXvXiXa.e 4 w 6 3 , + $ @ # O @ % r g.eXaXaXsXpXSXNXd.q.k.y.9.Q q.E o R ! ! Q Q ~ 9.9.q.u.w.2 m w.*XiXpXNXvXNXtXrX$Xu.r.-.Q ! D D D L D L L L L v e x x w z w w 0 0 0 0 0 1 1 1 2 1 2 % $ $ $ $ $ & % & & & & 1 1 1 9 0 0 0 0 0 0 w w w 0 w w w r r r L L L v v v c z 0 0 1 1 y l C Z &.{.'.N ; x.lXZ 8X2X8X8X1X2X%.b >Xf.p.f.L 7 o.o.%.z.%.@.] %.v.fX2XxX] V X.B # X + t @.K.U.U.U.U.E.W.!.W.W.W.W.W.H.H.H.H.U.U.H.H.S.H.U.S.S.S.U.U.A.U.U.I.",
"5X5X3X@X3X.XOXOXOX^.Y.Y.Y.Y.Y.Y.Y.Y.U.U.~.Y.~.~.U.U.!.U.U.U.U.!.!.!.!.!.!.!.!.!.!.!.!.!.!.!.!.!.U.~.U.!.~.U.~.!.U.U.U.U.Y.Y.~.~.~.~.~.~.~.~.~.~.~.~.Y.Y..XXXoX-X%X$X$Xf.f.g.s.t.t.-.y.y.y.y.t.t.t.s.eXaXpXSXAXAXAXAXNXNXNXNXuXw.6Xe.  : q.eXs.j.s.g.g.t.y.9.y.9.0.r.@     . Q 9.9.9.Q 9.0.9.k.t.y.t.u.%XM '.}.AXAXAXAXpXwX%Xy.-.;X=X#X:Xq.i.f.p.#X7X-Xp.#Xw.e.*XrXd.w.u.u.g.$X%X#X#XrX-Xq.r.y.~ Q t.;X%X$X=X*XvXvXNXNX7XO.4 e E X.*.B k X #   = @ $ 9 m w.d.d.d.*XSXJXSX%Xy.9.9.Q Q Q ! W W Q Q Q Q 9.y.+.c * C #XuXpXpXvXNXNXpXiX=Xu.Q ! D D e D U ! E L R L D e e e w w w w 0 w 0 0 0 0 0 1 1 3 1 1 1 1 2 & & 2 2 % % & & & % % 2 2 2 1 1 1 1 3 0 w w w w w w w w r r r D D D r r w w 3 3 2 , f @.].{.9XhXBXx.C {.fX@.fX2X9X{.{.{.z.s *.>X>X+.U ;.i.o.@.%.%.z.,._ %.2X1X@.f _ i + # l @.c.Y.^.U.U.U.Y.!.!.!.H.W.W.W.W.H.H.H.H.U.U.H.H.S.H.U.S.S.S.U.U.G.I.I.I.",
"5X5X3X@X3X.XOXOXOX^.Y.Y.Y.Y.Y.Y.~.Y.U.U.Y.Y.Y.Y.U.U.~.U.U.U.U.U.!.!.!.!.!.!.!.!.!.!.!.!.!.!.U.U.U.~.U.!.~.U.~.!.U.Y.Y.Y.Y.Y.Y.Y.Y.Y.~.~.~.~.~.~.Q.~.Y.XXXXXX-X7X-X%X$X$Xf.f.f.i.y.-.-.-.y.t.j.s.s.s.g.eXrXtXNXNXVXVXNXNXNXNXaX[.e.yX> # m eXg.s.g.g.g.t.t.9.9.9.9.t.9 .   . +.9.0.y.Q 9.j.9.t.s.t.s.g.d.l }.6XAXVXAXAXtX=X%X+.r.>X#X=X$Xr.s.$Xd.*X=X-X$Xp.u.q.p.d.%X=X$Xu.u.g.%Xg.d.d.%Xf.q.y.y.~ -.w.uX-X=XrXrXtXtXNX&Xc x o.W +.-XoX&.j j : . X O $ c O.q.u.y.y.u.wXuXeXt.9.9.Q Q Q Q Q ~ Q Q Q Q +.r 4 q *.*XiXpXtXpXNXNXiX-Xw.E L r D R R ! ! W E L L L D e e e w w w 0 0 0 0 0 0 0 0 0 1 1 1 2 2 2 1 1 2 2 2 % % % & & $ $ $ % % % 2 2 2 1 0 0 0 0 w e e r r r v r r r r r r r w 0 3 2 % + u B x.x.bXBX{.@.v.8Xc.@.fX{.{.}.hX|.8Xx.u %.%.7 ;.;.;.W G ( b.M.>.) G ( V i Z N ; i B c.R.T.C.U.S.H.U.U.U.U.U.U.H.H.H.H.H.H.H.H.U.U.U.H.S.H.U.S.S.S.U.U.U.I.I.U.",
"5X5X3X@X3X.XOXOXOX^.Y.Y.T.Y.Y.Y.Y.Y.U.U.Y.Y.Y.~.U.U.!.U.U.U.U.U.!.!.!.!.!.!.!.!.!.!.!.!.!.!.U.!.U.~.U.!.~.U.~.!.U.Y.Y.Y.Y.Y.Y.Y.Y.Y.~.~.~.~.~.~.~.~.Y.XXXXXXoX&X-X-X%X$Xf.f.s.t.y.-.Q y.t.s.h.s.s.h.h.%XaXpXNXNXNXVXNXNXSXNXSX7XO.7XZ . q d.eXg.g.g.g.t.t.9.9.9.9.t.c . . # q.9.y.y.Q y.k.k.t.s.s.g.wXe.M 9XyXVXVXVXNXrXeXu.+.i.f.#X:Xp.i.f.$X-X7X*X#Xw.p.w.u.u.p.p.w.w.g.s.u.u.h.f.s.s.d.h.y.~ ~ ~ +.$XuX-XrX7XrXpXNX&.k *.! +.+.oXw.C C e.e.Z l . . X q O.q.u.j.t.w.q.q.y.9.~ Q Q Q Q Q Q W ! R r q q O.-XiXiXtXvXtXpX6X].w.+.W +.;.+.+.W ! ! ! U U U L D e D L v e w w 0 0 0 w 0 0 0 0 0 1 9 2 2 2 % % % % % % % % % $ $ $ $ $ % & % 2 2 2 2 2 1 1 3 w e L L v v v v r r r r r r c w 0 9 2 2 y y f C 9Xc.@._ {.1Xx.c.@.fXgXgXhXhXhXFX@.p a F =.;.;.E ) ) ) ` $.] g p B &.N O n %.A.U.U.Y.U.!.U.U.G.G.I.U.U.U.H.H.H.H.H.H.H.H.U.U.H.H.S.H.U.S.S.S.U.U.U.G.I.Y.",
"5X5X5X@X3XOXOXOXOX^.~.Y.^.Y.Y.Y.Y.Y.Y.Y.Y.Y.Y.Y.~.U.!.U.!.!.!.!.!.!.!.!.!.!.!.!.!.!.!.!.Y.!.!.!.U.U.!.!.~.U.~.!.U.Y.Y.U.Y.Y.Y.Y.Y.Y.~.Y.Y.Y.Y.~.~.~.XXXXXXXXoX7X=X-X$X$Xf.s.i.t.y.y.i.u.u.s.s.s.s.s.s.s.g.eXaXpXNXAXAXAXAXAXAXNXp.q.}.  X e.eXg.g.g.g.g.t.y.9.0.9.j.E X . M y.9.t.9.y.t.9.t.s.g.g.g.tX@ '.cXyXNXVXAXpX-X%Xq.+.i.f.$Xd.$X-X=X7XrXtX6X&X-X7X7X:X#Xu.f.f.u.q.r.i.i.r.h.h.i.r.i.h.y.~ ~ y.+.:X=X=XrX7X7X7Xc &.v W ;.+.w.].C *.oX*.w.w.&.l X . . . 9 m q.d.g.g.s.r.r.r.q.q.q.O.R w q 4 w O.-XuXpXvXtXpXtXtXtXrXuXaXi.r.+.Q ! ! ! W ! D L L D e e r e e e x c w w z z z z z z k k 9 1 2 2 2 2 2 % % % $ $ $ $ $ @ @ * $ $ $ * * $ % & 2 2 2 1 3 0 w 6 w e x x x c r r w w w 0 z 0 0 1 2 , s B ( _ X.X.fXx.gX2XB @.&.].bXbXbXlXz._ ` ' P U v L 6.o._ _ f f i y i + i @.F.G.U.U.!.!.U.H.U.U.H.H.H.H.H.H.H.H.H.H.H.H.H.H.U.S.U.H.!.H.S.A.S.L.U.U.U.U.U.I.",
"5X5X5X@X3XOXOXOXOX^.Y.Y.~.Y.Y.Y.Y.Y.Y.Y.Y.Y.Y.Y.~.U.!.U.U.!.!.!.Y.Y.Y.Y.Y.Y.Y.Y.!.!.!.!.!.!.!.!.U.U.!.!.~.U.~.!.U.Y.Y.U.Y.Y.Y.Y.Y.Y.~.~.Y.Y.Y.Y.Y.Y.Y.XXJ.XX<X-X=X%X$X$Xf.i.t.y.;.r.f.eX;Xh.h.h.s.s.j.j.s.h.eXuXpXNXNXNXAXAXZXSX:Xq.].Z . M eXwXg.g.g.g.t.y.9.9.9.t.+.X . O.y.9.t.y.t.k.t.j.s.;X%XaXZ M CX&X6XAXVXNX*X%Xs.+.+.s.>X$X:X=XuXrXrXtXyX6X6X7XrX6X&X#Xp.r.r.r.y.r.r.t.t.t.s.i.r.+.s.y.~ y.~ Q +.eX#X=X7XuXO.X.X.L E ;.+.+.-X&.w.w.u.q.q.#X7X[.&.Z C N 9 * * 2 q m m v r r q q c q w m *.=XaXrXtXtXvXvXvXpXpXpXuXu.Q ! ! ! ! ! D D D D D L R L D e e e e w w w 0 3 3 3 0 3 3 3 3 3 2 2 2 2 2 2 % % $ * @ @ @ @ @ $ $ $ $ * * * X @ $ $ + $ % 2 2 2 3 w x v x w w w w q 0 0 0 0 0 0 0 3 1 2 < s d P ( *.2X'.x.B X.b b @.9X'.{.c.b #.` ( ] f s x X.X.< y i y O ; y B N.G.S.S.H.U.!.!.H.H.U.U.U.U.H.H.H.H.H.H.H.H.H.H.H.H.U.S.U.H.!.H.S.A.S.L.U.U.U.U.U.I.",
"5X5X5X@X3XOX.XOXOX^.Y.Y.~.Y.Y.Y.Y.Y.Y.Y.Y.Y.Y.Y.~.U.!.U.U.!.!.!.Y.Y.Y.Y.Y.Y.Y.Y.!.!.!.!.!.!.!.!.U.U.U.!.~.U.~.U.U.Y.Y.U.Y.Y.Y.Y.Y.Y.Y.Y.Y.Y.XXY.XXXXXXXXXX@X-X7X=X-X$X$Xf.i.t.y.y.y.t.s.g.h.h.s.j.t.t.t.s.h.eXuXpXNXNXNXNXAXAXAXpXw.O.[.l . O.eXeXg.g.g.s.t.0.9.9.t.y.4 X q.k.9.t.y.t.k.j.g.g.wXwXd.j 9XqXoX6XAXNXrXd.g.t.q.i.>X%X:X:X:XuXuXrX7XrXtXpXpX7X#X*X7X$Xf.i.u.u.q.q.q.t.t.r.t.i.r.t.t.~ y.Q Q +.i.a.q.#X&XC O.L T T +.;.+.p.w.w.#Xq.$X#Xw.w.-X7XiX*Xe.e.e.&.O.M q q c v R r r r E q.=XpXpXpXpXNXvXvXnXNXpX:Xd.+.! ! ! ! T D D D r D ! W E L r e w w r r w w w w w 0 0 3 3 3 3 3 2 4 4 3 0 j 2 & & $ @ @ @ * * $ $ $ $ % % % % % % & & $ % % 2 2 2 2 4 4 3 w 0 0 q q w w w w w w w 0 0 1 2 % u X.@.n ].c.c.@.%.%._ ) P ( _ U U 7 P V %.z.z.%.B f + ; : : O y B %.D.B.S.S.U.U.U.!.!.U.U.U.U.U.U.H.H.H.H.U.U.H.H.H.U.U.H.U.S.!.H.!.U.S.A.S.U.U.U.U.U.U.I.",
"5X5X5X3X3X.X.XOXOX^.Y.Y.~.Y.Y.Y.Y.Y.Y.Y.Y.Y.Y.Y.~.U.!.U.U.U.!.!.Y.Y.Y.Y.Y.Y.Y.Y.!.!.!.!.!.!.!.!.U.U.U.U.~.U.~.U.U.Y.Y.U.Y.Y.Y.Y.Y.Y.Y.Y.Y.Y.XXXXXXXXXX@X@XoX-X=X=X-X$Xf.s.i.y.-.Q +.r.q.u.s.i.t.t.y.y.y.y.t.s.g.eXiXpXNXNXAXAXAXNXtXw.*.].& . &.aXg.g.g.g.t.y.0.0.0.t.Q q q.9.k.t.k.k.t.s.g.%XwXwXM ].&X X XcXNXNXd.i.t.y.r.i.;X=X=X=X=XuX7X=X=XtXtXtXrX%X#X7X*Xp.u.u.u.u.u.s.s.t.y.r.t.r.r.r.t.y.~ -.! Q Q -.E +.m R L T T Q ;.;.+.a.p.+.%Xw.w.wXwXwX=Xw.#X#Xw.&.&.&.&.&.O.O.O.O.R X.+.p.aXaXpXpXvXvXvXvXvXyXrXw.q.+.+.E W W ! ! W ! W W Q +.Q R D r r r r L L v e w r w w w w w w w 0 3 0 w z w 3 % 2 y & $ * $ $ $ $ $ $ $ $ $ % $ + + * * * % % % % 2 2 1 1 3 3 3 0 w w z z w w e e w w 3 3 2 2 $ y %._ C {.c.%.z.$.<.#.I I ) I ;.;.+.6 _ c.z.K.).@.; = ; ; O N @.%.D./.U.U.S.U.U.!.!.U.U.U.H.H.H.U.H.H.H.H.U.U.H.H.H.U.U.H.U.S.!.H.!.H.S.A.S.U.U.U.U.U.U.I.",
"5X5X5X3X3XOX+XOXOX^.Y.Y.~.~.Y.Y.Y.Y.Y.Y.Y.Y.Y.Y.!.!.!.U.U.U.!.U.Y.Y.Y.Y.Y.Y.Y.Y.!.Y.Y.Y.!.!.!.!.U.U.!.~.~.U.~.!.Y.Y.Y.Y.Y.Y.Y.Y.Y.Y.~.~..X.X.XXXXXXXXXoXoX$X-X-X%X$X$Xf.s.t.y.y.t.h.eX%Xg.u.j.j.j.j.t.t.t.t.t.t.s.f.uXpXNXnXAXVXvXNX=X+.q.w.= . O.uX%Xg.g.s.t.y.9.0.y.y.9.y.y.j.t.t.s.s.g.%X%XwX&.&.qX].}.cXVXNX-Xw.s.t.y.t.$X=X=XrX=X=XuXrX7XrXtXtXpX*X#X*X7X*X$X:X%X$Xf.d.d.u.i.r.y.y.r.-.r.y.-.-.-.T Q Q W W o.D W T T W Q -.^ +.+.$X+.p.=X#X[.uXuXrXrXaXuXrX7X&X[.w.w.w.&.*.#X-XaXsXNXpXpXtXyXmXvXvXvXtX*Xw.q.q.+.+.+.+.Q Q Q +.+.+.+.+.R R ! D D D L R R v e e r w w e w w w w 3 3 w w e w 3 w v m k % & $ + $ $ $ $ $ $ $ $ $ % % % % 2 2 2 2 2 2 1 1 1 1 3 3 0 0 w w w 0 0 0 0 0 3 3 4 4 2 % 2 n ( u Z x.%._ %.N.<.<.' I I U ;.;.;.P @.).z.K.x.l O = + u @.%.<.C.!.U.U.U.U.H.U.U.U.U.H.H.H.H.H.H.H.H.H.H.H.U.H.H.H.U.U.H.S.U.U.S.U.H.S.A.U.U.U.U.U.U.Y.Y.",
"5X5X5X3X3XOX+XOXOX^.Y.Y.~.~.Y.U.Y.Y.Y.Y.Y.Y.Y.Y.!.!.!.U.U.U.!.U.Y.Y.Y.Y.Y.Y.Y.Y.!.!.Y.Y.!.!.!.!.U.U.!.~.~.U.~.!.Y.Y.Y.Y.Y.Y.Y.Y.Y.Y.~.~..X.XT.XX.XXX@X@X@X>X-X#Xd.f.f.f.i.t.r.r.i.g.%XwXeXeXs.y.9.y.y.y.t.j.j.y.t.t.u.$XiXNXAXAXvXNXNX-XO.*.&.@ . M %XeXg.g.s.y.y.9.9.9.y.y.t.j.t.s.s.g.wX%X#XO.m *.*.&XcXvXyXpXp.q.i.y.t.f.%X=XwX=XwXrXrX7XrXuXtXtXrX=X-X*X=X-X#X=X=X-X#Xd.d.u.t.-.y.y.-.-.-.r.-.-.;.! ! W ! W U U W T T ! +.-.Q ^ +.u.a.+.=X=X=X=XiXaXrXrXrXpXSXSXSXSXSXSXSXSXSXNXpXtXpXpXpXNXNXSXNXtXrX#Xw.u.r.r.r.r.-.Q Q r.r.r.r.r.Q ! ! Q ! ! D ! R L R r r e r e e w w w w 6 w w w w e L E R w 4 o 2 2 $ + @ @ @ $ $ $ + + $ + % % 2 2 2 2 2 2 2 2 2 2 2 2 2 2 4 4 3 3 3 0 0 0 0 0 0 3 3 1 2 3 n z u ].9X@.o._ %.%.#.' o.` U o.o.X.u , z.(.z.i + ; i B @.<.C.!.^.U.U.I.I.U.U.U.U.U.U.H.H.H.H.H.H.H.H.H.H.U.U.H.H.H.U.U.H.S.U.U.S.U.S.S.A.U.U.U.U.U.U.U.Y.",
"5X5X5X3X3XOXOXOXOX^.Y.Y.~.~.Y.U.Y.Y.Y.Y.Y.Y.Y.Y.!.!.U.U.U.U.!.!.Y.Y.Y.Y.Y.Y.Y.Y.!.!.!.!.!.!.!.!.U.U.!.~.!.U.~.!.Y.Y.Y.Y.Y.Y.Y.Y.Y.Y.~.~.T.T.T.XXXXXXXXoXa.$X$X%X%Xf.f.f.s.i.q.r.g.g.%X$X$X%XeXg.y.9.~ 9.9.9.9.9.t.j.t.i.d.=XNXAXnXnXvXSX=X*.+.E 4 X 9 e.wXeXg.t.y.9.9.9.0.t.y.s.s.s.g.wXwXe.M m w.*.w.#XtX6Xd.g.q.q.i.r.d.;X=X=X=XwXuXrXrXrXrXtXrXrX=X*X=X*X*X#X-X=X-X-X-X-Xd.d.r.-.y.y.-.+.+.-.-.~ -.W T W W T D E W ! R +.+.p.W ;.+.r.f.p.e.uX=XuXaXNXpXpXpXtXpXNXAXSXVXNXpXtXtXtXpXNXsXaXuXuX;Xf.r.r.r.+.+.-.+.Q Q Q ! ! ! Q +.Q W ! ! Q Q ! ! ! ! ! ! R r r r D e w w e e e w w r e L L L L L e r v R z % % $ $ $ $ $ $ $ + % 2 2 2 % % % % 2 2 2 2 2 2 2 2 1 3 3 3 3 3 6 6 w w w w w w w w 0 0 3 1 + &.BXB @.G.` o.%.o.#.<.%.B l - O     ; j O y f _ #.#.C.!.~.!.U.U.U.U.U.U.U.U.U.U.U.U.U.H.H.H.H.H.H.H.H.U.H.H.H.H.U.U.H.S.U.U.S.U.S.S.A.L.U.U.U.U.U.U.Y.",
"5X5X5X3X3XOX+XOXOX^.Y.Y.~.Y.Y.U.Y.Y.Y.Y.Y.Y.Y.Y.Y.!.!.U.U.U.!.!.Y.Y.Y.Y.Y.Y.Y.Y.~.~.!.!.!.!.!.!.U.U.!.~.~.U.~.!.Y.Y.Y.Y.Y.Y.Y.Y.Y.Y.~.~.T..XT.XXXXXX@X@X>X>X%X%Xf.g.f.f.i.i.h.h.h.%XeX:X%X$Xd.g.s.t.9.9.9.9.9.9.9.9.t.j.eX;X-XrXvXVXvXvXCX=Xu.q.O.q X X q O.d.g.h.s.s.t.t.t.g.g.g.wX%Xq.M M O.%X>Xr.u.w.7Xw.q.i.Q y.i.u.$X=X*X=X=XwXwXuXuXrXrXrXrXwX*XrXrX-X%X#X=X&X#X7X7X#Xd.p.r.-.r.y.-.+.Q +.Q Q ~ W ! E W U E L W ! E w.oX#XW -.-.+.r.d.#X&XiX*XrXrXNXNXSXSXNXNXNXNXNXpXpXaXrXuXwX-Xu.q.+.+.+.Q Q Q ~ ~ ~ Q Q Q Q Q ~ y.y.-.Q Q Q -.+.Q ! ! W +.-.+.W D L R W E L L r e e e r R L L L L R E +.+.+.+.R 0 0 k y 2 % & % $ $ % 2 2 2 2 % % % % 2 2 2 2 2 2 2 2 2 3 3 3 6 w w x x c c c r c c c 0 3 3 * Z VXC u %.<.<.J._ d %.N.X.+     >   = = O l @.o.<.E.W.S.!.!.H.!.H.J.H.H.!.U.U.U.U.U.U.U.H.H.H.H.H.H.H.H.H.H.H.H.H.U.U.H.S.U.U.S.U.S.S.A.U.U.U.U.U.U.U.Y.",
"5X5X5X3X3XOX+XOXOXOXT.Y.Y.Y.Y.Y.Y.Y.Y.Y.U.~.Y.U.Y.U.Y.U.U.U.Y.U.!.!.!.!.Y.!.!.Y.!.U.U.U.U.U.U.!.U.U.U.!.!.U.~.U.U.Y.Y.Y.Y.Y.Y.Y.T.T.T.T.T..X.XXX.X@X<X5XqX=X=X%Xf.g.f.s.r.r.-.y.t.i.s.g.;X;X%Xg.g.i.y.~ ~ ~ ~ ~ ~ ~ 9.~ t.;XeXeXuXNXNXNXNXNXiX#Xp.r.E 6 4 X o q m O.+.q.w.w.w.q.O.E r c q.%XeX:Xs.+.-.r.f.q.r.t.+.i.i.f.#X-X=X=X=XrXiXiXuXrXrXrXrX7X7XrX=X%X%X=X=X-X-XuX=X#Xp.u.r.+.-.-.r.+.+.W Q W Q W R D W E L D W ! Q +.7X#X+.W -.+.r.i.$X=X7X7XuXuX=XtXNXSXNXpXaXwXf.s.i.t.r.r.r.Q ~ Q Q Q Q Q Q y.y.y.~ Q ~ ~ ~ -.y.-.~ Q ~ ~ Q ! ! ! Q +.r.r.+.! R ! Q +.W W R r w r ! ! ! ! r E W +.+.+.+.E R r v m m m n z 1 2 % % * * % % % + + & 2 2 2 2 2 2 3 3 k k c v v R E R v v x r w w w w w w w w 1 C VXC 2 s o.N.<.%.o.X.B B & O = : = & i n X.%.N.A.!.!.!.!.!.U.H.!.U.U.U.U.!.!.U.U.U.H.S.S.S.U.U.S.H.H.S.H.U.U.U.U.U.U.U.U.H.H.H.H.U.H.H.S.S.U.U.U.U.I.Y.Y.",
"5X5X5X3X3XOX+XOXOXOXT.Y.Y.Y.Y.Y.Y.Y.Y.Y.U.~.Y.U.Y.U.Y.U.U.U.Y.U.!.!.!.!.Y.!.!.Y.!.U.U.U.!.U.!.!.U.U.U.!.!.U.~.U.U.Y.Y.Y.Y.Y.Y.Y.T.T.T.T.T.T..X.XXXXX3X<X<X=X=X%X;Xh.f.h.s.i.y.y.t.s.s.s.g.h.;X;Xh.h.h.j.y.9.~ ~ ~ ~ ~ y.-.Q r.>XeXuXaXNXNXNXNXNXuX>Xf.a.+.E v w w q q q M c q M M O.d.uXaXeXwX:Xi.-.-.y.t.Q y.-.r.i.i.f.=X=X%X:X=XrXrXrXuXrXrXrXrX7XtXrX-X%X=X=X=X#X=X=X#Xw.p.u.r.+.-.-.-.+.+.W W W ! +.L D E W e R L ! W ! =Xw.+.W -.t.+.s.+.=X*XiX=XeXuX=X-X=X=X%X%Xg.s.j.t.t.y.9.~ ~ ~ y.y.-.Q Q Q Q Q W Q ~ -.~ ~ ~ ~ Q ~ ~ Q ! T ! W -.y.-.Q ! ! ! Q Q Q ! ! D r ! Q +.W W Q Q +.+.+.+.+.! R r R +.+.*.*.E 3 3 1 2 2 2 % % % % % % % 2 2 2 1 3 3 3 3 3 3 0 w w w r w w e e w w w w w w w w z k l MXZ @ 3 < g %.%.%.X.n + + & # @ & l B %.F.Y.!.^.^.U.U.U.U.!.U.U.U.U.U.U.U.!.U.U.H.H.H.S.S.U.S.S.U.H.H.S.S.U.U.U.U.U.U.U.U.H.H.H.H.H.H.S.S.S.U.U.U.U.I.Y.Y.",
"5X5X5X3X3XOX+XOXOXOXY.Y.Y.Y.Y.Y.Y.Y.Y.Y.U.~.~.U.Y.U.Y.U.U.U.Y.U.!.!.!.!.U.!.!.U.!.U.U.U.!.!.!.U.U.U.!.!.!.U.~.U.U.Y.Y.Y.Y.Y.Y.Y.Y.Y.T.T.Y.Y.Y.XXXXXXXXoXoX-X%X%Xh.s.s.s.i.i.i.f.d.d.g.s.s.s.s.t.j.t.s.s.s.y.9.9.9.y.9.Q y.y.-.-.y.s.f.wXrXtXvXcXpXpXrX=X:X%Xd.u.u.w.u.q.q.w.d.%XuXpXpXpXrXrXuX%Xs.y.y.y.y.Q -.Q i.i.a.$X=X-X$X:XuXuXuXrXrXrX7X7X7X7XrX7X-X%X=X=X#X#X%X#Xd.d.r.r.-.+.+.+.-.Q +.! W W ! Q ! e L E v e L L W W +.+.r.+.Q t.r.r.f.*.:X-X=Xp.g.h.h.t.r.q.Q Q 9.~ ~ ~ ~ ~ ~ ~ ~ ~ Q -.-.y.y.-.~ ~ ~ ~ ~ ~ y.y.~ ~ ~ Q W W Q -.y.-.Q ! ! W Q Q Q Q Q ! ! D Q y.Q Q Q Q Q Q ! W Q Q ! ! E q.u.w.p.p.m o 2 % % 2 2 & % % % $ $ % + + % % 2 2 2 2 3 6 6 6 w w w e w e e e e e r r r r e r c l 9XZ o n X.X.X.B n - @ # & $ 2 u B %.I.3X.XT.Y.S.!.S.U.U.U.U.U.!.!.U.!.!.U.U.!.!.H.S.H.H.H.S.U.S.S.U.H.H.S.S.U.U.U.U.U.U.Y.U.U.U.H.S.H.S.S.S.S.L.U.U.U.I.I.I.",
"5X5X5X3X3XOX+XOXOXOXY.Y.T.Y.Y.Y.Y.Y.Y.Y.U.~.~.U.Y.U.Y.U.U.U.Y.U.!.!.!.!.U.!.!.U.!.U.U.U.U.!.U.U.U.U.!.!.!.U.~.U.U.Y.Y.Y.Y.Y.Y.Y.Y.Y.Y.T.Y.Y.Y.XXXXXXXXoXoX$X$X%Xs.s.t.q.Q +.+.u.;XeXeXg.s.s.s.t.t.y.y.r.t.t.9.9.~ ~ 9.y.y.y.y.-.y.y.t.s.%XiXpXvXyXyXNXNXpXaXeXeX:X:X:XeXeXaXaXaXsXpXNXNXtXpXtXeXt.y.~ y.~ -.Q W i.f.p.%X%Xp.$X:XuXuXrXrXrXrX=X=X=XrXrX*X=X-X-X=X%X-X#Xw.d.p.r.r.-.Q Q Q -.+.W W ! W L W E e e E L 6 e L ! -.W +.+.r.Q t.i.+.d.d.w.=XeX%Xq.q.y.j.j.t.t.t.t.t.y.-.y.y.y.;.;.Q Q +.Q +.-.~ ~ ~ y.y.9.9.~ Q Q ! Q ~ -.t.t.-.Q ! Q ~ y.y.9.Q Q Q ! D ! -.Q Q Q ! Q W W Q ! ! ! ! Q q.w.w.d.eXw.M M O.O.m 9 2 % % % $ $ $ $ $ % % % % % 2 2 2 2 3 3 3 3 0 w e v v L L L D L r r r v c l 9XZ & X.O.C n k & & j - @ l C %.F..XU.U.U.I.I.H.S.S.S.U.U.U.U.U.!.!.H.!.!.!.U.!.U.H.S.H.H.H.H.S.U.U.S.H.H.S.S.U.U.U.U.U.U.Y.U.U.H.S.A.S.S.S.S.S.L.U.U.U.I.I.U.",
"@X5X5X3X3X+X+XOXOX^.Y.Y.T.Y.Y.Y.U.~.~.U.Y.Y.Y.Y.Y.U.U.U.U.Y.Y.U.^.^.Y.Y.Y.Y.!.!.U.!.U.U.!.U.~.U.U.U.U.!.~.!.!.!.Y.Y.Y.Y.Y.Y.Y.Y.Y.Y.T.T..X.XXXXX.X.XoX:X:X:X;Xf.s.t.r.r.q.q.+.+.r.u.eXeX%Xd.s.j.j.j.y.y.9.9.0.0.9.~ ~ ~ ~ y.y.Q ~ ~ ~ y.t.d.%XrXtXpXtXtXpXpXuXpXpXpXpXpXNXNXNXNXNXNXNXNXNXNXtX-Xr.y.~ ~ Q -.W Q s.d.f.:X:Xp.$X:XuXuXrXwXrX7X=X*X*X7X7X*X=X-X=X-X#X#X#X=X$Xd.u.r.Q Q Q Q Q W ! ! ! W L ! E e e U e e e W D W -.+.+.Q -.-.i.u.q.:Xp.#X=XwXaX=Xd.q.r.r.r.r.Q Q Q ~ ~ ~ ~ ~ -.r.r.u.t.t.i.j.j.t.-.~ Q Q ~ y.t.t.j.h.i.y.Q Q ~ y.y.y.y.y.Q Q D D ! Q y.Q Q Q ! Q Q Q Q Q Q +.+.w.d.wXsXsXrXe.O.O.&.O.c k k 2 2 2 2 2 & & $ $ $ $ $ $ $ $ $ * * 2 2 3 3 w w r e r r r D r r r v x x c ].Z M O.l 9 @ @ & & j y B @.F.Y.Y.Y.U.L.U.U.U.U.U.U.U.U.U.U.U.U.U.U.U.U.U.U.U.U.S.H.!.H.A.H.S.U.H.H.H.H.H.H.H.S.U.U.U.U.U.U.U.U.U.U.H.H.S.S.S.S.S.U.U.U.U.I.Y.U.",
"5X5X5X3X3X.XOXOXOX^.Y.Y.T.Y.Y.Y.U.~.Y.U.Y.Y.Y.Y.Y.U.U.U.U.Y.Y.U.^.^.Y.Y.Y.Y.!.!.U.U.U.U.!.U.~.U.U.U.U.!.~.!.!.!.Y.Y.Y.Y.Y.Y.Y.Y.Y.Y.T..X.X.X.XXXXXXX@X>X$X$Xf.f.h.i.i.s.s.s.s.h.h.f.%X=XuXeXf.u.t.y.y.y.9.~ ~ ~ 0.y.~ ~ ~ ~ ~ ~ ~ ^ ^ ~ y.t.s.g.=XrXuXrXuXpXpXpXpXtXvXNXNXAXNXAXNXNXAXVXVXNXrX=Xy.y.-.Q -.Q ! -.i.d.$X=X%Xp.$X:XuXuXwXwXrXrX=X=X=X7X7X*X=X-X=X-X=X=X=X#X-Xp.a.-.+.Q Q Q Q W ! ! ! ! U L L e D e e L D E W D Q -.-.-.Q r.i.d.w.=XuX#X#Xd.d.#X%Xg.g.s.g.s.h.s.i.y.~ ~ ~ Q Q r.r.q.+.+.Q Q ~ Q ~ ~ ~ y.y.y.y.y.k.Q Q ! Q y.y.y.9.~ Q ! ! ! Q y.y.Q Q ! Q Q 9.9.~ Q Q +.q.r.d.g.%X=X[.&.C O.e.w.w.O.c z c z 0 1 2 2 & & $ $ $ $ $ $ $ $ $ % % % 2 2 4 3 0 0 w w w e r r r r v c v *.&.C M 2 & & # # @ $ l X.F.N.<.D.S.L.L.L.U.U.U.U.U.U.U.U.U.U.U.U.U.U.U.U.U.U.U.U.U.A.H.U.S.U.S.U.H.H.H.H.H.H.H.S.H.U.U.U.U.U.Y.U.U.U.H.H.S.S.S.S.S.S.U.U.U.I.Y.U.",
"5X5X5X3X3X+X.XOXOX^.Y.Y.~.Y.Y.Y.U.~.~.U.Y.Y.Y.Y.Y.U.U.U.U.Y.Y.U.^.!.!.Y.Y.Y.Y.!.U.!.U.U.!.U.~.U.U.U.U.!.~.~.!.!.Y.Y.Y.Y.Y.Y.Y.Y.Y.Y.Y..X.X.X.XXXXX@XoXf.f.f.%X%Xf.f.i.y.Q -.r.g.%XwX=X=XwXuXaX=Xd.f.t.-.~ ~ ~ ~ ~ ~ y.0.~ ~ ~ ~ ~ ~ ~ ^ ~ ~ y.t.i.i.s.h.;X%X%XwXiXNXSXAXNXNXAXnXAXnXVXvXNXpXwXg.y.y.t.Q Q Q ! r.u.f.%X-X$Xd.p.:XeXwXwXwX=XwX=X=XrX7X*X*X=X=X=X=X7X=X*X-X-X$X+.;.-.Q Q Q W ! T ! U U D L L v L D v q.+.E E Q T ~ +.+.r.Q r.f.%X#XtXtX*Xd.g.g.u.u.u.t.s.f.r.q.+.-.~ ~ ~ ~ ~ t.i.t.t.i.t.j.t.-.-.~ Q Q k.k.y.y.y.9.y.y.t.t.y.y.Q ! ! Q y.y.y.Q ! ! Q 9.9.9.9.Q Q r.r.u.s.s.u.u.q.O.O.e.rXuX%Xq.Q E Q E R v c c q 9 & & $ $ $ $ $ $ $ $ % % % % % 2 4 2 4 2 3 0 w w r r c v c C *.&.C j 2 % % & # # l C @.@.X.o.<.D.C.C.L.U.L.L.U.U.L.L.U.U.U.U.U.U.U.U.U.U.U.U.U.U.U.A.H.H.H.U.S.S.S.H.H.S.H.H.H.H.U.U.U.U.U.U.U.U.U.H.H.H.S.S.S.S.S.S.H.U.U.I.Y.U.",
"5X5X5X3X3X+X.XOXOX^.Y.Y.~.Y.Y.Y.U.~.~.U.Y.Y.Y.Y.Y.U.U.U.U.Y.Y.U.!.!.!.Y.Y.Y.!.!.!.!.U.U.!.U.~.U.U.U.U.!.!.~.!.!.Y.Y.Y.Y.Y.Y.Y.Y.Y.Y.T.T..X.XXXXXXX@XoX$X$X:X:X%X%Xu.-.;.Q y.i.%XwXrXwXwXwXrXtXNXuX$Xf.s.y.~ ~ ~ ~ ~ ~ ~ 0.~ ~ ~ ~ ~ ~ ~ ^ ^ Q ~ ~ ~ ~ y.y.t.h.;X=XwXuXiXNXNXNXNXvXvXNXNXpXwXg.s.y.y.s.Q Q ! +.f.r.f.%X-X%Xd.p.:XwXwX=X=X=XwX=X=XwX=X*X*X7X=X=X=XrX7X=X#X=Xp.+.+.-.Q Q Q ! T T L L U D L e r D L E f.+.Q o.! ^ W -.r.r.u.! i.$X=XrXpXrXd.g.s.s.u.q.q.r.i.i.r.+.Q W W W W W Q Q Q Q Q Q W Q -.-.y.t.t.s.s.t.t.t.t.t.y.k.Q Q Q Q r.y.y.Q Q ! ! Q y.y.9.9.Q Q Q ~ t.s.g.u.q.q.+.q.%XaXaX=Xw.O.O.! R R R R m M M c k $ $ $ $ $ $ @ $ $ + + + * + % % 2 2 2 3 0 0 w c w r c c O.*.C j 2 1 2 1 2 2 - j n s b b o.6.A.A.S.L.G.G.L.G.L.L.L.L.U.U.U.U.U.U.U.U.U.U.U.U.U.U.U.H.U.A.U.U.A.S.S.S.S.S.H.H.H.H.U.U.U.U.U.U.U.U.U.H.H.H.S.S.S.S.C.A.S.H.U.I.Y.U.",
"5X5X5X3X3X.XOXOXOX^.T.Y.T.Y.Y.Y.U.~.Y.U.Y.Y.Y.Y.Y.Y.Y.U.U.Y.Y.Y.Y.Y.Y.Y.U.U.U.Y.!.!.U.U.U.U.U.U.U.U.U.!.U.U.U.U.Y.Y.Y.Y.Y.Y.Y.Y.Y.Y.T.T.XXY.T.XX+X.XoX$X=XuX:X%Xf.r.;.W Q +.q.w.#X*XwXwXwXrXtXtXtXiX%Xi.j.y.~ ~ ~ ~ ~ ~ ~ ~ ~ ~ ~ ~ ~ ~ ^ ~ ^ ~ ~ ~ y.0.y.y.y.Q +.r.u.f.%X%X=XrXtXtXiXiXwX%Xs.t.9.t.t.Q ! W q.p.u.i.%X-X=Xd.p.$X=XrX=X=X=X=X=XrXrX=X*X7XrX=X*X=XrXrX=X#X#Xp.r.+.+.Q W ^ W ! ! L D E D v 6 L U U L +.+.+.+.+.Q W W y.i.i.r.+.f.=XtXtXtX*X%X$X;Xg.t.y.r.t.r.i.s.i.h.i.y.-.~ Q Q ~ Q -.-.y.y.y.y.y.r.r.y.y.t.t.y.+.Q q.q.u.s.u.r.y.q.q.Q Q y.t.y.9.~ Q Q Q k.y.t.t.y.+.q.q.d.%X%X-Xp.w.q.E E E E O.O.E m M q q 9 * * * $ $ $ # # # @ $ $ $ $ % % % 2 2 1 9 0 0 0 z c z m O.O.z 3 2 4 2 2 2 2 2 & 2 n _ *.6.H.H.S.S.S.S.H.A.A.A.A.A.U.U.U.U.U.U.U.U.U.U.U.U.U.U.U.Y.!.U.!.U.U.H.S.H.U.S.U.H.A.A.S.H.U.U.U.U.U.U.U.U.U.H.U.U.H.H.H.S.A.S.L.U.U.U.Y.I.",
"5X5X5X3X3X.XOXOXOX^.T.Y.T.Y.Y.Y.U.~.Y.U.Y.Y.Y.Y.Y.Y.Y.U.U.Y.Y.Y.Y.Y.Y.Y.U.U.U.Y.!.!.U.U.U.U.!.!.U.U.U.!.!.U.U.U.Y.Y.Y.Y.Y.Y.Y.Y.Y.Y.T.T.XXY.T..X.X.XoX-X7XrX%X%Xu.-.Q W +.f.%XaXaXiXrXrXtXtXtXpXpX7X=X;Xi.y.9.0.9.~ ~ ~ ~ ~ ~ ~ ~ ~ ~ 0.9.~ ~ ~ ~ ~ ~ Q ~ ~ y.y.9.y.y.t.r.q.d.=XuXrXwX=X%Xg.j.y.y.i.y.+.! +.$Xd.$Xu.$Xd.%X$Xf.>X:X7X=X=X=X=X=X=XrX=X7X7X7XrX*XrXrXrX=Xw.#Xw.+.+.+.+.W Q W ! U D e U e e w E E U D L W +.+.+.-.+.Q W q.i.s.r.+.$X=XrXuXuX-Xp.d.f.s.t.q.q.q.q.+.Q +.+.q.r.-.~ ~ ~ ~ -.-.+.-.r.r.r.+.-.-.-.Q Q Q r.f.g.u.+.Q Q Q Q Q ! Q Q Q k.9.~ Q k.y.t.t.y.q.q.y.r.u.u.d.p.&X=X-Xw.w.#X%X%Xg.w.O.O.O.O.O.C X.M c k 2 % % $ @ O O @ @ @ $ + & % & j j 9 0 0 0 k z X.O.v q w c v c z 0 0 0 k k k n X.%.<.C.C.N.N.A.A.A.A.A.A.S.S.H.U.U.U.U.U.U.U.U.U.U.U.U.U.Y.Y.!.U.!.U.U.S.S.H.S.!.A.H.A.S.S.H.U.U.U.Y.U.U.U.U.U.H.U.U.H.H.H.S.S.S.L.U.U.U.Y.I.",
"5X5X5X3X3X.XOXOXOX^.Y.Y.Y.Y.Y.Y.U.~.~.U.Y.Y.Y.Y.Y.Y.Y.U.U.Y.Y.Y.Y.Y.Y.Y.U.U.Y.Y.!.!.U.U.!.!.!.!.U.U.!.!.!.!.!.!.Y.Y.Y.Y.Y.Y.Y.Y.Y.Y.T.T..X.XT.T..XXXoX-X=X=X:X;Xp.+.E E E w.iXSXSXSXSXSXNXpXtXtXNXNXwX$Xf.i.y.y.~ ~ ~ ~ 9.9.~ ~ ~ ~ ~ ~ ~ 9.9.y.0.t.0.y.y.y.y.~ 9.9.~ y.r.f.=XwXuX=X%X;X%Xh.s.t.y.y.q.i.W o.$Xd.:Xu.g.f.$X$Xf.>X:XrX=X=X=X=X=X=XwXwXrX7XrX7X7XrXrX7X=X#Xw.w.+.+.W +.W Q ! ! L e e L e D 6 L L D R R E ;.a.u.u.q.q.a.w.w.d.d.s.u.f.f.f.;Xh.g.u.r.y.y.y.Q Q -.y.y.+.! ! ! ! ! ! ! ! ! ! ! Q W W ! ! R D D ! +.q.+.+.E ! Q r.+.Q ! T T ! Q Q Q Q q.q.u.t.y.y.r.t.s.s.f.%X=X=X*X*X[.[.*X*Xd.w.q.O.O.O.O.O.O.O.O.E m m w 0 3 1 2 & $ $ $ % % % $ $ j l j j 9 9 0 k c X.m 0 3 w r r R m v 0 q 9 9 9 9 1 u b P X.%.N.G.A.A.A.A.A.A.U.U.G.I.U.U.U.U.U.U.U.U.U.U.U.U.U.U.U.H.!.H.H.S.H.H.S.S.H.A.S.H.H.H.U.U.Y.Y.U.Y.U.U.U.U.U.U.H.H.H.S.S.U.U.U.U.U.Y.I.",
"5X5X5X3X3X.XOXOXOX^.Y.Y.Y.Y.Y.Y.U.~.Y.U.Y.Y.Y.Y.Y.Y.Y.U.U.Y.Y.Y.Y.Y.Y.Y.U.U.Y.Y.!.!.U.U.!.!.!.!.U.U.!.!.!.!.!.!.Y.Y.Y.Y.Y.Y.Y.Y.Y.Y.T.T..X.X.XY.XXXX<X-X-X:X:X$X>Xh.a.a.;XaXtXtXyXyXtXtXNXNXSXNXNXpXiXwX$Xh.h.h.j.t.y.y.y.0.0.0.y.y.9.9.9.9.9.~ ~ ~ ~ Q ~ ~ ~ ~ ~ ~ ~ y.i.i.f.g.%X:X:X;X;Xs.t.y.y.r.i.i.E +.f.q.;Xf.h.s.f.f.f.%X=XrX=X=X=X=X=X=XwXrXrXrX7X=XrXrX*X7X=X#Xw.oX+.+.! Q W W D R e e e L D D E E +.+.;.;.+.Q +.q.u.$Xp.%XuX=X%Xp.u.r.s.s.s.f.g.f.g.s.Q W Q y.y.Q W Q +.-.-.+.+.+.+.q.q.q.+.+.+.W W ! E +.+.q.q.u.q.+.+.+.+.+.! r w r T ! Q r.u.g.%XeX%Xg.u.t.t.t.r.u.r.q.q.+.O.w.w.#X].[.[.rXwXd.q.q.q.q.+.+.E E E m r w w 3 3 2 2 $ $ $ $ $ $ j l l j & % 2 9 c c c q 9 q w w r r w w w w q 2 2 2 2 % k X.%.%.N.A.A.A.A.A.A.A.A.U.U.G.I.U.U.U.U.U.U.U.U.U.U.U.U.U.U.U.S.U.H.H.H.H.H.A.S.S.S.H.H.H.U.!.Y.Y.~.Y.Y.U.U.U.U.U.U.H.H.H.H.S.U.U.Y.U.U.Y.I.",
"5X5X3X3X3X.X.XOXOX^.Y.Y.^.Y.Y.Y.U.~.Y.U.Y.Y.U.U.Y.Y.Y.U.U.Y.Y.Y.Y.Y.Y.Y.U.U.Y.Y.U.U.U.U.U.U.!.~.U.U.U.!.U.U.U.U.U.Y.Y.Y.Y.T.Y.Y.Y.Y.Y.Y..X.XXXXX.XXX@XoX-X:X%X$Xf.;.Q r.u.p.-XtXvXvXvXvXtXtXtXtXpXpXpXuXwXg.d.s.j.j.j.t.0.0.0.0.t.t.t.t.y.9.9.9.9.9.9.9.y.9.0.y.j.j.j.y.t.t.t.i.%X%Xh.s.h.t.y.y.t.i.f.;Xp.O.f.r.i.i.s.h.s.f.%X=X=XwXwX=X=X=X=X=X=X7XrX7X:X=X=X7X=X=X-X*X#Xw.a.+.W W ! ! e L r e D D L o.+.+.;.;.+.+.+.E +.r.Q ;.r.r.w.$X%X#Xd.u.q.q.u.u.s.u.u.u.g.s.i.t.t.t.y.Q W ! ! W Q +.q.q.u.r.i.u.r.r.q.f.eXuXuXuX7X-X-X-Xd.u.+.W ! ! Q +.y.s.h.h.f.f.u.+.+.+.-.Q Q W Q Q ! Q Q +.u.s.%XuXSXLXSX:Xu.+.r.q.+.+.Q +.E R R R R v r w 6 0 1 % $ @ : l C C l & & & & & j 9 2 % 2 2 0 0 w w r w w w q 1 q 2 9 0 n X.X.%.<.6.N.C.A.A.A.A.H.S.U.U.G.G.U.U.U.U.U.U.U.U.U.U.U.U.U.U.H.U.H.H.S.S.S.S.H.S.S.H.S.!.!.U.!.U.U.U.Y.U.U.U.U.H.H.U.U.H.S.S.S.U.U.U.U.Y.Y.U.",
"5X5X3X3X3X.X.X.XOX^.Y.Y.^.Y.Y.Y.U.~.~.U.~.Y.U.U.Y.Y.Y.U.U.Y.Y.Y.Y.Y.Y.Y.U.U.Y.Y.!.U.U.U.U.U.!.~.U.U.U.!.U.U.U.U.U.Y.Y.Y.Y.T.Y.Y.Y.Y.T.T..XXX.XXXXXXXXX@X:X%X%X%Xu.+.;.+.q.%X%XrXvXNXNXNXNXpXpXtXrXrXrXrX=X$Xs.r.y.y.y.y.~ ~ 9.9.y.y.y.y.y.y.t.y.0.0.0.y.0.y.9.~ Q Q Q ~ y.y.s.h.s.g.s.s.t.t.y.t.i.f.f.;X;Xu.;Xu.r.t.j.i.i.f.%X=X=XwX:X%X=X:X=X-X7X7XuX7Xp.#X=X7X=X-X-X-X#X#Xa.o.W ! R W v x e e D D U ! E +.;.a.a.p.a.u.;.r.;.;.r.u.u.d.-X%X%X$X;Xg.u.u.s.s.s.s.s.s.s.s.t.t.y.y.y.y.r.-.r.a.f.a.r.+.+.Q Q -.q.d.#XwXrXrXrXuXuX-Xd.q.q.r.i.i.u.r.y.q.Q Q Q Q Q Q Q ! W W W W ! W Q +.-.r.r.u.d.d.w.e.O.E Q Q Q Q ! ! E R R R r R r w w w w w 0 9 j l N l j & & & & & & $ * * % % 9 9 0 0 0 q w w w z q 4 2 2 % 1 z z ( o.<.1.B.D.A.A.A.A.S.S.U.U.G.G.U.U.U.U.U.U.U.U.U.U.U.U.U.U.U.H.S.S.S.S.S.S.!.S.S.S.S.!.!.U.!.U.Y.Y.Y.U.U.U.H.H.U.U.U.H.S.S.S.U.U.U.U.Y.Y.U.",
"5X5X3X3X3X.XOXOXOX^.Y.Y.^.Y.Y.Y.U.~.Y.U.~.Y.U.U.Y.Y.Y.U.U.Y.Y.Y.Y.Y.Y.Y.U.U.U.U.!.!.U.U.U.U.!.~.U.U.U.!.U.U.U.U.U.Y.Y.U.Y.T.Y.Y.T.T.T.T.XXXX.XXXXXXX@X@X>X>X:X%X;X$XQ W i.%X%X=XwXrXrXiXpXpXpXpXpXyX*X*X#Xd.s.s.t.r.y.y.y.9.~ ~ ~ ~ ~ 0.~ ~ ~ ~ ~ ~ ~ ^ ^ Q Q ~ ~ ~ 9.y.i.h.f.d.h.j.s.j.y.y.t.i.f.$X%X%Xs.g.%Xh.t.t.t.t.s.>X$X$X=X=X=X%X=XeX%X-X7X7XuX-Xp.-X7XrX=X#X#X#X#X#Xw.+.+.W R L v 6 e D D U W R +.r.+.r.p.w.p.u.a.a.+.f.d.u.p.p.$X=X:Xd.d.g.g.g.s.s.t.t.t.t.t.t.i.s.s.i.i.r.Q Q W W Q Q Q Q ! ! ! Q Q q.d.#X#Xd.#X#Xp.p.d.g.f.d.q.q.Q Q +.Q Q +.Q Q Q Q Q +.+.R r w 6 w v m R m R m c v r E E ! ! Q Q Q Q Q Q E O.O.O.E E m c c z c M M C l l j & % & & & $ @ * $ % 1 9 9 9 9 9 9 9 3 2 3 9 9 1 4 o o k X.X.%.%.A.A.G.G.A.S.A.A.S.S.U.U.G.G.U.U.U.U.U.U.U.U.U.U.U.U.U.U.H.H.S.H.S.S.S.S.!.S.S.S.A.!.!.U.U.U.U.U.Y.U.U.U.!.U.H.H.H.H.S.A.S.U.U.U.U.Y.Y.U.",
"5X@X3X3X3XOXOXOXOX^.Y.Y.^.Y.T.Y.U.~.Y.U.Y.Y.U.U.Y.Y.Y.Y.U.Y.Y.Y.Y.Y.Y.Y.U.U.U.U.!.!.U.U.U.U.!.~.U.U.U.!.U.U.U.U.U.Y.Y.U.Y.Y.Y.Y.T.T.T.T.XXXX.XXXXX@X3XoXoX:X;X:Xp.E +.r.q.%XwXrXrXrXrXiXrXtXtXpXtXpXiXuXeXh.s.t.s.s.t.y.9.y.y.9.~ ~ ~ ~ ~ ~ ^ W ^ ~ ~ ~ ^ ^ ~ ~ ~ y.i.h.$X:XwX%Xs.t.t.y.y.j.i.s.$X%X%Xg.g.g.g.h.s.t.t.t.;X$X$Xf.%X=X%X$X:X:X%X=X7X7X-XoX#X=X7X7X-X#X-X-X#X-Xp.a.+.+.E w x 6 e D S D W a.a.r.r.+.u.$Xd.a.+.+.r.q.%X$Xf.u.w.d.%X:Xd.u.q.u.t.t.t.y.y.r.q.q.q.q.q.+.Q Q Q Q Q -.-.-.r.-.Q W W W +.+.q.O.O.O.O.O.+.q.q.q.O.O.+.q.y.+.+.Q Q Q W W Q Q R r q 4 3 0 3 0 4 4 4 4 4 2 3 3 w r R Q q.q.r.u.i.u.q.q.q.q.q.+.O.O.X.m E C m l k j % % % % $ $ & @ @ X $ $ % % % % % % 2 2 9 9 0 2 4 1 2 0 c k n b o.<.G.A.I.I.A.S.A.A.H.S.U.U.G.G.U.U.U.U.U.U.U.U.U.U.U.U.U.U.S.S.H.H.S.S.S.S.H.S.A.H.A.U.!.U.U.U.U.U.Y.U.U.U.U.H.H.U.H.H.S.A.S.U.U.U.U.Y.Y.U.",
"@X3X3X.X5X.XOXOXOX^.~.Y.^.Y.Y.Y.Y.Y.Y.Y.U.U.U.U.U.U.U.U.Y.Y.U.U.U.U.U.!.!.!.U.U.U.U.U.U.U.U.U.!.U.!.H.!.U.U.U.!.U.Y.Y.U.Y.Y.Y.Y.T.T.Y.Y..X.X.XXX+XXXXXoX>X>X;Xu.+.;.;.+.$XuXsXNXNXNXNXNXNXNXvXtXrXrXwXwXeXh.s.j.y.y.j.h.s.t.r.+.Q ~ ~ ~ ~ ~ ~ ~ ~ ~ ~ ~ 0.0.~ 9.t.u.#X=XaXaX%Xg.u.q.r.s.j.t.j.t.h.%X%Xg.g.g.g.g.s.s.t.f.:X-X$Xp.oXoX$X>X:Xp.=X-X7X7XoXoX-XqXqXqXoXoXa.+.a.a.$XoX+.E X.v w e D S D U +.*.+.u.i.u.q.f.$X$Xi.u.u.u.p.f.$Xf.d.s.s.s.g.g.g.s.s.s.g.g.g.g.g.g.s.s.u.r.u.u.f.f.h.r.+.Q ! E E E X.O.e.e.&X[.[.e.w.w.w.w.w.[.w.p.q.+.Q ! ! ! Q +.+.+.E E L L L v c r w 0 0 3 3 4 2 2 2 2 4 4 6 w r E E E +.+.+.+.+.+.+.+.+.+.O.+.X.R v c c z k 1 2 2 2 & & & & $ $ $ @ @ & $ $ % % 2 2 2 0 0 0 1 2 2 n X.*.6.F.N.N.G.I.U.G.G.G.G.I.I.G.G.U.U.U.U.U.U.U.U.U.U.U.U.H.H.U.H.H.H.H.S.A.S.S.S.S.S.A.A.H.H.H.J.U.U.Y.Y.Y.Y.Y.U.U.U.U.U.U.H.H.S.S.!.U.U.!.Y.I.Y.",
"@X3X@XOX3X.XOXOXOX^.Y.Y.^.Y.Y.Y.Y.Y.~.Y.U.U.U.U.U.U.U.U.Y.Y.U.U.U.U.U.!.!.!.U.U.U.U.U.U.U.U.U.!.H.!.H.!.U.U.U.!.U.Y.Y.U.Y.Y.Y.Y.Y.Y.Y.Y..X.X.XXXXXXXXX@X@X>Xf.r.t.W W >XaXtXtXNXNXNXAXAXAXAXSXSXSXpXrX=X%Xu.t.t.j.t.y.y.s.h.h.h.t.t.y.9.~ ~ ~ ~ ~ ~ ~ ~ ~ ~ ~ y.s.wXaXpXrX=X%Xd.s.;Xh.s.y.t.j.s.g.$XeX%X%X%X%Xf.f.s.u.:X:X-XoXoXoXoX-X=X#X#X7X=X7X7XoX<X<X<XoXoX XoX@X6.o.E X.p.6.W o.L L e D S U L R +.w.u.u.u.u.p.$X$Xu.s.s.u.f.$X%X$Xg.u.u.u.u.u.u.r.r.r.u.g.f.f.f.s.s.u.i.r.u.q.q.+.+.! ! W W E E w.uXiXpXiXiXtXrXrXrX7XrXrXrX*X#XO.E ! ! ! Q O.O.E E E Q +.+.E R v r r w w 0 0 0 0 3 0 0 0 0 z w w 3 w R R R R R v R R R R R r v v v v e w 0 0 0 k j 9 1 & & & $ $ $ $ $ & $ & y 1 9 9 9 1 3 3 0 0 2 4 2 3 z z X.F.Y.Y.I.C.G.G.L.G.I.I.G.G.U.U.U.U.U.U.U.U.U.U.U.U.H.H.U.S.H.H.S.S.A.S.S.S.S.S.Z.Z.H.H.J.J.Y.U.Y.Y.Y.Y.Y.U.U.U.U.U.U.H.H.S.S.!.Y.U.!.Y.I.Y.",
"5X3X@XOX3X.XOXOXOX^.Y.Y.~.Y.Y.Y.Y.~.~.Y.U.U.U.U.U.U.U.U.U.U.U.U.U.U.U.U.!.!.!.U.!.!.!.!.U.U.U.U.H.!.H.!.U.U.U.!.U.Y.Y.U.Y.Y.Y.Y.Y.Y.Y.Y..X.X.XXXXXXXXX.XoX>Xf.r.+.+.#XpXNXNXNXNXNXNXNXAXNXNXAXAXVXAXAXNXiXuX%Xs.t.t.t.t.y.y.y.y.t.y.y.0.9.~ ~ ~ ~ ~ Q Q ~ y.t.s.eXwX%X%X#X%X%X%XeXg.s.j.t.j.j.h.%XwXwXuXuXwXwX%Xs.i.d.qX7X7X7XqXiXiXiXMXMXCXiXqX7XoXoX<XoXoXoX<X0X0X0X<X X Xo.o.=.Y E X.r 7 D D e v O.&.w.u.p.p.p.u.p.$Xf.d.u.u.u.u.$X:XeX%X$X$X%X%X%X%X%Xh.i.+.-.-.-.Q ~ ;.-.r.q.+.+.+.Q Q Q Q -.+.a.;X%X=X%X%X-X#X*X=XrXtXNXNX7Xw.E r r r R E O.+.+.+.+.+.+.+.E R v v w w 0 3 0 0 0 9 4 4 4 2 2 4 3 w w w w v R E E E E R v R E m R v v R m v c k k j j 9 1 2 & 2 2 2 9 9 9 0 k k 1 9 9 9 2 2 2 % % % 2 0 k k k B %.*.6.N.A.A.G.L.G.G.I.I.G.G.U.U.U.U.U.U.U.U.U.U.U.U.H.U.H.S.H.S.S.S.A.A.S.S.E.S.Z.Z.H.H.J.J.Y.U.Y.Y.Y.Y.Y.U.U.U.U.U.U.H.H.S.S.!.Y.U.!.Y.I.Y.",
"5X3X@XOX3X.XOXOXOX^.Y.Y.~.Y.Y.Y.Y.~.~.Y.U.U.U.U.U.U.U.U.U.U.U.U.U.U.U.U.!.!.!.U.!.!.!.!.U.U.U.U.H.!.H.!.U.U.U.!.U.Y.Y.U.Y.Y.Y.Y.Y.Y.Y.Y..X.X.XXX.XXXXXXX@XoX;.;.;.f.=XpXNXNXSXNXNXNXVXAXNXNXNXVXAXnXnXVXNXpXaXeXeXg.s.s.h.s.j.t.t.y.9.~ ~ ~ ~ ~ 9.y.j.j.h.h.h.h.g.g.%X;XeXeX;Xg.u.s.j.t.s.s.g.;XuXpXiXtXrXrXiXuXa.u.=XqXqX7XqX9X9X9X9X9XqX9XqX<XoXoXoX<XqXqXqXqXqX8X8X<X<XXXXX6.Y Y U o.e e D S o.oX&X&Xp.p.d.$X%X%X#X#X$Xg.$X%Xg.d.d.#X-X-X=X-Xp.d.d.w.d.q.+.+.+.+.Q W ! ! Q +.+.+.;.+.-.+.Q ! ! R r r m m O.+.w.p.#X#X[.[.e.C M q c v v R E E E E E E E E E L r w w 6 3 3 6 w 0 0 3 3 3 1 1 1 3 3 3 3 0 3 3 3 w r v X.O.+.X.m m m m R R R R m m m c c c k 9 j l l n m c c c c n n k k 9 9 9 9 9 9 9 0 k k 9 9 9 k B X.6.A.L.U.L.L.G.G.G.I.G.G.U.U.U.U.U.U.U.U.U.U.U.U.U.H.H.S.S.S.S.S.A.A.S.S.E.S.Z.Z.H.H.J.J.Y.U.Y.Y.Y.Y.Y.U.U.U.U.U.U.H.H.S.S.!.Y.U.!.Y.I.Y.",
"5X5X3XOX3X.XOXOX^.^.Y.Y.Y.Y.Y.Y.U.Y.Y.U.U.U.U.U.U.U.U.U.U.Y.Y.Y.!.!.~.Y.!.!.!.!.~.~.U.U.!.!.!.!.H.U.U.H.U.H.U.U.U.Y.Y.U.Y.Y.T.T.Y.Y.Y.T..X.X.XY.XXXX.XXX@X6.a.r.+.a.#XrXvXNXNXNXNXNXVXVXAXAXNXNXnXnXVXNXNXpXiXrXiXrXwXg.s.s.i.t.t.y.0.9.0.0.0.0.y.y.t.j.h.h.h.h.g.h.eX;Xh.g.s.g.h.g.g.g.g.%XrXiXpXpXpXpXNXpXtXrXp.$XqXqXqX8XqXqXqXqXqXqXqXqX<X<XqXqXqX0XqXqXqXqXqX0X<X<XXXXXJ.6.Y Y U U 7 e L o.6.*.w.&XqX-Xu.p.#X7XrX*X#X-X-X-X-X=XwX=X=X-X#X#Xp.w.p.p.$X%X=X=Xd.#Xp.#X&X*XrXtX7Xp.+.E R D D D r D R R E O.+.q.w.p.#X#X&X[.].].e.O.O.E E E E O.O.E E E R L r w e e e e e x x 6 3 1 1 9 3 1 1 1 1 1 1 3 4 3 3 3 3 6 6 w r v E E E E R m R m R R R E R m m m m C m l % % * + $ % % % 2 1 0 0 9 9 0 0 0 0 0 9 9 2 4 3 ( _ #.<.B.A.A.G.U.G.U.L.L.L.U.U.U.U.U.U.U.U.H.H.H.H.H.H.U.S.S.S.S.S.A.A.S.S.S.Z.Z.Z.S.J.J.G.U.J.Y.Y.Y.Y.U.U.U.U.U.H.H.H.H.A.S.!.U.U.!.Y.I.Y.",
"5X5X3XOX3X.XOXOX^.~.Y.Y.Y.Y.Y.Y.U.Y.Y.U.U.U.U.U.U.U.U.U.U.U.Y.Y.!.!.~.~.!.!.!.!.~.!.U.U.!.!.!.!.H.U.U.H.U.H.U.U.U.Y.Y.U.Y.Y.T.T.Y.Y.Y.T..X.X.XXXXXXX.XXXJ.@Xi.-.+.p.#XrXSXAXAXNXAXNXNXvXvXvXvXvXvXcXvXtXrXrXrXrXrXrXrXwX=X%Xf.f.t.y.9.~ ~ ~ ~ 9.y.t.t.y.y.y.y.q.q.q.u.s.s.s.h.h.h.g.g.d.wXiXSXNXNXvXvXvXvXNXNXrXw.oXqX&X<XqXqXqXMXqXqXqXqXqXqXqXqX0X0X0X8XqX0X0X5X<X<X<XXXXXJ.6.o.U S e 6 L E X.U w z m *.w.p.u.*.#XrXrX#X%X=X=X*X#Xd.d.d.#X#X#Xd.u.d.d.d.w.e.e.w.w.e.&.&.&.e.e.&.&.*.;.;.;.+.+.+.+.+.+.+.q.q.u.d.-X=X=X*X*X*X#X[.w.w.O.m m q q 4 4 q 3 e x v L L L v v e e 7 e 0 0 3 3 4 4 3 3 3 3 3 3 3 3 w w w w w w 6 w w w r r v R R E E E E O.E E X.E m q 9 9 2 & * + % + + % % 2 2 2 1 9 9 9 0 0 2 2 % % 2 n b P ` #.b.L.A.G.G.A.U.U.L.L.U.U.H.U.U.U.U.U.H.H.H.H.A.A.H.A.S.S.S.S.A.A.S.S.S.Z.Z.Z.S.J.J.G.J.G.Y.Y.Y.Y.U.U.U.U.U.H.H.H.H.A.S.!.U.U.!.Y.I.Y.",
"5X3X3XOX3X.XOXOX^.~.Y.Y.Y.Y.Y.Y.U.Y.Y.U.U.U.U.U.U.U.U.U.U.U.Y.Y.!.!.!.!.!.!.!.!.~.!.U.U.!.!.!.!.H.U.U.H.U.H.U.U.U.Y.Y.U.Y.Y.Y.T.Y.Y.T.T..X.X.XXXXXXXXXXXXXa.a.;.r.i.=XtXyXvXvXvXvXNXNXVXAXAXAXNXNXiX=X%X%X%X%X=X%X=XwXwXwX=X=X%Xs.t.y.9.~ ~ ~ ~ 9.y.t.t.s.s.s.i.f.h.;XeX%X%X;X%X$X%X%X=XuXNXNXvXNXNXNXNXNXvXvXiXa.>XoXoXqXqXkXqXqXqXqX0XqXqXqXqXqX0XqX0XqX0X0X5X5X5X3XXXXXXXJ.5.=.' F < < x x x 6 c m m w.#Xp.p.p.p.#X=X=X%X%X%X#X#Xg.g.p.d.d.p.p.d.d.f.d.d.$Xd.u.+.+.+.O.*.e.[.#Xw.+.L r r w r r R ! Q +.q.q.q.p.#X-X=XrXrXwX*X#Xd.w.O.c 0 2 2 2 9 q 0 c c c c r r r r e e e e e e e v e e e e r r e e e e e e e e e e e w 6 w e r r r R R R R R R m m v c c 0 q 2 2 2 2 2 2 % % % % % * % % 2 2 2 % % % % % % 2 1 n ( #.B.A.C.U.I.U.U.U.U.U.U.U.U.H.U.U.U.U.U.H.H.H.H.H.H.U.H.S.S.S.S.A.A.S.C.S.Z.Z.Z.S.J.J.G.G.G.Y.U.Y.Y.U.U.U.U.U.U.H.H.H.A.S.!.U.U.!.U.I.Y.",
"5X3X3XOX3XOXOXOX^.~.Y.Y.Y.Y.Y.Y.U.Y.Y.U.U.U.U.U.U.U.U.U.U.U.U.Y.!.!.!.!.!.!.!.!.~.!.U.U.!.!.!.!.H.U.U.H.U.H.U.U.U.Y.Y.U.Y.Y.Y.Y.Y.Y.T.Y..X.X.XXXXXXXXXXXXXa.a.-.+.d.7XNXAXAXSXSXSXSXAXAXNXNXtXtX7X=X%Xg.g.g.%X%X%X%X%X%X%X%X%X;Xh.h.j.t.t.y.y.y.t.j.j.t.s.s.s.s.f.d.d.#X%X%XwXeXeXuXuXuXpXpXNXNXNXNXNXNXNXNXNXtXa.a.a.qXqXqXqXMXqXqXqX0XqXqXqXqXqXqXqXqX0X<X.X.XF._ n _ 6.J.5.5.:.o.d 4 4 4 4 3 z *.[.&X#Xp.d.d.$X$X-X-Xg.d.d.d.d.$Xg.g.%X%X=X=X%X$Xd.d.d.f.d.q.r.r.-.-.+.p.#Xw.q.O.E E E Q Q +.E E Q +.Q Q Q +.O.O.e.w.[.*X*Xd.d.q.O.q 4 4 % % % 2 2 2 2 3 3 3 w w r r r v L r D D D e D D e v r r r r v v r e e e e e e e r w x v v L E R R R E R R R R m v v c c m m n c 9 2 2 % % % % % % % 2 % % % % % % 2 2 2 3 P #.N.S.U.U.I.I.U.U.U.U.U.U.U.U.H.U.U.U.U.H.H.H.H.H.H.U.A.A.S.S.S.A.A.S.C.S.Z.Z.Z.S.J.J.G.G.G.U.J.Y.Y.U.U.U.U.U.H.H.H.H.A.S.!.U.U.!.U.U.Y.",
"5X3XOX.X3XXXOXOX~.~.Y.Y.Y.Y.Y.J.Y.Y.U.H.U.U.U.U.U.U.U.U.Y.Y.Y.Y.U.U.U.Y.Y.Y.Y.Y.~.~.!.U.U.U.U.U.U.U.U.U.U.U.U.Y.U.U.Y.U.Y.Y.T.Y.Y.XX.X.X.X.X.XXXXXXXXXXXXXa.;.;.p.-XpXNXVXNXNXpXNXNXtXyXrXrXrX7XuXeXeXwXeXuXuXuXrXwX=X=X%Xg.s.t.t.j.j.j.j.j.j.j.t.j.j.s.h.s.i.u.d.g.g.%X%XwXwXwXiXiXpXpXNXNXNXNXNXNXNXNXNXNXvXpX>Xa.oXqX8X<X<XqXqXqXqX8X0X5X5X<X0X<XqXqX0X@X5Xo.5 < 2 o s 6.5.6.#.b o 4 5 6 m O.6XtXrXrXwX=X%X%X=X#X#X-X%X=XwX%X%X%X=X%X%X%X%X%Xg.d.u.f.$X$Xd.q.r.r.+.+.+.+.+.*.X.E m R E E v m R R E O.+.+.q.d.*XrXaXaXaXeX#Xw.+.m q q 4 2 2 2 2 2 9 0 0 w z x v v L L R R R R R R L L r r e w w 3 3 w 0 0 c v v c z 0 0 c c c v R R R R E E E E E E R m r c v v n n k k k 1 2 % 2 2 2 2 2 1 1 0 k k k k 9 & * 2 2 z o.$.<.N.I.I.U.U.U.U.U.U.U.U.G.Y.G.U.U.U.U.U.U.H.H.H.H.A.A.A.S.S.S.S.S.S.Z.E.Z.S.A.A.H.H.J.J.Y.Y.J.Y.Y.Y.U.!.H.H.U.H.S.!.A.S.!.!.U.Y.Y.I.Y.",
"3X3XOX+X3XXXOXOXOX~.Y.Y.Y.Y.Y.J.Y.Y.U.H.U.U.U.U.U.U.U.U.Y.Y.U.Y.U.U.U.Y.Y.Y.Y.Y.~.~.!.U.U.U.U.U.U.U.U.U.U.U.U.Y.U.U.Y.U.Y.Y.Y.Y.XXXX.X.X.X.X.XXXXXXXXXXXXXa.;.;.d.uXpXtX6XyXtXtXNXpXtXtXtXrX=X=X%X%X%X%X#X#X*XrXrXrXrXwXeXh.s.j.t.y.9.9.9.y.t.y.t.t.j.j.t.j.s.h.eXeXeXeXuXuXuXrXiXpXpXpXNXNXNXNXNXNXNXNXNXAXAX7XO.6.@XqXqXqX<XoXqXMX0X8X0X5X@X5X5X8XqXqXXX5X6.< < 3 o o 4 P o._ 6 4 o 3 U X.w.tXtXtXtXrX7X*X-X-X-X-X-X#X#X#Xd.d.d.#X%XwXwX=X%Xd.w.w.w.w.w.d.p.u.u.r.r.r.u.r.q.q.+.+.q.+.E O.E O.E E O.q.+.+.*.w.[.[.[.w.&.E m q 4 4 4 4 4 4 4 4 4 4 4 4 3 3 6 w w w e r r r r r v v v v L v v r r w w q 3 3 2 4 4 4 3 3 9 9 0 w r r m R R R R E E E E E E R R v v c c k k k 1 1 1 0 z c c z w w 0 3 1 2 2 % % 9 2 n _ X.%.G.T.^.I.I.U.I.U.R.R.U.U.G.U.L.U.U.U.U.U.U.H.H.S.A.A.A.S.S.S.Z.S.A.S.Z.E.Z.S.A.A.H.H.H.U.Y.Y.U.Y.Y.Y.U.!.H.H.U.H.S.U.A.S.!.!.U.Y.Y.I.Y.",
"3X3XOX+X3XXXOXOXOXY.Y.Y.Y.Y.Y.J.Y.Y.U.H.U.U.U.U.U.U.U.U.U.U.Y.Y.U.U.U.U.Y.Y.Y.Y.~.~.!.U.U.U.U.U.U.U.U.U.U.U.U.Y.U.U.Y.U.Y.Y.T.T.Y.Y..X.X.X.X.X.XXXXXXXXXa.;.;.r.u.%X=X=XtXNXVXVXNXNXNXtXrX=X=X%X$Xf.f.f.$X-X*X*XwXrXrXrXwX%Xg.s.t.t.t.y.y.9.9.9.y.t.t.j.j.j.j.s.f.%X%X-XwXwXrXiXpXpXpXNXNXNXNXNXNXNXNXNXNXNXAX[.R D o.@X@X6.U 6 3 *.qX0X0X5X@X@X<XqXqX0X<X@XP d 3 o % * o X o X o 3 P P X.oXiXrXyXrXrXtXtXrXrX7X*X#X*X=XwXwXwX*X#X#X%X=X:X:X%X$X;XeXuXaXaX%Xr.r.r.u.u.i.u.t.y.r.r.r.r.r.+.O.E E E X.m q 2 9 9 9 9 9 9 9 c m E E E R m m r r w w w w w w w w w r r v v v v v v v v v r w r r v v v R R v v v L L r r R R R R R E E E R R R E E E E R E E E v v v v z 0 0 3 1 1 3 1 1 0 0 9 4 3 q w 0 0 1 1 2 2 c k 0 3 X.F.P..XT.I.I.I.I.U.I.R.U.U.G.U.G.U.U.U.U.U.U.U.H.A.A.A.S.H.S.S.C.S.S.Z.Z.E.Z.S.A.A.H.H.H.U.Y.Y.Y.Y.Y.Y.U.!.H.H.U.H.H.U.A.S.!.U.U.U.Y.I.Y.",
"3X3X@XOX3XXXOXOXOXY.Y.Y.Y.Y.Y.J.Y.Y.U.H.U.U.U.U.U.U.U.U.U.U.Y.Y.U.U.U.U.Y.Y.Y.Y.~.~.!.U.!.!.U.U.U.U.U.U.U.U.U.Y.U.U.Y.U.Y.Y.T.T.Y..X.X.X.X.X.X.XXXXXXXXX6.;.i.+.q.$X=XpXpXNXVXVXNXtXrX7X*X-X%X$X$X$Xf.f.f.%XeXuXrXwX*XwXwXwX%Xg.s.j.t.t.j.j.j.j.j.j.t.t.y.y.y.t.d.=XuXaXaXpXpXpXpXNXNXNXNXNXNXNXNXNXNXNXVXNXyXpXqX6.U L U S 8 8 4 o c.zX0X5X@X@XXX5XqX8X<XXXF F 2 o k y + y X j X.X.*.].qXpXtXpXtXtXtXrXtXtXpXpXiX7X&X&X#X#X#X#Xd.w.q.O.+.p.%Xf.p.q.O.m m v ! +.q.q.+.O.O.E Q Q +.+.E E E m M c q 9 9 l C Z &.'.].[.6X9X9X&X].e.e.&.X.m c c c c z z w w r r r r v v v v v v v L R R L v v v r r r r r v L R R R E ! E E E E W W E E E E R R R R E R v R v v v c c r c c z z c c c c c c m m m m c c c z c c 0 9 % k &.*.*..X.XI.I.I.I.I.U.U.R.U.U.G.U.G.U.U.U.Y.U.U.U.H.C.C.A.S.W.E.S.C.S.S.Z.Z.E.Z.S.A.A.H.H.H.Y.Y.Y.Y.Y.Y.U.U.!.H.H.U.H.H.U.A.S.!.U.U.U.Y.I.Y.",
"5X3X.X.XOXXXY.XX~.Y.Y.Y.Y.Y.Y.Y.U.U.U.U.U.U.U.U.U.U.U.U.U.U.Y.Y.Y.U.Y.U.Y.~.Y.~.~.~.!.U.!.!.!.!.U.U.U.Y.U.U.U.Y.Y.U.Y.Y.Y.Y.Y.T.Y.Y..X.X.X.X.X.X.XXXXXa.a.r.;.i.f.=XrXvXNXNXNXNXrXrX=X%X$X$X$X$X$X$Xf.f.s.r.r.i.=X=XrXuXeXwXwXwX;Xh.g.s.s.j.j.s.h.h.h.;X%XeXeXeXuXaXuXwXrXrXpXNXpXpXNXNXvXvXNXNXNXNXNXNXNXAXAXNXSXSXiX].X.e U H F 5 n qXqX5X@X@X6.@X0X<X<XJ.I U 4 , f b s u C '.e.[.cXSXNXtXyXtXtXpXpXNXpXrXtXNXNXtX7X&X#Xw.w.q.u.u.u.+.+.-.i.s.i.i.u.q.O.O.E E C C M A l l l j l C Z &.&.'.'.].yXmXAXLXLXLXHXGXPXnXnXmXnXPXDXHXnXnXcXmX9X[.e.&.C C l k c c v v v r r v r v v L r r v v R R R R L v v r e r x v v R R R R E E O.+.+.+.+.+.+.+.E E E E E E E E L L L v v c c 0 0 0 0 9 9 0 0 v v R m z 3 9 j l C x.].c. X XI.J.~.T.I.U.R.R.R.R.U.U.I.U.Y.U.I.G.U.!.H.H.A.H.A.A.A.Z.S.S.S.S.S.Z.Z.E.Z.S.S.S.H.H.H.U.Y.Y.Y.Y.Y.Y.U.U.U.S.U.U.A.!.S.U.!.U.U.!.U.I.Y.",
"5X3X.X.XOXXXY.XXY.Y.Y.Y.Y.Y.Y.Y.U.U.U.U.U.U.U.U.U.U.U.U.U.U.Y.Y.Y.U.Y.U.Y.Y.Y.Y.~.~.!.U.!.!.!.!.U.U.U.Y.U.U.U.Y.Y.U.Y.Y.Y.Y.Y.Y.Y.Y..X.X.X.X.X.X.XXXXX6.6.r.a.f.$XrXpXNXNXNXtX7XwX=X%X$X$X$X$X$X%X$Xf.f.h.h.i.i.d.#X=XwXeXwXwXwXwXg.g.s.s.s.s.s.h.h.;X%XwXwXwXwXrX=XwXrXpXpXpXtXtXpXpXtXvXvXvXvXNXNXNXNXVXAXNXAXZXAXAXSXCXoXo.I I _ n oXqX5X@XQ.6.6.qX<X5X@Xo.Y 5 < g g b n &.}.vXSXZXvXNXNXpXtXtXtXrX&X*X*X[.].[.rX7X=X-X$X%Xf.u.u.r.Q D D ! Q Q r.u.p.p.+.O.O.&.'.[.}.}.mXcXbXAXHXKXKXKXHXnX}.}.Z : : : : > > . .   # # : : l N Z Z &.'.].[.6X6X[.e.&.C c 0 2 2 4 2 0 0 0 w w 3 4 4 4 4 4 4 4 0 w w w w w z w r r r r r v v v r R E +.+.+.O.E E E R E R R R R R R v R v c c k 2 2 2 2 2 2 4 4 4 9 c c &.'.[.}.].&.*.*.%.N.~.Y.T.I.U.U.T.U.I.I.U.G.U.I.U.U.U.I.Y.H.H.H.A.A.H.H.Z.S.S.S.S.Z.Z.Z.E.Z.S.A.S.H.H.H.U.Y.Y.Y.Y.Y.Y.U.U.U.S.U.U.S.!.A.U.!.U.U.!.U.I.Y.",
"5X3X.X.XOXXXXXXXY.Y.Y.Y.Y.Y.Y.J.U.U.U.U.U.U.U.U.U.U.U.U.U.U.Y.Y.Y.U.~.U.Y.Y.Y.Y.~.!.!.U.!.!.!.!.U.U.U.Y.U.U.U.Y.Y.U.Y.Y.Y.Y.Y.Y..X.X.X.X.X.X.X.X.XXXXX6.a.a.a.>XuXaXaXiXtXtXtXiXuX;X$X$X$X%X=X=X%X%Xf.s.s.s.s.s.g.f.#X%X=XwXwXwXeXeXeXg.g.s.t.t.s.g.h.h.g.g.%X%XwXwXrXuXuXrXtXpXtXpXpXpXtXvXvXvXvXvXNXNXNXNXNXNXAXAXAXAXNXSXMX&X XX.n oXqX5X+X5.7.=.oX<X@X@X6.Y J S J d k ].NXSXNXvXAXAXNXNXpXtXtXiXiX&Xe.e.w.w.w.w.=X:X:Xd.p.p.u.u.u.r.+.+.a.a.a.+.+.e.[.tXNXNXSXNX&Xe.&.C C C Z Z Z Z C : $ $ 9 k c m m E E E E E E E E E E E E R m v r r v m O.*.&X7XNXAXvX}.'.Z : # * % j 0 1 2 4 4 4 4 2 4 2 3 0 k z c n v R R E E O.+.+.+.+.+.+.+.O.+.+.+.O.E E R v v v v v v c c c c c c 0 0 9 2 % & l C e.].6X9X6X[.&.C c 0 w U *.J.Y.Y.T.I.U.U.T.U.I.I.Y.U.U.Y.U.U.U.U.U.H.H.H.H.H.A.A.A.S.S.A.S.S.Z.Z.S.Z.S.A.S.H.H.H.U.Y.Y.Y.~.Y.Y.U.U.U.S.!.H.H.U.A.U.!.U.U.!.U.U.Y.",
"5X3X.X.X3XXXXXOXY.Y.Y.Y.Y.Y.Y.J.Y.U.U.U.U.U.U.U.U.U.U.U.U.U.Y.Y.Y.U.~.U.~.~.Y.Y.~.!.!.U.!.!.!.Y.U.U.U.Y.U.U.U.Y.Y.U.Y.Y.Y.Y.Y.Y..X.X.X.X.X.X.X.XXXXXJ.6.a.a.a.>X%X=X7XtXtXNXSXiX=X%X%X:X:X:X=X=X;Xh.g.s.r.t.u.u.g.%X:X=X%X%X%XwX%X%XwXwXeXeXeXh.g.g.g.g.g.g.g.g.%XwXwXrXrXtXtXtXpXpXpXpXpXtXpXpXvXNXNXvXNXNXNXNXAXnXZXAXAXAXAXAXSXCX].<XqX5X+X5.7.' 6.<X@X@X5.o.Y J G s ].LXSXSXAXAXNXvXvXNXpXtX6X[.rXrXuX=X#Xd.$Xp.w.w.q.w.d.%Xd.d.d.u.r.+.+.E O.w.uXNXvXyX6X[.].O.O.O.m m Z : . . . . X j k k z w w v R R L L D L L R E E ! ! W W Q Q +.Q Q Q O.X.X.m C C Z '.9XHXJXcX'.l X X @ $ & % % % 2 2 2 4 4 4 , 2 2 2 3 3 q w w v v m R R m m v w w v r r w c w 3 3 0 9 2 2 2 9 % * X * 2 c C '.9X9X9X[.'.&.&.C l 9 2 q 6 L o.%.N.F.I.T.I.U.U.U.U.U.U.I.I.T.U.U.U.I.!.U.H.H.U.A.A.A.S.A.S.S.A.A.A.Z.Z.S.Z.S.A.S.H.H.H.U.Y.Y.Y.~.Y.Y.U.U.U.S.!.S.!.H.A.U.!.U.U.!.U.U.Y.",
"5X3X@XOX+XY.Y.Y.Y.Y.Y.J.Y.Y.Y.Y.Y.Y.Y.Y.Y.U.U.Y.Y.Y.Y.Y.Y.Y.Y.Y.Y.Y.Y.Y.U.Y.Y.Y.T.Y.Y.U.Y.Y.Y.Y.U.U.U.Y.Y.U.U.Y.U.I.Y.I.Y.Y.Y..X.X.X.X.X.X.XXX.X~.~.Y.J.a.a.;.r.p.-XrXNXSXSXrX=XwXwXrXiXrXrX=X%Xf.i.r.y.r.r.i.$X:X=X=X=XwXeXwXeXeXeXeXeXeXeXeXeXh.g.s.g.g.h.%X%X%XeXrXrXrXtXtXtXrX=X:XeXiXtXwXuXiXpXNXNXNXNXNXNXAXAXZXZXAXAXAXAXnXSXqX<X8X5X@XW.7.' o.5X@XXXQ.4.o.` d n NXAXAXAXAXAXAXAXNXNXvXvXvXyX*X*X-X#X-X-X&X].*.E v r E q.w.p.p.w.w.p.d.p.-X=XrXrX*X*XrXrX*Xw.e.e.O.C Z Z Z M M M C C C C m M c w c c v m m m m m v r r L R R R R E E R R R R v v r w w q 0 k C ].MXJXmX'.:   . . @ & & y % 2 2 2 2 2 4 4 o o 4 o 4 4 4 4 4 4 3 0 0 k k 2 2 4 4 2 2 9 9 9 % * X X . = N Z {.hXmXmX].&.C l c c k q 2 1 q q x U X.o.6.C.I.T.R.R.R.U.T.R.R.Y.T.U.Y.Y.Y.U.U.Y.U.U.U.S.U.S.S.A.S.C.S.S.A.A.A.Z.S.S.S.S.S.H.H.H.U.U.U.Y.Y.Y.Y.U.U.U.S.U.S.U.U.S.U.U.U.U.U.Y.U.Y.",
"@X3XOXOX+XY.Y.Y.Y.Y.Y.J.Y.Y.Y.Y.Y.Y.Y.Y.Y.U.U.Y.Y.Y.Y.Y.Y.Y.Y.Y.Y.Y.Y.Y.U.Y.Y.Y.T.Y.Y.U.Y.Y.Y.Y.U.U.U.Y.Y.U.U.Y.U.I.Y.I.Y.Y.Y..X.X.X.X.X.X.X.X.XOX~.Y.XXa.t.h.h.:XsXSXNXrX*X7XaXrXuXiXiXrX=X%X$Xi.i.i.y.r.+.+.q.d.#X=XeXwXwXwXwXwXwX%X%Xg.g.d.u.s.s.s.g.g.g.%XwXwX=XwXrXtXpXiX=X%X%X%X%XwX%XwXwXrXtXvXNXNXNXNXNXAXAXAXAXAXAXAXZXZXAXqX<X<X@X+XJ.7.' I XXJ.+X5.4.6.' u ].JXnXAXAXAXAXAXVXnXvXvXvXNXNXNXtXrX#Xw.#XrXuX:X#Xp.f.:X:XeXeX:X%Xd.$X%X:XwXrXpXpXpXpXpXpXiXiXpXpXNXSXsXpXvXtXpXpXSXuXrX=X#X*.O.E m m v c c c m m m m R R v r r r w r r r r r e w e w e r w w 3 2 * l &.}.cX9X'.Z j $ O X X O & & & & 2 1 y 2 2 2 2 2 2 2 2 2 1 y 2 l l l l j * X . . . @ : C Z '.}.}.}.|.Z Z :   . X * 2 3 3 3 0 3 w c v o.o.#.6.6.S.I.R.R.R.R.R.Y.R.R.Y.T.I.Y.Y.Y.U.Y.Y.!.U.U.S.U.S.S.S.S.A.A.A.A.A.A.S.S.S.S.S.S.H.H.H.U.Y.U.Y.Y.Y.Y.U.U.U.S.U.S.U.U.S.U.U.U.U.U.Y.U.Y.",
"3X3XOXOX+XY.Y.Y.Y.Y.Y.Y.Y.Y.Y.Y.Y.Y.Y.Y.Y.U.U.Y.Y.Y.Y.Y.Y.Y.Y.Y.Y.Y.Y.Y.U.Y.Y.Y.^.Y.Y.U.Y.Y.Y.Y.U.U.Y.Y.Y.U.U.Y.U.I.Y.I.Y.Y.XX.X.X.X.X.X.X.X.X.XXXOXXXXXi.j.i.%XaXiXrX=XwXiXpXiXiXiXiXuX=X=X%Xf.f.i.t.y.y.r.u.u.u.f.%X:X%X%XwX%Xg.g.g.g.g.d.s.u.u.u.g.%X%XwXwXwXrXiXpXtXtXrX=X$Xf.d.#X=Xh.g.#XrXtXvXNXVXVXnXAXAXAXAXAXAXAXAXAXAXZXAXMXoX3X@X+XJ.4.| F #.W.5.5.4.4.P C AXAXAXAXZXAXVXVXVXnXnXvXvXtXNXNXcXtX=Xw.+.w.#XwXrX=X#Xd.d.d.$X:XeX=X=X=X=XuXiXtXpXpXpXNXNXSXSXSXSXNXpXpXvXtXyXrX*X#Xd.q.w.O.m c c m m v v R R E E E E E E E E E E E E E E R R R R R R R v r r c r w q 3 3 k O.].6X9X9X].&.Z : : :     . X X X O O O O X X O #   . . . .   : l Z Z '.'.|.}.}.{.'.Z C j X . X @ & & 1 1 2 4 2 4 1 3 0 9 0 w 6 7 ` <.5.H.I.R.I.I.R.Y.Y.R.R.Y.T.Y.Y.U.Y.U.Y.Y.!.U.U.S.U.S.S.S.A.A.A.A.A.A.Z.S.S.S.S.S.S.H.H.H.U.Y.Y.Y.Y.Y.Y.U.U.U.H.U.A.U.U.S.U.U.U.U.U.Y.U.Y.",
"3X3X.X+X+XY.Y.Y.Y.Y.Y.Y.Y.Y.Y.~.Y.Y.Y.Y.Y.U.U.Y.Y.Y.Y.Y.Y.Y.Y.Y.Y.Y.Y.Y.U.Y.Y.Y.^.Y.Y.U.Y.Y.Y.Y.U.U.Y.Y.Y.U.U.Y.Y.I.Y.Y.Y.Y.XX.X.X.X.X.X.X.X.X.XXXXXXXXXa.a.$XuXrXrXrXaXaXpXrXtXiXuXrX=X=X%X$Xf.i.t.y.-.-.r.u.$X%X=X=X=X=X=X=X=X=X=XwXeXeXeXeXeX%XwXwXrXrXwX=X=XiXiXpXpXtX*Xd.f.d.uXaX=Xd.g.aXNXNXAXVXvXnXnXAXAXAXAXAXAXAXAXAXAXAXAXMX XXX@XXXJ.7.| 8 o.5.4.=.4.o.b tXAXAXAXAXAXZXVXVXVXnXnXvXvXtXtXyXyXyX7X#Xw.w.w.w.[.[.p.d.#Xd.d.d.%X-XwXwXwXwXrXrXiXaXrXrXrXrXtXNXSXSXSXNXtXrX*X*X[.e.e.O.O.O.].].e.O.E R E E E E ! ! E ! ! ! ! E E E E E E E E E E E R v w w q w 3 3 w w r w z 0 c C C &.].}.}.}.}.}.{.'.x.Z Z Z C Z C C C N Z Z Z Z '.|.}.}.}.}.|.'.Z N : =   . . X $ % & & $ % 2 2 1 2 2 2 2 2 2 2 2 2 4 s _ o.<.<.A.U.T.I.I.R.Y.Y.R.R.Y.T.Y.Y.U.Y.U.Y.!.U.U.U.S.U.S.S.S.S.S.S.S.A.A.A.S.S.S.S.S.S.H.H.H.U.Y.Y.Y.Y.Y.Y.U.U.U.H.U.A.U.U.S.U.U.U.U.U.Y.U.Y.",
"+X3XOXOXOXY.Y.Y.Y.Y.Y.Y.Y.Y.Y.Y.Y.Y.Y.Y.Y.Y.H.Y.Y.Y.Y.Y.U.U.U.U.Y.Y.Y.Y.Y.Y.Y.Y.^.Y.Y.U.Y.Y.Y.Y.U.U.U.U.Y.U.U.Y.Y.Y.Y.Y.Y.Y.Y..X.X.X.X.X.X.X.X.XXXXX.XXXoX-X7X7XrXrXrXuXaXuXrXpXaXuXuX=X=X%X%Xf.j.t.-.+.+.Q O.*.w.[.6X6XtXpXNXSXSXNXpXpXiXuXuXwXwXrXpXpXtXrX=X-X#X=XuXrX*X-X#XrXNXSXpX7XrXNXSXvXvXnXAXnXNXvXNXnXnXZXAXAXAXAXAXAXAXAXVX].F.~.XXJ.4.' S I 4.:.| =.v 6XJXAXVXAXAXNXnXAXAXnXnXvXnXNXNXpXtXyXvXtXrX7X&Xw.q.w.$Xd.w.p.d.#X#Xd.d.#X%XwX=X=X%X%XeXsXSXSXSXpXrX&X*X*XrXpXSXSXLXKXLXLXLXAXmX}.&.C M k M m R E ! ! ! ! ! ! ! E E E E E E Q E E E E R r q 3 3 1 3 0 0 0 0 w 0 z z c m v v v m c m X.O.*.].&X9X6X&X[.].'.e.&.&.&.'.].].].O.l : # . O . . O @ - - - & & & & & & & % % 2 2 2 2 2 2 2 2 2 1 2 3 6 d ) #.6.U.T.I.Y.Y.R.R.Y.Y.Y.T.T.T.T.T.Y.Y.!.!.U.U.U.S.U.U.S.S.S.S.A.A.S.C.C.S.E.E.W.W.S.H.H.H.U.Y.Y.Y.Y.Y.Y.U.U.U.U.U.U.U.U.U.U.!.U.U.U.U.U.U.",
"+X3X+XOXOXY.Y.Y.~.Y.Y.Y.Y.Y.Y.Y.Y.Y.Y.Y.Y.Y.H.Y.Y.Y.Y.Y.U.U.U.U.Y.Y.Y.Y.Y.Y.Y.Y.T.T.Y.U.Y.Y.Y.Y.U.U.U.U.Y.U.U.Y.Y.Y.Y.Y.Y.Y.XX.X.X.X.X.X.X.X.X.X.X.X.X<XqX*X=X7X7XrXrXrX7XuXpXrXrXuXrX=X=X=X%Xd.r.+.+.O.O.w.#X7XtXNXNXpXpXiXrX*X*X&X*X#X#X#X#X#X#X*XrXyXtXrX=X#X=XuXrXwXiXpXpXSXNXAXNXNXAXnXnXNXnXnXNXNXNXvXNXNXnXZXnXAXAXAXAXAXAXAXnXtX*.6.F.+X=.o.I J =.=.| I oXSXAXAXAXVXNXNXAXvXvXNXnXAXvXvXNXpXvXvXtXtXyXyXrXuXuXp.+.O.O.w.$X=X%Xd.%X%X%X%X$X$Xg.u.w.w.e.[.e.w.-XaXuX=X*X[.].e.&.e.].}.6XvXNXVXJXSXtX&Xe.O.m R E O.Q +.+.+.+.+.+.+.+.+.+.+.Q Q E E E E v r 0 3 3 3 3 3 3 0 3 6 w w 6 w w w e L L v v c c m m C X.O.O.O.O.O.X.m c c q 2 * % % % & $ $ & & & @ @ # $ & & & & $ $ % % % % % & & & 2 2 2 2 4 n o.%.B.H.U.H.I.T.Y.Y.R.Y.Y.Y.Y.Y.T.T.T.T.Y.Y.!.!.U.U.U.L.U.U.S.S.S.S.S.S.S.A.Z.S.E.E.E.W.H.H.H.H.U.Y.Y.Y.Y.Y.Y.U.U.U.U.U.U.U.U.L.U.!.U.U.U.U.U.U.",
"@X3X+XOXOXY.~.Y.~.Y.Y.Y.Y.Y.Y.Y.Y.Y.Y.Y.Y.Y.H.Y.Y.Y.Y.Y.U.U.U.U.Y.Y.U.U.Y.Y.Y.Y.T.Y.Y.U.Y.Y.Y.Y.U.U.U.U.Y.U.U.Y.Y.Y.Y.Y.R.Y.Y..X.X.X.X.X.X.X.X.X.X<X<X<X<X7X7XrXrXrXrXrXiXpXtXiXpXtXwXwXeX-Xw.w.e.[.[.9XNXSXSXSXaXeX%Xg.g.g.g.s.s.u.u.r.t.t.t.i.d.%X*XrXyXtXtXrXtXpXvXNXAXAXNXNXSXNXNXNXAXnXNXvXvXNXvXtXtXpXpXNXAXnXAXAXAXAXAXAXAXZXnXVX&XX.6.+X=.' Y J =.' I *.SXNXAXVXAXVXNXNXnXvXvXnXAXnXnXvXvXpXNXNXNXtXrX*X[.w.w.uXaX-X+.E m R R q q E +.+.+.+.+.w.w.e.O.O.m v R O.O.O.w.w.6XNXrXe.m m E O.E m v O.].9XVXLXJXSX7X[.&.O.O.+.+.+.+.+.+.+.+.+.+.+.+.E L r w e v x x x x x v v v e e w w w q w 6 w 6 3 q w w r w r v v v m R E E R m R m R m m m k 1 % & + & O O O O @ @ $ $ $ $ $ $ $ $ $ $ @ @ $ % 2 2 2 3 3 X.%.C.H.U.U.U.I.Y.Y.Y.Y.Y.Y.Y.Y.Y.Y.T.T.Y.Y.!.!.U.U.U.S.U.S.U.S.S.S.S.S.A.S.S.Z.E.E.S.H.H.H.H.H.U.Y.Y.Y.Y.Y.Y.U.U.U.U.U.U.U.U.L.U.!.U.U.Y.I.U.U.",
"@X@X+XOXOXY.~.~.~.Y.Y.Y.Y.Y.Y.Y.Y.Y.Y.Y.Y.Y.H.Y.Y.Y.Y.Y.U.U.U.U.U.U.U.U.Y.Y.Y.Y.T.Y.Y.U.Y.Y.Y.Y.U.U.U.U.Y.U.U.Y.Y.Y.Y.Y.R.Y.Y..X.X.X.X.X.X.X.X.XXXXX<X<XqXqXqXrXrXrXrXrXiXpXpXpXtXrXrX=X#X=XiXSXSXJXSXNXtX6X[.#Xw.u.u.u.u.t.y.y.t.i.s.s.h.s.s.s.f.=XrXtXNXNXNXNXNXNXAXAXAXAXNXSXNXNXnXvXvXNXpXNXpXrXrXrXrXpXpXNXnXAXAXAXAXAXAXAXZXZXnXvXJX].X.6.5.Y ' S | Y X.CXNXvXVXAXAXVXNXNXvXnXnXvXvXNXnXNXNXNXNXNXNXNXNXpXuXp.e.e.[.#X=X-X$Xq.w.q.+.+.O.E E E Q +.*XpXuXp.*.E e e w w w w M M e.w.w.O.r w q 3 0 0 2 j j M Z &.[.iXNXSXNX=X$Xp.w.w.q.q.q.q.+.+.O.E r e w 6 6 3 6 w w w x v v v R E E R m v v v x w c w w r r r r r v v R R v v v r v r r w q 0 9 1 % & & # O O O O @ @ @ $ $ $ $ $ $ $ $ $ $ * * % 2 2 3 X.o.N.U.A.U.U.I.Y.Y.Y.R.Y.Y.Y.Y.Y.Y.Y.T.T.Y.Y.Y.!.U.U.U.S.U.S.U.A.S.S.A.A.C.H.H.Z.S.E.S.H.H.H.H.H.Y.Y.Y.Y.Y.Y.Y.U.U.U.U.U.U.U.U.U.U.!.U.U.Y.I.U.U.",
"3X3XOXOXOX~.~.~.~.Y.Y.Y.U.U.~.~.U.U.U.U.Y.Y.H.Y.U.U.U.J.U.U.U.U.U.I.T.Y.Y.Y.T.Y.Y.Y.U.J.Y.Y.U.U.H.H.U.U.U.U.Y.Y.Y.Y.Y.Y.Y.Y.Y..X.X.X.X.XOXOX.X.X.X@X<X<X<X8XqXqX7XuXuX7XiXpXiXrXyXyXtXNXJXJXSXMX=X#Xu.r.+.+.+.w.d.#X%X%X=XwXwXeXeXeXeXh.h.g.s.f.$X-X6XVXVXVXVXVXVXVXVXnXnXnXnXnXNXAXAXNXNXpXpXuXwX%XwXwX*XiXNXVXAXAXAXAXAXAXAXAXnXnXVXVXcXJX*.U 6.o.o.8 ' o.<XSXVXAXnXVXVXVXNXvXvXvXvXvXvXtXNXNXNXNXpXtXtXtXpXNXNXSXNXtXtXtX[.e.O.O.q.w.d.%X=X*X&Xe.E E O.e.#X-X%Xp.+.E E E m m E C M j j e.*X].&.m k q w e R E O.E R m m O.e.-XpXSXSXNXyX}.e.O.M 9 9 0 z w w w w 3 3 3 3 4 3 3 0 w w r v m m E E X.X.X.E v R R v v R E E E v c w 0 0 0 0 3 3 1 9 9 9 & * @ @ # # @ O @ @ # @ @ @ @ $ $ % % % % % % % % 1 u x _ #.<.6.C.G.I.R.I.R.Y.Y.Y.T.T.T.T.T.T.T.T.Y.Y.U.^.U.U.H.H.U.H.H.A.S.S.S.A.S.S.S.S.S.S.S.H.H.H.H.H.Y.Y.Y.Y.Y.U.U.Y.H.H.H.H.H.H.H.H.L.U.U.L.U.U.U.U.",
"3X3XOXOXOX~.~.~.~.~.Y.Y.U.U.~.~.U.U.U.U.Y.Y.H.Y.U.U.U.H.U.U.U.U.U.U.T.Y.Y.Y.T.I.Y.Y.U.J.Y.Y.Y.U.H.H.U.U.U.U.Y.Y.Y.Y.Y.Y.Y.Y.Y..X.X.X.X.XOXOX.X.X.X<X<X<X5X5X<X-X-X:X7XpXpXtX7XiXNXSXSXNX7X&X[.[.w.r.+.Q Q +.i.:XeXuXaXaXaXuXwXwX*X#Xd.d.d.d.d.#Xw.&XNXVXVXVXVXVXVXNXNXNXZXNXNXNXNXpX6XrX7XwX=X=X%XwXuXuXrXNXAXAXAXAXAXAXAXAXAXAXAXVXVXVXvXvXCXX.o.o.o.S Y XXqXtXAXAXAXNXNXVXNXNXvXpXpXpXtXNXyXtXtXpXNXpXrXtXtXtXtXvXNXAXNXSXSXNXpX*Xw.w.p.wXpXpXNXpXwX%X$X#Xw.*.O.m E O.E X.X.w.p.aXSXSX].C M Z [.MXNX7X*.E w 6 r R O.+.q.+.O.O.O.&.e.[.yXAXLXJXVX6Xe.C k 2 o o % 2 2 1 1 1 1 0 0 0 w w w r w c r r r r c c v m m m m r q q q q k k k k 0 0 0 9 9 & & & $ @ @ # O X & : # # @ @ @ @ $ $ $ % % % % % % % 1 n ( o.#.6.J.J.Y.T.I.R.R.R.Y.Y.T.T.Y.T.T.T.T.T.Y.Y.I.Y.U.H.J.H.H.H.H.A.S.A.S.A.S.S.S.S.S.S.H.H.H.H.J.H.Y.Y.Y.Y.Y.Y.U.Y.H.H.H.H.H.H.H.H.L.U.U.L.U.U.U.U.",
"3X3XOXOXOX~.~.~.~.~.~.Y.Y.Y.Y.~.U.U.U.U.Y.Y.H.Y.U.U.U.H.U.U.U.U.U.U.T.Y.Y.Y.Y.Y.Y.Y.U.J.Y.Y.U.U.J.J.U.U.U.U.Y.Y.Y.Y.Y.Y.Y.Y.Y..X.X.X.XOXOXOX.X.X3X<X<X<X5X5X@X>X-X7XiX7X6XvXSXJXVXtX7X-X#X%X$Xp.+.+.Q +.q.u.$X#X%X%X%X%X%X%X#X#X#X*X*X[.rXyXrXrXtXVXVXVXnXnXvXvXNXNXNXvXpXpXpXpXuXp.p.$X-X#X*X=XrXpXNXNXAXnXnXAXAXAXAXAXAXnXnXVXAXAXnXVXnXvXtXoXE Y o.8 ) @Xw.7XNXNXvXAXVXvXvXvXtXtXpXpXtXrXpXtXyXtXtXpXtXrXrXrXrXpXvXnXAXnXNXNXSXSXAXSXSXSXNXpXrXuXwX=X=XrXrX*X&Xe.m c E X.E E O.O.+.uXKXKXVX&.& & C &XLXKXCX].C M c m E O.q.q.r.+.+.E E E O.&.].9XVXHXHXcX}.'.Z N = # O O $ & 1 3 3 3 w q w w c r r z c v c c M m m m m E E E m c 0 9 1 1 2 2 & & & $ @ # # O = N l = # # # @ $ $ $ $ $ $ $ % % % % % % 2 X.X.o.6.6.N.G.I.R.I.R.R.Y.Y.T.Y.T.T.T.T.T.T.Y.Y.G.U.U.H.H.H.H.H.H.A.S.S.S.A.S.S.S.S.E.E.H.H.H.H.H.U.Y.Y.Y.Y.Y.Y.Y.Y.H.H.H.H.H.H.H.H.S.!.U.S.U.U.U.U.",
"3X3XOXOXOX~.~.~.~.~.~.Y.Y.Y.~.~.U.U.U.U.Y.Y.H.Y.U.U.U.H.U.U.U.U.I.U.T.Y.Y.Y.Y.Y.Y.Y.U.U.Y.Y.U.U.J.J.U.U.U.U.Y.Y.Y.Y.Y.Y.Y.Y.Y..X.X.X.X.XOXOX.X,X,X,X<X<X<X@X@X@XqX7X6XyXSXSXpX7X7X7X=X%X;X;Xf.s.s.h.>X;X;XeXeXeXaXeX%X%X%X=XrXrXrXpXNXSXSXrX*XrXvXvXNXNXnXvXvXtXrXrXrXrXrXyXyXrX=Xd.#X=XuXaXNXNXNXNXZXAXZXnXZXnXAXAXAXAXAXnXnXVXVXVXnXnXvXtX6XuX+.o.6.F o.oX7XpXNXNXyX6XyXVXcXNXtXtXrXwXpXtXwXpXiXrXrXrXrXrXuXrXrXtXtXpXvXNXNXNXvXvXvXvXtXtXtXiXrX*X#X-X=XrXpXtXNXNXtX].m m O.O.*.O.m q M [.FXKXLX].l @ : Z }.LXKXJXMX*X].w.O.E E E O.E E R v 0 9 j j l C Z '.}.hXhX}.{.x.Z Z C l c c c c M m m X.O.O.O.*.w.e.w.*.&.X.C m c q 9 9 2 2 2 2 2 2 2 % % % $ & @ & l C j : : # # @ @ $ $ $ $ % % % % % % % % 2 2 3 b _ o.%.6.6.N.I.T.R.R.Y.Y.T.Y.Y.T.T.T.T.T.I.I.I.U.U.H.H.H.H.H.H.A.S.S.S.A.S.S.S.S.E.S.H.H.H.H.H.U.Y.Y.Y.Y.Y.Y.Y.Y.U.H.H.H.H.H.H.S.S.!.U.S.U.U.U.U.",
"3X3XOXOXOX~.~.~.Y.Y.Y.U.~.U.U.~.Y.Y.Y.Y.Y.U.U.Y.U.U.U.U.U.U.J.U.Y.Y.Y.Y.U.Y.Y.U.Y.Y.U.U.Y.Y.U.U.J.U.U.Y.Y.U.U.Y.U.Y.Y.I.Y.Y.Y..X.X.X.X.X.X.X.X,X,X,XXX5XXXXX@XqX&X9XSXJXNXrX=X:X:X:X%X%X;X;X;XeX;X;Xf.f.g.s.s.q.w.d.*XrXtXNXAXAXVXNXNX#Xq.r.w.-XpXNXNXpXyXvXpXrX%X%X%XwXiXpXvXvXvXpXvXvXAXNXNXNXZXnXnXAXAXAXAXAXnXnXnXnXAXnXAXAXAXVXAXvXtX7XrX7X#X$X*.D U oXrXNXvX6XcXtX6XtXNX*X*X=X=X*X#X=XrXrXrXiXrXiX7X=XuXrX=X-X-XuXiXrXtXpXtXrXrXrXwX=X*X=XwXuXrXwX*X*X[.6XtXvXAXHXAXyX'.Z Z e.w.e.m 2 0 X.9XLXKXVXZ l & l '.VXKXKXLXAXNXtX[.O.C c c w r w r w w z z w 3 0 c n X.&.e.].].[.].].].e.e.&.&.&.O.&.e.[.].&.&.C c w w w 0 0 0 0 9 9 2 9 2 2 % 2 2 2 2 9 j j l l l l j & - & & & & & 9 9 9 1 1 1 2 2 1 1 3 3 6 d _ #.%.%.<.A.R.I.R.I.Y.T.Y.T.T.Y.^.U.Y.Y.T.Y.I.Y.Y.H.H.H.H.H.H.A.S.S.S.S.S.S.S.S.W.S.W.H.A.H.J.Y.U.U.U.Y.Y.Y.Y.Y.U.U.H.H.H.H.H.S.S.U.U.!.U.U.I.I.",
"3X3XOXOXOX~.~.~.Y.Y.Y.U.~.U.U.~.Y.Y.Y.Y.Y.U.U.Y.U.U.U.U.U.U.U.U.I.I.Y.Y.U.Y.Y.U.Y.Y.U.U.Y.Y.U.U.J.U.U.Y.Y.U.U.Y.U.Y.Y.I.Y.Y.Y..X.X.X.X.X.X.X.X.X3X3X3X,XXXqX-X&XCXJXcX9XrXuXeX;X;X;X;X;X$Xf.u.u.r.r.q.q.q.q.u.g.wXaXSXSXSXAXNXtX&Xw.+.+.;.-.r.;X=X*X*X6XtXvXpXrXwXwXuXpXpXNXAXAXZXZXZXZXZXAXAXvXnXZXnXAXAXAXVXVXVXnXnXnXnXAXnXAXvXvXSX7X*X*X7X6X#X$Xa.U U oXrXtXvXyXyX6X7X*X*XiX*X[.*XrXrX&X*X=XuXrXrXrXiXuX*X*XuXuX=X#X-XwXrX7XrXrXwX#X#X#X*X*X*X*X*XrXiXpXiXtXrXtXtXyXyXAXJXHXcX].O.O.O.m m k 2 j Z 9XJXJXiXe.c l Z 9XHXnX[.'.}.cXVX9X].&.E m m v x e x e e z c z 0 0 c k l l l j - j l l C X.&.e.&.&.O.C c 0 w w w w 3 3 3 3 4 2 2 2 9 9 9 0 0 k c c c c k k 0 9 k l l j j 9 9 9 9 9 k k z k k c c z z v E U X.%.%.N.G.I.I.I.R.I.Y.T.Y.T.T.Y.T.T.T.U.Y.Y.I.Y.U.H.H.H.H.H.H.A.S.S.A.A.S.S.S.S.E.S.H.H.A.H.H.Y.U.U.Y.Y.Y.Y.Y.Y.U.U.H.H.H.H.H.S.S.U.U.U.U.Y.I.I.",
"3X3XOXOXOX~.~.~.Y.Y.Y.U.~.U.U.~.Y.Y.Y.Y.Y.U.U.Y.U.U.U.U.U.U.U.U.I.I.I.I.U.Y.Y.U.Y.Y.U.U.Y.Y.U.U.J.J.U.Y.Y.U.U.Y.Y.Y.Y.Y.Y.Y.Y..X.X.X.X.X.X.X.X.XOX.XXX<X<X9XMXJXCX9X6XtXiXrX=X;X;Xh.g.s.u.r.r.+.+.-.-.r.u.%XrXtXSXSXpXuXd.w.u.r.+.-.-.~ Q t.s.u.w.[.6XvXVXNXvXvXtXpXNXNXnXAXAXAXAXAXAXAXVXvXVXAXAXAXAXAXAXVXVXVXVXAXnXnXnXnXAXZXyXcXpX*XoX=XqX&Xw.$Xa.U x -X7X6XtXNXrXtXtXtX[.7XtXtX7XtX7XtXtX6X#XeX=X=XrXrXrX*X*XrXuXuXwX-X#XwXrX*X*X-X=X=XrX[.wXpXrX[.w.p.=XuXrX*X*X*X[.[.#X&XNXKXKXKXvX}.&.C l k 2 4 w O.p.:X:XoXO.m C 6XLXnX'.C C &.9XSXSXNX6X[.&.&.C O.C c c 0 0 3 4 3 0 0 n n C C C C E m X.0 3 2 4 3 0 c r e e e v v v v v c c w q q 0 0 w w 0 0 1 0 c c C m c 0 0 0 0 0 q 0 0 0 z z z z c c k 0 0 c z P ) #.N.G.A.I.I.I.R.I.Y.T.Y.T.T.T.T.^.Y.I.T.Y.I.Y.U.H.H.U.H.H.H.A.A.A.A.A.S.S.S.S.S.A.H.A.H.!.H.Y.U.U.U.Y.Y.Y.Y.U.U.U.U.H.H.H.H.S.S.U.U.U.U.U.I.I.",
"3X3XOXOXOX~.~.~.Y.Y.Y.U.~.U.U.~.Y.Y.Y.Y.Y.U.U.Y.U.U.U.U.U.J.J.U.I.I.I.I.I.Y.Y.U.Y.Y.U.U.Y.Y.U.U.U.J.U.Y.Y.U.U.Y.U.Y.Y.Y.Y.Y.Y.T.T..X.X.X.X.X.X.XXXXX8X9XMXLXJX9X6X9XMXNXiXrX=X:X%X$Xg.f.i.u.u.r.t.i.s.g.g.wXpXSXtXrX-Xf.u.r.-.y.y.~ W Q i.i.r.u.-XrXNXAXAXnXvXvXvXZXAXZXAXAXAXAXAXAXAXAXvXNXVXVXAXAXAXAXVXVXVXVXAXAXnXVXvXVXvXyXyXNX=XoX#X-X=Xw.p.a.;.U w oXpX6X*X7XrX[.*XpXpXNXtX[.6XtXcXvXcX7Xw.&.w.*X*X=X7X*XrXrX6X7X=X=X-X#X#XrXwX[.[.7XNXSX&Xe.7XNX&Xw.O.C O.w.w.O.w.+.+.*.O.&.vXKXLXKXKXJXMX&Xw.O.m c c m X.+.a.f.w.O.&.6XLXLX6XC : : Z [.tXNXSXSXtX9X[.[.].].&.C m m v n n c m m c c w 3 3 3 3 3 3 3 3 0 w e r x r v L E E O.+.+.+.+.+.O.X.E E X.O.O.O.m c k k q q 0 0 0 0 0 w c z z z z 0 0 0 c z 0 w 6 P _ ` #.<.A.I.I.I.I.Y.T.Y.T.T.Y.T.T.U.T.Y.Y.I.Y.H.H.H.~.H.H.H.A.S.A.A.A.S.S.S.S.S.C.S.A.H.!.H.Y.U.U.U.U.Y.U.U.U.U.U.H.H.S.S.S.S.S.U.U.U.U.U.Y.Y.",
"@X3X+X+X+X~.~.~.~.~.!.H.!.H.U.~.Y.Y.Y.Y.U.U.Y.Y.U.U.U.H.U.U.U.U.U.U.U.Y.I.Y.Y.I.U.U.U.U.U.U.U.U.U.U.U.U.Y.U.U.Y.U.Y.Y.Y.Y.Y.Y.Y.T.T..X.XT.3X.X X<X9XcXJXJX9X&XqXCXCXiX6X7X=XwXwX=X=X%X%X%X%X%X%X-X%XwXuXaXaXrX=X*XwX;Xs.q.q.s.j.-.W r.>Xa.w.#XuXNXSXSXVXvXVXAXAXAXAXVXnXVXVXVXVXAXVXNXNXNXNXNXNXAXZXAXZXZXZXZXZXnXAXvXvXNXtX7X*X7X#Xw.w.$X-X-Xw.r.a.;.U 4 ].tXtX[.-X7X7X*X&XrX7XtX6Xe.6XcXNXvXcXtX&Xw.].=X=X*XrX6XyXNXpXrX#Xw.w.u.#XpXvXyX].O.O.*.O.c e.NXtX6X&XO.R R L w v E E X.E M 7XSX}.[.SXKXKXLXKXJX}.Z M k r D ! E +.+.O.&.*XJXKXDX'.l 9 c X.*.oXiXFXHXvX6X[.].[.[.].].w.e.*.O.X.m z w z x w w 3 w 3 3 w 6 6 w w e e v v L R R E E E O.O.O.O.X.E R x c z q c c c c k 0 0 1 0 k c k 0 3 0 0 0 0 0 3 v X.X.6.6.N.I.I.U.I.I.T.I.I.Y.Y.Y.T.T.Y.Y.Y.Y.Y.Y.Y.U.H.H.!.!.H.H.H.H.H.S.S.Z.S.S.S.S.S.!.S.S.A.U.U.U.U.U.Y.Y.Y.Y.U.U.H.H.H.H.U.U.U.U.U.U.U.U.H.!.!.H.",
"@X3X@X@X+X+X~.~.~.~.!.H.!.H.U.~.Y.Y.Y.Y.U.U.Y.Y.U.U.H.H.U.U.U.U.U.U.U.U.I.Y.Y.I.U.U.U.U.U.U.U.U.U.U.U.U.Y.U.U.Y.U.Y.Y.Y.Y.Y.Y.Y.T.T..X.XOX.X X8X9XVXKXMX]. X<X8X9X[.&XtXiXiXuXuX=X=X=X=X=X=X7XrXpXpXpXtXrXwXrXwXwXg.r.Q t.h.r.Q +.p.%X#X:XSXSXSXNXNXNXNXSXAXvXvXvXvXNXNXvXvXNXNXNXNXNXSXNXNXNXNXAXAXAXZXZXZXZXZXnXvXNXtXtX7X*X-X#X#X#X#X$X#X:XO.a.r.=.D o *.yXSX7X&X&X&XrX*X[.7X*XrXpX*XyXyXcXyXyXtXpX7X7XuXrXrXvXyXyXNXpX*XuXw.O.w.}.yXvXSX7Xm v m c l Z '.&.M M z 3 w v r w v v R R w 7XKX'.l C &.&.].MXKXKXLX*XO.R r w w v R m M M &.tXKXKX6XX.0 0 c m C e.9XJXSXyX'.Z Z C Z Z C O.O.O.O.m z w 0 0 0 w w w r x x v v L R E E E E E E E E E E E E E E E R m c m m c 9 9 9 1 1 2 2 2 2 2 2 2 2 3 1 2 2 4 3 x _ %.N.N.G.U.U.U.U.Y.Y.Y.Y.Y.Y.Y.Y.Y.Y.Y.Y.Y.U.Y.U.H.H.W.W.H.H.H.S.W.S.S.Z.S.S.S.S.S.S.!.S.A.U.U.U.U.U.Y.Y.Y.Y.U.!.U.H.H.H.U.U.U.U.U.U.U.U.H.!.!.H.",
"@X3X@X+X+X+X~.~.~.~.!.H.~.H.U.~.Y.Y.Y.Y.U.Y.Y.Y.U.U.H.H.U.U.U.U.U.U.U.U.I.Y.Y.I.U.U.U.U.U.U.U.U.U.U.U.U.U.U.U.Y.U.Y.Y.Y.Y.Y.Y.Y..X.X.X.XP. X9XcXLXFX<X X XXXXX<XoX6XNXpXpXpXuXuXrXrXrXrXrXiXaXsXrXrXrXrXiXrXrXwXd.q.r.h.h.+.E q.&XiXsXSXsX=X7XpXNXSXSXNXvXvXNXSXNXNXpXtXtXtXpXpXtXpXNXNXtXvXNXNXNXNXNXnXZXnXnXnXnXnXtXtXtX7X&X*X=X=X=X=X-X>X*.+.i.;.+.6 o C 9XNXNX6X7X*XNXtX&X7XtX6XrXNXvXcXvXvXyXyXvXvXvXtXrXrXtXNXNXtXNXvXvXNXrXe.6XvXvXyXyX6XO.&X6X}.'.'.[.yX].Z C m q c v e e 6 6 w 2 ].KXcXZ M E R R E w.NXKXKXJX6Xe.C c q q w w e 6 n c.BXKXVXe.M j c v v E w.NXJXHXmX[.e.&.O.O.m m m m O.C M k 0 0 0 0 0 w w r v v R R E O.O.O.O.O.+.+.+.O.O.O.O.O.X.C M l : : l j & & & 2 2 2 2 2 2 2 2 2 1 0 k z x P _ o.%.N.A.U.U.U.I.Y.Y.Y.Y.Y.Y.Y.Y.Y.Y.Y.Y.U.U.U.U.H.H.H.H.H.H.H.S.W.S.S.S.S.S.S.S.S.S.!.S.S.U.U.U.U.U.Y.Y.Y.Y.U.!.U.U.H.H.H.H.U.U.U.U.U.U.H.U.!.H.",
"@X3X@X+X+X+X~.~.~.~.!.H.~.H.U.~.Y.Y.Y.Y.U.Y.Y.Y.U.U.U.H.U.U.U.U.U.U.U.U.U.Y.Y.I.U.U.U.U.U.U.U.U.U.U.U.U.U.U.U.Y.U.Y.Y.Y.Y.Y.Y.Y..XXXXX X2XkXVXKX8Xc.XXOXXX.X.X@XqXaXpXtXiXiXuXuXrXrXiXiXNXpXrXrXiXpXtXwXrXuX#Xw.u.f.>Xp.+.w.$XsXSXsX*Xw.w.#X7XNXNXvXvXNXSXSXSXNX6XrXrXtXpXpXtXtXpXpXtXvXAXNXVXAXNXNXNXAXnXnXnXnXvXyXtXpXrX7XrXrXrXrXrX*X-Xw.+.;.a.;.o.4 , y &.MXtXyX6X6XyXMXMX6XtXtX6XyXtXNXNXvXvXyXyXmXvXvXtXrXrXtXNXvXvXvXnXnXAXAXyXyXVXAXvXNX6X].yXAXJXAXvXnXLXnX[.}.[.&.c m m X.v z k 9 C yXKXaXw.E ! E m m O.[.SXKXKXAX6X].O.E v v L v 1 j C '.NXSX6XO.w c E E O.].yXAXJXcX6X].O.C C C c c M m C m m m m c c r w w w w v m R R E E O.O.+.O.+.O.O.O.C C C C Z '.&.M 9 2 & 2 1 1 1 1 1 9 1 1 1 1 1 u n P o.<.6.G.N.I.U.U.I.I.Y.Y.Y.Y.Y.Y.Y.Y.Y.Y.Y.Y.U.U.U.U.H.H.H.H.H.H.H.S.W.S.S.S.S.S.S.S.S./.S.S.S.U.U.U.U.U.Y.Y.Y.Y.U.!.U.U.H.H.H.H.U.U.U.U.U.U.H.U.!.H.",
"3X3X@X+X+X+X~.~.~.!.U.H.~.H.!.!.U.Y.Y.Y.U.U.Y.Y.Y.Y.U.U.U.U.U.U.I.Y.Y.Y.U.U.U.U.U.U.U.J.U.U.U.U.U.U.U.U.Y.Y.Y.Y.Y.Y.Y.U.Y.Y.Y.^.Y.XX X2XhXVXLX<XP.3X3X.XXXXX+X@XoX:X:X=XuXiXpXNXpXNXpXpXrXrXtXtXtXrXrXiX=Xw.p.$X>Xf.a.p.*XSXLXaXu.+.r.f.%X#XrXyXvXAXSXJXNXpXrXrXtXpXNXNXNXvXNXvXnXVXAXAXAXAXAXAXNXAXAXnXnXvXVXVXyXtXpXrX6XtXtXrX6XrXrX&Xw.q.a.a.;.;.v X , y u ].MXyXyXyX[.7XtXMX6XtXyX6X7X6XpXNXnXvXvXtXpXNXpXvXyX6XvXyXvXvXvXnXvXvXAXtXyXyXZXAXLXAXvXyXyXNXAXnXmXvXnX}.}.vXvXyX}.].e.&.C c 0 3 C 6XJXSX].X.m E Q W E w.NXKXLX}.[.6X&Xe.M q z z w 4 6 C [.JXVX'.M 9 c E +.w.6XNXDXnXmX}.].&.Z C m m c c v v m m m E m X.m m m m m m m m R m R E E m m X.O.&.].6X].C k 2 9 0 0 0 0 0 0 0 0 0 0 0 1 1 0 3 z P _ o.6.G.G.G.G.I.I.I.R.Y.Y.Y.Y.Y.Y.Y.Y.Y.Y.Y.Y.Y.Y.Y.U.!.!.!.H.H.H.H.W.E.S.S.S.W.S.E.S.E.S.S.S.H.U.U.U.U.Y.Y.Y.Y.U.U.S.S.S.S.S.S.S.S.!.H.U.H.U.U.U.U.",
"3X@X@X+X+X+X~.~.~.!.U.H.~.H.!.!.U.Y.Y.Y.Y.Y.Y.Y.Y.Y.Y.U.Y.U.U.U.I.Y.Y.Y.U.U.U.U.U.U.U.U.U.U.U.U.U.U.U.U.Y.Y.Y.Y.Y.Y.Y.U.Y.Y.Y.T..X X<XCXJXCX XXX3XOXY.R.XXXX.X@XoXf.$X=XiXpXNXNXNXpXtXrXpXpXpXtX6XiXrX[.-X=XrX-X#Xw.-XaXJXiXw.O.q.s.;X>X%XuXsXSXLXJXyXyXtXrXtXsXNXvXvXvXvXNXNXVXVXAXAXAXAXnXAXAXAXAXNXvXvXNXNXtXyXvXtXrXtXtXyX6X6X7X6Xw.w.p.p.a.6.*.2 X y y 2 1 ].6X}.yX7X7X9X9XcXyXvXyX6X6XrXrXvXvXyXtXrXrXtXpXNXtXyXvXvXvXvXvXnXAXvXNXNXyX}.AXZXnXvXVXtX6XvXAXHXcX}.nXnXIX}.yXZXAXHXVXtX].X.z * X : '.SXKXiX+.R ! W O.X.[.SXKXnX'.Z }.SXiX*.c 6 6 x w 2 l Z cXLX7XO.w q M C &.'.9XmX9X}.[.[.e.C c c c c c c c c m c E E X.O.O.O.O.O.O.X.O.E O.O.O.X.O.O.&.C c 9 9 c v v v v v v v c c c z w 0 0 0 3 0 z x _ o.6.G.G.U.G.I.I.Y.I.Y.Y.Y.Y.Y.Y.Y.Y.Y.Y.Y.Y.Y.Y.Y.U.!.!.!.H.H.H.H.W.E.S.S.S.W.S.E.S.S.S.S.S.H.U.U.U.U.Y.Y.Y.Y.U.U.S.S.S.S.H.H.S.S.U.H.U.H.U.U.U.U.",
"3X3X+X+X+X~.~.~.~.!.U.H.~.H.!.!.U.Y.Y.U.U.U.Y.Y.Y.Y.Y.Y.~.Y.Y.U.I.Y.Y.Y.Y.U.U.U.U.U.U.U.U.U.U.U.U.U.U.U.Y.Y.Y.Y.Y.Y.Y.Y.Y.Y.Y..X X<XMXCXzXP..X3XOX~.XXOXXXXXXX@Xa.f.>X:XuXtXpXNXtXtXpXSXNXtXrXrXuX#Xw.:XaX7X6X}.yXVXSXaXa.+.+.u.$X%X=XpXSXLXSXsX*X*XpXtXrXNXSXvXvXAXAXnXnXAXAXAXAXAXAXAXAXAXAXAXnXnXnXAXvXNXtXrXrXtXtXpXtXyXyXyXtX6X[.[.#X#X$Xa.*.n X & X X o o % C ].*XiX*X&XtXcX9XyXyXtXyX6X&X6X6XtXrX*XiX#X7XrXrXrXrXpXtXtXvXyX6XtXNXrXpXrX[.vXZXvXyXNXNXrXyXHXLXAX}.yXAXAXyX}.[.6XtXLXKXLXMX[.Z 9 X 9 &.cXKXSXe.C R +.E O.#XJXKXnXZ N '.VXJX9X&.k 1 z x w 6 n oXJXSX].C k M m O.*.&X9X6X'.].[.[.&.C l 0 k z c c v w w r v m m R E E X.O.X.O.X.O.O.E E m m v v v c r v v R E E R R R E R R R m m r w w P _ o.%.N.G.^.I.I.Y.Y.I.Y.Y.I.Y.Y.Y.Y.Y.Y.Y.Y.Y.Y.Y.Y.U.!.!.!.W.H.H.H.W.E.S.A.S.W.S.W.S.S.S.S.S.H.U.U.U.U.Y.Y.Y.Y.U.U.H.H.S.S.H.H.H.H.H.H.U.U.U.U.U.U.",
"3X3X@X+X+X~.~.~.~.!.U.H.~.H.!.!.U.Y.Y.U.U.Y.Y.Y.Y.Y.Y.Y.~.~.Y.Y.Y.Y.Y.Y.I.U.U.U.U.U.U.U.U.U.U.U.U.U.U.U.Y.Y.Y.Y.Y.Y.Y.Y.Y.Y.XX X XFXCX2X.XOX3XOXOXT.OXOXXXXXXXXXa.a.p.=XrXNXSXvXpXNXNXpX7X7X7X*Xd.%XuX7X&X6XNXJXSXtX].O.E +.a.$X=XpXJXLXSXtX*X[.wXSXrXtXSXSXNXAXAXZXZXZXHXHXHXAXAXAXAXAXAXAXAXvXVXvXvXvXvXtXrXrXtXNXtXvXvXyXyXtX6X}.6X6X#X-Xa.a.z X + 2 k X.&.&.X.m 0 m w.7X[.e.yXyXyXyX6XyXtX6X&X6X6X7X[.#X].&.].7X[.[.rX[.'.e.tXNXZ '.SX[.].].[.AXAXyXyX6XrX[.[.VXLXAX[.}.vXSXSXNX}.'.Z '.mXLXKXLXpXe.M @ # C }.LXLXoXR L E E &.6XJXKXHXZ : Z bXKXJX[.X.w w e z j l &.yXJXiX&.c v m m O.].7X6Xe.Z e.&X9X].O.n w w w c c c r z c r c m v m v m m R m v v v v r v m m m m m R E E E E E E E E E Q E R v x x ) o.%.%.%.%.N.I.U.Y.I.Y.Y.I.I.I.Y.Y.Y.Y.Y.Y.Y.Y.Y.Y.U.!.!.!.W.H.H.H.W.S.S.A.S.W.S.W.S.S.S.A.S.H.U.U.U.U.Y.Y.Y.Y.U.U.H.S.S.S.H.H.H.H.S.H.U.U.U.U.U.U.",
"@X+X+XOX+X~.~.~.~.U.H.H.~.H.H.!.Y.Y.Y.Y.^.~.Y.Y.Y.Y.~.!.~.~.Y.Y.R.Y.Y.Y.U.U.U.J.U.U.U.U.U.U.U.U.U.U.U.I.Y.Y.Y.Y.Y.Y.Y.U.U..XF.<XCX0XXXXXOXOXOXOXOXXX+XXXXXXX.XXXa.oX&XtXSXSXMXNXSXNXiX*X=X-X#X%XrXrX6XrXAXJXSX-Xp.O.E O.w.*XpXSXJXKXSX=X#X#X[.rXNX6XVXLXNXNXVXVXAXnXAXAXAXAXnXnXAXvXvXVXNXtXyXvXNXyXyXtXNXvXyXvXvXcXvXvXyXyXvX6XyX[.yX[.-X$X+.X.o n _ X.*.oXqXqX<XoX XL z O.:Xw.e.pX6XyX6X}.6XyXyX6X6X6X6XNX6X[.].[.6X}.e.cX[.M M cXVX: &.JX&.c m w.AXvXvX6Xe.-Xe.e.vXKXVXZ &.cXLXAXnXAXnX'.Z C O.&XSXLXHX}.Z l 2 m [.KXJXe.9 9 m X.O.[.LXKXHXZ # l ].JXLXNX].Z l l z w w m &.tXiX].C c x r R *.*X9X&.M c X.e.].&.O.m m m C m c c m m c m m m m m m m m m m R E E E R E E E R R R E X.X.O.X.E L L x w w U U I ` <.B.C.G.Y.Y.I.Y.Y.Y.Y.Y.Y.Y.I.I.U.Y.Y.Y.Y.U.Y.Y.Y.!.!.W.H.H.H.E.W.E.S.S.S.S.S.S.S.S.A.C.S.!.H.!.U.U.Y.Y.Y.Y.U.U.H.H.H.H.H.A.A.H.S.S.S.H.H.H.H.U.",
"@X@X+X+X+X~.~.~.~.U.H.H.~.H.H.!.Y.Y.Y.Y.^.^.OXOXU.Y.Y.Y.~.~.Y.Y.R.Y.Y.Y.~.U.U.U.U.U.U.U.Y.Y.U.U.U.U.U.I.Y.Y.Y.Y.Y.Y.Y.R.F. XqXCX2XF.OX+XOXOXOXOXOXXXOXXXXXXXXXoX<XaXCXVX9X6XNXNXvXyX7XuX-X-X=XrX6XyXNXJXSX7Xw.w.E +.#XSXJXSXJXSXNXrX[.#X#X*XpXtXyXLXJXvXNXNXNXNXVXAXAXAXnXvXVXNXvXNXvXyXrXtXNXtX6XrXtXNXvXvXvXvXmXmXvXcXmXVXyX}.[.6X6X].-X*.O.4 3 n b ( P b n n X.n X.o.o.v X.oXw.e.6X6XtX}.6X}.6XyX6XyXcXvXVXcXNXyX6XyX6X}.AXZ @ l mXcX. &.KXe.w q &.vXyXyXw.E +.&.6XcXKXVXZ C &.9XNX}.mXKXLX6XZ M M Z '.vXLXiX&.0 & l }.KXNXC 2 q c l C [.KXKXDX&.  # Z yXLXKXLX9X*.E w k l l C [.7X&X*.R r w 9 C ].qXw.m c c m X.O.X.O.e.*.O.X.O.X.X.&.O.&.O.+.X.E E E E R v v v v v v v m R r r r w r r x z z z z z P ) #.4.<.<.5.C.Y.Y.I.Y.Y.Y.I.Y.Y.Y.I.I.U.Y.Y.Y.Y.Y.U.Y.Y.Y.H.H.H.H.E.E.W.E.S.S.S.S.S.S.S.S.A.C.S.!.H.!.U.U.Y.Y.Y.Y.U.U.H.H.H.H.A.A.H.A.S.S.H.H.H.H.H.U.",
"@X+X+X+X+X~.~.~.~.U.H.H.~.U.U.!.Y.Y.Y.Y.Y.Y.~.T.3X.XXXI.~.!.~.Y.Y.Y.Y.Y.Y.Y.Y.I.I.U.U.U.U.U.U.U.U.U.U.Y.Y.R.Y.Y.!.U.F.c.2XCXzXP.F..XY..XXX.XOXOX.XXXOXXXXX X XMXMXqX<X<X9XiXMXtXcXNXuX-X%X-X[.yXHXLXSX=Xp.q.O.e.6XJXLXAXnXAXSXpX#X#XrX*X6XtXvXAXKXVXyXSXVXAXAXAXSXNXyXyXNXNXtXtXNXrXwX*XtXNXrX6XyXvXNXnXvXvXnXvXmXvXvXmXvXyX}.}.[.6X[.#Xa.+.w 4 n P b P ( P _ X.X.X._ _ X.X.L R O.*.*.&X*XpX[.6X6XtX}.yXyXvX6XvXNXyXvX}.yXAXvXyXj M M NX}.  '.KX].m m ].6X[.e.c v z [.e.6XKXLXZ j n &.9X'.Z 9XKXHX'.Z M 9 k X.6XKXBX'.l # l }.LX'.j k c c 1 M [.HXKXHX'.= X l &.9XLXKXLXmX'.Z Z l k c O.oXqX=Xw.C 9 4 c O.&X#X&.C m X.E R E O.*.w.e.&.O.c q q 0 r v v v v r r r L R R R R R E E E E R v v w 0 3 0 1 2 3 b o.o.4.5.C.G.~.Y.Y.I.I.Y.I.I.I.Y.Y.I.I.Y.Y.Y.Y.Y.Y.U.Y.Y.U.H.H.H.H.W.W.W.W.S.S.S.S.S.S.S.S.S.C.S.!.H.!.U.U.Y.Y.Y.Y.U.U.H.H.H.H.H.H.H.H.S.S.S.S.H.H.U.U.",
"@X+X+X+X+X~.~.~.~.U.H.H.~.U.H.!.Y.Y.Y.Y.~.Y.Y.Y.Y.OX4X.XY.Y.Y.Y.Y.Y.Y.Y.Y.Y.Y.Y.U.U.U.U.U.U.U.U.U.U.U.Y.Y.Y.R.R.I.F.<XzXMX XF.XXOXOXOXXX.XXXOXOX.XXX.XXX XzXFX9X[.]. X0X7X7X7XMXNX6X*X*X*XrXSXLXFX9X[.q.+.q.=XLXJXnXnXAXSXpX&X#X=XuXrXtXtXyXLXLXmXcXSXyXVXVXNXNXyX6X6XSXNXrX6XNXtXwXwXrXNXNXpXNXNXvXvXnXnXnXnXmXcXNXvXvXvX[.6X}.6X&X#Xp.+.x 4 z X.X.X.%.%.*.*.*.*.*.*.6.6.*.*.X.R R X.O.w.&XiX&X6X[.6X].yXyXtX}.NXtXyXyXyXyXAXAX6X&.&.Z VX|.> }.KX].*.*.yXcX].m w 3 C 6Xj [.KXKX&.1 3 c [.9XZ Z mXLX}.&.C m j j C VXKXJXVX}.Z Z }.9Xn 3 z c z j l '.LXKXJX].l % : M &.}.JXKXKXJX9X].&.C M M Z [.7X-X+.m k k C w.].O.E E X.X.X.m m O.*.w.].w.w.O.O.X.R R R R R R R E E R R R R R R R E R z 3 4 4 4 2 4 4 5 P o.<.Z.C.N.N.Y.Y.I.I.I.I.I.I.Y.Y.I.I.U.U.Y.Y.Y.U.Y.Y.U.H.H.H.H.H.W.W.W.W.S.S.S.S.S.S.S.S.S.S.S.!.U.!.U.U.Y.Y.Y.Y.U.U.H.H.H.H.H.H.H.H.S.S.S.S.S.H.U.U.",
"3X+X+X+X+XJ.Q.Q.U.H.H.J.!.H.J.H.U.Y.Y.U.Y.Y.Y.Y.Y.Y.,X4X<X XR.Y..XY.Y.Y.Y.Y.Y.Y.Y.U.U.U.~.H.U.U.!.H.H.~.!.~.F.F. XkXCX<XF.XXXXXXOX~.XXXX.XXXXXXXOXXX X<XCXMX<X X X<X<X&X*X7XaXqX&X*X6XtXJXJXNX=Xp.a.w.w.rXSXSXyXyXAXSXaX$Xp.-XrXtXNXNXtXNXLXSX6XvXSXyXtXVXvXyXyXyXNXAXvXyXyXvXNXtXpXNXNXNXNXNXvXvXvXvXvXvXvXmXnXvX6XNXvX6X[.6X}.*X*XoX+.e 4 z n X.*.*.w.w.oX<X].&XoX].&X&X&XoXoX*.O.6 e E O.*.&X&X[.[.[.[.6XyXyXrXrXtXyX6X6XvXZXnXvX}.].'.KX'.M }.KX].e.e.pXyXO.z c @ yXC l [.KXKX&.3 x 4 &.NX'.j C yXLXHXmX'.Z l : 9XVX'.}.LXHX[.e.'.l k k 0 z 0 0 l ].KXKXJX[.N j 0 0 m &.7XJXLXHXAXAXvX[.&.m m q.=X7X[.O.c q m O.w.w.m m O.O.X.E m m m E O.O.O.O.O.X.X.O.E E E E E E E E E R E R R R E L L v P b ( _ ) o.` #.<.H.Y.G.Y.Y.Y.Y.I.Y.Y.Y.Y.I.I.U.U.J.U.Y.Y.Y.U.Y.H.H.!.H.H.S.S.W.S.S.S.H.S.S.S.S.S.A.A.A.S.S.H.!.!.U.Y.U.U.U.U.H.H.H.H.H.H.H.H.A.S.S.S.S.H.H.H.H.",
"3X+XOX+X+XJ.Q.J.H.H.H.H.!.H.H.H.U.Y.Y.U.Y.Y.Y.Y.~.Y.I. X<X0X4XXXR.XX.XY.Y.Y.Y.Y.Y.U.U.U.U.U.!.U.~.Y.R.Y.R.F.<XzXFX8X].c.Y.OXR.XXOX~.XXXX.X.XXXXX.X X0XCX<Xc. X.XXXXXoX&X=X*X&X&X7XpXSXSXpX*X&X#Xu.f.uXSXSXtX6XyXJXSX-Xw.d.eXiXNXSXcXvXJXSXpXrXNXSX6XyXNXcXyXvXvXVXAXNXvXvXnXAXAXNXAXAXvXnXnXvXvXvXvXvXvXvXyXmXNX}.6XtXtX}.}.6X6X&Xw.+.w 3 n X.O.*.].[.].[.&X&X&X6X7X&X6X6X9X9X&XoXoX*.x 6 x R O.].#XoX].].[.6XtX*Xe.*XNX[.6XyXnXnXnXyX}.].[.KXe.C yXKX[.e.e.NX6XM k & e.[.& c e.LXLX&.4 x 3 M tXSXC   N '.mXDXbXhX'.Z }.VXZ : Z yXSXvX6XC k k 0 w w 0 9 l [.LXKXJX].m c c m m &.].}.mXIXvXAXSXiX#XO.C Z e.*X=Xw.m w c O.w.w.*.E X.O.O.O.O.O.E m m m m E O.R R E R R R R R R R R R R m v c c w 6 z b P o.<.<.5.Z.A.C.G.G.Y.Y.Y.Y.Y.Y.Y.Y.I.I.I.U.U.J.Y.Y.Y.Y.Y.Y.J.Y.H.H.H.S.S.W.E.S.S.S.S.S.S.S.S.S.S.A.S.S.H.!.!.U.Y.Y.U.U.U.H.H.H.H.H.H.H.A.A.S.S.S.S.H.H.H.H.",
"3X+XOX+X+XJ.~.H.H.H.H.H.!.H.H.H.U.Y.Y.U.Y.Y.Y.Y.Y.U.^.Y.G.3X0XzX0X2X XF.I.Y.Y.!.~.~.!.!.!.~.U.H.N.F.c. X&XCXFX0XR.G.I..XY.Y.R.XXXXXXXXXX.X.X.X X].CXCX X XXXR.XXXXXX@XoXoX&X9XMXSXSXiX=X$X:X-X[.rXSXpXtX6X6XSXLXeXw.w.7XpXpXSXvXyXAXLXpXrXrXAXAXyXvXVXcXvXNXVXAXAXvXVXvXnXnXnXvXAXvXnXAXvXvXvXvXvXyXtXyXvX6XVX6X6X6XtX6X[.6X6X6X#XR 3 3 C &.O.w.&X&X*X[.[.7X*X6X7X7XtX6XyX}.9X}.9X].&X].O.n 6 U X.O.*.p.*.O.&.7X-Xw.e.pXiX&.6XmXmXvXvXyX[.].mXLX&.&.mXKX[.&.].JX[.j k C nX: k k &.LXLXO.3 x q q [.KX[.l 1 z O.].9XHXPX}.mXKX}.j 3 R ].SXKX9XZ l 0 3 w w w q m [.LXKXHX].C c m R E O.w.[.yXyXmXmXVXAXyXe.C m O.p.:Xp.O.m c E w.w.w.w.*.*.w.w.w.w.w.w.O.O.E O.O.R R R R m v R R v m m c c n c m n k n ( _ o.N.C.S.~.H.Y.G.I.Y.Y.Y.Y.Y.Y.Y.I.I.I.U.Y.U.Y.Y.Y.Y.Y.Y.J.Y.H.H.H.S.S.W.E.E.E.S.S.S.S.S.S.S.S.A.S.H.H.!.!.!.U.Y.U.U.U.H.H.H.H.H.H.H.A.A.S.S.S.S.H.H.H.H.",
"3X+X+X+X+X~.~.H.H.H.H.H.!.H.H.H.U.Y.Y.U.Y.Y.U.U.U.U.U.!.!.J.F. X0XCXzX0X<XXXI.R.I.F.I.I.F.P.F.XX<XqXCXJXJXkX XF.Y.^.Y.~.Y.Y..XY.XXXXXXXXXXXXF.0XFX9X]. XXXY.XX.XXXXXoXoX&XiXJXJXcXrX*X-X%Xw.-XSXNXrXrX6X6XJXpXw.q.%XpXNXVXVXyXcXLXSXrX*XtXSXAXmXvXVXyXvXNXNXVXvXvXnXVXAXAXnXnXnXnXvXvXvXvXvXvXvXyXrXtXtX}.6X6X6X6XtXtX*X[.6X*X&XX.3 z X.e.].p.=X*X[.*X6XtX*X6X6X6XtX6XyXmXmX9X9X[.9X}.6X[.&.X.z e 6 6 v O.*.*.X.#Xw.e.[.NX].&.9XvXmXvXyX6X'.'.HXJXZ &.vXKX[.&.].LXe.k 1 cXZ 0 x c Z JXKXC z r r 2 e.KXFXO.c v c C &.{.bXbX}.VXNX&.0 2 l &.cXLXMXe.m w w r z 3 1 C [.HXKXVX[.O.m m m m O.e.[.6XyXmXmXnXJXSX*XO.m m O.w.w.+.E M M C O.w.w.w.*.O.O.O.O.O.X.m R R R E m v m m v v v c c c k 0 1 3 3 3 u P o.%.6.C.H.~.Y.G.Y.I.Y.Y.I.Y.Y.Y.Y.I.I.I.U.Y.U.Y.Y.Y.U.Y.Y.J.J.U.H.H.S.S.W.E.E.S.S.S.S.S.S.S.S.S.S.S.H.H.U.U.~.U.Y.Y.U.U.H.H.H.H.H.H.H.A.A.S.S.S.S.S.H.H.H.",
"@X+X+X+X~.~.W.W.H.H.H.H.W.H.H.U.U.!.!.!.~.~.U.H.U.H.H.H.H.U.Y.G.I.OX0XCXFXFXkXkXqX8X8X8X8XMXCXFXKXLXJXzX<XF.XXOXY.~.Y.Y.Y.Y.Y.Y.Y.XXY..X.X XqXFX X X X XXXY.Y.Y.XXc.&XNXAXLXVX9X6X7X=X-X#XiXSX7X6XrX6XtXLXiXw.[.pXSXpXNXcXyXHXJXuX-X=XtXNXAXyXNXvXyXvXNXyXNXNXvXVXnXVXnXvXvXnXnXvXvXvXvXvXvXvXtXrXrXrXw.e.6X[.6XtXyXyX6X[.*XoXv x w X.].].[.7X&X6X6XyXtX6X6XyX6X6XmXyXmXmXmXmXmX6X}.}.9X}.}.[.&.n z 3 6 3 c w.E X.+.O.-X7X7XX.*.6XvX9X6X}.6Xe.[.KXvXC ].vXKX[.&.[.LX*.9 {.[.0 v v c Z LXLXZ r L v 0 &.KXLX].m X.E R R O.e.6XmXHXJX}.Z k 0 3 C &XJXLX6XC k 0 v v w w C ].cXAXnX}.'.O.C m E +.*.w.&XyX6X}.6XvXSXtXe.C m E +.w.w.&.O.m m E O.+.+.O.O.O.E E E m M m r r c z 0 w w w c c c c c z x X.X.o.o.` o.%.C.!.Y.Y.Y.Y.R.Y.Y.R.T.Y.Y.I.Y.T.Y.U.U.U.U.~.Y.U.U.Y.U.Y.H.H.S.S.S.S.S.E.S.C.C.S.S.C.S.A.A.S.H.H.H.U.U.U.U.U.Y.U.H.H.H.S.S.S.S.S.S.S.S.S.S.S.S.S.S.S.",
"@XOX+X+X^.~.W.W.H.H.H.H.W.H.H.W.U.!.!.U.~.U.H.H.!.H.H.H.H.H.W.!.!.J.G.F. X<XkXCXFXJXJXLXLXJXFXCXkX<X XF.Y.+XY.~.Y.Y.Y.Y.Y.Y.Y.Y.I.R.R.XXP.zXCXc.XX.XXXXXXX.XY.R.].MXJXLXHXcX&X6X*X&X&XiXSXtX6XiXiX7XNXSX&X].iXSXvXyXvXyXtXSXNX&X#X%X=XNXNXyXvXvXyXNXvXcXvXvXVXvXvXAXVXvXvXvXvXvXvXvXvXvXNXNXtX*X*XrX*Xe.6XrXtXyXyXyXtX&X].w.X.4 v X.w.&XtXrX[.tXtXyXcXyXyXyX6X}.yXmXmXvXmXyXmXmXmXmXyXyXmXmX9X[.&XC k k 3 3 3 v E X.R *.#X#XoX*.[.NX9X[.[.'.[.e.}.KX6XC '.vXSX6XZ 7XLXC Z 9X0 v L E M Z LXJXO.v E L z Z vXKXiXX.X.E W E R X.&.}.PXJXJX&Xc 0 w 0 j Z NXKXqXX.z w v x e w c &.}.cXnXcX9Xw.O.E O.+.O.w.[.7XrX[.}.yXNXNX=X*.O.O.O.e.#Xp.w.O.m m m E O.O.+.+.q.+.+.+.O.X.E E m m v m n n c c c z x _ o.#.<.5.C.C.A.H.Y.Y.Y.Y.R.Y.Y.R.^.T.T.Y.Y.T.Y.U.U.U.U.~.U.U.U.U.U.H.H.!.S.U.S.S.S.S.S.C.S.S.S.S.S.A.A.S.H.H.H.H.!.U.U.U.Y.U.H.H.S.S.S.S.S.S.S.S.S.S.S.S.S.S.S.S.",
"@X+X+X+X~.Q.W.W.H.H.H.H.W.H.H.W.U.!.!.U.!.U.H.H.!.H.H.H.H.H.H.H.U.U.OXY.G.I.F.F.XXXX.X3X,X,XXXXXG.J.~.~.Y.Y.U.Y.Y.Y.Y.Y.Y.Y.Y.Y..XXXXX XzXCXc.XX.XY.Y.OXY.OXXX XVXLXJXMX<X2X<XqX&X6XSXNX*XrXpXrXtXSXtX[.*XSXSXtXvXvXyXAXSX*Xd.f.d.*XNXNXyXtXvXyXvXcXvXcXvXVXvXvXAXNXNXNXvXvXvXvXvXvXpXtXtXtXrX6XtX6X[.yXvXvXvXyXyX6X*Xw.w.X.w z *.[.6XtXvXyXcXvXcXcXmXcXmXyX6XyXmXyXyXmXvXmXmXmXyXyXmXyXmXmXmXyX6X6X].c k z 3 6 x v E v O.w.6.+.e.&XNXe.[.w.O.w.&.9XKX&.&.e.yXAXyXC tXSXM 7XC c R R E c &.KXJXC m E R m m [.KXCXO.X.X.E E E E m &.}.VXVXcXC v v v r w &.SXKX9XC 2 0 v D w w c O.[.9XcXcXcX6Xe.O.Q Q +.q.u.=XtXyX[.*XtXNXtX[.e.O.O.w.p.#Xw.q.O.R E E E O.O.O.O.O.O.O.X.X.E E E m c c c k k z s P _ #.%.#.5.5.C.U.Y.Y.Y.Y.Y.T.T.R.T.T.T.Y.Y.T.Y.U.U.U.U.^.H.U.U.H.G.Y.U.!.H.A.!.S.E.S.C.S.S.S.S.S.S.A.S.H.H.H.H.H.!.U.U.U.Y.U.H.H.S.S.S.S.S.S.S.S.S.S.S.S.S.S.S.S.",
"@X+X+X+X~.Q.W.W.H.H.H.H.W.H.H.W.U.!.!.U.U.H.H.!.!.H.H.H.H.H.H.H.A.H.U.U.U.^.!.~.Y.Y.U.H.H.!.U.!./././.!.!.Y.U.Y.Y.Y.Y.Y.Y.Y.Y.Y.XX.XF.zXCXc.XXOXY.OXOXY.XX X<XJXLXcX{. X X<X<X&XNXVX9X6XtXtXrXNXNXrXrXpXSXtXvXvXyXNXJXpX[.d.g.g.-XSXNX6XyXyXyXyXyXvXmXvXAXcXcXNXvXNXvXtXtXtXtXtXpXtXtXtX6XtXrXrXrX6XyXvXmXmXyXyX6X6X[.*.X.r c *.6XyXyXvXmXnXvXmXcXcXvXmXyXyXmXmXmXyXmXvXmXmXmXmX}.yXyXmXmXmXmXmXyX].vXe.&.n v 6 3 w z v R X.O.O.*.].9X[.&.e.O.*.O.O.HXHXZ O.'.NXAX[.C JXyX[.&.n v E X.X.c e.KXJXO.E E E E c &.LXJX&.m E E ! ! R m C &.yXnXVX].c w R v c c '.LXKX}.C 3 7 e e e e z C e.].}.yXNXaXf.+.Q Q +.q.w.=XiXrX[.[.6XtXtXrX].&.C O.O.+.+.O.O.E R R R m m R E E E E v c z z c c c n z n x x d ) o.6.C.A.U.A.Y.Y.Y.Y.Y.Y.Y.Y.T.Y.I.I.Y.T.Y.U.U.U.U.~.G.U.U.G.U.U.H.U.S.H.S.S.W.C.C.S.S.C.C.S.S.A.S.H.H.H.H.H.U.U.U.U.Y.Y.H.H.S.S.S.S.S.S.S.S.S.S.S.S.S.S.S.S.",
"+X+X+X+X~.Q.W.H.H.H.H.H.H.H.H.H.H.!.~.U.U.U.H.H.H.H.H.H.H.H.H.H.H.S.H.U.U.Y.H.Y.Y.XXY.Y.Y.~.U.!.!.!.!.U.!.!.!.~.Y.Y.Y.Y.Y.Y.Y.I.Y.F.qXCX X XR.Y.Y.Y.^..Xc.8XLXFX<X X X<X X].9XJXSX9X9XMXpXpXNXNXtXNXSXpXrXtXAXvXAXSXuXd.u.g.d.#XSXNX7X&XyXvXvXcXvXvXNXAXyXvXvXvXNXvXtXyXpXtXpXpXtXtXtXtXtXyXyXyXyXyXvXmXvXmX6XyX6X].w.X.R c e.yXmXnXvXvXnXvXvXvXvXcXcXmXcXmXmXmXmXmXmXmXmXmXmXyX9XmX6XyXmXvXmXmXmX}.9X[.e.].z C c 2 1 3 w w v R X.*.'.mXO.X.m O.O.M ].KXVXN C &.SXLX].&.KXJXe.C O.X.X.E O.M '.KXnXC O.+.+.O.R m BXKX&.c E ! E E E R m X.}.HXKXNX&.j v E v r C 6XKXHX].9 4 e e e e z m O.e.e.w.*XpXiX7Xw.O.O.q.q.u.%XiXtX[.[.[.*XrXrX*Xe.O.O.O.+.+.+.O.E E m m M c c c r r c z k k k l k 3 3 z _ o.o.o.#.5.H.!.Y.T.T.Y.Y.R.Y.Y.Y.Y.Y.Y.Y.U.T.T.I.U.U.U.U.U.H.U.G.H.Y.U.H.H.H.E.E.E.S.S.E.S.S.A.C.S.A.S.H.U.U.U.U.U.U.U.U.Y.J.U.H.S.S.S.S.S.S.S.S.S.S.S.S.S.S.S.S.",
"@X+X+X~.~.Q.W.H.H.H.H.H.H.H.H.H.H.!.!.U.U.!.!.H.H.H.H.H.H.H.H.H.H.S.H.U.H.U.H.U.R.R.R.Y.U.Y.U.U.U.U.!.!.!.!.!.!.Y.Y.Y.Y.Y.Y.Y.I.F.0XFXc. XR.R.R.XXXXF. XkXKXkX]. XXXXX X XCXLXyX9XMXMXMXtXNXtXNXSXvXtXpXSXvXvXJXNX*Xu.r.f.f.*XNXNX7X*X7XvXvXvXvXvXNXvXyXvXvXVXnXvXtXyXtXpXtXtXpXtXtXtXtXtXtXyXyXvXmXyXvXvX}.6X6X&Xw.O.X.z O.tXmXnXnXnXnXnXnXvXvXvXvXvXmXmXmXmXmXmXmXvXvXmXvXmXmX9XmXyXyXmXmXmXmXmXmX|.yX'.].&Xk w.k 1 1 4 2 4 3 w O.e.}.C c c 0 c C C }.KXcXl M e.LXLXZ [.KX6XC *.O.E E O.O.M }.KXnXC E +.Q Q E k ].KX].x R R L L L L v M &.vXLXKXcXC w L R v c &.nXKXvXX.w r v L e w r O.w.w.w.e.[.tXpXuXd.q.Q +.q.w.#X=XrX=X[.e.e.].*X=X=Xw.+.O.O.+.q.q.q.+.q.+.O.O.E m c k 4 1 k k B B B z d ) <.C.6.5.C.C.U.Y.T.Y.Y.R.R.R.R.Y.Y.Y.Y.Y.T.Y.I.U.U.U.U.U.H.U.G.H.Y.H.H.H.H.E.E.E.S.S.E.S.S.C.C.S.S.S.H.U.U.U.U.!.U.U.U.Y.J.U.H.H.S.S.S.S.S.S.S.S.S.S.S.S.S.S.S.",
"@XOX+X~.~.~.W.H.H.H.H.H.H.H.H.H.H.!.~.U.!.!.!.U.H.H.H.H.H.H.S.S.H.H.H.H.H.U.G.U.Y.Y.Y.Y.U.Y.H.U.U.U.!.!.!.U.U.Y.Y.Y.Y.Y.Y.T.Y.F. XJX XF.R.Y.R.R.R. X].MXJX<XF..XOX.X].<XJXFX<X<XqXqX7X&XMXcXNXVXvXvXVXVXvXNXSXiXp.u.s.h.%X*XNXAX=X-X*XtXNXyXNXyXvXyXcXcXvXvXvXvXvXtXvXtXtXtXtXpXtXtXtXtXyXyXvXvXvXvX}.vXtX[.6X[.w.O.X.X.O.yXmXnXnXvXvXvXnXnXnXnXnXvXvXvXvXmXmXmXvXvXvXvXvXvXmXmXmXmXmXmXmXmXmXmXmXyX}.}.yXe.}.&.C w.z L k c c X % j l [.Z 2 0 0 0 c n C nXKX[.l M ].LXJXZ NXSXC *.*.O.X.E O.O.C 6XKXVXC E Q Q Q +.r *.KX&Xc m R L L v v R v M &XcXnXKX].C c L R v X.6XKXLX].c c E E E R E E +.w.w.w.w.w.#XwXuX=Xw.O.Q Q q.q.d.=XrXrX].e.e.e.#X*Xd.q.E m m m m c c c c k c k k c u , 2 < s b o.o.) ` #.H.H.A.U.Y.T.T.T.T.R.Y.R.Y.Y.Y.Y.Y.Y.Y.Y.U.Y.Y.Y.Y.U.H.U.G.H.Y.H.H.H.H.S.S.E.A.A.S.S.W.C.S.S.S.S.H.U.U.U.U.!.U.U.U.Y.J.U.H.H.S.S.S.S.S.S.S.S.S.S.S.S.S.S.S.",
"OXOX+XY.~.~.W.H.H.H.H.H.H.H.H.H.U.!.~.!.!.!.!.U.H.H.H.H.H.H.S.S.H.H.H.H.H.U.G.J.U.U.U.U.U.U.H.U.J.U.!.!.!.U.U.I.Y.Y.Y.Y.U.^.Y.F.CX9Xc.XXR.R.R.R.P. XCXMX XF..XOXXX XzXKXqX]. X<X<XoX&XCXJXVXVXvXvXAXVXcXNXSX=Xp.s.h.h.eX=XNXJXtX$X%XrXNXtXvXyXtXyXyXcXcXvXvXvXvXyXNXvXvXNXtXNXtXtXvXtXyXcXvXvXmXmXmX}.NX6X[.6X].O.O.m &.6XvXnXnXnXvXvXvXnXnXnXnXnXnXnXnXvXmXmXmXvXvXmXvXnXvXmXmXmXmXmXmXmXmX}.vXmXmX}.}.yX9X&.6XC ].X.E *.C C C * & X '.'.j k c 0 c z m '.HXVXZ m X.].KXmXe.LX&.O.*.w.O.E O.O.O.m yXKXmXm E Q ! Q -.v X.LXyXm r R R L L R L v c ].9X'.LXJX].m v R R c &.tXLXNX&.c R E Q +.Q +.q.q.q.q.w.w.w.w.[.rXuXs.q.+.q.q.q.w.p.-X=X=X[.e.e.e.[.&X].&.m c z q 9 2 % % 2 2 u X.@.@.X._ _ ` o.#.<.#.<.A.~.Y.U.T.T.Y.Y.Y.R.R.Y.Y.Y.Y.Y.Y.Y.U.U.U.U.U.U.U.H.U.G.H.Y.H.H.H.H.E.S.S.A.A.S.S.W.Z.S.S.S.S.U.U.U.U.U.W.H.U.U.Y.J.U.H.S.S.S.S.S.S.S.S.S.S.S.S.S.S.S.S.",
"OX+X+X~.~.W.W.W.W.H.H.H.W.W.W.W.~.~.~.~.H.H.H.U.H.U.U.H.H.H.H.H.H.H.S.U.S.U.U.U.U.U.U.U.U.U.G.U.U.U.U.U.U.U.U.U.U.Y.Y.Y.~.^.c.0XCXc. XY.R.XXI.F.2XCXzX X X.XXX X].FXKX<Xc.<X,X<X XoXSXLXvXVXNXcXAXVXcXVXSX%Xu.s.g.eXeX=XtXJXrX#X%X=XNXvXtXtXtXtXyXcXvXtXtXpXyXcXAXvXyXNXcXyXNXtXvXvXvXcXcXcXcXyXvXcXyXvX}.}.6X'.Z ].].yXnXvXnXnXnXnXnXnXnXnXnXnXnXnXnXnXnXvXvXnXnXnXmXvXvXnXvXvXmXvXnXmXmXvX}.9XvXmXyXyXyXyX[.'.'.&.].n *.&X&.&.Z $ & C }.N c v n 0 c k O.}.LX[.m O.m ].KX}.yX&XO.w.+.+.E O.O.O.O.O.vXKXyXC E W ! Q +.v m SXNXC r L r r r v v m c *X[.M e.NXSX&.c v E r m w.SXLX[.m m +.Q Q +.q.w.$X#Xw.w.w.d.p.w.p.wXuX*Xw.q.q.q.q.q.q.w.#XrXrX6X[.].e.e.[.e.C % * 2 , , , , < t b #.#.<.<.<.<.6.B.C.C.H.U.Y.T.T.T.T.Y.Y.Y.Y.Y.Y.Y.Y.Y.Y.Y.Y.Y.~.Y.Y.Y.G.J.Y.G.H.H.J.H.H.H.H.H.S.A.A.S.S.S.S.S.A.H.H.U.!.U.U.!.~.~.!.!.!.U.U.H.S.S.S.S.S.S.S.S.S.S.S.S.U.U.U.U.",
"+X+X+X~.~.W.W.W.W.H.H.H.W.W.W.W.!.~.~.~.~.Q.H.U.U.U.U.H.H.U.H.H.H.H.S.U.U.U.U.U.U.U.U.U.U.U.G.U.H.H.H.H.U.U.U.U.U.U.Y.Y.!.I. XFX].].P.XXY.R.F.0XCX8X XXXXXXXF.8XKXCX X XXX.X3XP.2XJXLXcXNXcXtXcXcXmXSXSX#Xd.g.;XeXaXrXrXLXyX#XwXwXSXNXvXrXrXtXtXyXyXtXtXvXtXNXVXyXyXvXvXyXVXvXvXvXcXcXvXvXvXyXcXvXyXyX6X}.}.6X].}.yXyXvXmXmXnXnXnXnXnXnXnXnXnXnXnXnXnXnXnXnXnXnXnXnXmXvXvXnXnXnXmXmXvXvXmXmXyX}.}.mXyXyX}.yXyX'.[.].[.&.&.[.[.&.&.e.l l [.Z C m C X.c k M &.mXKXO.X.O.C }.LX6X6XO.+.+.q.+.E +.Q +.O.O.vXKXtXm E O.! ! ! c M yXSXO.r R L v v L v m c &X[.M C ].SXiXO.r E E v C rXKXSX&.c E Q +.q.O.q.w.-X=Xd.w.w.d.d.e.e.[.rXwXd.u.u.w.u.u.w.e.e.].&X6X9X[.].6XyX'.C : + l u s s s s / ` #.:.<.B.S.S.C.C.U.U.T.T.T.T.T.Y.Y.Y.Y.Y.Y.Y.Y.Y.Y.Y.Y.Y.Y.~.J.Y.J.G.Y.G.H.H.J.H.H.H.S.S.S.A.A.S.S.S.S.S.A.H.H.U.U.U.U.U.~.~.!.!.U.U.H.H.S.S.S.S.S.S.S.S.S.S.S.S.U.U.U.U.",
"+X+X+X~.~.W.W.W.W.H.H.H.W.W.W.W.W.~.~.~.~.~.H.U.!.U.U.H.U.U.U.U.S.S.U.U.H.H.U.U.U.U.U.U.U.Y.G.U.H.H.H.H.U.U.U.U.U.U.Y.Y.!.F.MX9Xc.XXI.Y.XX X<XCX0XXX.X.XXXc.8XKXqX XXXXXXXXX X].CXKXCX9X<X<X8X9XhXJXpX#X&X7XaXaXuXwX*XSXNX*XrX*XNXHXvXtX7X7XrXrXrXrXtXyXvXVXNXrXyXvXvXyXvXVXvXvXvXvXvXcXvXcXmXmXyXyX6X6X6X9X6X[.}.}.yXvXmXmXnXnXnXnXnXnXnXnXnXnXnXnXnXnXnXnXnXnXnXnXmXvXmXvXnXnXmXvXvXnXvXmXyX}.}.}.yXyXyX}.yX}.e.[.'.}.&.].].[.&.e.e.l [.&.O.X.X.&.].C M C '.AXNXM O.+.C vXHXvX&.O.q.q.q.O.O.+.Q Q E O.tXKXNXC m W E R L w c 6XJX&.v E R L R L m m m &X[.C E O.w.NX[.m R W E E #XJXSX[.c r ! -.;Xd.q.w.w.w.d.$X#X[.*X&Xe.e.d.*X*Xd.w.w.w.d.#Xe.C l l M Z Z C Z [.9X}.Z C C X._ X._ ` ` #.>.1.B.C.S.U.Y.U.Y.T.T.T.T.T.T.T.T.Y.Y.Y.Y.Y.Y.Y.Y.Y.Y.Y.J.Y.J.J.G.J.J.H.J.J.H.H.H.S.S.S.A.A.S.S.S.S.S.S.H.U.U.U.U.U.U.~.!.!.!.U.U.H.H.S.S.S.S.S.S.S.S.S.S.S.S.U.U.S.S.",
"+X+X+X~.~.W.W.W.W.H.H.H.W.W.W.W.W.~.~.~.~.~.~.U.!.U.U.H.U.U.U.U.S.S.U.U.H.H.U.U.U.U.U.U.U.U.I.U.U.H.H.H.H.U.U.U.U.U.Y.I.I.5XFXc. XI.G.R.R.0XCX2XF.Y..XXX].CXKX2XF.OXXXY..XXX].CXKXcX]. X X X&X9XLXvX[.uXsXNXpXrXrXrXNXSX*XrXrXtXJXnXpXrX7X7X7XrX*X7XtXvXNXcX6XrXyXvXyXmXAXvXvXvXvXvXvXvXvXyXyXyXyXyXyXyXyXyX9X}.6X[.yXvXnXvXnXnXnXnXnXnXnXnXnXnXnXnXnXnXvXnXnXvXnXnXmXvXmXvXnXnXmXnXnXvXnXmX}.yXyX}.}.yXyX}.}.}.].e.}.[.].e.].[.[.&.e.e.].&.e.O.O.C e.6XO.C C ].KX[.m O.O.&.AXHX9XO.O.+.+.+.O.O.Q Q Q E O.6XKXVXM c E L L e 0 k ].AXe.m E E E E R R m M &Xw.E r.O.C 7XiXO.! ! Q E w.NXLXNXO.r ! Q u.g.d.d.w.w.w.d.d.#X-X-X#Xw.w.w.*X=X].w.q.O.O.w.e.O.M j 9 & @   > Z '.[.x.@.%.P.F.I.N.D.D.C.A.U.U.U.U.Y.Y.T.T.T.T.T.T.T.T.Y.Y.Y.Y.Y.Y.Y.Y.Y.Y.U.U.J.J.Y.G.G.U.J.J.J.H.A.A.A.A.S.A.A.S.S.S.S.S.S.H.U.U.U.!.!.U.~.~.!.!.U.H.H.H.S.S.S.S.S.S.S.S.S.S.S.S.U.U.S.S.",
"+X+XOXY.~.W.W.W.W.H.W.H.W.W.W.W.W.~.~.~.~.~.Q.H.!.!.U.U.H.H.H.U.H.H.H.H.H.H.H.H.Y.U.U.Y.U.Y.U.U.U.H.H.U.H.H.U.U.J.J.G.XXc.CX8Xc.R.R.R.XX8XzX<XF.Y.OXXXc.FXKX<XP.T.OX.X.X,XF.kXKXMX]. X X<XoX6XHXSXyXNXSXpX=X7XiXrXNXSXrXrXuXrXSXAXNX=X-X-X=X-X*XrXtXNXvX6X6XrXtXtXyXyXVXVXcXvXyXvXcXcXvXcXyXyXyXyXyXyXyXyXyX9XyX}.9XcXnXnXnXnXnXnXnXnXnXnXnXnXnXnXnXnXnXnXnXnXnXnXnXvXmXmXnXnXnXnXnXnXvXnXmX}.mX}.6X[.}.yX[.}.yX[.&.9X6X].].].[.].[.&.].[.e.e.].&.O.O.].}.&.O.O.}.LX&.O.O.O.[.VXKX].X.+.+.+.+.E E E Q R R O.}.KXHXM k L x x z 1 9 [.HX].m E R E Q E E R m #Xw.+.q.q.E w.SXw.E Q +.E &.tXAXSXw.m R Q q.r.q.w.w.w.w.w.w.w.w.p.#X*Xw.O.e.&X*X*X[.O.O.C C C M j & & & O . . = Z x.x.P.F.I.I.I.U.U.U.Y.Y.Y.I.Y.T.T.T.T.T.T.T.T.T.T.T.Y.Y.Y.Y.Y.Y.Y.Y.~.~.Y.J.J.J.U.U.Y.G.Y.H.H.H.S.S.H.A.S.A.S.!.A.H.U.U.U.U.!.U.~.U.!.!.~.~.!.H.H.A.S.S.S.S.S.S.S.S.S.S.S.S.S.S.S.S.",
"+X+XOXY.~.W.W.W.W.H.W.H.W.W.W.W.W.~.~.~.~.~.Q.H.!.!.U.U.H.H.H.H.H.H.H.H.H.H.H.H.Y.U.U.Y.G.Y.U.G.U.H.H.U.H.H.U.U.Y.U.Y.F.2XFXc.F.XXXXXX0XzX XR.Y..XR. XJXJX]. XOXT.T.T.XXc.kXKXgX XXXXXXX X9XAXJXpXtXNXyX7XrXpXNXNXSXtXwXrX*XvXHXSX7X#X%X*X#X=XaXNXtXyX6X7X7XrXtXtXyXvXVXcXyXvXyXyXcXcXcXyXyXyXyXyXyXyXyXyXyX9X9X}.yXyXnXnXnXnXnXnXnXnXnXnXnXnXnXnXnXnXnXnXnXnXnXnXnXvXmXmXnXnXnXvXvXnXvXnXvX}.mXyX}.}.'.yX[.[.6X9X&.].yX[.].].].].[.[.&.].].w.].].e.&.&.[.].&.&.e.JXvXC +.O.O.9XLXLX&.X.+.+.+.O.R R O.E r m &.].LXHXM z v x z z 4 9 '.LX6XM O.E E Q Q ! O.q.&Xw.+.q.q.+.e.pXp.O.Q Q O.O.6XSXNX7XO.v E Q q.q.q.w.w.w.q.O.O.O.q.w.*X[.O.C &.e.[.#X[.e.C C C C l y - & # = : . = N @.F.XXXXR.I.I.I.I.I.I.I.Y.T..X.XT.T.T.T.T.T.T.T.Y.Y.Y.Y.Y.Y.Y.Y.Y.Y.Y.Y.J.J.J.J.Y.G.U.H.H.H.S.S.S.S.S.S.S.!.A.H.U.U.U.U.U.U.~.U.!.~.~.!.!.H.H.A.S.S.S.S.S.S.S.S.S.S.S.S.S.S.S.S.",
"+X+XOXY.~.W.W.W.W.H.W.H.W.W.W.W.W.~.~.~.~.H.H.H.!.!.U.U.H.H.H.H.H.H.U.U.U.U.H.H.Y.U.U.Y.G.Y.U.G.U.S.S.U.H.H.U.U.!.U.~.F.MX9Xc.XXI.P.8XCX XP.Y.OX X XJXCX XP.XXP..XR.Y.R.9XKXCX X XXX.XXX].CXJXNX6X7XNXvXvXNXNXNXAXvXrXrXwX7XAXAX=X#X%X#X*XpXNXtXtXrXrXrXrXrXtXtXtXvXVXvXyXyXyXyXyXyXyXcXyXyXyXyXyXyXyXyXyXyXyX6X9X6XvXmXnXnXnXnXnXnXnXnXnXnXnXnXnXnXnXnXnXnXnXnXnXnXvXmXmXnXnXnXvXnXvXvXvXvXmXmXyX}.}.[.}.}.'.6X9X].&.6X}.}.].].].[.9X'.&.e.w.w.].].'.'.].[.w.e.e.[.KXe.O.O.O.&.6XKXSXC E W +.+.E R r +.v r m e.&.KXVXl v e e x x z k &.LX6Xc O.E ! ! Q ! +.w.*Xw.q.q.q.q.q.=X].O.E E +.+.=XNXyXNX&.c E ! Q +.q.w.d.d.d.w.w.q.q.q.#XiX[.e.M 9 m X.O.O.n l l l l l l l : : = = . # N c.XXP.R.I.I.U.I.I.R.Y..X.X.XT.T.T.T.T.Y.Y.Y.Y.Y.Y.Y.Y.Y.Y.Y.Y.Y.Y.Y.J.J.J.J.J.J.U.H.H.H.S.S.S.S.S.S.S.!.A.H.U.U.U.U.U.!.~.U.!.!.~.H.H.H.H.A.S.S.S.S.S.S.S.S.S.S.S.S.S.S.S.S.",
"+X+XOX~.Q.W.W.W.W.H.W.H.W.W.W.W.W.~.~.~.!.H.H.H.H.!.U.U.H.H.H.H.H.H.U.U.U.U.U.H.Y.U.U.Y.G.Y.U.G.U.S.S.U.H.H.U.U.H.U.J.XXJX{.F.XX X0XzX XXXY.R.P. XJXCXc.R.Y.XXXXR.I.R. XKXCX].XXXXF. X XCXKXkX].&XMXMXNXmXmXvXAXAXyXrX*X*XNXSXyX#X%X=XiXNXtXyXyXrXrXrXrXtXtXtXtXyXvXVXyXyXcXyXyXyXyXyXyXyXyXcXyXyXmXyXyXyX6XyXyX6XyXcXyXnXnXnXnXnXnXnXnXnXnXnXnXnXnXnXnXnXnXnXnXnXnXvXmXmXnXnXnXvXvXvXmXmXvXmXmXIX}.}.}.}.6X'.6X6X[.&.].[.}.[.].].[.[.9X&.e.].].].].].'.].[.].e.e.e.vXbXC O.E X.C &XKX9Xm E E +.+.v m r E R w m &.&.KXvXc r e e L x v k Z LXcXm O.Q Q Q Q E O.[.*Xd.q.q.k.q.w.&X#Xq.Q ! Q +.iXAXyXLX7Xc r Q +.+.+.O.O.O.q.q.q.q.O.O.e.7XSXtXZ & j k n n n l y y ; ; - = = . . = : : C F.R.R.I.R.Y.I.R.R.R.T..X.XT.T.T.T.T.Y.Y.Y.Y.Y.Y.Y.Y.Y.Y.Y.Y.Y.J.G.J.J.J.J.G.U.H.H.H.S.S.S.S.S.S.H.S.!.A.H.U.U.U.U.U.~.^.H.!.!.U.H.H.H.H.A.S.S.S.S.S.S.S.S.S.S.S.S.S.S.S.S.",
"+XOX+XQ.Q.Q.W.H.H.H.H.S.H.H.H.H.!.~.~.!.~.!.H.H.W.H.H.H.H.H.H.H.H.H.H.H.U.!.S.S.U.U.U.U.S.U.U.L.U.U.U.U.H.H.U.U.H.Y.G.<XFX].P.XX&XkXXXY.Y.Y.R. XFXMXF..XY.Y.XX.XOXXXc.JXJX X XR.T.P.].CXKXMX X X<XqX9X6XvXnXvXAXvXtX=X-XrXJXpX*XtXpXpXrXtXtXtXrXrXtXtXtXtXtXtXtXtXNXyXyXyXvXyXtXyXyXyXyXyXyXyXcXyXmXmXmXyXyXyXyX6XvX6XyXnXnXnXnXnXnXnXnXnXnXnXnXnXnXnXnXnXnXnXnXnXnXvXmX}.mXnXmXvXvXmXmXmXnXmXyXyX}.}.}.[.6X'.}.6X].w.e.[.[.6X[.[.].].&X[.&.[.].e.].[.].e.].].e.e.&.'.LX].C E X.v m &XKX].M m E O.E r m m m e w m X.e.KXyXl v e e x x R z X.KXcXm E +.+.+.+.+.q.[.&Xp.q.q.r.u.w.#X%Xd.q.R R +.sX6XyXKXNXC c v Q +.u.w.O.O.O.O.O.q.O.m m w.SXHX'.j y i f i l y y - ; = = =   = . Z '.&.*..XR.I.R.R.R.R.R.Y.XXXX.X.X.X.X.XY.Y.Y.Y.Y.Y.Y.Y.Y.Y.I.U.Y.Y.Y.Y.U.U.U.U.H.J.H.H.H.H.S.S.H.S.!.H.!.!.H.!.U.U.U.U.Y.Y.~.Y.Y.Y.Y.U.U.H.U.S.S.S.S.S.S.S.S.S.S.S.S.Z.S.S.S.C.",
"XXOX+XQ.Q.Q.W.H.H.H.H.S.H.H.H.H.!.~.~.!.~.!.H.H.!.H.H.H.H.H.H.H.U.H.H.H.U.!.S.S.U.U.U.U.S.U.U.S.U.U.S.U.H.H.U.U.U.Y.c.zXCXc. X0XMX XY.!.Y.R.c.FXMXc.OX^.~.XXT..XXX XMXLX XP..X.XI. XMXKXMX].,XR.<X8X9XBXNXvXAXAXtX7X=X=XSXNXrXpXpXrXrXtXtXrXrXrXrXrXtXtXtXtXrXrXpXtX6XtXyXyXyXtXyXyXyXyXyXyXcXmXmXcXcXyXyXyXyXyXyXcX}.yXnXnXvXnXnXnXnXnXnXnXnXnXnXnXnXnXnXnXnXnXnXnXvXmX9XmXnXmXvXvXmXmXmXvXvX}.mX6X}.}.[.6X'.].9X].w.*.].[.9X6X&X].].].[.].e.}.].].[.].e.].].e.e.&.Z 9XVXC E E D L C 9XKX&.m m v E v v m m x v r m c ].KX}.c E v L v v E v C KXSXC E Q +.+.+.+.w.&X*X#Xq.q.q.q.w.d.%X#Xd.+.R &.rXe.}.AXKX6Xc q v E O.w.-Xd.w.O.O.O.O.X.c C yXKX}.N l i i y - - ; = = = = = = =   : v.c.T.Y.I.R.R.R.R.R.Y.XXXXXX.X.XT.T.Y.Y.Y.Y.Y.Y.Y.Y.Y.Y.I.U.Y.Y.Y.Y.U.U.U.U.H.J.H.H.H.H.S.S.H.S.!.H.!.!.H.!.U.U.U.U.Y.Y.~.Y.Y.Y.U.U.U.S.H.S.S.S.S.S.S.S.S.S.S.S.S.Z.S.S.S.C.",
"XXXX+XQ.W.Q.W.H.H.H.H.S.H.H.H.H.!.~.~.!.~.!.H.H.!.!.H.H.H.H.H.H.U.U.U.U.U.U.S.S.U.U.U.U.S.U.U.S.U.S.S.U.U.H.U.U.!.Y.c.FX0Xc.<XkX<XI.^.Y.R.F.MXMXF.OXY.+XY.~.~.XXc.9XKX2X XOX.XXXc.qXKXFX X XXX.X<X0X<X9X9XcXHXvXrX=X-XiXJXyXtXrXwXwXrXrXrXrXrXrXrXrXrXrXrXrX6XrXiX=X7X*XrX*XtXrX7X7X7XrXyXyXcXyXmXcXmXyXyXyXyXyXyXyX}.yXnXmXvXZXmXnXnXnXnXnXnXnXnXnXnXnXnXnXnXnXnXnXvXmXyXmXnXvXmXmXmXmXmXvXvXyX}.yX}.6X[.].[.'.6X[.&.e.].[.[.9X}.[.].].].&X&.].[.'.].].e.e.'.e.&.O.X.O.JX[.c E L L L C JXHXm c L v R r E E L r r r c l 9XKXe.m +.E v L L E c O.KXNXC O.+.Q Q +.q.w.&X6X&X&.q.r.r.q.p.=X*Xd.w.O.O.=X&.[.vXKXAX&.k M c q m O.e.[.&.e.O.C n y j {.KX}.: ; j i - - ; : ; : = =     > . N c.F.I.R.P.R.R.R.R.Y.XXXXXXXXY.T.T.Y.Y..XY.Y.Y.Y.Y.Y.Y.Y.Y.Y.Y.Y.Y.U.U.U.U.H.J.H.H.S.H.S.W.H.S.!.S.!.!.H.U.U.U.U.U.Y.U.~.U.U.U.U.H.H.U.!.S.S.S.S.S.S.S.S.S.S.S.S.Z.Z.Z.D.S.",
"XXXX+XQ.Q.Q.W.H.H.H.H.S.H.H.H.H.!.~.~.!.~.!.H.H.!.!.H.H.H.H.H.H.U.U.U.U.U.U.S.S.U.U.U.U.S.U.U.S.U.H.H.U.U.U.U.L.W.U.F.JX<XoXzX XG.~.^.R.F.CXMXc..X^.+XY.Y.Y.Y.XX9XKXqXc.XX.XOXF.9XKXFX]. XR..XR.XX X X<X{.AXVX6X&X&X6XSXAXtXrXuXwXeXuXrXrXrXrXwXrXrXrXrXrXrXrXiX*X-X*X=X&X*XrX7X=X*X*X7X6XtXyXyXyXmXmXmX9XmXmXyX6XyX6XcXvXyXmXnXmXnXnXnXnXnXnXnXnXnXnXnXnXnXnXnXnXnXvXmXyXmXvXvXmXmXmXmXmXmXmXvX}.mX}.6X}.].].].[.6X&.w.].[.].}.9X[.9X].w.].].&.[.'.].].e.e.e.e.&.O.R c ].JXO.v v e L x &.KX6Xk v L v X.R X.R v r r w k l VXKXC E +.+.R R R O.c &.KXNXX.+.+.+.Q q.w.].*XyX6Xq.+.r.q.q.w.d.*Xw.e.O.#X[.C e.6XLXKX[.C C &.O.c 9 j j j j y & y & # Z LXcXl . : - N N l l l N : = = = = y @.F.I.R.F.R.R.R.R.Y.XXXXXXXXT.T.T.Y.XX.XY.Y.Y.Y.Y.Y.Y.I.Y.Y.Y.Y.Y.U.U.U.U.H.J.H.H.A.S.W.W.H.S.!.H.!.!.H.U.U.U.U.U.Y.U.~.U.U.U.H.H.U.H.H.S.S.S.S.S.S.S.S.S.S.S.S.Z.Z.Z.S.S.",
"+XXX~.H.W.W.W.H.H.H.H.H.H.H.W.W.!.~.~.!.~.!.W.!.!.!.!.H.H.H.H.H.H.H.U.U.U.U.S.H.U.U.U.U.A.U.U.A.A.S.U.U.U.U.U.L.!.I. XLX9XkX<XI.Y.~.OXF.kXMXF.XXY.Y.Y.Y.I.XXP. XLXCX XXX.X.XF.<XJXJX<XF.XXXXY.Y.I.XXXX X9XLXcX X&X&XcXLXNXrXwX=X=XrXuXrXrXtXyXtXrXrXrXrXrX*XpX*X#XeX-X#X=X=X*X-X-X#X*X6XyXyX6X6XcXyXyXyXmXmXyXyX6X6XyXvXcX}.mXvXmXmXnXnXnXvXnXnXnXnXnXnXnXnXnXmXnXvXvXmXyXmXnXmXmXmXmXmXyXmXmXmX}.yX6X6X6X[.].[.].6Xe.e.].[.].].}.9X[.9X].w.#Xe.].].e.].e.e.&.&.*.E m n C vXtXM v D D v z 7XKX&.z L e R *.E X.E v r q 0 q m LXVXM +.u.+.m E E +.c ].KXyXC O.Q +.q.q.w.#X6XvX6Xe.q.r.q.q.q.w.*X&.C Z MX&.m &.[.NXKXmXl & l l j 1 - - - y - = = = . : hXKXZ   = N @.f i i @.@.@.l # = + B P.G.I.G.I.I.I.I.Y..X.X.XXXXXT.Y.Y.Y..XY.Y.Y.Y.Y.T.Y.Y.Y.U.U.U.U.U.U.G.G.J.U.U.H.S.S.S.S.!.!.!.!.!.!.H.U.!.U.U.U.U.Y.~.U.U.Y.H.H.U.S.S.S.S.E.D.S.S.S.S.S.S.C.C.C.S.S.Z.D.",
"+XXX~.H.W.W.W.H.H.H.H.H.H.H.W.W.!.~.!.!.~.!.W.!.!.!.H.H.H.H.H.H.H.H.H.U.U.U.S.H.U.U.U.U.S.U.U.A.A.S.U.U.U.U.U.L.!.G. XLXCX2XF.Y.G..XF.zXCXx.XXY.Y.Y.Y.Y..XXX].FXJX]. X.XR. X XFXKX2XXX.XXXXXY.Y.XXR. XqXJXVX2X<X<X9XnXJX6X*X=X=XrXtXtXtXtXtXvXMX7XrXuXrX*XuX7X*X=Xd.d.wX=X-X#X#X#X=X7XtXtX6X6XtXyXyXyXyXmXyXyXyX6XyXyXvX6X}.yXmXyXvXvXvXnXnXnXnXnXnXnXnXnXnXnXmXnXnXvXmXyXmXmXmXmXmXmXmXyXmXmXyX6X6X6X}.6X[.].[.[.}.].*.e.&X].].[.6X9X[.&Xw.w.w.e.].&.e.&.&.O.X.O.m c v k &.AX[.c x e D e C LXvXm R v w E w.E O.E m v z w 4 Z KX[.M w.p.w.m R E +.c }.KXyXC q.+.+.q.+.q.w.tXVXyXw.q.w.q.q.q.e.*X].j M JXe.m &.[.cXKXJXZ X - j & - - - - - = # # = . . Z KXmXN O B B B @.] @.@.B l = # l P.R.I.Y.I.I.I.R.Y..X.X.XXXXXT.Y.Y.Y.XXY.Y.Y.Y.Y.Y.T.Y.Y.U.U.U.U.U.U.G.G.U.J.H.!.H.H.E.E.!.!.!.!.W.!.H.U.!.U.U.U.U.Y.^.U.U.Y.H.H.!.S.S.S.S.E.D.S.S.S.S.S.S.C.C.C.S.C.D.D.",
"+X+X+XQ.W.W.W.H.H.H.H.H.W.W.W.W.!.~.~.!.~.!.H.!.H.H.H.H.H.H.H.H.H.H.H.U.U.!.S.H.U.U.U.U.S.U.U.A.A.U.U.U.U.S.U.L.!.N.<XKXqX XR.Y.~.F.8XFX XXX.X.XY.Y.R.R..XF.gXKX<X XXXY.R.F.9XKXqX X.XY.Y.R.Y.Y..XF.2XCXLXcX].<X X8XLXcX*X7XrXtXtXyXtXNXtXNXpX7X7X=X=X#XrXaX*X#X&X*XuX=X#X#X$X#X7XtXtXtXtX6XyXyXyXyXyXyXyXyXyX6X6X6XyXyX6X6XyXyX}.mXmXvXmXvXnXvXvXvXvXnXnXvXmXvXnXmXmXmXyXmXmXmXmXyXmXyXyXmXyX}.yX}.6X}.6X[.[.}.[.6X[.w.e.&X].e.].&X}.9X].w.w.w.&.e.O.O.O.X.X.m E E c c v k [.HX'.j L D L w e.KXO.M X.v w +.w.m O.E R v r r 2 ].KX&.C #X#Xw.E E O.+.C yXLX}.C w.q.+.+.+.q.*.tXJXyXe.q.q.q.q.+.O.[.}.Z Z ZX'.k C '.cXJXKX'.. & - - - - - - = = = = =   . N nXKXx.  l B @.@.] @.B N N . # *.T.U.Y.I.R.R.R.Y.Y..X.X.X.X.XY.Y.Y.XXY.Y.Y.Y.Y.Y.T.Y.Y.U.U.U.U.U.U.G.G.U.J.H.!.W.W.W.W.!.!.!.!.!.!.H.U.!.U.U.U.U.Y.~.U.U.Y.H.H.U.A.S.S.S.E.D.S.S.S.S.S.S.S.C.C.S.S.D.D.",
"+X+X+XQ.W.W.W.H.H.H.H.H.W.W.W.W.!.~.~.!.~.!.H.!.H.H.H.H.H.H.H.U.H.H.H.H.U.!.S.H.U.U.U.U.S.U.U.A.S.U.I.I.U.S.U.U.G.F.MXJXF.I.R.XXF.0XJX].P.OXR.R.Y.Y.Y.R.F.<XKX9Xc..XY.XXF.8XKXMXc.XXG.Y.Y.Y.R.R.XX XMXMXLX]. XXX].BXJX9X6XiXtXtXcXtXcXNXNXrX*X&X*X*X*X7XNX*X#XrXiX7X*X#X%X-X-X=XtX9XtXtX6X7XyXyX6XyXyXyXyXyX6X9X6X6XyXyX6X6X6XyX}.}.yXyXyXvXvXvXvXvXvXnXnXmXmXmXvXmXmXmXmXmXmXyXyXyXmXyXyXyX9X}.9X}.[.6X}.[.[.}.[.}.[.].*.oX[.e.&.].}.}.[.&.&.O.O.O.O.X.X.v m c w m m w r c M hXJXZ w D D L k NXNXq m +.m w *.w.O.O.O.E R L m q cXKXC e.[.*X[.O.E O.O.C vXLX}.M q.w.q.+.+.+.O.9XLX6X&.O.q.q.O.O.O.e.yX}.'.AX&.* l C '.DXKX|.= # = - - = # - = O - = : = . Z }.KXIX: ; N @.B B N l N : . _ .XY.G.R.Y.Y.Y.Y.Y..X.X.X.X.XY.Y.Y.XXY.Y.Y.Y.Y.T.Y.Y.Y.Y.U.U.U.U.U.G.G.H.U.U.H.H.W.W.W.!.U.U.U.U.!.H.U.Y.Y.U.U.U.Y.~.U.U.Y.H.H.U.A.S.S.S.E.D.S.S.S.S.Z.S.S.C.C.S.S.D.D.",
"+XXX+XJ.W.Q.W.W.H.H.H.H.H.H.H.H.!.~.~.!.!.!.!.!.U.!.!.!.H.S.!.S.U.U.U.U.U.!.U.U.L.U.L.U.H.U.U.U.H.G.G.G.H.H.U.Y.c.0XFXMXF.I.Y.I. XJX<XF.Y.Y.R.R.Y.Y.Y.XXc.FXJX].XXY.Y.XX].FXFX].XXXXXX.X.X.X.XXXc.qXMXVXMX]. X X}.LXFX9X9XiXMXqX*XqXCXuX-X-X-X=X*XrXtXNXtXtXpXiX*X=X%X$X$X#XrXtXtXtXtX6X6X7X7X6XyXyXyXyXcXyXyXyX6X6XyX6X6X6X6X}.}.6X6X6XyXmXvXmXnXvXmXnXnXmXmXmXmXmXmXmXmXyXmXyXyX6XyX9X9X9X6X6X6X}.[.6X}.[.}.}.[.[.&X].e.[.[.w.O.O.].[.}.e.X.E E E E m m c c c 0 z O.m 0 z c Z AXnXM c r L z X.KX&.c X.+.m m w.w.&.O.X.E E E m C KXAXC [.[.7X[.&.*.O.O.&.NXAX'.c O.O.O.O.O.O.m }.KX[.C C &.w.O.c l Z '.|.mXLXC - l j C IXKXIX=   = = = - ; i N l ; l : O # Z |.KXGXA   N j l i l : = O B ,XT.R.Y.Y.Y.Y.Y.Y.Y.Y..X.X.X.XT.Y.Y.Y.Y.Y.Y.Y.R.R.Y.Y.I.U.J.J.U.U.U.U.U.!.!.U.U.U.!.!.U.U.U.U.H.U.H.U.Y.U.U.Y.U.Y.Y.U.U.U.U.H.H.H.S.S.S.S.S.S.Z.S.S.Z.S.S.S.S.C.C.C.C.",
"+X+XXXJ.Q.W.W.W.W.H.H.H.H.H.H.W.!.~.~.!.!.!.!.!.!.!.!.!.H.S.!.S.U.U.U.U.U.!.U.!.U.U.L.L.H.U.U.S.H.G.G.G.A.A.G.I.0XkX9XMXF.OXY. XJX2XF.OXY.Y.Y.Y..XI.+XR.8XKX2XP.XXY..X XqXLX X XXXXXXXXXR.I..XP.2XFX}.KX<X X,X XcXLXMX<X<X X].].&XiX7X=X%X%X=X*XrXtXtXSXvXtX*X*X*X=X%X#X=XuXtXtXrXrXrX6X7X7X6X6X6XyX6XyX6XyXyXyX6XyX9X6X6X6X6X*X6X6X}.}.6XyXyXmXmXmXnXnXmXnXmXmXmXmXmXmXmXyXyXyX6X}.9X}.6X6X6X}.6X}.[.}.}.[.[.}.[.[.[.].e.].[.w.E O.&.'.'.].&.m c c w c c k k 0 0 0 z O.E w c k &.KX}.9 r L L c 9XNXM m O.O.R E ].w.*.O.o.E L E c &.KX}.Z 9Xe.pX[.e.w.O.m e.VXHX&.9 M M m O.E m l }.LX'.C M C C B n B Z Z Z HXnXl - i ; = '.KXPXN   - l B B @.@.C i - : -   = : Z GXKX'.> > : : : - = O V T.T.XXY.Y.Y.Y.Y.Y.Y.Y.Y.Y.Y.T.T.Y.Y.Y.Y.Y.Y.Y.R.Y.Y.Y.I.U.J.U.U.U.U.U.U.!.!.U.U.U.U.U.U.U.U.U.H.U.H.U.Y.U.U.Y.U.Y.Y.U.U.U.U.H.H.H.S.S.S.S.S.S.Z.S.Z.Z.S.S.S.S.C.C.C.C.",
"+XXXY.J.Q.W.W.W.W.H.H.H.H.H.H.H.!.~.~.!.!.!.!.!.!.!.!.!.H.S.!.S.U.U.U.U.S.U.S.U.S.U.L.L.S.U.U.S.G.H.H.H.S.G.F.5XzXc.2XCXI.T.c.FXzXc.Y.Y.Y.Y.Y.Y.R.R.I. XJXBXc.XX.XY.F.<XKX9X X.XXXXX XXX.XY.R. XCX6X9XLX XXXXX<XVXJX8XF.R.XX X<X&XqXqX:X:X=XwXtXMXNXNXpX=X-XwXrX7X7XrXrXiXrXtX6XrX*X7X7X*X7X7X7X7X6X7X6XyX9XyXyX6XyX6X6X6X*X7X*X*X[.*X6X6X6X6X6X6XyXmXmXmXmXmXmXmXmXmXmXyXIXIX}.}.}.}.}.}.}.}.}.6X[.[.}.}.[.[.[.[.].].].*.*.w.w.m E X.R C &.[.Z l k q c k k q q 0 0 w c X.E z c M }.KXe.0 v L v C KXe.C E O.O.m O.w.*.+.W W L r m j [.KX&.&.vXe.tXe.O.].O.M '.HXnXC l M : l M M l : }.HX'.N C B B C B B B B &.KX}.l N f i ; x.HXKXZ : N @.@.@.B l : ; - - = - l N : }.KXmXA . > = = = # %.^.F..XY.Y.Y.Y.Y.Y.Y.Y.Y.Y.Y.Y..XT.Y.Y.Y.Y.Y.Y.R.R.Y.Y.I.U.U.U.U.U.U.U.U.!.!.U.U.U.U.U.U.U.U.U.H.U.H.U.Y.U.U.Y.U.Y.Y.U.U.U.U.H.U.H.S.S.S.S.S.S.Z.Z.Z.Z.S.S.S.S.S.S.C.C.",
"+XXXY.J.Q.W.W.W.W.H.H.H.H.H.H.W.!.~.~.!.U.!.!.!.!.!.!.!.H.S.!.S.U.U.U.U.S.U.S.U.H.U.U.U.S.U.U.S.H.S.S.S.H.G. XzXP.F.2XzXR.XXMXMXc.XXY.G.Y.Y.Y.Y.R.P.F.zXKX]. XY.Y..X XFXMXc..X.XXXXX XXXR.XXP.8XCX'.VXMXF..X XqXJXCX<XY.~.Y.XX<X<XoXoX-X-X7XiXNXcXVXNX7X7X7X7X7XrXtXtXtXrXtX*X*X*X=XwX-X-X=X*X*X&X&X6XyX6X6XyXtX6XyX6XyX6X&X*X&X&X*X7X7X&X*X6X[.}.6X6X}.yXyXmXmXmXmXmXyX}.}.}.}.}.}.}.}.}.[.].}.}.[.].[.}.[.[.[.[.].].].&.O.O.O.X.v v x z l Z |.l & k 9 k c c 0 z 3 w w w X.R 0 l Z IXLXC c L R c 9XVXZ O.E O.O.E O.w.*.+.X.R e c c : vXKXl &.nXZ yX&.&.].C : '.LX}.- - > > = l l : : bXPXZ N C B ] _ _ _ ] C {.KX{.B B V i i '.LXKX{.N v.@.B N : : - N N = ; N Z =   '.KXLXZ .       & F.3XY.T.Y.Y.Y.Y.Y.Y.Y.Y.Y.Y.Y.Y.T.T.Y.Y.XXXXY.Y.R.R.Y.Y.I.U.U.U.U.U.U.U.U.!.!.U.U.U.U.U.U.U.U.U.H.U.H.U.Y.U.U.Y.U.Y.Y.U.U.U.U.H.H.H.S.S.Z.S.S.S.Z.Z.Z.Z.S.S.S.S.S.S.S.S.",
"+X+XY.J.~.Q.W.W.W.H.H.H.H.W.H.W.!.~.~.!.U.U.U.H.!.!.!.!.H.H.H.H.S.S.U.U.U.U.S.S.H.H.U.U.U.U.U.A.U.H.E.H.N..XCX XI.T. XkXc.kXFXc.I.Y.I.I.Y.Y.Y.Y.Y.P.].KXzXc.R.Y.OXP.9XLX XXX.XR.R.XXXXXX.XXX].FX<X{.KX2X XXX XBXLXgXP.OX~.Y..X XP.].].7X7X6X[.[.vXNXtX7X7X7X7X7XcXvXtX7XrX7X7X*X=X*X#X#X-X=X*X*X*X*XrX6X6XyX6X6XyX6X6X6X*X#X*X&X&X*XrX7X*X7X&X[.*X6X6X6X}.6XyXyXyXyXyXyXyX}.}.}.}.}.}.[.].[.].[.}.[.'.[.6X[.[.].].'.e.&.X.X.m O.C z k k q 9 : Z }.N & 0 k k c z w c z z c v +.X.k C '.nX9X2 v v m C KX'.e.O.&.O.*.E O.[.Z C O.n 0 9 $ N LXnX. Z yXC '.Z C Z C - |.LX|.  = = = = : : : N HXmXZ N B _ _ B B ] ] @.{.KX{.N B @.,X X{.DXKX9XN Z : : : ; i Z : O ; Z Z : :   Z HXKX|.> . > # u c.3XI.Y.Y.Y.Y.Y.Y.Y.Y.Y.Y.Y.Y.I.Y.T.Y.XXR.XXY.R.Y.Y.Y.Y.U.J.G.G.J.U.U.U.U.U.U.U.U.U.U.H.U.H.A.U.U.U.U.Y.Y.U.U.U.Y.Y.Y.U.U.H.S.A.H.S.S.Z.Z.Z.Z.Z.Z.Z.Z.S.S.S.S.S.S.S.S.",
"+X+XY.J.Q.Q.W.W.W.H.H.H.H.W.H.W.!.~.~.!.U.U.U.H.!.!.!.!.H.H.H.H.S.S.U.S.U.U.S.S.H.H.U.U.U.U.U.A.A.C.!.C.P.CX XF.~.Y. X<X8XKX XF.Y.U.I.R.R.R.R.Y.Y. XcXLX XI.XXOXXX XLX9X X.X.XXXXXR.XXXX.X X8XMX].kXJX].XX X9XVXKX9X X^.~.~.T.XXP. X].[.Z l Z [.JX6X[.[.yXtXMXNXvXyXtX6X6XrXrX*X-X#Xd.-X=X-X=X#X*X=X*X6X6X6X6X6X}.6X6X*X&X#X&X[.6XtX6X*X7X7X#X[.*X[.[.[.6X[.}.mXyX}.}.}.}.}.}.}.}.}.[.[.].].].].].[.'.[.[.[.].].e.&.&.C m m c c n k j j 9 9 j # Z }.C j k k 0 z m m v c m v c *.m c &.'.LXZ % 0 c m }.AXC &XC C R L B &.9XZ j N y 2 - O Z KX'.. Z '.: C C l C N l hXHXZ > = = = : N N : Z LX}.Z C @.@.@.@.z.c.c.&.hXKX{.2X4X5X,X@.{.DXKX|.: : = : ; &.Z = = : N N A : >   : IXKXIX: . = + k XX.XR.T.Y.Y.Y.Y.Y.Y.Y.Y.Y.Y..XY.Y.Y.XXR.XXY.R.R.Y.Y.U.U.U.U.G.J.U.U.U.U.U.U.U.U.U.U.H.U.H.G.U.U.U.U.Y.Y.U.Y.U.Y.Y.Y.U.U.H.S.A.H.S.S.Z.Z.Z.Z.Z.Z.Z.Z.S.S.S.S.S.S.D.S.",
"+X+XY.J.~.Q.W.W.W.H.H.H.H.W.H.W.!.~.~.~.!.!.U.H.!.!.!.!.H.H.H.H.S.S.S.S.U.U.U.S.H.H.H.U.U.U.U.A.U.A.S.G.zX<Xc.Y.H.OXc.8XKX XF.U.U.Y.Y.R.XXR.R.R.R. XKX9XF.Y.~..Xc.CXFXc.XXY.XXXX XXXXXXXXXP.CX2X].FXzXc..X XcXHXJX].XXY.Y.Y.T.T.XX,X&.O ; ; Z VX}.&.}.vXAXnXvXyXtXtX*X6XyX6XrX#Xd.#X-XrX=X=X#X#X-X*X*X&X7X7X6X*XrX6X[.6X&X#X*XrX6X6X6X6X*X7X*X&X6X[.[.&X[.[.}.}.}.}.}.}.}.}.}.}.[.[.].].].].e.].].].e.].[.[.'.'.&.C C c n c k k l j & j c k j l # |.IXN j c 0 c O.X.m m m X.c m *.v M e.}.DX: & 9 M Z KX&.l *.O.n b b n Z }.l.: : - - - . '.KXZ . - l - l l - j ; l IXnXA = : N N N N N : {.KX|.@.v.v.v.v.c.v.).{.2XFXFX{.c.).z.@.@.'.bXKXl.. : l @.@.i = = = A N A : = > . . '.LXnXA . = O B XXR.Y.Y.Y.Y.Y.Y.Y.Y.Y.Y.Y..XY.Y.Y.Y.Y.XXY.R.R.R.Y.G.U.U.U.G.U.U.U.U.U.U.U.U.U.U.U.U.U.U.G.H.U.H.H.Y.Y.Y.Y.U.Y.Y.Y.U.U.H.S.A.H.S.S.S.S.Z.Z.Z.Z.Z.Z.S.S.S.S.Z.Z.D.Z.",
"+X+XY.J.Q.Q.W.H.H.H.H.H.H.W.H.W.!.~.~.~.!.U.U.H.!.!.!.!.S.H.H.H.S.S.S.S.U.U.U.S.H.H.U.U.U.U.L.A.A.A.N.0X0Xc.I.H.H.I. XKX8Xc.U.U.U.Y.Y.Y.R.R.R.R.c.zXJX].XXY.~.XX2XJX X XXXR.XXXXXXXXXXXXF.0XzX].9XKX<XP..X<XcXLXkXF.OXY.Y.Y.T.T.XXXXc.C N v.bX}.Z hXbX}.].[.6XyX&X].rXtX6XrX7X#X$X%X*X*XrX=X$Xp.-X-X-X-X&X*X*X6X*X[.7X*X#X*XiXtX6X*X6X6X7X7X&X&X[.7X*X&X[.[.}.}.}.}.}.}.}.[.[.[.[.].].].e.e.e.e.e.].e.'.].].e.&.C l l j k k 9 j j j - j k c l l l : |.mXN l c 0 m O.O.C C c &.c O.&.9 C Z PX|.O & : > }.HX: l n n b s s l A |.'.= - - - - # }.LXZ : - l l y y ; ; ; : IX}.> N : : : = - - = }.HX&.@.x.x.@.@.@.@.x.&.Z DXJX8Xc.z.@.@.N N IXKXl.= x.x.Z y =   = A A A : =       . Z LXLXZ . : y %..XY.Y.T.Y.Y.Y.Y.Y.Y.Y.Y.I.Y.T.Y.Y.Y.XXY.R.R.R.Y.G.J.U.Y.J.U.U.Y.U.U.U.U.U.U.U.U.U.Y.U.H.H.H.H.H.Y.Y.Y.Y.U.Y.Y.Y.U.U.H.S.A.H.S.S.S.S.S.S.Z.Z.Z.C.S.S.S.S.Z.Z.Z.Z.",
"OX+XXXY.Y.Y.H.H.H.H.H.H.H.W.W.!.!.!.!.!.U.U.U.W.!.!.!.H.S.S.S.S.S.S.S.S.S.S.S.S.U.U.S.S.U.U.S.U.!.N.<XzXF.G.G.U.G.c.FXkXI.U.U.I.U.U.Y.Y.Y.Y.Y.XX].JX8XF.Y.~.^.XXMXMXc.OX.X.X.X.X.XR..XXX].CX<X XcXFXc.XXR.0XnXLX2XI..XY.Y.Y.Y.Y.R.F.,X Xc.jXgXZ 9X9XC C Z ].].@.'.6X7XrXrX=X$X-X=X=X=X*X=X#X#X-X-X-X-X*X#X*X*X*X[.7X*X[.[.pXtXtX[.6X6X6X6X6X7X*X[.6X[.&X&X[.}.}.}.}.}.}.[.[.[.[.e.].e.e.w.e.e.e.e.&.&.e.e.&.&.M C 9 k 9 l j 9 j j j j j c c m c k n : |.mXC c c q O.&.C Z O.c &.k &.N . N Z LXN O ; . Z LXZ , B l l i y # #   '.}.: = y f B C bXmXZ B C B B B N i - = N mXl.  : ; = = = = =   IXnXN : N N N N N N Z N |.bXDXbXx.Z C : : N bXKX'.C @.N = : > = : N N =           . : mXKXZ . = - c.^.~.~.Y.Y.Y.Y.Y.Y.Y.Y.Y.Y.Y.Y.Y.Y.Y.I.Y.I.I.Y.I.Y.G.U.I.U.U.I.Y.U.U.Y.Y.Y.Y.Y.U.Y.Y.U.Y.Y.U.U.U.U.U.U.Y.Y.Y.U.U.U.H.S.S.S.S.S.S.S.S.S.S.Z.C.Z.C.C.Z.Z.S.C.C.C.",
"OX+XXXY.Y.Y.H.H.H.H.H.H.H.W.W.!.!.!.!.!.U.U.U.H.!.!.!.H.S.S.S.S.S.S.S.S.S.S.S.S.U.S.S.S.U.U.U.U.N.XXCXc.G.H.H.I.c.CXFXc.U.W.U.I.U.U.Y.Y.U.Y.^.F.9XFX XI.Y.Y.I.<XFX].P.OX.X.X.X.XT.I..XP.8XkX X<XJX9XP.3X XMXnXJX XY.Y.Y.Y.Y.Y.Y.Y..XF. XzX0X{.9X9XZ @.%.c.@.C C ].tXrXrX-X#X=X=X*X=XrX=X#X#X#X-X-X-X=X#X=X&X*X[.*X*X&X].tXrX7X[.*XrX7X*X6X6X6X[.6X*X*X*X[.[.[.[.}.}.}.[.[.].].].e.e.e.e.w.&.&.&.O.O.O.&.e.l M C M & k j j 9 9 9 j j j k M c m l l B C j '.mXm m c c Z Z l Z M l &.l Z = . A |.mX  # # - mX}.+ y ; ; ; ; ; ; - # Z nXZ y B _ B x.DX|.B C B B B N N y : = A IXA = ; ; = = ; : = > IXIX: - i N N N N N Z Z }.|.PXDX'.: : : Z |.bXKXhXZ : : : = : - : - =             .   }.KXUX. = X.Y.^.U.!.Y.Y.Y.Y.Y.Y.Y.Y.Y.Y.Y.Y.Y.Y.I.Y.I.I.Y.U.U.I.U.U.U.U.Y.Y.U.U.Y.Y.Y.Y.Y.Y.U.U.Y.Y.Y.Y.Y.U.U.U.U.Y.Y.U.U.U.H.H.S.S.A.S.S.S.S.S.S.S.Z.C.Z.Z.Z.D.Z.Z.Z.C.C.",
"+XXXXXY.Y.Y.H.H.H.H.H.H.H.H.W.!.!.!.!.!.U.U.U.H.!.!.H.H.S.A.S.S.S.S.S.S.S.S.S.S.U.U.S.S.U.S.W.G.c.zX5XN.G.C.~.G.<XKX XN.U.!.U.U.H.U.Y.Y.U.Y.XX XJX9XF.OXU..Xc.FXkXc.XXY..X.X.X.XT.R.XX XzX2X X8XKX].R..X2XBXLXcX XT.Y.Y.Y.Y.Y.Y.Y.R. XkXjX2XjXfX{.{.%.N._ B Z ].6X*X#Xd.#X=X=X=X=X=X-X#X#X-X-X-X-X-X#X=X*X&X&X*X7X[.].rXpX6Xw.-XuX*X&X*X*X[.*X6X*X[.&X&X].].[.[.}.}.}.[.].].].].e.e.e.e.&.&.O.O.C C C C C j l l k j l j j 9 9 j l k k l M m C M l c m C j '.9XM m q M Z N : Z # : Z C Z .   : nXx.. - # Z DXl + y i i i f f V _ B x.FXx.B _ ] _ 9XBX&.N @.B l l i i : : > A IX> = : : : : : : : : mXmXN B V B B B Z @.Z &.hXx.mXLXl.. Z 2Xx.|.LXKX'.  N N = j : = = =     = # #   >   . |.KX'.. & *.^.S.!.Y.Y.Y.Y.Y.Y.Y.Y.Y.Y.Y.I.Y.Y.I.Y.I.I.Y.U.U.U.U.U.U.U.Y.U.Y.Y.U.Y.Y.Y.Y.Y.U.U.Y.Y.Y.Y.Y.U.U.U.U.U.U.U.U.U.H.H.S.S.A.S.S.C.Z.S.Z.S.C.C.C.D.D.D.D.D.D.C.Z.",
"+XXXXXY.~.Y.H.H.H.H.H.H.H.H.H.!.!.!.!.Y.U.U.U.H.!.!.H.H.A.A.S.S.S.S.S.S.S.S.S.S.U.U.S.S.S.U.H.F.<XqXF.H.A.U.G. XLX<XG.!.U.H.H.H.H.U.Y.Y.Y.Y. X<XJX]. XY.^.R.9XJXc.I.Y.T..X.X.X.XT..X X4XzXc. XCXCXc.3X.X9XVXKX&X XT.Y.R.Y.Y.Y.Y.Y.R.8XkX0X4XzX1XBXzXz.` #.%.c.].e.w.$X=X%X%X=X#X#X#X&X-X#X=X-X#X#X#X=X=X*X*X*X7X[.&XrXiX6X[.=XwX-X#X&X*X[.*X*X*X&X&X&X[.w.[.].&X[.[.}.[.].[.[.].e.e.].&.O.&.C C M M l C l j j k 9 l l k j j j k c k l c m C Z l l l m m C : Z }.m q & N Z : : A   N N Z l # # Z nX: y y l DXx.- f f V V V _ ] ] ] ] &.BX{._ _ _ @.BX2XB B V N N l j ; = :   l.|.= : : i i i N N N C nXhX@.@.@.@.@.@.@.Z N x.}.Z |.mXZ x.{.x.{.|.LXKXZ N : - i l =   =   # = = #         . '.KX'.. B Y.L.!.Y.Y.Y.Y.Y.Y.Y.Y.Y.Y.Y.I.Y.Y.I.Y.I.I.Y.U.I.Y.U.I.U.U.Y.U.Y.Y.U.Y.Y.Y.Y.U.Y.Y.U.Y.Y.Y.Y.U.U.U.U.U.U.U.U.H.G.H.S.A.A.S.S.Z.Z.Z.Z.S.C.C.C.B.B.B.B.D.D.D.D.",
"+XXXXXY.Y.J.H.H.H.H.H.H.H.H.H.!.!.!.~.~.!.!.!.W.!.!.H.S.S.A.S.S.S.S.S.S.S.S.S.L.S.S.S.S.H.G.N.XXzX].N.S.S.G.*.FXCXc.U.S.U.I.I.I.U.U.I.I.U.Y.c.CXCXc.XX.XXXF.JX9XF.Y.Y.XXT..X.XT..X.X XzX,X X2XLX8X X3X,XhXDXJX]. XT.Y.R..X.XY..XF.<XgXkXjX4XzXfXlXFX<X_ ) #.V N *.&X7X#Xp.w.w.p.-XoXoXoX&X&X].].#X#XrX=X7X-X-X&X&XiX-X#X#X-X#X[.#X#X-X].*X&X&X[.w.].&X[.w.].#Xe.e.[.}.[.[.[.[.e.e.].[.O.&.C m M l l l c k k k l l l l l k k l n c c M m m C &.Z C l C C l l . C ].Z : # N Z = N : = Z N Z l i N }.'.f / f 2XbXN B ( _ _ _ ] ] ] ] [ @.c.FX{.V _ _ v.fXx.N N N N l : : N N : > }.x.: N V B ] @.@.@.@.x.FX{.C @.%.@.@.Z B B = '.|.Z |.mX}.x.x.{.Z Z LXKXx.= l j l =   = = = # # = = = =   >   '.LXZ X %.^.H.Y.J.R.Y.Y.Y.Y.Y.Y.Y.Y.Y.Y.Y.G.I.I.I.U.Y.I.U.U.I.U.U.U.U.U.U.U.Y.Y.Y.Y.Y.Y.Y.Y.Y.Y.Y.Y.U.U.G.G.Y.U.U.U.H.H.H.S.S.S.S.S.S.S.S.S.C.C.C.C.D.D.D.D.D.Z.Z.S.",
"+XXXXXY.Y.J.H.H.H.H.H.H.H.U.U.!.!.!.~.!.!.!.!.W.!.!.H.S.S.A.S.S.S.S.S.S.S.S.L.L.S.S.S.S.H.G.c.zX<X*.G.H.H.N.8XLXc.N.U.S.S.G.I.I.I.I.I.I.Y.F. XJX XP.XXR.F.0XJXx.P.Y.Y.Y..X.X.X.X.X.X2X0XR. XgXJX X,XT.,XcXJXCXc.XXT.Y.R.T.R.Y.XX XzXgXBXjX0XkXfXBXCXFX@.) ` ( f B X.<XoX*.a.oXoX*.*.*.].].].&X&X&X*X&X&X=X#X].#X7X].w.u.w.p.w.w.w.e.&.w.*X&X].e.w.w.w.e.e.[.].&.e.}.].}.}.[.[.[.[.].'.&.&.m m m l l M M m 9 0 c c c c k k c m m c c M m C X.Z Z C : l l l j & X l &.'.l - l N : N - C C l B B B Z gX@./ _ @.FX&.V _ _ ] ] [ [ %.%.%.z.z.x.BX{.B ] @.2XfXZ N N i i N N N i i = N bXZ B ] ] @.%.%.$.$.] v.FXv.v.z.@.Z B N : A > |.'.l.|.hX|.'.x.x.= N KXKXZ # : l =   = = = # # = = = = = =   . '.nXZ , F..XG.J.~.Y.Y.Y.Y.Y.Y.Y.Y.Y.Y.Y.G.I.I.I.Y.Y.I.U.U.I.U.U.U.U.U.U.U.Y.Y.Y.Y.Y.Y.Y.Y.Y.Y.Y.Y.U.U.G.G.U.Y.Y.G.H.H.H.S.S.S.S.S.S.S.S.S.Z.C.C.C.D.D.D.D.B.D.D.C.",
"+XOXXXY.Y.J.H.H.H.H.H.H.H.W.H.!.!.!.!.!.U.U.!.W.!.!.H.S.S.S.S.S.S.S.S.S.S.S.S.S.S.S.A.A.U.F.2XzXF.G.G.I.F. XKX2XF.!.A.U.S.G.I.I.I.I.I.I.~.F.8XCXc..XY.R.].JX8Xc.XXXXY.XX.X.XXX.X.XXX<X<XR.<XJXgXP..XR.<XVXJXkXP..XT.Y.R.T..XI.P.8XCXBXBXkXjXkXgXBXgXFX X` { _ f B n X.5X5XN.N.F.F.*. X].].].oX[.[.[.6X&Xw.w.-X%Xq.w.w.w.*.+.+.*.X.m e.e.iXe.C e.&.O.&.&.[.e.C &.Z '.'.'.Z '.}.[.&.e.e.&.O.X.E m X.C C M O.c q m X.c c k c c m m m m C m X.C C N l - : : j - - & & y @.c.N C B l B B V @.B _ ] _ B 8X XB ` _ 9XhXB _ ] [ $.$.z.z.z.%.%.@.] z.BXv.B ] z.lXx.A N B B N f f V V ] B {.BXx.c.K.K.b.b.$.$.b.%.{.FXx.B B N A : : A   A PXZ x.{.bX|.x.N l ; Z LXLXN   : =   = = = = = = = = = =   >   . '.GXZ & ,XG.Y.J.Y.Y.Y.Y.Y.Y.Y.Y.Y.Y.Y.R.Y.Y.Y.Y.Y.I.U.U.I.I.I.U.U.U.U.U.Y.Y.Y.Y.Y.Y.Y.Y.Y.~.U.Y.U.U.G.G.U.Y.Y.I.U.H.H.S.S.S.S.S.S.S.S.S.Z.S.C.C.D.D.D.D.B.B.D.D.",
"+XXXXXY.Y.J.H.H.H.H.H.H.H.!.!.!.!.!.!.!.U.U.!.!.!.!.H.S.S.A.S.S.S.S.S.S.S.S.S.S.S.S.A.A.I.F.MX XF.A.G.F.c.FXkX*.U.S.S.C.S.S.U.I.G.U.I.I.Y.F.FX9XF.^.~.P.8XJXc. XXXXXXXT..X.XXXXX.XR.4X X X0XLX{.R.3XXX0XVXJX2XR..XT.Y.R.T.XXF.8XJXnXVXBXkXkXgXgXBXbXVXMXo.` [ g f B f %.4XP.K.%.z.c.*.*.].].].].].[.].].w.#Xp.+.*.*.O.O.E O.E c m *.].6X&.M C C O.&.C [.e.l l l l N N C C Z C N C &.C O.O.O.O.O.O.O.X.m &.C c O.O.m m c m c C m C m C X.m c l l y ; j y y y y y y i N @.&.B X.B V ] B ] _ ] ] ] _ %.FX@.[ [ x.DXx.B %.%.%.%.[ [ ] %.[ ] $.] x.FX).B ] v.lXZ V V V _ @.%.z.z.K.K.v.FXfXc.K.K.b.b.b.z.>.$.C hX}.N N : = > = = Z Z |.PXZ x.'.mX|.N ; N A |.KXLXA = =   = = = = = = = = = = =   >     }.mXC l XXI.U.Y.Y.Y.Y.Y.Y.Y.Y.Y.Y.Y.R.Y.Y.Y.Y.Y.I.U.U.I.U.U.U.U.U.U.U.Y.Y.Y.Y.Y.Y.Y.Y.Y.^.U.Y.U.U.G.G.Y.U.U.U.U.H.H.S.S.S.S.S.S.S.S.S.Z.Z.S.C.B.B.D.D.B.B.B.D.",
"OX+XXXY.Y.Y.H.H.H.H.H.H.H.W.W.!.U.U.U.U.U.U.U.U.U.!.!.U.U.S.S.S.S.S.S.S.S.S.S.S.S.U.A.G.c.5XzXc.I.G.G.F.<XJXF.A.A.S.S.A.S.S.S.H.G.G.U.U.F.<XFX].R.Y.R. XJX9XF..X.XT.T..X.X.X.XXXXXXX3XR. XCXFX].,X.X XkXJXFX XY.Y..X.XR.R. X XBXAXnXHXVXBXMXlXgXMXBXcXCX X_ $.) p V b ( *.zX5X,XP.z.c.P.c.x.x.c. Xc.&.*.@.@.@.*.%.X.X.X.X.X.n n ].].'.C j l : N N N x.Z : : : l j : j l n l C C c c O.O.O.O.O.q.+.O.X.m w.O.C &.&.M M X.C n O.m X.m O.m k k l B f V B V ( _ V V B @.B B Z @.] @.] @._ _ ] ] [ [ { @.8X8X_ { @.lXgXB @.] ] ] ] _ ] ] ] [ ] [ %.).LXx.B z.hX{.@.z.K.).(.(.,X(.(.(.).2XCXv.K.K.M.M.$.{ { [ ] C DXZ = : >   A Z x.{.Z hX}.N Z {.hXZ = : Z x.IXKXPX: . # # = = # # = = = = = = = > > . : }.mXl j <XT.Y.OXY.Y.Y.Y.Y.Y.Y.I.Y.I.I.I.Y.Y.U.Y.U.U.Y.Y.J.U.Y.Y.Y.Y.U.U.~.Y.Y.Y.Y.^.Y.Y.Y.Y.Y.U.U.H.Y.U.H.H.H.H.S.S.H.S.S.S.S.S.S.S.C.C.C.C.B.B.Z.B.B.B.B.Z.",
"OX+XXXY.Y.Y.H.H.H.H.H.H.H.H.W.W.U.U.U.U.U.U.U.U.U.!.!.U.U.S.S.S.S.S.S.S.S.S.S.S.S.U.C.G.P.zX XN.G.I.G.F.JX<XN.E.S.A.S.A.S.S.S.S.A.I.U.I.F.zXkXc.T.Y.P.0XJXc.XXY.T.T.T..X.X.X.X.XXX.X3X X2XKX0Xc.3X.X XMXJXBXP.^.Y.T..XR.R.<X9XJXZXZXHXVXDXVXBXBXBXBXbXBXlX@.{ ` g f b ) B z.dX4X4X(.c. X2X1Xv.v.@.@.*.&.@.%.@.@.X._ _ X.n B X.*.c.C - - j - - - N x.Z : : N N N C C C n y y y k n X.X.m E E w.q.w.O.O.O.e.M e.Z O.c m &.l C X.X.*.X.c n B B B X.] ] ] ] ] ] @.] @.x.x.x.x.x.x.@.@.@.@.@.[ [ { { { [ &.CX@.[ %.P.DX&._ [ ] ] @.] %.$.z.z.z.@.@.B {.KXx.@.{.BX).(.(.(.(.(.(.(.(.(.(.c.fXfXc.K.L.b.K.K.K.,X@.N Z PXN   > N Z x.{.v.@.Z bXl.Z N }.'.: ; Z {.Z IXKXbX= . # = # # # = = = = = = = > > > . N mXIX: B ,XT.H.Y.Y.Y.Y.Y.Y.Y.I.Y.I.I.I.Y.Y.U.Y.U.U.Y.Y.J.U.Y.Y.Y.Y.Y.~.U.Y.Y.Y.T.Y.Y.Y.Y.Y.Y.U.U.H.Y.U.H.H.H.H.S.S.S.S.S.S.S.S.S.S.C.C.C.C.B.B.B.B.B.B.B.B.",
"OX+XXXY.Y.Y.H.H.H.H.H.H.H.H.W.W.U.U.!.!.U.U.U.U.U.!.!.U.U.S.S.S.S.S.S.S.S.S.S.L.S.U.S.G.<X0XF.U.U.F.c.kXFXc.G.W.S.S.S.S.U.U.S.S.G.I.H.I.c.FX2XP.T.Y.].JX0XF..XT.T.T..X.X.X.XT..XT.,X3X X9XKX2XXXOXXX2XBXJX9XP.^.Y.T..XR.I.<XMXHXHXHXHXHXHXDXVXBXBXBXlXBXBXc.{ { ( f g ( ` [ 5X4X1X1X2Xv.P.).dXv.@.%.@.@.@.@.] x.v.@.Z Z @.x.x.@.l , + i y l N Z &.N l l N N N B B N l i i u B B B B N B N C &.O.X.C &.&.Z Z &.C B l @.B l @.C X.@.n B X.B _ _ ] ] ] [ [ ] @.v.v.x.x.x.'.|.'.x.x.&.@.@.@.%.%.$.$.$.$.] zX2XB [ z.lX{.B z.%.@.%.@.] ] ] B V N N N N hXFXZ v.kX1Xc.).(.(.(.(.).K.K.b.z.c.lX).).).(.(.,Xc.B = = : |.}.: Z Z x.{.{.x.x.@.l.hXZ N Z |.; ; x.v.x.: IXKX}.    = = # # # = = = = = = = = = = . Z mX}.= B I.Y.Y.Y.U.Y.Y.Y.I.I.Y.I.I.I.I.Y.U.U.U.U.Y.Y.J.U.Y.Y.Y.Y.Y.~.U.Y.Y.Y..XY.Y.Y.Y.Y.Y.U.U.H.Y.U.H.H.H.H.S.S.S.S.S.S.S.S.S.S.C.C.C.C.B.B.B.B.B.B.B.B.",
"OX+XXXY.Y.Y.H.H.H.H.H.H.H.H.H.W.U.U.!.!.U.U.U.U.U.!.!.U.U.S.S.S.S.S.S.S.S.L.S.S.S.U.S.G.kX XF.H.A.F. XKX<Xc.U.D.S.S.S.S.U.U.U.U.G.G.U.I.2XCXc.R.Y.P.9XKX XR..XI.T.T..X.XT..X.X.XT.3X3X XBXDX].,XOXR.<XCXJX2XP.^.Y.T..XR.R.<XVXHXGXHXHXHXVXVXDXVXBXCXkXBXFX8X$.{ ` g f h / #.z.zX1X8X1X1X).).).).c.z.z.z.v.x.@.Z x.x.x.v.v.x.@.B @.@._ @.@.@.c.z.B B B B B B B B V B B B B B V V N C N N N Z C C Z Z Z Z &.Z C Z B C B N B C C C B @.@.@._ @.] ] ] ] ] ] B x.x.|.l.UX|.|.|.|.|.|.v.x.c.c.%.$.$.$.[ [ ] %.FX@.` { 8XgXB ] ( V V V V V V V N N N N B Z DXhXx.{.CXc.P.K.K.K.z.$.%.$.z.z.@.1X1Xv.2Xv.c.@.l ;   = = : mX'.N Z x.{.hXx.@.x.Z x.|.N N Z l N v.{.x.= : mXKX|.  # = # # # = = = = # = = = = = = . '.DX{.O %.I.I.U.Y.Y.Y.Y.I.I.Y.I.I.I.I.Y.U.U.U.U.Y.Y.J.U.Y.Y.Y.Y.U.U.~.Y.U.T.OXY.Y.Y.Y.Y.Y.U.U.H.Y.U.H.H.H.H.S.S.S.S.S.S.S.S.S.Z.C.C.C.C.B.B.B.B.B.B.B.B.",
"+XOXXXJ.Y.~.H.J.H.H.H.H.H.H.H.H.U.!.!.!.!.U.U.S.U.!.!.U.L.S.S.S.S.S.A.A.S.S.S.S.S.!.A.,X0Xc.G.C.U.F.MXMXc.U.A.C.S.S.S.S.U.U.U.L.G.C.U.P.qX8XF.Y.Y.F.FXMXP.OXU.Y.T.T.T.T.T..XT.T.,X.XXX2XLXhXP.3XOXXX8XFXFX].P..XY.Y.Y.I.P.8XJXZXGXHXHXHXHXnXnXVXBXBXkXlXBXkXK.$.{ ) g h g ( %.4XjX1X1X1X1X,X2X2X<X2X2X2X{.2X2Xv.@.@.@.z.z.z.K.K.K.L.K.D.N.b.,.$.%.%.@.@.] _ _ ] ] ] _ _ V B @.x.x.x.x.l.l.Z Z Z Z Z Z Z Z Z Z Z Z B B B @.@.@.@.z.z.%.%.@.@.@.] [ ] B @.|.|.|.'.|.|.|.|.|.|.|.|.'.x.x.@.%.@.[ [ [ [ [ ] gX{.) ` v.lX@.V ] ( B B N N N f V B ] @.$.%.x.JX{.x.lX{.%.z.$.z.z.z.z.$.z.M.$.K.fXx.x.C N : = = : : N C Z PXl.Z x.{.{.x.] ] @.N l.Z N : ; x.2X{.x.:   : PXKX'.. = = # # & & # # = = = #           }.nXx.+ %.6.Y.I.R.Y.Y.Y.Y.I.I.Y.I.I.Y.Y.Y.Y.Y.Y.U.U.Y.U.U.U.U.U.Y.Y.U.Y.OX.XT.Y.Y..X^.Y.U.U.H.U.U.U.U.U.S.H.A.E.S.S.S.Z.Z.Z.C.C.C.Z.B.B.B.B.1.B.B.B.B.",
"+XOXXXJ.~.~.H.J.H.H.H.H.H.H.H.H.!.!.!.!.!.U.U.S.U.!.!.U.L.S.S.S.S.A.A.A.S.S.S.S.S.!.N.4X3XN.U.C.I.<XLX].F.!.A.A.S.S.S.S.U.U.S.S.A.A.I.P.MX{.F.T.R.<XKX{.P.^.U.Y.T.T.T.T.T.T..X.X.XXX X8XKX{. XOXT.XX9XJXCXc.XX.XY.Y.Y.I.c.kXLXZXGXHXHXHXGXnXnXnXBXBXkXkXBXlX4X$.$.` / g g g _ z.jXlXjXjX1X1X<X4X1X1XjXkXlXkXkXkXlXjX2Xc.c.,X).K.b.z.z.M.b.b.b.b.$.%.%.z.z.%.%.z.%.%.@.@.z.v.{.{.{.|.|.|.x.l.l.Z Z Z N Z Z B B B Z B B ] @.] %.z.z.z.z.$.%.@.] ] $.@.v.{.|.|.|.|.|.|.|.|.|.|.|.|.|.|.'.v.c.@.] ] ] ] ` ] &.FX] ] @.lXv.f ] ( V f i f V _ @.%.z.z.$.%.@.{.CX@.{.fXz.z.z.z.z.z.%.%.$.$.$.@.{.Z N N : > = = l N N B Z {.bXZ l.x.{.x.B B B N A Z : : ; v.fX{.x.: # . : LXKXZ . = # # & & # # = = # #       # . : mXVX&., %.N.I.I.Y.Y.Y.Y.I.I.Y.Y.Y.Y.Y.Y.Y.Y.Y.U.U.Y.U.U.U.U.~.U.U.Y.Y.OX.XT.Y.Y..XY.Y.U.U.H.U.U.U.U.U.S.H.A.E.S.S.S.Z.Z.C.C.C.C.V.B.B.B.B.1.B.B.B.B.",
"+XOXXXJ.~.~.H.Q.H.H.H.H.H.H.H.H.U.!.U.U.!.U.U.S.U.!.!.U.U.S.S.S.S.S.A.A.L.L.S.S.S.U.F.4XI.I.A.I.c.zXCX*.F.U.A.S.S.S.S.S.S.S.S.S.A.I.F. XCX].I..Xc.CXJXc.R.!.Y.^.T.T.T.T..X.X.X.X.X.X XCXJX'. X.XT.,X9XJXkXc.XXI.Y.Y.Y.R.].CXHXnXHXHXHXGXGXGXnXnXnX9XkXkXlXBXlXc.$.{ ) G g g g %.2XlXlXkXjX8X<X1X8XgXBXBXlXBXBXkXlXlXlXlXjXjX1X2X).c.c.P.K.K.P.).,X2X).).).,X,X).(.P.P.2X{.{.IXIXIXIXIXIXIX|.|.|.|.l.@.Z B ] ] ] ] ] @.%.z.z.z.z.z.z.{ [ [ [ ] ] ] v.x.x.l.'.|.'.UXUXUXUXUX'.'.'.x.x.x.x.v.{. Xz.%.[ ` ] B BXP.B @.fX1XB V _ f V _ @.z.z.z.z.z.z.z.%.z.@.lX{.&.lXc.$.z.z.z.$.$.$.$.] V i &.|.A = = : : : N N _ @.%.@.hX}.Z x.x.Z B V N A : N N = ; v.fXv.v.N O = . N LXHXZ . = = & & & & # # # # # # # # = . N PXnXC n %.G.G.J.R.I.I.Y.Y.Y.Y.I.Y.Y.Y.Y.Y.Y.U.U.Y.U.U.U.U.U.~.~.U.Y.OX.XT.T.Y.T.Y.Y.U.U.H.U.U.H.H.U.S.H.S.E.S.S.S.S.S.C.C.C.C.D.B.B.B.B.1.B.B.B.B.",
"+XOXXXJ.~.~.H.Q.H.H.H.H.H.H.H.H.U.U.U.U.!.U.U.S.U.!.!.U.U.S.S.S.S.S.A.A.S.S.S.S.S.I.R.3XG.A.U.I.].JX Xc.Y.U.S.S.S.S.S.S.S.S.S.S.L.I.F.0X8Xc.T.XX XKX8Xc.T.U.Y.T.T.T.T.T..X.X.X.X.XXX].FXBXc.,X.X.X X9XJX<X X.X.XY.Y.Y.P.8XJXnXnXHXHXHXHXGXGXZXnXHXDXgXjXgXBXBXfX$.>.{ ) g / h g K.1XCXCXCXCXBXBXBXBXBXbXBXBXlXlXBXlXlXBXlXkXlXlXlXlXkXjXzXjXjXjXjXjXjXjX1XjXjX1X1X1XfXfX{.IXIXIXIXIXIXIXIXIXIX{.v.x.x.@.] ] @.] ] z.z.z.z.z.z.z.z.z.z.z.[ ] ] ] ] @.Z Z l.l.l.l.l.l.l.l.l.l.l.l.l.Z Z Z Z @.@.@.[ [ { [ _ c.lXB @.v.fXx.f _ @.%.z.z.z.z.z.z.M.M.z.z.b.z.x.FXx.1X1X%.z.z.z.%.] ] V V f i N '.= : = : N N N @.%.[ [ @.&.bXx.Z Z B B N N N N : N : ; v.fX{.v.N # # # . Z KXmX:   = & & & & & # # # # # # #   = . UXZXmXB _ N.H.G.R.I.I.Y.Y.Y.Y.Y.Y.Y.Y.Y.Y.Y.U.U.Y.U.U.U.U.Y.U.U.Y.Y.OX.XT.OXY.T.Y.Y.U.U.H.U.H.H.H.U.S.H.S.H.S.S.S.S.C.C.C.C.C.C.B.B.B.B.1.B.B.B.B.",
"OXOXXXY.Y.Y.J.H.H.H.H.H.H.H.!.!.!.U.U.U.!.U.U.H.U.!.W.S.S.S.S.S.S.S.S.S.S.S.U.U.S.Y..X.XR.G.Y.F.8XBXF.!.H.S.S.S.S.S.H.U.S.S.S.S.U.F.c.kX2XP.I.R.gXFXP.Y.Y.Y.Y.^.T.T.T.T..X.XT.T.T.XX2XJX8XP.,XR.T. XCXCX XT.T.R.Y.I.F.<X0XMXHXnXHXHXHXHXHXDXGXHXBXkXCX8XlXBXBXBXP.$.>.{ / / h t _ ).1XzXFXFXDXDXVXBXbXBXBXBXbXlXlXBXBXBXBXBXlXlXlXlXlXkXfXfXkXkXkXjXfXfXfXfXfXxXxX1XfXhXhXIXIX}.{.{.|.|.{.|.|.|.v.v.v.@.[ $.%.z.$.z.K.z.z.z.z.z.z.z.$.[ [ [ ] ] ] @.@.z.x.x.l.UXl.UXUXUXUXUXUXUXl.l.x.Z @.@.[ [ { { { #.$.%.CX&._ z.fX{.@.[ %.%.z.z.c.c.z.z.M.M.b.z.z.z.@.1X{.x.lXx.@.@.] B V V N i ; ; . |.Z N # N B ] @.$.$.[ [ %.@.{.hXZ Z B N N N N N : : N i v.jX2Xv.N . =   > . UXKX}.>   # & - - - # # # # # # # # = : : }.ZX[.B G.C.~.G.Y.Y.Y.Y.Y.Y.Y.Y.Y.Y.Y.Y.Y.Y.Y.Y.U.Y.Y.U.U.Y.Y.Y.^.OXOX.XOXY.T.T.Y.Y.U.H.U.H.U.H.H.S.S.H.H.S.A.A.C.Z.Z.Z.Z.V.B.B.D.B.B.B.B.1.B.5.",
"OXOXXXY.Y.Y.J.H.H.H.H.H.H.H.!.!.U.U.U.U.!.U.U.H.U.!.W.S.S.S.S.S.S.S.S.S.S.S.U.L.U.U.T..XI.U.I. XJX{.N.!.S.S.S.S.S.S.H.U.S.S.S.S.L.G. XkXP.R.R. XJX9XF.^.U.Y.Y.Y.T.T.T.T..X.XT.T.T. X9XJX2XR.XXR.XX XFXkXXX^.T.R.Y.Y.P.CX8XfXDXHXDXHXHXDXVXbXVXBX1X1XjXfXjXlXBXBXzXz.L.,.' / ( p h @.).2X1XlXBXBXBXBXlXlXgXkXkXkXjXfXfXkXlXlXBXlXlXlXlXkXgXgXkXkXkXjXfXfXfXfXxXxXxXxXfXfXhX{.{.{.{.{.|.{.|.|.|.v.v.v.z.z.$.$.z.z.$.z.z.z.z.z.z.z.$.[ [ [ ] ] ] ] ] ] ] ] @.x.x.|.|.|.|.|.x.'.'.UXl.x.|.v.).$.$.$.{ $.$.$.$.@.2X2X_ %.fX9Xv.@.%.z.c.v.v.v.c.z.z.z.$.$.[ %.@.x.lXZ hXv.V V V N N i ; = = = : x.|.N N B ] [ [ { { $.{ $.z.Z }.}.N N : : N N y i y N N x.fX2Xv.Z . = = =     }.KX|.. # # # - - & & # # # = # # = = = A mXAX'.%.C.J.Y.Y.Y.Y.Y.Y.Y.Y.Y.Y.Y.U.Y.Y.Y.Y.Y.U.Y.Y.U.U.Y.Y.Y.^.OXOX.XOXY.T.Y.Y.Y.U.U.U.H.!.H.S.S.S.S.H.S.S.S.Z.Z.Z.Z.Z.V.B.B.D.B.B.B.B.B.B.B.",
"OXOXXXY.Y.Y.J.H.H.H.H.H.H.!.!.!.U.U.U.U.!.U.U.H.U.!.!.S.S.S.S.S.S.S.S.S.S.S.S.L.U.U.Y.Y.U.Y.c.0XFX*.U.S.S.U.S.S.S.S.S.S.S.S.S.S.U.I. X5XF.T.P.0XKX].I.U.U.Y.Y.T.T.T.T.T..X.X.XT.T. XMXVX XT.R..X X<XLX9XXX^.T.R.T.I.<XzXF.zXBXJXVXHXHXVXVXgXkXjX4XdX1XjX4XzXlXBXCX2X$.D.$.[ ) / p t @.,X Xc.,XzXdX,X X).P.).,X5X4X5X5X4XdXjXzXlXlXlXlXlXkXkXkXjXjXjXjXxXxX1X1X1X1X1X1X1XfX1X9X{.{.{.{.{.|.|.v.v.x.@.z.] [ $.[ $.$.{ $.z.z.z.$.{ [ ] ] ] [ [ [ [ %.z.v.2X{.{.{.{.{.{.{.{.{.{.{.{.{.xXxX,XK.M.M.>.>.$.$.$.%.@.x.BX@.%.8XhX}.'.x.{.{.{.{.v.z.z.z.$.$.$.$.%.%.@.{.x.x.hXN N N i ; O   = : : N N hXZ Z @.[ [ [ [ [ $.$.%.] @.Z BXl.: N B N N i i i N f @.jX2Xv.Z . >   = =   : mXLXUX. = = & # # & & & & # # # # # #   Z nXVXc.N.J.Y.Y.Y.Y.Y.Y.Y.Y.Y.Y.U.Y.U.Y.Y.Y.Y.U.Y.Y.U.U.Y.Y.Y.^.OXOX.X.XT..XY.Y.Y.Y.U.U.H.!.H.S.S.H.H.H.S.S.S.Z.Z.Z.Z.Z.V.B.B.D.B.B.B.B.B.1.B.",
"OXOXXXY.Y.Y.J.H.H.H.H.H.H.!.!.!.!.U.U.U.!.U.U.H.U.!.W.S.S.S.S.S.S.S.S.S.S.S.L.L.U.U.U.U.U.Y.c.JX<Xc.^.U.U.G.S.S.S.S.L.S.S.S.S.S.U.U.XXXXI.T. XJXMXc.I.Y.U.Y.Y.T.T.T.T.T.T..X.XT..X<XDXgXF.T..XXXP.0XLX XXX.XT.R.T.R.,XP.).,X2XgXVXVXVXVXVXMX0X<X4X4X4X4X4XjXkXlXBXBX Xb.L.{ [ ) g t f @.1XzXP.%.c.(.3X(.3X(.(.(.(.(.(.K.K.).).,X,X4XjXjXjXdXdX4X4X4X4X1X4X1X1X1X1X5X1X1X1X2X1X2X1X1X2X1X{.v.v.v.v.z.%.[ [ [ [ [ [ { { { { { { { [ [ [ $.$.z.z.z.z.v.).2Xv.v.v.v.v.v.).).2X2X2X1X1X).z.z.$.$.{ { [ $.z.z.c.v.v.BX2X@.{.bXIX|.'.|.|.{.{.v.z.z.z.z.z.%.@.] V i N IXZ hXZ ; ; ; ; = : : : N N N IX{.@.@.[ [ { $.%.[ %.%.] ] N x.hXN N B N l i i i N V @.xX2Xv.Z . = # # = > . N HXHXZ . = # & # & & & & & # # # #   # . Z VXkXc.G.J.Y.Y.Y.Y.Y.Y.Y.Y.Y.Y.U.Y.Y.Y.Y.Y.U.Y.Y.U.U.Y.Y.Y.^.OXOX.XT.T.OXY.Y.Y.Y.Y.U.H.!.H.S.S.H.H.H.S.S.A.Z.Z.Z.Z.Z.V.B.B.D.B.B.B.5.B.1.B.",
"+XXXXXY.J.Y.H.H.H.H.H.H.H.H.H.H.!.!.U.U.!.U.U.H.U.W.W.S.S.S.S.S.S.S.S.S.L.S.S.S.U.U.U.U.Y.P.2XJXF.A.U.S.U.U.A.A.A.A.L.S.S.S.S.S.U.S.I.I.U.T.9XKX<XF.R.I.U.Y.Y.Y.R.R.R.R.T.T..X.XF.0XJX2XP.Y.T.XXc.CXFX X.XT.Y.T.R.T.c.2XzXjX,X). XjXFXDXnXVXkX8X4X4X4X4XjXjXjXkXlXBXkXc.b.m. .{ ' / t t l x.JXBXx.%.L._._.3X3X(.(.).(.(.(.L.L.L.L.L.L.(.(.(.(.(._._._._._._.(._._.(.(.(.4X1X1X1X1XdXdXdX1X,X,X,X(.).K.z.z.$.[ [ ] [ [ [ [ [ [ [ $.$.$.$.$.$.$.z.z.).c.c.).).).).(.,X(.(.K.K.M.z.{ { { { [ [ %.%.z.z.c.).).{.v.gXlX@.{.gXIX}.x.x.{.{.v.v.z.%.@.] B N i ; ; : = |.x.|.IX  ; ; ; ; N N N B V N x.DXv.@.$.$.{ { %.[ [ [ ] V V B }.{.N N N N i i N V V @.xX2Xv.x.=   = = = = = . '.HXnX:   # # & & $ - - - & # # #     # @ &.FX&XF.~.Y.Y.Y.Y.Y.Y.Y.Y.Y.Y.Y.Y.Y.^.Y.Y.Y.Y.Y.Y.Y.^.U.^.^.OXOXT.T.Y.T.T.Y.Y.U.U.U.U.U.U.H.H.H.H.S.S.Z.C.S.Z.C.C.C.Z.Z.V.B.B.B.1.B.B.B.B.",
"+X.XXXY.J.Y.H.H.H.H.H.H.H.H.H.H.!.!.U.U.!.U.U.H.U.W.W.S.S.S.S.S.S.S.S.S.S.S.S.S.U.U.U.U.I.P.CXkXF.U.U.L.U.S.A.A.A.A.L.L.S.L.L.S.U.U.U.I.T.R.MXJX XI.Y.I.Y.Y.Y.T.R.R.R.R.T.T..XXX XzXFX].R.Y.T.XX].JX0XF.XXT.Y.R.R.c. XlXlXzXjXdX,Xc.{.9XDXDXFXlXfX4X4X4XjXjXjXjXkXBXCXjXF.b.m. . .' / h , + N }.KXzX%.$.b.L.(.4X4X5X3X3X(.(._._._._._.L.L.L.L.L.L.L.L.L.L.L.L.L.D.D.L.L.L.L.(.(.,X(.(.(.(.(.,X,X,X(.(.(.(.K.K.b.z.z.z.z.$.$.z.z.z.z.z.b.K.(.(.(.5X4X4X,X(.(.K.b.z.[ [ [ [ [ { { { { { { $.%.$.z.z.z.v.v.v.v.x.{.JXx.x.fXmX}.{.x.{.{.x.@.@.B f i ; ; : : ; : : Z |.Z bXZ = : : N N N B B B B Z bXfX@.$.{ { { [ %.[ ] _ ( ] _ Z hXZ N N i i N N V V B 1X{.).x.= = = = = = = = > }.LX}.  # # # & & & & & & & @ # # # # l C ].CXXXN.Y.^.Y.Y.Y.Y.Y.Y.Y.Y.Y.Y.Y.OXY.Y.Y.Y.Y.Y.Y.^.U.^.^.OXOXT.T.T.OXY.Y.U.U.U.U.U.U.U.H.H.H.H.S.S.Z.C.Z.C.Z.Z.Z.Z.V.B.B.B.B.1.B.B.B.B.",
"+XOXXXY.Y.Y.H.H.H.H.H.H.H.H.H.H.!.!.!.U.!.U.U.H.U.W.U.S.S.S.S.S.S.S.S.S.S.S.S.A.I.I.U.U.R. XJX].I./.U.S.W.S.S.A.A.S.U.U.S.S.S.S.U.U.J.I.T. XLX9XN.!.Y.I.I.I.Y.Y.R.R.T.T.T.T..XXX].FXzX XXXY.T.XX2XKX<XXXXXT.Y.R.N.c.kXBXlXlXlXzXjX1X2X{.{.fXlXFXBX8XxXjXdX4XxXjXkXlXBXBXjXz.m.m. . .{ ) ( f i y Z hXKX{.@.%.M.M.L.4X4X5X3X(.(._._._.L.L.L.L.L.L.L.L.L.L.L.L.L.L.M.M.M.D.D.M.K.b.L.L.L.L.L._._._._.(.(.(.(.(.(.(.L.L.K.K.K.K.K.L.K.(.(.(.(.(.(.(._.K.M.M.{ { { { { { { { { [ { [ [ [ [ { [ %.%.$.%.z.z.v.v.v.{.v.DX{.x.1XbX}.{.x.@.@.C N i ; ; : : ; ; ; i V B V }.Z |.}.: N N N B B Z ] ] %.B fXDXx.%.>.{ [ [ [ ] _ _ ] ] ] B x.IXN N f f N N f V B 1X2X).@.O = = = = = = =   l nXHX'.. # # # & & & & & & & @ @ # # - j n  XqX XY.Y.OXY.Y.Y.Y.Y.Y.Y.Y.Y.Y.OXY.Y.Y.Y.Y.Y.Y.^.Y.Y.OXOXOXT..XY.T.T.Y.Y.U.U.U.U.U.U.H.H.H.H.S.S.A.C.C.Z.Z.Z.Z.B.B.B.B.B.B.1.B.B.B.B.",
"+XOXXXY.Y.J.H.H.H.H.H.H.H.H.H.H.!.!.!.!.!.U.U.H.U.W.W.S.S.S.S.S.S.S.S.S.S.S.S.A.I.I.U.U.F.zXCX*.^.E.U.S.W.E.S.A.A.S.U.U.S.S.S.S.U.U.U.I.R.jXKX].G.!.U.I.I.I.Y.Y.Y.Y.T.T.T.T..X X&XJX0XP..XY.T.R.9XJX X.XXXXXY.R.%.zXFXlX1XjXjXxXxX1XdX1XK.c.c.v.lXFXjXdXjX4X1XjXjXkXgXBXBXjXL.,.>.>. .{ ' / ( f ; - x.LXFXc.@.z.$.z.T.(.(.(.(.(.L.L._._.L.L.L.L.L.L.L.L.L.L.L.L.K.L.L.L.D.M.D.M.M.M.M.M.M.M.M.M.M.M.M.K.K.K.L.L._._._._.L._._.(.(.(.L.L.K.M.z.z.z.$.{ { >.>.>.>.$.{ { [ [ [ [ [ [ [ [ [ [ %.%.$.%.c.).2X{.2X{.v.}.DXx.v.bX}.'.&.Z B N ; ; ; ; ; ; : N B B B B B Z x.Z DXZ N Z N Z Z @.@.] [ _ v.DX{.z.{ { { [ ] _ _ ] ] ] ] ] V {.x.i V V V V f V B 2X2X).@.O = # = = = =   = . Z GXnXC # # # & & & & & & & $ @ # @ j l %.%.XX5XF..XY.Y.Y.Y.Y.Y.Y.Y.Y.Y.Y.OXY.Y.Y.Y.Y.Y.Y.Y.^.Y.OXOXOXT.T.T..XT.Y.Y.U.U.U.U.U.U.H.E.E.E.S.S.S.C.Z.Z.B.B.B.B.B.5.B.B.B.1.B.B.B.B.",
"OXXXY.J.Y.Y.H.H.H.H.H.H.H.H.H.H.U.U.U.U.!.!.U.H.U.U.U.S.S.S.S.S.S.S.S.S.S.S.S.A.G.U.!.I.c.FX<XN.U.S.S.L.U.S.S.S.S.S.S.S.S.S.S.S.H.A.U.R. XFXCXc.I.U.U.U.U.U.Y.Y.Y.Y.Y.Y.T.T.T. X9XJX2X.XOXT.^.P.kXCXP.T.XX.XT.c.2XLXlX2X1X1X,X(.(.(.K.K.K.K.z.] ] ,X1X4XjX1X1XjXjXjXlXBXBXlXjXK.{  . .{  .' ) ( V V i B hXKXhXZ ] $.b.M._.^.(.(.(.(.).K.L.L.K.K.K.K.K.K.K.K.D.K.M.M.D.M.M.M.M.M.M.M.M.M.M.M.M.M.M.M.M.M.M.M.M.M.M.M.M.M.M.M.K.K.K.K.K.b.M.b.z.z.b.M.$.$.$.$.[ [ [ ] ] [ ] ] [ [ [ [ [ [ %.$.M.b.K.P.v.c.c.c.c.c.x.LXv.x.hXhXZ N N ; ; = ; i N B ] ] ] B B B B B B {.Z }.hXN N Z @.@.@.@.] ] ] @.bXhX@.[ $.[ ] ] ] ] [ ] @.@.( V Z 2XB V B V V V V V 2X).).@.O = # # = = = = = = . |.HXmX: . # # # # # # @ @ # # # # y B *.N.F.5X3XR.R.Y.Y.Y.Y.Y.Y.Y.Y.Y.Y.Y.Y.Y.U.Y.Y.Y.Y.Y.Y.Y.OX.X.X.XT.T..XY.Y.U.H.H.U.U.U.H.S.E.E.E.S.S.D.S.C.C.B.B.B.B.5.5.B.B.B.B.1.B.B.B.",
"OXXXY.J.Y.Y.H.H.H.H.H.H.H.H.H.H.U.U.U.U.!.!.U.H.U.U.U.U.S.S.S.S.S.S.S.S.S.S.S.S.G.U.!.R.2XFXG.U.U.S.S.S.U.S.S.S.S.S.L.L.S.S.S.G.G.U.Y. X9XLX8Xc.I.U.U.U.U.U.Y.Y.Y.Y.Y.Y.T.T..X XhXFX XOXOXT.^.P.MXMXI.^.T.R.I.P.CX1Xv.).).).K.K.K.b.b.b.z.z.z.%.[ %.z.,XjXxX1XxXjXjXfXkXBXBXBXjX(.{  . . . .{ ) _ ( V i N x.bXFX2X] ] $.b.K.L.(.(.(.(.(.(.(.L.L.L.K.K.L.D.K.b.b.b.M.D.D.M.M.M.M.M.M.M.M.M.M.M.M.M.M.M.M.M.M.M.M.M.M.M.M.M.M.M.M.M.M.M.z.z.$.$.$.[ [ [ [ [ [ ] ] ] ] ] ] ] ] [ [ { $.z.z.z.K.b.K.z.%.z.z.z.z.c.c.&.hXhXZ {.gXC ; = ; ; l N B B _ V ( _ _ B B B B B x.'.Z DX&.Z Z @.@.@.@.] ] ] ] 9XFXz.[ %.[ [ ] [ [ [ [ [ [ ( V f v.v.N B V V V V V ).2X).x.# = # = = = = = = = = = IXGX|.  # # # # # # # # # # & & 2 u %.N.J..X,XR.I.Y.Y.Y.Y.Y.Y.Y.Y.Y.Y.Y.I.Y.Y.Y.Y.Y.Y.Y.Y.Y.OX.X.X.XOXT.T.T.Y.U.H.H.U.U.H.H.S.S.S.S.S.S.D.D.C.C.B.D.B.B.5.5.B.B.B.B.1.1.B.B.",
"XXXXY.J.Y.Y.H.H.H.H.H.H.H.H.H.H.!.!.!.U.U.U.U.H.U.U.U.S.S.S.S.S.S.S.S.S.S.S.S.S.H.U.U.R.kXkXN.!.!.L.S.L.U.S.A.A.A.S.L.S.L.S.S.A.A.Y.I. XVXJX XI.U.U.U.U.U.Y.Y.Y.Y.Y.Y.Y.R.T..X XCXMXP.OXT.Y.^.XXFX8XR.^.R.XXG.,XP.@.%.c.K.K.z.K.b.b.b.z.$.z.$.$.$.$.z.,XdXdX4X4XjXkXgXgXgXBXBXBXlX2X$. . . . . .{ ` ) / V V B @.v.v.N y l B %.z.b.K.L._.L.L._.L.L.L.L.L.L.L.K.D.K.K.K.M.M.M.M.M.M.b.b.b.M.M.M.M.M.M.M.M.>.>.>.>.>.>. .>.>.>.$.$.{ { $.$.[ [ [ [ [ [ [ ] ] ] ] @.%.%.z.z.z.z.z.z.b.b.b.z.z.z.z.z.z.K.P.K.K.K.b.K.z.v.JXZ Z hXN ; : i N B B B B B _ _ ( _ _ B B B V Z {.N IX}.Z @.@.@.@.@.] ] ] _ v.LX2X] %.[ [ [ [ [ [ [ [ ] V V V @.{.C _ _ _ ( V V v.2X).x.# = # = = # = # = = = . Z nXnXZ . # # # # # # # # @ & - y f b o.6.C.I..XR.G.Y.Y.Y.Y.Y.Y.Y.Y.Y.Y.I.Y.U.Y.Y.Y.Y.Y.Y.Y.OX.X.X.XOXT.T.T.U.U.H.H.U.U.H.S.S.S.S.S.S.S.Z.Z.C.C.D.D.B.B.5.5.B.1.B.B.1.5.B.B.",
"XXXXY.J.Y.Y.H.H.H.H.H.H.H.H.H.H.U.U.!.!.!.U.U.H.U.U.U.S.S.S.S.S.S.S.S.S.S.S.S.S.H.U.I.P.CX<XG./.!.L.S.L.L.S.S.S.A.S.L.L.L.S.S.S.C.G.P.8XJXBXF.I.U.U.U.U.U.Y.Y.Y.Y.Y.Y.Y.I.T. X2XJX9XR.^.T.R..XXXJX2XR.^.R.R..X] _ ] %.%.[ b.K.K.b.>.$.$.{ $.{ { [ [ [ z.4XdX4X1X8XBXBXhXgXgXgXBXBXBX4X$.{ {  . . . .{ } / / ( V B N N - ; , p h _ ] #.$.$.b.b.D.L.L._._._._.^._.L.L.L.D.D.D.D.M.M.M.M.M.>.>.>.>.$.>.$.$.$.$.$.>.>.>.{ { { { { { [ [ [ ] [ [ [ [ [ [ $.z.z.K.K.(.(.(.(.(.(.).).).K.K.K.K.K.K.K.K.K.K.K.K.K.K.z.c.%.C bXl.. x.x.N N B V B V V V B V V B _ _ ] ] ] @.Z x.Z Z DXx.Z @.@.@.@.] ] _ _ @.FX1X] %.[ [ [ [ [ [ [ @.B f f V @.v.x.V ] ] _ _ V v.,Xv.v.# = # - = # = # = = = :   '.HXnX: O # # # # # # # @ & & u b ( _ #.6.G.I.OXI.Y.Y.Y.Y.Y.Y.Y.Y.Y.Y.I.Y.Y.Y.Y.Y.Y.Y.Y.Y.OX.X.XOXT.T..XY.U.U.H.H.U.H.H.S.S.S.S.S.S.D.Z.Z.C.C.D.D.B.B.5.6.5.1.B.B.1.5.B.B.",
"+XXXY.Y.Y.J.H.Q.H.H.H.H.H.H.H.H.U.U.U.U.U.U.U.H.S.U.U.S.S.S.S.S.S.S.S.S.S.S.S.H.H.Y.I. XFX].Y.!.!.U.S.S.S.S.A.A.A.S.S.S.S.S.S.S.S.I.P.kXKX9XF.^.U.U.U.U.U.Y.Y.Y.Y.Y.Y.R.T..X X8XJX2XXXOXT.T.R.<XJX XXX^.T.T..X_ ( %.%.] ] [ [ #.{ { { ` ` { [ [ [ [ [ %.,XjX1XgXhXbXnXbXgXlXkXfXlXBXFXzXK.$.{ {  . .>.>.{ ' / / f i i V ] V t , , , t f g g g g G G G / ) ) ) ` ` { :.:.{ ` ` { { { >.,.,.n.n.,.$.$.$.#.[ [ [ { { [ [ [ [ ] [ [ [ %.$.z.z.z.b.b.L.D.L.L.L.L.L.L.).(.(.(.(.(.(.(.).K.K.K.K.K.K.K.K.K.K.z.%.@.B V N O l.hX= &.hX&.B B V V B B V _ %.z.v.v.c.z.v.@.N N Z x.N bX}.N @.@.x.@.] ( _ [ @.FXkXB %.{ { $.%.[ $.%.B @.@.x.x.B @.).@.] [ ] [ ( c.).P.v.= = # : : = # # # # & = # : IXHX}.. # # & # # # @ # # + y f ( _ #.C.Y.I.OXY.I.Y.Y.Y.Y.Y.Y.Y.Y.Y.Y.Y.Y.Y.Y.Y.^.Y.OXT.OX.X.X.XT..XY.T.U.U.H.H.H.H.H.A.S.S.S.S.S.D.S.S.C.C.V.Z.B.B.B.5.5.1.B.B.B.B.B.B.",
"OXXXY.Y.Y.J.H.Q.H.H.H.H.H.H.H.H.U.U.U.U.U.U.H.S.S.U.U.S.S.S.S.S.S.S.S.S.S.S.S.H.H.Y.P.<XCXc.Y.!.U.U.S.S.S.S.A.A.A.S.S.S.S.S.S.S.W.I.2XCXJX].P.^.U.U.U.U.U.Y.Y.Y.Y.Y.Y.R.Y..X XkXFX X.X~.T..XP.4XFX].XXT.T.R.XXc._ ( ( ] ( V ( g ` ` _ _ ` ) / ) ) [ #.@.c.4X8XVXnXnXnXnXbXlXkXjX8XgXgXBXCX,X$. . . .{ >.b.b.#._ B f t B K.$.B u i i i , < p ( #.%.$.N.N.N.$.%.#.[ ` ) ) ) ) / G G G / G ) ` #.$.b.L.T.(.(.T.L.L.L.L.L.).(.(.,X,X(.(.).K.L.K.K.b.M.M.L.L.K.K.K.K.K.K.K.K.K.c.c.c.z.z.z.z.c.c.c.z.%.@.B f i i , + ; ; N DXZ Z bXx.B @.V B B B z.).,X4X1X2X2Xv.C N N N Z x.N x.DXZ Z @.@.@._ ( [ z.@.jXCXZ %.{ $.$.%.@.%.] @.1XhX{.2X2X@.).z.@.%.%.[ ( c.(.K.v.= = # - - = # # # # = # :   A HXHXZ . # # # # # # @ O @ , B %.%.6.C.U.U.Y.Y.I.Y.Y.Y.Y.Y.Y.Y.Y.Y.Y.Y.U.Y.Y.^.Y.Y.^.^.OX.X.XOX.XT.T.Y.U.U.H.H.H.H.H.A.S.S.S.S.D.S.S.S.C.C.Z.Z.B.B.B.5.B.1.B.B.B.B.B.B.",
"OXXXY.Y.Y.J.H.J.H.H.H.H.H.H.H.H.U.U.U.U.U.U.H.S.S.U.U.S.S.S.S.S.S.S.S.S.S.A.S.H.H.Y.P.zXzXc.Y.^.U.U.S.S.S.S.A.A.A.S.S.S.S.S.S.S.S.I.9XJXCXc.R.Y.Y.Y.U.Y.Y.Y.Y.Y.Y.Y.R.R.Y.T. XCXCX].XXY.T..XF.zXCX].XXT.T.R.XX.X_ ( @._ B @.{.2X4X4X4X5X4X,XP.F.%.%.@.%.%.<XcXnXnXnXnXnXbXgXkX8XjXjXfXlXlXCX4X$.$. .>.$.%.].<X<Xc.@.] $.$.$.%.@.X.C @.&.c.2X0XzXjX4X4XdX4XjXjXjXjX0X<X XK.N.$.#.[ _ / G g g g / / ( [ $.N.L.T.(.3X(.(.(.P.P.P.K.c.K.K.z.z.z.b.z.b.b.z.c.z.c.c.c.z.z.z.%.@.@.@.@.%.z.z.z.@.@.B y + + ; + ; i i l f N j gX|.: hX|.Z @.] @.c.1XfXxXdXdX1X2X@.N : N l : N x.Z N bX|.N x.@._ ] [ { z.%.2XFXZ @.$.$.$.%.%.[ _ z.v.hX'.x.fX{.x.v.z.%.$.{ / c.(.K.v.= = # - : & # # # # # = # = . '.LXIX: O # # # # # @ # + % 2 b o.6.H.C.U.U.OXY.Y.Y.Y.Y.Y.Y.Y.Y.Y.Y.Y.Y.Y.Y.^.U.U.^.^.OX.X.X.X.XT.T.Y.U.U.H.H.H.H.S.C.S.S.S.D.S.S.S.Z.C.Z.B.B.B.B.5.5.1.1.1.1.B.B.B.B.",
"OXXXY.Y.Y.J.H.J.H.H.H.H.H.H.H.H.H.U.U.U.U.U.U.S.S.U.U.S.S.S.S.S.S.S.S.S.S.A.S.H.H.R.c.CX5XN.U.T.U.U.S.S.S.S.A.A.A.A.S.S.S.S.S.S.U. XcXLX0XF.I.Y.Y.Y.Y.Y.Y.Y.Y.Y.Y.Y.R.I.Y.T.].FXMXc.XXI.T.T.c.zXMXc.XXT.T.T.R.XX_ *.0X2XCXFXCXlXkXjXkXzXzXzXzXzX0X,XP.%.%.<XbXnXnXnXnXVXnXbXgX8X2X4XjXfX8XfXlXjX(.$.$.,XCXFXFXFXFX8X5X,X,X(.(.2X8XBXFXFXCXBXBXgXfXjXfX1X1X1X1X8X8XgXkXjXjXjX4X4X5X^.N.$.[ _ / g h h g g g g ( ( _ _ B B B B B V B B V V V ( _ ] ] ] ] @.@.@.@.@.@.@.@.@.@.@.@.@.@.@.@.B i ; O ; i l N N N N N V f V l x.BXN }.hXv.x.2XdXjXfXxXxX1X1Xx.N ; : : N : : A Z x.N |.hXZ @.V ] { { M.M.{ ).LXZ @.{ $.$.$.$.[ ( _ @.{.}.{.x.9X{.v.c.z.%.$./ z.(.K.v.# = # & & & & & # # = = # # # > }.GX'.. # @ @ @ # # & & $ + 3 x ` 5.C.~.Y.G.I.Y.Y.Y.Y.Y.Y.Y.Y.Y.Y.Y.Y.Y.Y.Y.T.Y.OXT.OX.X.X.X.X.XY.T.U.U.H.H.A.S.A.C.S.S.D.D.S.S.Z.Z.C.Z.B.B.B.B.5.5.5.1.1.1.B.B.B.B.",
"XXXXY.J.Y.Y.J.H.H.H.H.H.H.H.H.H.W.W.!.!.U.U.H.S.S.U.U.S.S.S.S.S.S.D.S.S.S.S.S.L.!.Y.].FXXXG.I.U.U.S.S.S.S.S.S.S.S.S.S.S.S.S.S.L.N.<XVXJX XR.R.Y.Y.Y.Y.Y.Y.Y.Y.Y.Y.I.Y.Y.^.R.2XJX0XP.T.U.Y.XXc.CXzXF.XXXXR.I.T.Y.%.c.zXCX0X1X1XfXkXlXlXlXkXjXjXjXjXjXjX1XP.c.hXnXGXnXnXnXnXbXgX8X1X,X1XzXlXfXgXBXBXhX9XBXbXbXFXDXHXHXDXbXlXBXCXFXFXDXBXMXbXbXbXbXBXlXgXfXfXjXjXjXkXlXlXfXfX1X2X2X(.R.T.L.K.b.b.$._ V h f t t , , + O X X O O O O O ; i V B @.x.z.@.@.@.@.@.@.@.@.@.@.@.@.@.@.@.C N : # . ; B x.@.@.@._ B B V V f V V B @.JX|.{.hX{.8XBXfXfXjX2X{.x.N ; i i : : : : ; = Z x.Z Z DX'.B [ $.$.$.M.M.{ z.JX&.%.z.$.$.$.[ _ V ( @.v.hX{.v.x.2X).c.c.c.%.( z.(.K.v.# # # & & 1 & & & & = - = = # # Z nXnXZ . # @ # # # O & j l X.%.%.%.C.<.N.Y.I.I.Y.Y.Y.Y.Y.Y.Y.Y.Y.Y.Y.Y.T.T.T.T.T.OXOXT.OXOX.XT.T.Y.Y.U.H.H.H.H.S.A.S.Z.Z.E.S.S.D.D.Z.Z.D.B.D.B.B.B.B.5.1.1.1.B.B.B.",
"XXXXY.J.Y.Y.J.H.H.H.H.H.H.H.H.H.W.W.!.!.U.U.H.S.S.U.U.S.S.S.S.S.S.S.S.S.S.S.S.L.!.F.2XCXP.U.I.U.S.S.S.S.S.S.S.S.S.S.S.S.S.S.S.I.F.0XHXVXP.^.Y.Y.Y.Y.Y.Y.Y.Y.Y.Y.Y.I.Y.Y.^.P.9XJX0XP.T.U.Y.XX].CX0XF.XX.XR.T..XN.c.FXjX2X8XzXFXFXCXFXFXCXlXkXfX1XfX1X8XjX4XP.2XbXnXVXbXbXnXnXgX8X1X,X,X,XjXkXgXbXbXDXJXDXVXcXhXbXnXGXHXHXVXVXVXVXVXVXDXFXFXDXVXBXBXBXBXlXlXfX1X2X2X8XkXgXkXgXgXfX2X,X).c.z.b.z.b.z.z.%.@.C B B B C Z Z x.x.'.{.{.{.{.2X8X1X8X1X2X2X2Xv.c.c.z.z.x.x.@.@.@.B N ; O . = N x.8X8X2XP.z.%.] B V V V f V @.c.v.BX{.x.bXhXhXBXkX1X{.@.B ; : : : : N N : - ; - Z x.x.Z 9XgXB z.$.$.$.M.M.{ z.FXx.%.z.{ $.{ ] V V _ @.@.hX{.v.z.v.).c.v.v.2XB c.(.c.c.O = # & & 2 2 & & - - - = # # # : '.GX}.: @ $ # # # @ $ $ % , s b ` #.<.C.Y.Y.Y.Y.Y.Y.Y.Y.Y.Y.Y.Y.Y.Y.Y.T.T.T.R.T.T.T..XOXY..X.XT.Y.Y.U.H.H.S.H.S.S.S.Z.Z.S.S.S.D.D.Z.Z.Z.D.D.B.B.B.B.B.B.1.1.1.B.B.",
"XXXXY.J.Y.Y.J.H.H.H.H.H.H.H.H.H.!.!.!.!.H.U.S.S.S.S.S.S.S.S.S.S.S.S.S.S.S.S.S.U.!.N.kXkXF.!.G.I.A.S.S.S.S.S.S.S.S.S.S.S.S.S.S.I. XMXLX9XF.^.Y.Y.Y.Y.Y.Y.Y.Y.Y.Y.Y.I.Y.I.^.I.8XJX<XR.Y.U.Y.XX].CX<XP.XX.X.X.X%.*.JXfX1XBXBXBXBXbXDXDXDXDXJXFXVXBXlX8X1XjX4X,X2X8XgXDXnXbXcXVXbX9X<X,X(.(.R.dXlX8X@. XFXlXBXLXJXnXbXmXcXbXVXVXVXDXDXDXCXCXBXBXBXlXgXkXkXkXjX1X2X2X2X<X0XfXgXhXgXgXlXlXkX8X XP.P.c.c.v.2X2XgXlXBXDXDXDXFXFXDXDXnXnXDXPXnXnXbXhX{.{.v.v.v.v.v.c.@.@.B N N i ; = N Z '.fXBXlX1X XP.c.z.@._ V V V B @.v.2X,X2XhXDX}.DXbXhXBXfXx.B l - : : : : N N : ; ; i N B &.x.Z v.DXx.%.$.$.$.z.z.M.$.CXv.@.$.{ { [ / V V ( B x.{.{.z.z.z.z.c.v.x.hXZ z.(.c.x.O = # & & 2 2 & - - - - # # # # # N mXmX&.. # @ @ @ @ @ & & 1 n X.%.<.<.J.G.Y.Y.Y.Y.Y.Y.Y.Y.Y.Y.Y.Y.Y.Y.Y.Y..XT.OXOXY.OX.XT..X.XY.Y.Y.U.H.H.S.H.S.S.S.D.Z.S.S.S.D.D.Z.Z.Z.Z.D.D.B.B.B.B.B.B.B.B.5.B.",
"XXXXY.J.Y.Y.J.H.H.H.H.H.H.H.H.H.!.!.!.!.H.H.S.S.S.S.S.S.S.S.S.S.S.D.S.S.S.S.S.U.U.F.CX<XI.!.G.G.A.S.S.S.S.S.S.S.S.S.S.S.S.S.S.I.].BXLX{.F.^.!.Y.Y.Y.Y.Y.Y.Y.Y.Y.Y.I.Y.I.~.P.gXFX<XR.Y.U.Y.XX].CX<XF.XX.XG._ @.LXgXfXFXFXBXDXnXHXHXJXVXbXgXgXcXMXFXFXCXjXjX<X,X,X XfXbXhX9XBXBXgX1X,XL.L.L.R.zXc.B zXCX2X X8XFXLXKXJXVXVXVXVXVXVXbXbXhXgXgXgXgXkXlXlXlXlXlXlXlXlXzXzXkXkXlXlXlXbXgXhXbXgXkXjXxXjXjXjXlXBXBXBXbXbXPXnXbXbXbXbXnXnXmXmXmXmXmXbXMXgX1X2Xv.c.@.B f i i N : N x.{.hXBXlXlX1X2X2X,XP.z.@.B f V B @.P.1X2X2X2X1XhXJX}.bXhX|.}.&.N i : : : : : N : : ; ; N N B B Z v.c.@.hX2X%.$.$.$.z.z.M.$.CX].[ $.{ [ _ ( V V ( B {.@.v.v.@.%.K.).{.|.}.'.c.(.).&.. # # & & 2 2 & - - - - & # # # # : Z HX'.N O # @ @ @ # $ & y n X.@.<.<.5.J.Y.I.Y.Y.Y.Y.Y.Y.Y.Y.Y.Y.Y.Y.Y.Y.T.T.Y.OXOXOXT.3X.XT.Y.Y.Y.U.H.H.S.H.S.S.E.S.Z.Z.S.S.D.D.Z.Z.Z.Z.Z.D.B.B.B.B.B.B.B.B.B.B.",
"+X+XXXJ.Y.Y.J.H.H.!.H.H.H.A.H.H.H.H.H.U.U.U.S.S.S.S.S.S.S.S.S.D.D.D.D.S.U.U.S.U.U.F.JX].Y.!.I.U.S.S.S.S.S.S.S.S.S.S.S.S.S.S.S.F.2XVXJX]..X/.!.Y.Y.Y.Y.Y.Y.Y.Y.Y.I.Y.Y.Y.~.I.MXCX XT.Y.Y.T.XX].FX<X XG.%._ X.CXBX9XFXbXDXDXHXJXHXDXlXjXjXfXjX1XfXfXfXlXBXlXfX1X1XP.).gXgX2X8XBXgX,X(.K.$.D.b.L._ v.LXzX<X0XjXBXVXFXJXKXKXKXKXLXHXHXHXHXnXnXBXVXBXBXBXBXBXBXBXBXBXBXBXBXBXCXlXlXlXBXBXBXBXlXkXjXdXdX4X4XzXBXBXVXbXPXbXPXDXnXnXPXPXHXHXLXHXFXBXgX2Xz.@.B f f f N B N Z x.hXBXBXlXgXfX1X2X2X2XP.z.%.V f _ z.1XjXjX2X2X8XlXFXDXJXhXhXhX'.}.l l N : N N N N : ; ; l V B B B _ ] c.c.@.x.CX%.$.$.z.z.z.M.%.kX{.] $.[ _ ( V V _ V ] {.x.&.v.x.@.z.).|.|.|.{.).K.).Z . # & & & 2 2 & - - - & & & # # # # : }.mXZ : # # O O @ O @ 2 z n ( o.#.B.N.G.I.I.Y.Y.Y.Y.Y.Y.Y.Y.Y.Y.T.T.Y..XT.T..XT.T.OXY.OXY.Y.Y.U.U.H.H.S.S.S.S.S.Z.S.Z.Z.S.S.Z.Z.Z.D.Z.B.n.B.B.B.B.B.B.B.B.1.1.",
"+X+XXXJ.Y.Y.J.H.H.!.H.H.H.A.H.H.H.H.H.H.U.U.S.S.S.S.S.S.S.S.S.D.D.D.S.S.U.U.S.U.G.XXJXc.Y.!.U.U.L.S.S.S.S.S.S.S.S.S.S.S.S.S.!.F.9XHXCXc.^./.!.Y.Y.Y.Y.Y.Y.Y.Y.Y.I.I.Y.Y.!.R.MXCX XT.Y.Y.T.XX{.CX2Xc.` _ X.kXVXmXDXDXFXDXBXbXVXcXfXfXjXjXdXjX1X1X1XfX8X8XfXlXkXjX,Xc.{.lXjX2X2XjXP.K.K.$.[ ,.[ @.lXJXjX2X4XjXBXFXhX8X9XhXhXbXVXHXJXJXHXJXHXDXVXgXgXgXgXgXBXbXBXBXBXBXbXkX1X2X,X2X2X2X2X2X2Xc.K.K.K.K.K.P.2XkXgXBXbXnXPXnXDXDXHXDXhX}.{.{.v.@.@._ _ ( V B B B B Z x.gXFXlXlXkXfX8X1X2X2X2X,Xc.( t _ P.4XjX1X2X2X8XBXFXVXbXhXDXlX{.hXx.}.Z N N N N N l : ; ; N B B B B ] ] %.z.P.c.@.1X,X%.$.z.z.z.M.%.kX{.] { [ _ ( V ( _ V @.{.x.x.x.{.x.v.v.{.|.}.|.).v.2XB   = - & & 2 & & - - - & & & & # # # # C HX'.A # # # @ @ @ $ j n _ @.$.<.A.N.G.I.I.Y.Y.Y.Y.Y.Y.Y.Y.Y.T.Y.Y.T.T.T.T..XY.OXT.T.OXY.Y.Y.Y.U.H.H.S.S.S.S.S.Z.S.Z.S.Z.Z.S.Z.Z.D.Z.B.B.B.D.B.B.B.B.B.B.B.1.",
"XXOXXXJ.Y.Y.J.H.H.H.H.H.H.A.H.A.S.H.H.H.U.U.S.S.S.U.S.S.S.S.S.D.D.D.S.S.U.U.U.U.F.0XFXc.Y.!.U.U.U.S.S.S.S.S.S.S.S.S.S.S.C.S.U.P.cXHXkXc.^.^.Y.Y.Y.Y.Y.Y.Y.Y.Y.Y.I.Y.Y.Y.^.R.CXMX XY.Y.G.Y.R.2XCX&.%.#.o.2XFX9XLXHXDXBX8X2X2XfXlXjXjXjX1X1X4X4X4X1X1X1X1XfXfXkXkXlXfX).fXlX1X,X).,XK.N.b.] ( V  XDXDXjX1X1XjXlXlX1XfXfX1X1X1X1X8XgXlXBXBXBXlXlXgXkXgXlXBXBXbXbXbXBXBXkX8X1X1X,X(.(.R.K.L.M.b.K.b.b.b.b.b.b.R.).1XlXBXDXbXDXDXhX2X Xv.c.%.@.] ] _ V ( c.c.x.v.{.gXlXlXgXkXfXfX1X1X1X1X2X,Xc.V f c.4X4X1X1X2X9XbXJXDXbXbXbXhXhXbX&.fXx.}.x.: N N N i ; i l B B V V _ _ ] [ { z.).z.z.z.jX@.$.M.z.z.M.%.fX{.] { ] _ ( ( _ ( V @.v.x.x.x.'.|.'.'.}.|.}.{.v.v.2XN O = - - & & 2 1 : - & & & & & & & $ $ = '.JXZ : # # # # @ $ 2 k _ X.%.%.$.*.G.I.I.Y.Y.Y.Y.Y.Y.Y.Y.Y.Y.T.T.Y.T.T..XT.T.OXT.T.OXY.Y.Y.Y.U.H.H.S.S.S.S.S.Z.S.Z.S.Z.Z.S.Z.Z.Z.Z.Z.B.B.Z.B.B.B.B.B.B.B.B.",
"XXOXXXJ.Y.Y.J.H.H.W.H.H.H.A.H.S.H.H.H.H.U.U.S.S.S.U.S.S.S.S.S.S.S.S.S.S.U.U.U.I.F.zXzXc.Y.!.U.U.U.S.S.S.S.S.S.S.S.S.S.S.C.S.C.<XcXHX8XF.^.^.T.Y.Y.Y.Y.Y.Y.Y.Y.Y.Y.I.Y.Y.Y.XXCXMXR.Y.U.G.Y.XX9XcXc.5X<.%.BXcXnXHXHXDX8X1X1X4X,X1XdX0XjX1X1X4X4X4X1X1X1X4X1XjXfXfXfXlXjX2X8XkXdXP.c.(.K.b._ u @.CXDXDXjX1X<XjXlXkXxXdXjXdXdXdXdXjXfXfXgXgXgXkXkXkXkXkXlXbXBXDXnXBXBXgX1X1X,X,XR.K.b.b.M.M.M.M.b.M.b.M.M.M.M.M.$.%.,X1X8XfXfX2X1X Xc.%.] ] _ ( ( h g @.@.c.2XfXlXlXgXfXkXfXjXjX1X1X1X1Xc.@.t B ,X1X2X8XfXgXBXDXDXbXbXbXhX}.{.9XBXC {.x.'.}.l N l i ; i N B B B V V ] ] [ $.$.$.c.z.M.$.2X2X$.M.z.z.M.%.8X{.] [ _ ) ( _ ( V V @.v.x.v.x.l.|.'.|.|.}.IX{.v.c.v.B X = & & & & 2 1 - - 1 1 & & & & & & $ - : DX}.: > # # # @ $ k B b _ o.$.N.G.G.I.I.Y.Y.Y.Y.Y.Y.Y.Y.Y.T.Y.Y.T.T..X.XT.T.T.OXY.OXY.Y.Y.Y.U.H.H.S.S.S.S.S.Z.S.Z.Z.S.S.Z.Z.Z.Z.Z.D.B.D.D.B.B.B.B.B.B.B.B.",
"OXOX~.Y.Y.Y.U.H.H.H.H.H.H.H.H.S.H.H.H.H.!.!.S.S.S.S.S.S.S.S.S.S.S.S.S.S.U.U.U.I.c.CX0XF.Y.!.U.U.U.L.S.A.S.C.C.C.S.S.S.S.S.L.N.8XvXAX XU.Y.Y.Y.Y.Y.Y.Y.Y.Y.Y.Y.Y.Y.Y.U.I.U. XCX8XP.Y.~.G.XX<X}.bXMX1X%.P.FXvXHXHXJXgX<X,X,X4XK.$.z.4XjX4X4X4X4X1X1X1X5X5X,X1XdXfXfX8XgXkX1X8X1X,XK.K.R.z.V t {.DXFXBXlX8X1XjXlXjX1XxXxX1X4X1XdXdXdXjXfXkXlXlXgXgXgXgXbXbXBXDXbXBXBX8X1X,X(.R.K.M.K.K.L.L.L.L.K.K.b.b.b.b.M.>.{ $.$.%.%.$.%.%.[ ] ] ] _ ( / g / / [ %.P.<XjXkXlXjXkXkXjX8X1X2X1X8X2Xz._ t @.1X1X1XfXhXbXVXBXbXBXBXgX8X2X1X{.@.lXZ v.v.Z bXN l i i N B B B B B B ] @.[ $.$.$.$.K.K.M.M.z.4Xz.z.$.z.M.%.jX2X] [ _ ) ( _ V V V @.x.l.x.x.x.x.'.|.|.}.IX'.x.c. XN O # & & & & & & - - 1 2 & 2 2 2 2 % & & # Z KXZ : # # # # @ k X.X.X.%.6.N.N.G.G.Y.T.Y.Y.Y.Y.Y.Y.Y.Y.Y.Y.Y.Y..XI.Y..XT.T.T.T.T..XY.T.Y.U.H.H.S.H.S.S.S.Z.C.Z.Z.S.C.B.Z.Z.Z.Z.Z.Z.D.D.B.B.B.B.5.5.5.5.",
"OXOX~.Y.Y.Y.U.H.J.J.H.H.H.H.S.S.H.H.H.H.!.!.S.S.S.S.S.S.S.S.S.S.S.S.S.S.U.U.U.I.c.CX5XN.!.!.U.U.U.L.S.S.S.C.C.C.S.S.S.S.S.A.F.kXnXVXP.!.Y.Y.U.U.Y.Y.Y.Y.Y.Y.Y.Y.Y.Y.I.I.I. XCX8XP.T.G.5X X&.nXHXBX{.%.1XVXnXGXHXvX2X0X,X,X(.$.[ _ #.4X4X4X4X4X1X4X4X5X5X,X,X,X1XfXfXfXgXgXfX8X1X3X$.L.z.h f 8XDXFXBXlX0X1XjXkXfX1XdXdX1X1X1X1X1XjXfXfXlXlXlXkXgXgXgXbXDXBXbXBXDXBX1X,XP.K.K.L.L.L.L.L.L.L.L.L.L.L.D.D.M.M.M.>.>.{ { { { { { { [ ] ] _ / / ( [ $.N.3XjXzXlXkXjXjXjX1X2X2X2XjX1Xc.@.u p %.4X1XjXkXbXbXBXbXbXBXkX8X8X1X Xc._ B fXZ &.v.N DXC i N B B V B B V ] %.] $.$.{ $.$.$.$.K.M.$.z.,X(.$.$.{ M.[ jX2X] [ _ ) ( _ V V V @.x.x.x.@.@.Z x.|.'.IX}.|.x.v.].y O # & & & & & & 1 1 2 2 2 2 2 2 2 2 % & & = mXmX: & # # # @ % , 3 n X.%.$.6.N.G.G.G.Y.Y.Y.Y.Y.Y.Y.Y.Y.Y.Y.Y..XY.Y..XT.T.T.T.T.T.Y.T.Y.U.H.H.S.H.S.S.S.Z.C.Z.S.Z.D.C.Z.Z.Z.Z.Z.Z.D.D.B.B.B.B.5.5.5.5.",
"OXOX~.Y.Y.Y.U.H.J.J.H.H.H.H.S.S.H.H.H.H.!.!.S.S.S.S.S.S.S.S.S.S.S.S.S.S.U.U.U.I.c.CXXXA.!.!.U.U.U.L.L.S.U.A.C.S.S.S.S.S.S.C.F.MXVXcXF.~.Y.Y.U.U.Y.Y.Y.Y.Y.Y.Y.Y.!.!.I.Y.Y.P.MX9XP.I. X<Xx.cXZXHXgX X%.lXVXZXGXHXVX9X8X<X3XL.{ ` ) ) @.4X1X1X1X,X5X5X4X1X1X,X(.,X,XxXjXlXfXfXfX1X5XL.b.b.h _ gXFXDXBXlX0X1X0XjX8X1XdXdX1X1X1X1X1XfXgXBXBXbXbXgXfXfXgXbXbXDXbXbXbXBX1X(.K.K.K.L.L.L.L.L.K.L.K.L.K.D.D.b.b.M.>.>.>.>.$.{ { { { { { [ _ / _ [ $.K.,XdXzXzXjXjXjXjX4X,Xc.c.1X1X].@.f + f F.4X1XjXgXgXVXbXBXBXgXfX1X1X).z.@.] _ V 2X&.@.v.N DXx.i B B V V _ ] _ [ [ %.$.[ { [ $.$.$.K.z.K.K.b.(.$.$.{ M.[ fX2X_ ` _ _ _ ( V V V @.x.Z @.@.@.@.@.{.x.|.hX'.@.).v.O # # & & & & - y 1 1 2 2 1 1 1 1 1 2 % % 1 @ N KXZ   # # @ @ $ % k n _ o.<.C.U.A.N.G.U.~.Y.Y.Y.Y.Y.Y.Y.Y.Y.Y.Y.Y.Y.Y.T.T.T.T.T.T.Y.Y.Y.U.H.H.S.H.S.S.S.Z.C.Z.S.Z.D.C.Z.Z.Z.Z.Z.Z.Z.D.B.B.B.B.B.B.5.5.",
"OXOX~.Y.Y.Y.U.H.J.J.H.H.H.H.S.S.U.H.H.H.!.!.S.S.S.S.S.S.S.S.S.S.S.S.S.S.U.U.U.I.].CXI.U.!.!.U.I.U.L.S.S.U.A.C.A.C.S.S.S.D.G. XBXDX9XF.~.Y.Y.Y.U.Y.Y.Y.Y.Y.Y.Y.Y.!.U.I.Y.Y. XMX9X XXX X].HXAXGXDX8X2Xc.CXnXZXGXHXVX9X8X1X,XL.$.` / / _ @.5X4X4X1X5X5X1X1X1X1X,X(.,X,X1XfXjXfXjXjX1X,XL.$.G %.fXDXDXBXlX0X1X8XjX8X1XdXdX1X1X1X1X1XlXBXbXbXbXbXgXfXfXkXDXhXbXBXbXbXbXkX(.D.L.L.L.L.L.L.L.L._.L.L.L.L.L.D.m.b.M.M.M.>.$.$.{ { { { [ _ ] $.b.(.4XjXzXzXjXjXjX4X4X).c.z.,X2Xc.@.V i , @.1X1X8XkXBXBXBXbXbXhX8X2X2X Xc.@._ _ ( ) _  Xx.] z.N hX9XN B ( _ _ _ ] ] [ [ [ [ [ [ [ $.z.b.K.L.D.b.b.K.K.$.{ M.%.1X2X_ [ _ _ _ V V V ( ] ] ] @.@.@.] @.v.x.|.bXx.@.2Xx.O # # & & & & y y 1 1 1 2 1 2 1 1 1 2 2 2 1 y @ {.LXA # # @ @ $ $ % 1 b %.B.<.<.%.U.U.Y.U.Y.Y.Y.Y.Y.Y.Y.Y.Y.Y.Y.Y.Y.Y.T.T.T.T.Y.T.I.Y.Y.U.H.H.S.H.S.S.S.Z.C.Z.Z.S.C.D.Z.Z.Z.Z.Z.Z.Z.Z.B.B.B.B.B.B.5.5.",
"OXXXY.Y.~.~.!.H.J.J.H.H.S.S.E.W.U.U.U.!.!.!.S.S.S.S.S.S.S.S.S.S.S.S.S.S.U.U.!.I. XMXF.^.!.!.U.U.U.U.L.U.U.A.C.A.S.S.S.S.S.N.2XVXFX2XI.Y.Y.Y.Y.U.U.Y.Y.U.T.Y.Y.U.U.U.I.I.Y.F.CX9X]. X].DXJXGXHXDX1X,Xc.FXHXGXGXHXHXBX9X2X4X,Xz.] ( ( ] _ ] (.4X,X5X5X,X,X4X5X,X,X,X,X(.,X,X4XjXlXlX2X2XK./ %.8XDXDXDXkX0X1XfXkXfX1X1X1X1X1X1X1X8XBXbXbXbXbXbXBXgXjXfXBXFXhXbXbXbXbXlX1Xz.K.(.(.R.(.(.(.(.L.L.L.L.L.L.L.L.D.b.b.b.b.b.M.>.$.{ [ $.K.P.,X4XjXzXzXfXfXjX0X,XR.$.%.z.c.@.B V i , f z.1XfXfXlXDXBXBXlXkX8X2X,X).P.%.] _ ( ( _ _ _ v.v._ %.l {.BXN _ ] ] _ ] [ [ [ %.[ [ [ $.z.$.b.K.K.L.L.b.b.z.L.{ $.$.[ 1X2X_ [ _ ] ( V V V _ _ ] _ _ ] ] ] %.@.@.hXhX&.z.2XC . # # & & & 1 & 1 1 1 1 2 1 1 1 1 1 1 1 1 1 1 % N HXmX: # - @ @ @ * % n b ` ` $.A.U.H.G.U.Y.Y.Y.Y.R.R.Y.Y.Y.Y.I.Y.Y.Y.T.T.T.Y.T.T.T.Y.U.U.U.S.H.A.S.S.S.C.C.C.C.C.C.C.Z.Z.Z.D.Z.Z.D.B.B.B.B.B.B.B.B.B.",
"OXXXY.Y.~.~.!.H.J.J.H.H.S.S.E.W.U.U.U.!.!.!.S.S.S.S.S.S.S.S.S.S.S.S.S.S.U.U.!.I. XzXF.^.Y.Y.U.U.U.U.L.U.U.A.C.A.C.S.S.S.S.F.9XVXCX].R.Y.Y.Y.Y.U.U.Y.Y.U.T.Y.I.U.U.G.I.I.I.P.MX9X].2XVXJXLXHXHXVX0X1Xv.FXHXGXHXHXZXHXDXBX8X,XK.@.( ( ( ] ( _ (.5X4X5X5X5X5X5X1X,X,X,X(.(.R.,X,X1XfXkX1X4Xb.%.2XDXDXDXkX0X8XkXlXfX1X1X1X1X1X1X1XfXhXnXnXnXnXbXbXgX8XfX8XFXFXhXbXbXbXlXlXP.$.L.(.(.(.(.(.(.(.(.(.(.R.R.R.L.L.L.L.L.D.b.$.$.b.K.,XdXjXjXzXzXkXjXfXfX1X2Xc.%.] [ %.@.V i i y i @.).jXjXBXBXbXgXhX8X1X2X,X(.R.N.$._ ( ( ( _ _ [ ] v.v.B @.f x.FXC ] ] ] ] ] [ [ [ [ [ [ [ $.z.b.b.b.M.D.M.>.M.$.$.M.$.M.[ 2X2X_ [ _ _ ( ( ( _ _ _ _ _ ] ] [ ] %.@.x.bXhXZ v.2XN . # # & & & 9 1 1 1 1 1 2 2 1 1 1 1 1 1 1 1 1 1 * Z LX|.= # @ @ @ & 9 n X.@.%.N.6.S.A.H.Y.Y.Y.Y.Y.R.R.R.Y.Y.Y.I.Y.Y.Y.T.T.Y.Y.T.T.Y.Y.U.U.U.S.S.S.S.S.S.C.C.C.S.C.C.C.Z.Z.D.D.Z.Z.D.B.B.B.B.B.5.5.5.5.",
"OX.XY.Y.~.~.!.H.J.J.H.H.S.S.E.W.S.H.U.!.!.!.S.S.S.S.S.S.S.S.S.S.S.S.S.S.U.U.!.I. X0XG.~.Y.U.U.U.U.U.U.U.U.S.A.S.C.C.S.S.S.F.cXVXMXc..XY.Y.Y.Y.U.U.Y.Y.U.Y.Y.U.U.I.G.I.I.I.P.kX9X[.MXJXHXVXnXHXbXkX1X].FXHXHXHXHXZXHXHXBXfX X).@._ ( V _ ] ( _ L.,X1X,X,X5X5X1X1X,X,X3X(.R.(.R.,X<XjXjXjX5Xc.2XBXDXDXkX8X8XlXBXjX1X1X1X1X1X1X2XjXbXnXnXnXbXbXnXcXgXfX1XfXJXDXgXgXlXlXgX8Xz.M.L.(.(.(.(.(.(.(.(.(.(.R.L.L.L.b.b.b.z.K.(.1XjXjXjXkXlXlXkXjXjXjXdX4XP.%._ _ _ @.B i i i f @.2XjXjXlXlXgXgXfXfX1X,X(.,X(.K.z.$._ ( ( _ _ ] ] [ ] @.c.B @.B @.FXx.] [ @.@.] [ [ ] [ ] [ $.$.M.b.K.K.K.M.M.$.{ $.$.M.{ M.[ 2X2X] [ _ _ ( ( _ _ _ _ _ ] @.] ] [ z.@.|.bXhXZ v.2X-   # & & & j 9 y y y y 1 1 1 1 1 1 1 y y y y 1 0 9 # IXHXZ O & @ @ @ @ j k _ X.%.<.B.D.H.U.Y.Y.Y.R.R.R.I.I.Y.Y.I.Y.Y.Y.T.T.Y.Y.T.Y.Y.Y.U.U.U.S.S.H.S.S.S.C.Z.Z.C.C.C.C.Z.Z.D.D.Z.Z.D.B.B.B.B.B.5.5.5.5.",
"OXXXY.Y.~.~.U.H.H.H.H.H.A.S.S.W.S.H.H.!.!.!.S.S.S.S.S.S.S.S.S.S.S.S.S.S.U.U.!.I.2X0XF.^.U.U.U.U.U.U.U.U.U.S.A.S.C.C.S.S.S.P.VXVX8XF.Y.Y.Y.Y.Y.U.U.Y.Y.U.Y.Y.U.U.I.G.I.I.I.P.9X9XVXDXDXcXbXVXAXcXkX1X{.CXHXHXHXHXHXHXGXDX8XP.1X%.[ _ V V _ _ / _ K.(.,X(.,X,X,X1X5X5X3X3X(.(.R.(.(.,X1X4X4X,X2XlXDXDXlX8X8XlXBXgX1X1X2X1X1X1X1XlXbXnXnXbXnXnXnXbXlXkXfX2X9XJXDXhXgXgXgXlX4X$.M.b.K.L.L.L.R.(.R.R.R.K.K.K.K.K.(.5XjXzXzXlXlXlXlXlXlXlXlXjXdX,Xc.@.( g V _ B i y i N @.2XjXjXjXlXgXfX8XfX1X2X,X(.(.K.K.z.[ / ( ( _ ` [ ] ] _ _ @.c.B @.] @.BX{.] $.%.@.@.@.] ] [ [ $.z.b.K.L.L.K.M.M.$.{ >.{ $.$.M.{ [ 2X2X] [ _ _ ( ( _ ] ] ] _ ] @.] ] [ z.B {.nX{.C 2Xv.. # # # & & j j - y y y & 1 1 1 1 1 1 y y y y 1 3 1 & N HX}.: O @ @ @ @ $ + n ( o.6.A.H.H.U.Y.Y.Y.R.R.R.I.I.Y.Y.I.Y.Y.Y.T.Y.Y.Y.T.Y.I.Y.U.U.U.H.H.A.S.S.S.C.Z.C.C.C.C.C.Z.Z.Z.D.Z.Z.D.B.B.B.B.B.5.5.5.5.",
"OXXXY.Y.Y.Y.U.J.H.H.H.H.H.H.H.H.H.U.U.U.U.S.U.S.S.S.S.S.S.S.S.S.S.S.S.S.U.U.U.I.,X<XF.Y.U.Y.U.Y.U.U.U.U.U.S.C.S.C.C.S.S.C. XVXVX2XI.I.I.Y.Y.Y.I.U.Y.I.I.Y.U.U.U.G.G.G.G.I.P.{.BXDXDXBXgXgXBXDXbXlXfX1XlXHXGXHXHXZXnXGXVX4XK.xXc.$.{ _ ( V ( _ ( _ $.L.3X3X3X,X,X4X3X3X3X(.(.(.R.R.(.(.,X5X5X2XlXDXDXkX8X8XlXBXgXxX1X,X,X1X1X2XlXhXnXVXbXnXnXnXnXbXbXgXgX1XkXFXbXbXlXgXgXlX).[ >.L.D.D.K.L.L.L.K.P.(.,X,X0XjXlXlXBXBXBXbXbXbXBXBXlXjX4X(.b.[ ( f i f V i y i B &.2XfXkXkXzXjXfXjX8X4X1X,X,X(.R.K.b.$.` / ( _ ] ] ] %.] V V ( @.%.] %.[ @.hX9X] { $.[ %.$.[ $.z.b.b.K.L.L.K.K.M.$.$.$.>.{ { { M.>. .[ 2X2X] [ ] ( ( _ [ ] ] [ ] [ [ [ [ %.z.Z }.bXx.@.1XZ .   = & & & & & & & & & & & & & 9 9 9 1 1 9 1 1 1 1 0 @ '.LXZ # # # # # $ % n X.6.G.A.S.U.Y.Y.Y.R.R.T.T.R.R.Y.Y.I.Y.I.T.Y.I.T.Y.T.Y.Y.U.U.U.H.A.S.A.A.S.S.C.C.C.C.C.C.C.Z.Z.Z.D.D.B.B.B.B.B.5.5.n.n.n.B.",
".XXXY.Y.Y.Y.U.J.H.H.H.H.H.H.H.U.U.U.U.U.U.S.U.S.S.S.S.S.S.S.S.S.S.S.S.S.U.U.U.I.,X,XI.Y.Y.~.U.Y.U.U.U.U.U.S.C.S.C.C.S.S.G.<XVXcXR.!.U.I.Y.Y.Y.I.U.Y.Y.I.Y.U.U.U.G.G.G.F.P.2XFXBXDXBXkXjXgXDXDXbXlXfX1XkXHXGXHXHXHXHXDXBX,XK.,X1Xz.$.%.[ _ ( _ ] _ _ [ K.(.(.,X,X5X3X3X3X(.(.(.R.(.L.L.K.P.,XP.jXDXDXlXfX8XlXBXgX8X1X,X,X,X1X,X1XBXVXVXbXnXnXnXnXbXbXlXlXlXfXhXDXBXlXgXgXfXjX,X[ $.$.z.K.R.(.5X4XjXzXkXlXlXBXBXBXBXbXbXBXbXgX8X2X1XP.%.] ( h t i y j - l C x.2XjXjXjXjXfXjXjXfX8X4X4X,X,X(.R.K.N.#.) ( ] [ ] _ ] [ ( g g ( _ @.z.[ $.[ %.{.gX@.$.$.%.$.b.z.b.b.b.K.L._.b.K.b.M.$.$.$.>.{ >.>.{ >. .{ 2X2X] [ _ _ _ ] [ [ ] ] [ [ { { { [ x.x.IXhX@.v.1XN .   & - & & & & & & & & & & & & 9 9 1 1 1 1 1 1 1 1 3 % = nXmXA # # # & $ & B X.%.N.N.U.U.!.Y.Y.Y.Y.Y.T.R.R.Y.R.I.Y.I.T.Y.U.T.Y.T.U.T.U.U.U.G.C.S.A.A.S.S.C.C.C.C.C.C.C.Z.Z.Z.Z.D.B.B.B.B.B.5.B.n.1.1.B.",
".XXXY.Y.Y.Y.J.J.J.H.H.H.A.A.H.U.U.U.U.U.U.S.U.S.S.S.S.S.S.S.S.S.S.S.S.S.U.U.!.U..XXXY.Y.Y.Y.U.Y.U.U.U.U.!.S.S.U.A.S.E.U.N.0XVX9XF.!.Y.Y.Y.Y.Y.Y.U.Y.Y.U.I.U.U.I.U.G.G.P.2XCXDXDXlXkXjX1XkXFXDXbXBXjX1XkXVXHXLXJXCXkXlX1X,XK.P.dXP.%.$.[ [ ] _ _ ] ] [ [ z.K.(.5X5X5X3X,X,X(.(.(.L.L.K.L.L.(.b.4XBXDXBXfX8XlXBXgXfX4X(.(.(.,X,X,XjXlXBXVXnXnXnXbXhXgXgXlXgXlXgXlXBXBXgXgXkXjXjX1XP.c.).1XjXjXkXlXgXbXbXBXBXBXbXBXBXBXkX8X<X,X,X(.%._ f f y y ; - - Z '.9XhX8XjXjXjX8XjXjXfX8X1X1X,X,X(.K.R.L.b.[ / _ ] ] ] _ _ _ g g V ( _ ] %.z.%.$.{ %.].FX%.$.z.z.z.b.b.K.P.).(.(.K.L.b.M.M.$.>.>.>.>.>.>.{ >. .$.2X2X] ] _ ] ] ] %.[ [ [ [ %.$.{ [ ] x.x.hXIXZ 2X{.;   # - - & & & & & & & & & & & & & & & 2 2 2 1 1 1 1 2 1 X Z KXl.: # @ @ $ % C %.%.N.A.G.Y.Y.Y.U.U.Y.Y.T.R.R.Y.Y.I.Y.I.T.Y.U.Y.Y.Y.T.I.Y.Y.Y.H.A.S.A.S.S.S.Z.C.C.C.C.C.C.Z.Z.Z.Z.D.B.B.B.B.B.5.5.n.n.B.B.",
".XXXY.Y.Y.Y.J.J.H.H.H.H.A.A.H.U.U.U.U.U.U.S.U.S.S.S.S.S.S.S.S.S.S.S.S.S.U.!.!.U.T.R.T.^.Y.Y.U.Y.U.U.U.U.!.S.S.U.S.S.W.U.c.CXCX&XI.!.U.Y.Y.Y.I.Y.U.Y.Y.U.I.U.U.G.U.G.F.2XBXDXBXlXfXjXdX,XkXDXDXbXBXlXdXjXVXHXHXMXjX0XjXdX,X(.K.3X1Xz.$.{ { { [ [ ] [ [ [ [ { $.K.R.3X3X,X(.(.(.(.L.L.L.D.b.D.b.(.BXDXBXgX8XkXBXlXfX1X).(.(.,X3X,X,X<XfXhXmXbXbXhXfXfXfXfXfXfXfXfXfXlXlXgXfXkXfXlXlXzXlXlXlXlXlXbXbXnXbXDXDXBXlXkX1X1X,X(.(.N.$._ g h u i : : N x.}.DXHXDXBXlXjX8XjXjXjXjXjX1X<X,X,XK.K.L.D.b.[ _ [ [ ] _ _ ( g f V V g ( _ ] %.z.%.$.{ $.x.JXc.$.$.z.z.K.R.P.P.R.L.K.K.L.b.M.$.>.>.>. .M.{ { >.{ >.$.2X2X_ ] [ @.] @.%.[ [ ] %.{ $.{ [ ] x.x.hX{.@.1Xx.O # # - - j 2 2 2 2 2 2 & & & & & & & & 2 2 2 1 1 2 1 2 1 2 @ mXmXZ : @ $ @ $ y @.c.N.U.A.U.U.Y.U.U.Y.Y.T.R.R.Y.Y.I.Y.I.T.Y.U.Y.Y.T.T.U.Y.Y.Y.H.A.H.A.S.S.S.Z.C.C.C.C.C.C.Z.Z.Z.C.D.B.B.B.B.B.5.5.n.B.B.B.",
"XXXXY.Y.Y.Y.J.J.H.H.H.H.H.H.H.H.U.U.U.U.U.U.L.S.S.S.S.S.S.S.S.S.S.S.S.S.U.U.U.U.T.T.Y.Y.Y.Y.Y.U.U.U.U.U.U.U.L.L.S.U.E.G.c.CXCX XI.!.U.U.U.I.U.I.U.Y.Y.U.U.U.U.U.G.I.].MXVXBXlXkXxXdX4X4XgXFXDXnXBXBXjXjXBXVXBXlXlXjXjXjX,XL.K.L.4XP.z.>.>.{ $.{ { [ { [ [ [ [ $.$.b.K.(.(.(.(.(.L.L.L.K.b.m.M.K.fXFXFXkXjXjXlXBXkXfX1XP.,X,X,X,X,X,X1X8XfXgXBXlXkXjXfXfXlXlXkXlXlXlXgXgXgXgXgXgXgXlXlXlXgXlXbXBXbXBXBXFXlXzXdX4X(._.N.$.' / / h f l l N Z }.VXJXJXGXHXDXFXfXfX8X4X4X1XjX4X,X,X,XL.b.K.b.z.[ [ $.] ( V V g V ( ( ( ( _ _ [ [ $.$.[ z.{ $.x.FX).%.z.c.K.P.L.L.K.K.L.L.K.M.M.M.M.M.M.>.>.>.{ >.>.>.M.$.2X2X[ [ @.z.%.z.$.[ [ [ [ $.{ { [ ] @.|.hX{.x.xXZ . = - & & 1 1 1 1 9 9 9 9 1 1 1 2 2 2 2 2 2 2 1 1 2 1 1 3 y $ C KXZ N O $ $ % 2 n @.%.N.I.U.U.Y.T.T.R.I.Y.Y.I.I.Y.I.Y.Y.I.Y.Y.T.Y.T.Y.I.Y.U.Y.U.A.A.A.S.S.S.Z.Z.Z.Z.Z.C.C.S.C.C.D.D.B.B.B.6.N.1.1.1.1.N.6.",
"XXXXY.Y.Y.Y.J.J.H.H.H.H.H.H.H.H.U.U.U.U.U.U.L.S.S.S.S.S.S.S.S.S.S.S.S.S.U.U.U.U.T.Y.Y.Y.Y.Y.Y.U.U.U.U.U.U.L.U.L.S.U.E.G.].FXCX XU.!.U.U.U.I.U.I.U.Y.I.U.U.U.U.I.F. XMXVXBXgXfX1XdXdX4X1XfXDXDXnXDXBXkXjXBXVXBXlXzXfXjXjX,X(.L.K.1X,Xb.M.>.M.{ $.[ $.{ { { [ ] [ [ [ %.b.b.L.L.L.L.L.L.L.M.m.M.K.8XBXBXkXjX8XkXBXlXlXjX2XP.,X(.(.,X,X,X1XfXfXkXBXkXxXjXjXjXdX4XdXxXjXfXgXlXlXCXCXlXxXjXjXlXCXCXBXlXkX1X,X).K.K.b.$.` ) ) ) / V B @.'.hXPXLXLXHXHXPXPXDXBXfX8XjXjX4X4X1X1X,X,X(.K.b.K.b.b.%.[ %.] ( g V V ( ( ( ( ( _ ] ` [ { $.z.$.$.%.z.x.BXdX%.c.K.K.P.L.L.L.L.L.M.M.M.M.M.M.M.M.>.{ M.>.{ >.M.$.%.).2X] $.%.z.z.z.$.%.[ [ $.$.$.{ { [ C {.hXv.v.1X: . = - & 2 1 1 1 1 1 1 1 1 1 1 1 1 1 1 1 1 1 1 1 1 2 1 1 1 2 y # }.mXZ l @ $ % $ 2 X.%.N.I.U.U.Y.Y.Y.R.I.Y.Y.R.I.Y.I.T.I.Y.Y.T.U.Y.T.Y.I.Y.U.Y.U.A.A.A.S.S.S.Z.Z.Z.Z.Z.C.C.S.C.C.D.D.B.B.B.N.N.1.1.1.1.N.6.",
"XXXXY.Y.Y.Y.J.J.H.H.H.H.H.H.H.H.U.U.U.!.U.U.L.S.S.S.S.S.S.S.S.S.S.S.S.S.L.Y.Y.L.!.Y.Y.Y.!.!.Y.U.U.U.U.U.U.U.U.U.A.U.W.G.2XJXkXF.U.!.U.U.U.I.U.U.U.Y.I.U.U.U.I.P.c.MXCXMXlXjX4X1XdXdX4X1XhXDXDXDXHXDXlXgXcXVXBXlXzXfXjXjXdX(._.M.P.5XL.M.M.M.>.>.>.{ { $.{ [ [ [ [ ] [ [ ] [ $.$.M.M.m.M.m.m.M.D.1XBXBXlXkX8XfXBXBXBXlXfXK.3X(.(.(.(.(.,X4X1XfXlXlXjX4Xb.[ ] ] ] _ ] ] ] @.%.z.c.K.K.K.L.(.K.z.$.%.[ _ _ ( V g g g g g V f C {.BXLXLXLXHXGXGXGXHXDXVXBXkX8XjXjX1X1X1X,X,X,XK.K.K.D.M.b.$.%.] V f g V ( ( ( ) ) _ ` ` ` [ { { $.$.{ $.z.c.v.lXjX%.K.K.L.L.L.L.L.L.L.L.M.M.M.M.M.M.>.>.{ >.>.>.>.{ { [ 2X X$.$.z.c.c.z.z.$.[ [ $.b.{ { { [ B fX{.Z 2X{.O   = - - 2 1 1 1 1 1 1 1 1 1 1 1 1 1 1 1 1 2 1 1 1 2 1 1 1 2 2 $ C LXZ Z # $ $ & l @.%.I.Y.U.U.Y.Y.T.I.R.Y.Y.R.I.Y.I.Y.Y.I.Y.T.I.T.T.Y.U.Y.U.Y.U.A.A.A.A.S.S.S.C.Z.C.C.C.C.S.C.C.D.D.B.B.B.N.N.1.1.1.6.N.6.",
"XXXXY.Y.Y.Y.J.J.H.H.H.H.H.H.H.H.U.U.U.!.U.U.L.S.S.S.S.S.S.S.S.A.S.S.S.S.A.Y.Y.A.Y.Y.Y.Y.!.!.Y.U.U.U.U.U.U.U.U.U.S.U.E.F.9XJX0XF.U.U.U.U.U.U.U.U.U.Y.I.U.U.I.I.P.8XMX{.MXjX0X4X4XdXdX1X1XfXDXVXHXnXVXBXgXcXVXBXlXlXfXjXjXdX(._.K.P.1XL.M.M.M.M. .M.M. .{ >.$.[ [ [ ] ] ] [ [ ] ] ] [ { { { { { %.8XgXBXBXkX8X8XkXlXBXlXlX).(.(.(.L.(.(.(.1X1X1XlXlXkXz.] / / h h h h h h h h g g / / / / / ) ) ) / / / / ( ( b V V V B B x.JXLXHXGXPXGXHXHXHXGXGXnXcXkXjX0XjX4X2X1X,X(.R.K.K.K.b.>.b.b.%.V f V V V ( ( / / ) ) ` ` [ ` [ { { $.$.$.z. XkX{.fXlX&.P.K.K.K.K.K.P.(.L.M.M.M.M.M.M.$.>.>.M.{ >.>.$.$.[ %.).2X%.z.c.c.c.z.z.z.%.z.K.M.{ { { [ Z fXv.Z 1Xx..   = - - 2 1 1 1 1 1 1 1 1 1 1 1 3 k 9 1 2 9 9 1 1 2 2 1 1 2 2 2 X }.}.Z l @ * $ y f %.N.N.U.U.Y.Y.T.I.I.T.Y.R.I.Y.I.T.I.Y.T.Y.T.Y.T.Y.U.Y.U.Y.U.G.A.A.A.S.S.S.C.C.C.Z.C.C.S.C.C.D.D.B.B.B.N.N.1.1.1.6.N.N.",
".X.X.XY.Y.Y.U.U.H.H.U.H.H.H.H.S.U.S.!.U.H.H.S.S.S.S.S.S.S.S.S.S.S.S.H.H.U.U.U.U.U.Y.U.Y.Y.Y.U.U.U.U.U.H.H.H.U.U.S.!.U.F.cXVX<XI.U.U.U.U.U.U.U.U.U.U.U.U.Y.R.I.XXJXx.2XjXjXdXdXdXdXxX1X1XfXBXBXDXDXVXBXBXcXBXBXlXBXgXfXjXdXR.P.,X1XjX,Xz.M.M.M. .M.M.>. .{ { $.$.$.[ [ [ [ [ [ %.%.@.@.%.%.*. X{.gXgXBXlXBXjX8XjXjXBXlXlX,Xz.(.L.L.L.L.L.(.1XjXfXgXBX{.B ( V g g g g g g g g f g g g ( / ( ( ( ( ( ( / g g ( ( ( _ _ C hXLXGXHXHXHXHXHXHXHXHXnXnXVXcXgXjX0X4X4X,XR.(.L.N.K.z.K.b.%.@.V s f f V ( ) ) ) ) ) ) [ ` [ [ { { { [ $.$.$.K.1X8X8XgXlXc.c.c. Xc.).2X,X(.b.M.M.M.M.>.>.>.M.M.>.M.>.{ [ { $.z.v.2Xc.P.).c.c.c.c.z.z.(.).z.{ $.{ [ Z hX@.@.2XN     = - & 1 1 1 1 1 1 1 1 1 1 1 1 3 0 0 0 9 9 2 2 2 2 2 2 2 2 2 2 @ A PXA N O $ @ & u b o.%.H.U.Y.Y.Y.Y.Y.Y.T.Y.R.I.R.T.I.T.Y.Y.I.Y.Y.Y.Y.Y.U.Y.U.G.H.S.S.S.C.C.C.C.C.C.C.C.S.C.C.C.C.D.D.B.B.B.B.,.n.1.6.6.",
".X.X.XY.Y.Y.U.U.H.H.U.H.H.H.S.S.U.S.!.U.H.H.S.A.S.S.S.S.U.S.U.S.S.S.H.H.U.U.U.I.U.Y.U.Y.Y.Y.U.U.U.U.U.H.H.H.H.H.S.U.S.P.VXVX XI.U.U.U.U.U.U.U.U.U.U.I.I.Y.G.F.zXc.&.zX1XjXdXxXdXdXxX1X1XfXBXgXJXHXHXDXBXcXBXBXlXbXFXFXkXjX2X1XfXkXjXdXK.K.M.M. .>.M.M.>. .{ $.M.z.z.$.[ ] [ %.P.lXMXBXCXCXFXFXbXVXbXBXBXlXkX0X0XjXkXlXlXzXz.L.(.D.K.L.L.P.,X1XfXhXBXBXfX X%.@._ _ _ _ ( ( ( B V V ( ( ( ( ( ( ( ( ( ( ( ( ( _ ) [ @.2XDXPXGXHXHXHXHXHXHXVXnXnXnXnXcXkXjX4X4X).K.L.N.z.z.N.K.z.@.V f s f V ( ( ) / / ) ) ` ` { [ [ { { { { { z.$.$.z.8X{.}.hXBX].9XBXCXfXgXlX1Xc.b.>.>.M.$.M.M.>.M.M.M.{ { [ $.M.K.K.).1X).,X).c.).c.).c.,X(.K.[ $.{ { [ @.xXV v.x.; =   = - & 1 9 1 1 9 1 1 1 1 1 1 1 3 0 3 3 0 1 1 1 2 2 2 2 2 2 2 2 & . }.'.N : @ @ j C *.N.U.U.Y.Y.Y.Y.Y.Y.Y.T.Y.R.I.I..XI.I.Y.Y.I.Y.T.Y.Y.R.U.U.U.G.H.H.S.S.C.C.C.C.C.C.C.C.C.A.D.S.C.D.D.B.B.B.B.,.n.1.6.6.",
".XXX.XY.Y.Y.U.U.H.H.H.H.S.S.S.S.U.S.U.H.H.H.S.A.S.S.S.S.S.U.S.S.L.L.H.H.U.U.U.I.U.Y.U.Y.Y.Y.U.U.H.U.U.U.H.U.H.H.S.U.A.XXJXcX XI.U.U.U.U.I.U.U.U.U.U.I.I.Y.I.3X XC CX0X0X0XjXxXxXdXxX1X1XfXlXgXJXHXDXDXbXbXBXBXlXgXJXDXbXbXcXbXbXlX8XjXc.K.M.M.M.>.M.M.M. .>. .>.$.z.z.[ [ [ @.fXVXVXVXVXDXDXBXVXDXnXgXlXlXgX8X0X4XjXkXkXzXP.$.^.L.b.D.K.K.R.5XjXfXgXBXFXBXgX8X X@._ _ _ _ ( ( V ( ( ( / V V V V g V ( ( _ ` [ $.z.K.gXnXDXHXnXnXVXVXAXAXnXnXnXnXDXBXkX4X,XK.K.K.z.K.K.K.%._ f f g g V ( ( ( / / ) ) ` [ ` { { { { { { { { { z.z.$.c.fXhX9XhXbXnXDXnXcXbXbXgX1X).b.b.z.b.K.L.L.K.M.M.{ { { $.M.K.K.P.2XxX2X2X).,X).). X1X,XK.z.{ >.{ { ] v.v.V ).B . =   = - 1 1 9 9 9 9 1 1 1 9 9 1 1 3 3 3 3 3 3 0 3 3 3 3 4 2 & 2 2 2 @ N hXN Z . @ * k X.F.3XT.U.Y.T.Y.Y.Y.Y.Y.Y.R.I.R.T.I.R.R.Y.I.Y.Y.Y.Y.I.Y.Y.U.G.H.H.S.S.C.C.C.C.C.C.C.C.S.D.A.C.C.D.D.B.B.B.B.,.n.n.6.6.",
".XXX.XY.Y.Y.U.U.H.H.H.H.H.S.S.S.U.S.U.H.H.H.S.A.S.S.S.S.S.S.U.S.L.L.H.H.U.U.U.I.U.Y.U.Y.Y.Y.U.U.H.U.U.U.H.H.H.H.A.I.N.<XJX9XP.U.U.U.U.U.Y.U.U.U.U.I.I.I.U.I.0Xc.9XCX1XjX0XjXjXxXdXxX1X1X8XlXBXDXHXDXDXbXBXBXlXBXgXDXDXHXDXHXGXPXDXBXlX2XK.D.M.M.>.>.M.D.M.>. . .{ $.b.$.%.@.{.JXnXZXZXnXnXDXbXVXPXVXMXlXlXfX8X8X1X1XjXjXzX4X%.L._.b.D.b.K.L.(.dXjXgX9XbXDXDXBXlXlX1Xc.] ] ] _ ) / / G g g g g g / ( _ _ ] #.<.D.(.,XfXhXbXbXcXVXVXnXnXnXZXnXnXBXgXfX,XK.z.K.K.K.P.c.@._ f f f g g ( ( ( / ) ) ) { { { { { $.{ { { { { { $.$.b.z.z.c.8XbXhXhXnXnXmXmXnXmXhXhXkXc.K.K.K.).(.).R.L.L.$.{ { M.b.K.K.,X1XfXfX2X2X1X1X).,X1X2XK.z.[ M.{ { { [ v.x.] v.i = = # = & 2 9 2 2 2 2 9 9 9 9 1 1 1 3 3 3 3 3 0 0 3 3 3 3 2 2 % 2 2 2 1 X |.Z Z : @ $ 2 n X.%.%.N.Y.Y.Y.Y.Y.Y.Y.Y.R.I.I..XR.I.R.Y.I.Y.T.Y.Y.I.Y.Y.U.G.H.H.S.S.C.C.C.C.B.C.C.C.C.S.C.C.C.D.D.B.B.B.B.,.n.n.6.6.",
".XXX.XXXY.Y.U.U.H.U.U.H.H.H.H.H.H.S.U.H.H.U.H.H.S.S.S.S.S.S.S.U.L.U.U.U.U.Y.Y.I.U.U.Y.U.U.U.U.U.U.U.U.H.H.H.H.H.U.I.c.0XJX9XR.U.Y.Y.I.U.I.I.I.Y.I.T.R.R.R.,XMXVXJX<XjXjXjXjXfXfXdXdX1X1X8XlXbXVXLXPXDXVXgXlXBXBXgXBXHXHXHXHXGXHXnXDXbXkXK.D.M.>.>.>.M.M.L.D.>.{ >.>.M.K.c.2XbXVXnXnXZXZXZXnXVXVXnXVXBXfXlXfX<X1XjX1X0XjXjX4XP.%.3XL.L.m.b.K.L.,XjXlXgX9XgXBXFXBXlXlXBX1Xc.@.{ { $.#.[ _ _ _ ) ) _ ] [ $.N.R.(.(.,X1XhXgXgXgXcXHXnXnXnXnXnXcXgX8X4X(.K.K.b.b.K.%._ f f f V V V V ) / / ) ) ) ` { { { $.>.>.$.{ { { { { $.z.z.K.P.K.2X2XbXhXbXnXcXnXnXnXnXmXBX2XK.(.,X1X,X1X,X5XK.M.>.b.L.(.).,XdXxXxXfXfX1X2X1X2X2X1X1XP.N.[ $.>.>.>.{ [ 2XZ @.@.O = = # & & 1 1 2 2 2 2 2 2 9 9 0 3 3 3 3 3 3 3 0 0 0 3 3 3 3 3 2 2 2 2 1 & A }.A N X $ * j X.c.F.Y.Y.Y.Y.Y.Y.Y.T.Y.R.R.I.T.I.I.T.R.Y.I.T.Y.Y.I.Y.Y.U.H.H.U.H.A.S.C.C.C.C.C.C.C.A.A.C.C.D.D.B.B.B.B.1.1.1.1.1.1.",
".XXX.XY.Y.Y.U.U.H.U.U.H.H.H.H.H.H.S.U.H.H.U.H.H.S.S.S.S.S.S.S.S.L.U.U.U.U.Y.Y.I.I.U.Y.U.U.U.U.U.U.U.U.U.H.H.H.H.U.I.c.kXFX2XI.!.Y.Y.Y.I.I.I.I.Y.I.Y.R.R.P.8XVXLXCX1XjXjXjXjXfXjXdXxX1X1X8XlXgXBXDXbXbXVXgXlXBXBXcXVXHXHXGXHXZXGXGXZXnXBX,XL.m.M.>.>.M.M.L._.L.>.>.b.b.,XfXVXHXnXnXnXZXZXZXZXnXZXnXHXBX8XgXkX0XP.jX4X4XjXjX4X4X_ $.5XL.b.b.b.K.P.2XfXlXlXfX9XgXDXFXBXcXbXCX1Xb.{ [ #.%.z.%.$.$.$.b.K.R.(.,X,X,X4XjXkXkXfXfXfXcXVXVXDXVXcXgX8X1X,XK.b.b.K.b.%.V f f f f b V ( ( / / / ) ` { { { { M.m.m.M.{ $.{ { { { { $.z.K.).1X1X8XgXhXbXnXvXbXnXnXnXnXDX{.c.4X,X1XxX1X1X,XK.$.K._.(.(.,X1XfXfXfXfXfXfX2X1X1X2X1X1XP.L.{ { ,.>.>.$.[ %.2XB z.B .   # # & & 1 1 2 2 2 2 2 9 9 9 0 0 3 3 3 3 3 3 3 3 3 3 3 3 3 3 1 2 2 2 4 2 X '.Z N - @ * 9 C *.F.I.Y.I.Y.Y.Y.Y.Y.Y.R.R.I.Y.I.I.T.Y.Y.Y.T.R.Y.I.Y.Y.U.H.H.U.H.A.A.C.C.C.C.C.C.C.A.C.A.D.D.D.B.B.B.B.1.1.1.1.1.1.",
".X.X.X.XY.Y.U.U.H.H.U.H.A.H.H.H.H.S.U.U.H.U.H.H.S.L.S.S.S.S.S.S.H.H.U.U.U.Y.Y.U.I.U.Y.U.U.U.U.U.U.U.H.H.H.H.H.H.U.R.c.MXCX XI.!.Y.Y.I.I.I.I.I.I.U.Y.T.P.c.8XcXVXkX0XjXjXjXjXfXjXdXdX1X1XfXlXgXBXBXgXlXgXgXlXlXBXcXHXHXAXZXZXZXZXZXHXZXnXBXc.D.M.>.>.M.M.L._.(.).b.K.P.2XbXnXVXVXZXZXZXVXnXZXZXZXZXZXVX9X2XlXkXc.,XzX4X4XfX1X4XK.h R.5XK.b.b.b.K.P.,XjXlXBXBXgXgXDXJXDXbXbXBXBXfX Xc.N.N.$.b.K.P.P.).,X,X1XjXzXzXjXfX8X8X8XgXcXbXFXBXkX4X,X(.K.K.z.z.z.@.V f f b g b V ( ( ( ( ( ) ) ` { { { { { $.>.$.{ { >.$.{ { { { $.P.).2X1X8X9XhXDXnXbXnXnXnXnXnXbXfX2X,X1X1X1X1XxX,XP.P.,X,X1X1XdXjXfXfXgXfXfXfXfX1X1X1X2X2Xc.D.{ ` >.>.M.>.$.] ).2XB z.i       # & 1 9 9 9 9 9 9 1 9 9 9 0 0 0 0 3 3 3 3 3 3 3 3 3 3 3 3 1 2 2 2 % % * l |.A N X X X * 2 b %.N.G.R.R.Y.Y.Y.R.I.I.I.Y.I.I.Y.Y.Y.Y.Y.R.Y.R.Y.Y.U.H.H.U.H.A.C.C.C.C.C.C.C.C.C.A.B.D.D.B.B.B.B.5.1.<.1.1.1.1.",
".XXX.X.XY.Y.U.U.H.H.U.H.A.H.H.H.H.S.U.U.S.U.H.H.S.L.S.S.S.S.S.S.H.H.H.U.U.Y.I.U.U.U.Y.U.U.U.U.U.U.H.H.H.H.H.H.H.U.Y.c.CXkX XY.!.Y.I.I.I.I.I.I.I.U.U.T.P.].MXcXVX8X0XkXjXjXjXjXdXdXxX1X1XfXlXgXBXlXgXlXkXgXkXlXBXbXJXHXAXZXZXZXZXHXZXZXAXDX9Xc.b.>.>.M.M.D._.(.,X4X,X8XBXbXnXVXVXZXZXZXVXnXnXnXZXnXnXCX8X2XjXlX1XK.5XjX1X1X1X,X,X_ h 3X4XK.b.b.b.N.K.,XjXlXkXBXBXhXBXDXDXDXnXbXVXFXlXjX0X4X4X0XjXjXjXjXzXzXlXjXfX1X8X8XjXjXkXgXfX2X X).R.K.K.K.K.%._ V f f n f f ( _ ( ( ( ) ) ) { [ [ ` [ [ { { { { { { { { { { { >.$.$.z.2XfXhXhXbXbXbXnXmXnXnXnXnXnXbXfXjXjX1X8XkX2XkX1X1X1X1XfX1XjXjXjXfXfXfXfXfXfXfXfX1XfX2X).N.>.'  .,.,.>.>.[ %.jXv.B Z ; #     # & 1 9 0 1 1 1 9 9 1 1 2 1 0 0 0 0 w 0 0 3 3 0 0 3 3 3 3 3 2 2 % % 2 2 @ &.Z N # X * * * < b @.6.I.R.R.Y.R.R.R.I.I.Y.I.I.R.Y.Y.T.Y.R.Y.Y.Y.Y.U.G.H.U.H.A.C.A.C.C.C.C.C.C.C.B.D.B.D.B.B.B.B.5.1.<.1.1.1.1.",
".X.X.XY.Y.I.U.U.J.H.H.H.H.H.A.H.H.H.H.H.H.H.H.H.S.S.S.S.A.S.L.U.H.S.H.H.U.U.Y.Y.Y.I.Y.Y.Y.Y.U.U.U.G.Y.J.U.U.H.H.!.I.].CXkXP.Y.U.Y.Y.Y.I.Y.Y.Y.Y.U.U.OXF.8XVXVXbXfXjXlXlXjXjXjXjXjXxXxX1X8XlXlXlXBXgXlXgXfXkXlXBXBXDXHXAXAXAXZXZXZXZXZXVXVXDX9Xc.z.>.>.M.M.L.(.4X5X4XjXlXBXVXnXnXnXnXGXGXnXVXVXMXBXlXzX4XR.3XlXjX(.K.4XjX4X1X1X,Xc.t f 1X4XK.b.b.K.K.K.,XjXlXBXBXBXBXbXDXDXDXHXDXbXBXBXBXBXBXlXgXBXlXlXjXfXjXjXjX8X8XfXjXzXdX,XK.(.(.K.b.b.z.%.B f f f V f V ( _ ] [ [ ` [ [ ` ` { { { { { { { { { { { $.{ { >.{ { >.$.z.c.1XgXbXbXnXnXnXnXnXnXnXPXnXPXbXhXgXgX8XgXgXcXbXVXVXbXhXfXjXjXjXjXfXgXfXfXfXfXfXfXxX,X).K.$.` {  .>.M.$.$.%.2XlX@.B N O =   # & & j k z 0 3 3 3 0 0 0 3 3 3 3 3 3 3 0 0 0 0 0 0 0 9 3 3 2 2 % 2 2 2 2 % : '.C N X $ X l @.%.c.,XR.R.R.Y.R.R.I.I.I.Y.R.R.I.Y.R.Y.T.Y.Y.R.Y.Y.Y.U.H.H.H.A.S.S.S.S.Z.Z.D.D.C.C.D.C.C.D.D.B.B.n.1.1.1.1.1.1.",
".X.X.XY.Y.I.I.G.J.H.H.H.H.H.H.H.H.H.H.H.H.H.H.H.S.S.S.S.S.U.U.U.S.S.H.H.U.U.Y.Y.Y.I.Y.I.Y.Y.I.U.U.G.Y.J.U.U.J.H.U.G.].FX0XP.Y.Y.Y.Y.I.I.I.I.Y.Y.U.Y.T.P.gXVXVXVXBXlXBXlXjXjXjXjXjXfXjX1X1XlXlXlXlXgXlXgXfXkXlXBXBXFXHXAXAXAXZXZXZXZXZXVXnXnXHXgXP.$.$.>.M.M.R.,X,X1X1X1X8XgXbXbXnXnXnXZXVXcXbXfX0X<X,XL.M.b.1XzX4XK.R.dXdX4X1X,Xc.V , V 4X5XK.b.b.b.b.K.P.,XjXlXlXBXBXBXBXDXDXHXDXDXDXDXVXBXBXbXBXBXlXlXjXjXjXjX8XjX0X1X).K.K.L.b.b.L.K.%.( f f f V V g ( _ _ [ $.$.$.$.b.b.b.{ { { { $.M.$.$.$.$.$.{ { { { >.>.{ >.b.K.P.2XhXbXbXnXnXPXnXnXnXPXDXbXbXhXbXbXbXmXbXbXnXZXZXZXGXnX8XkX8XjXjXfXfXfXfXfXfXjXjX).K.z.{ [ {  .>.>.M.b.%.).lX8X] B ; = # # # # & & 9 k k w 3 3 3 3 3 3 3 3 3 3 3 3 3 3 3 3 3 3 0 0 9 1 2 2 % % % 2 2 2 * Z Z Z & * @ - C c. XXXR.Y.R.Y.Y.Y.Y.Y.I.R.I.R.R.Y.R.Y.T.Y.Y.R.Y.Y.Y.U.H.H.H.A.S.S.S.Z.Z.Z.D.D.C.C.D.C.C.D.D.B.B.n.1.1.1.1.1.1.",
".X.X.XY.Y.I.I.G.J.H.H.H.H.H.H.H.S.H.H.H.H.H.H.H.S.S.S.S.U.U.U.U.S.S.S.H.H.U.Y.Y.Y.I.Y.Y.Y.Y.I.U.U.G.Y.G.U.U.J.H.U.N. XCX<XP.Y.Y.Y.Y.I.I.I.I.I.I.U.T.I.2XbXnXVXVXBXBXDXDXBXlXgXkX8X1XjX8X1XkXlXlXlXgXgXlXjXfXlXBXlXDXHXHXAXAXZXGXZXZXZXZXnXnXnXDXBX1X$.$.M.M.D.(.,X,X1X1X,X1XxXkXbXnXnXnXnXcXBX2X XP.T.D.{ { c.zXzXP.K.5XdXxX4X,XP.%.f t B 1X5XK.b.m.b.b.b.K.(.4XkXkXBXBXBXbXnXVXDXDXDXDXBXBXlXlXfXfXfXjXfXfXjXjX4X,XR.K.K.K.z.K.R.K.@.V f f V n V g ( _ ] %.%.N.z.z.z.z.(.(.(.M.$.$.$.$.$.{ { { { { { { { { M.>.M.K.K.P.,X2XhXbXbXnXPXPXnXPXnXnXbXbXbXnXPXmXmXmXnXZXZXZXZXZXZXZXcX9XfXjXjXjXfXfX1XxX1X,X).b.$.{ { { { { >.M.m.K.c.fXBX{.] B O = # # # # & & & 9 k z z w 6 6 3 3 w 0 0 3 3 3 3 3 3 3 3 3 3 3 1 1 2 2 % $ % % 2 2 % & x.Z l X @ @ + f @.N.Y.Y.R.R.R.Y.Y.Y.Y.Y.R.R.R.R.Y.Y.Y.Y.T.T.Y.Y.Y.U.H.H.H.A.A.S.S.C.Z.Z.Z.D.C.C.D.C.C.D.D.B.B.1.1.1.1.1.1.1.",
".X.X.XY.I.I.G.G.J.H.H.H.H.H.H.H.S.S.H.H.H.H.H.H.S.S.S.S.U.U.U.U.S.S.S.S.H.U.U.Y.Y.I.Y.Y.Y.Y.I.U.U.G.Y.G.U.U.J.U.U.G.2XMX<XI.Y.T.Y.I.I.I.I.I.I.Y.U.OXF.<XBXHXAXnXVXBXDXDXDXBXlXkXkXjXjX1X1XkXlXlXkXjXgXkXjXfXlXlXlXFXHXHXAXAXZXZXZXZXZXZXZXnXZXnXnX2X(.M.>.M.M.L.(.(.(.,X5X,X,X1XfXhXbXbXBXBXFXv.F.N.b.>.{ $.[ ,XzX4XL.K.4XdXdX1X,Xc.@.f t B 4X,XK.b.b.M.L.L.b.K.P.,X4XjXkXlXlXlXgXgXgXgXfXjXjXjXjXjXjXjXjX4X<X,XK.z.z.M.M.b.K.K.@.V f V B V V g ( _ _ ] { $.%.z.z.z.z.z.).v.).z.$.z.z.b.$.$.{ { >.>.>.>.M.M.M.b.b.K.).,X1X1XgXbXnXPXPXPXmXmXmXmXnXnXmXmXmXnXnXGXGXGXZXZXAXnXZXnXJXBXgXfXfXjXfXjX4XP.z.z.K.$.` { { { {  .>.m.L.K.{.lXlXx.] V O = # @ # & $ & % 2 2 1 0 z w w w w w w 0 3 0 3 3 3 3 3 3 3 3 3 2 3 1 2 * $ $ $ % 2 2 o C Z l & @ X n @.c.R.Y.Y.R.R.R.Y.Y.Y.Y.Y.R.R.R.R.Y.Y.Y.Y.T.Y.Y.Y.Y.U.H.H.H.A.S.S.C.C.Z.Z.D.D.C.C.D.C.C.D.D.B.B.1.1.1.1.1.1.1.",
"XXXXXXI.I.I.U.U.J.A.H.H.H.H.A.H.G.G.A.A.H.U.U.U.L.L.L.U.S.U.L.U.H.H.H.H.U.U.Y.Y.Y.I.Y.Y.Y.Y.Y.U.U.U.U.U.U.I.G.U.U.F.<XkXXXI.Y.Y.Y.Y.Y.Y.Y.Y.Y.Y.U.OXc.jXVXDXHXHXHXDXDXDXBXBXlXlXjXjXjXxX1XjXlXlXkXfXfXkXfX1XlXBXlXBXDXZXAXAXZXGXGXGXZXZXZXZXGXnXBX8X,XK.>. .>.M.L.L._.(.(.(.(.,X,X,X2X2XjXjX4Xc.b.$.{ { { [ [ %.0XzX5XK.).jXjXxX1X,XK._ p t @.zX,XK.b.M.M.b.D.N.K.K.K.(.5X4XjXjXjXfXjXjXjXjXdX4X4X4X5X5X(.K.z.$.$.$.z.b.K.z.@.f f V V f V V ( ` [ [ [ $.[ $.z.z.z.c.c.v.).).).K.).c.K.P.L.$.$.>. .>.>.M.>.M.b.D.L.R.(.,X1XfXBXDXDXbXbXbXbXbXDXnXmXmXmXnXnXHXHXGXGXGXZXZXZXZXZXZXGXDXcX9XfX1X2X,Xb.{ { $.$.{ $.M.M.{ >.>.M.L.T.P.9XDXfX@.@.i . : # # & j & & % & 1 y 1 1 0 0 z z w w 0 0 3 3 3 3 3 3 3 3 0 0 1 3 3 2 % $ $ $ $ % % & & Z N = O j C B X.%.N.R.I.I.Y.Y.U.I.Y.Y.Y.Y.Y.Y.Y.Y.Y.Y.Y.Y.Y.Y.Y.G.U.H.H.S.A.S.C.S.D.D.D.C.C.C.B.D.D.B.B.B.B.B.1.1.1.1.1.1.",
"XXXXXXI.I.I.U.U.J.A.H.H.H.H.H.A.G.G.A.A.S.H.H.U.L.L.L.L.S.U.L.U.H.H.H.H.U.U.Y.Y.Y.I.Y.Y.Y.Y.Y.U.U.U.U.U.U.G.G.U.U.F.8X<XT.U.Y.Y.Y.Y.Y.Y.Y.Y.Y.Y.~.I.c.lXBXDXHXHXGXHXDXDXBXMXlXfXjXjXjXxX1XjXkXkXkXfXfXfXfX1XkXlXlXgXDXHXAXAXGXGXGXGXnXnXZXZXZXnXBXkX4X(.M.>.{ >.M.D.L.L.L.L.L.K.L.K.b.z.z.%.$.$.[ [ ` ` ` ' ` ] %.jX4X,Xc.,XjXjX1X,X3XR.] t < %.zX5X(.b.b.b.b.D.M.M.b.b.b.K.K.P.2X2X,X,X,X,X(.R.K.K.z.$.$.$.$.$.$.z.K.z.] f f f V f g V ( _ [ { { { $.$.{ $.K.).c.2X X2X2X2X2X2X,XP.P.P.K.z.$.>.{  .>.>.M.b.D.(.L.(.,X2X2XfXhXhXhXhXbXBXbXcXmX}.mXPXPXHXHXPXDXHXGXGXGXZXZXZXZXGXnXDXFX8X2X,XK.$.[ { { { $.b.z.(.M.{  .>.D.L.P.2XhXDXv.] C ; O : # @ & 9 9 9 9 2 1 y 1 1 1 1 3 3 0 0 0 0 0 0 0 0 0 3 3 0 3 3 3 3 3 2 & $ $ $ $ $ $ & @ l Z : & o X. X XP.R.R.I.G.Y.Y.U.U.Y.Y.Y.Y.Y.Y.Y.Y.Y.Y.Y.Y.Y.Y.Y.Y.U.H.H.S.A.S.C.C.D.D.D.D.C.C.B.D.D.B.B.B.B.B.1.1.1.1.1.1.",
"XX.XXXI.R.I.U.U.J.A.H.H.H.H.A.A.H.H.A.A.S.S.S.H.S.S.S.S.H.H.L.U.H.H.H.H.U.U.Y.Y.Y.I.T.Y.Y.Y.T.U.U.U.U.U.U.G.G.U.I.F.4X<XR.U.Y.T.Y.Y.Y.Y.Y.Y.Y.Y.^.N. XCXbXHXHXHXZXHXHXDXVXbXMXfXjXjXfXxX4X4XjXkXkXfXfXjXjX1XkXlXlXfXBXFXAXZXGXGXZXnXnXnXnXnXnXnXlXlXjX1X(.b.>. . .M.m.m.L.L.L.D.b.b.$.{ { { { [ ` { { ` ` ` [ ` _ %.jXzX5XK.,XdXdX4X5X3X3X%.h p K.dX,X,XR.K.b.b.M.M.M.M.,.>.b.b.$.b.b.D.b.b.,.$.$.$.$.$.,.,.b.z.%.@.B f f f b g g ( ` [ { { { >. .>.$.{  .{ K. Xv.2X2XfX2X2X2X). X,X,XP.c.P.%.%.$.M.M.M.L._.L.L.R.R.,X1X1X8XfXkXgXhX9X}.}.IXmXGXHXnXPXDXDXHXnXcXbXnXnXZXZXZXZXZXHXHXBX2XK.b.{ { { { { >.b.z.1X,XN.{ { ,.L.K.c.fXbXlXz.@.N O = = # @ & 9 1 1 1 1 1 9 1 1 1 1 1 1 3 3 3 0 0 0 0 0 0 0 0 0 3 3 1 3 0 1 % $ $ @ @ @ # # & & Z l & o , k B X.%.N.R.G.I.I.Y.Y.Y.Y.Y.Y.Y.Y.Y.Y.Y.Y.T.T.Y.I.^.U.U.U.H.S.A.C.C.C.D.D.C.D.C.C.B.D.D.D.B.B.B.B.1.1.1.1.1.1.",
".X.XXXR.I.I.U.U.J.H.H.H.H.H.H.H.H.H.A.A.S.S.S.S.S.S.S.S.H.H.L.L.U.H.H.H.U.U.Y.Y.Y.Y.T.Y.T.Y.T.I.U.U.U.U.U.G.G.I.I.I.<X XI.U.^.T.Y.Y.Y.Y.Y.Y.Y.Y.^.%.<XFXmXHXHXHXGXHXHXHXHXDXCXlXjXjXfXxX4X4XjXjXjXfX1XzXxX1XkXlXBXkX8XCXDXGXGXGXnXnXVXVXbXcXcXgXgXkXkXjXdX3XL.M.M.{ { >.>.>.>.>.>.>.$. . .{ { [ { { { [ $.$.[ ) { _ @. X4X1X X2X4XjXjXjX5XT.%.h h P.4X,X,X,X(.L.D.M.M.M.>.$.$.$.>.>.$.{ { $.$.$.$.$.b.b.b.%.[ _ f s s f b P G ) ` [ { {  . .{  . .>.>.{ { $.@.c.2X{.{.9X2X2X2X2X2X2X2X1X8XjXdX,XL.L.L.L.(.(.(.,X,X,X1X1X1X1X2X{.{.{.}.hXnXHXGXGXnXHXnXnXVXVXnXVXBXBXcXcXnXnXnXBXDXgX2XP.[ [ { { { { { M.b.,X,X,XK.$.{ M.b.P.2XBXbXfX@.%.y O - - # @ % 1 3 3 3 1 1 1 1 1 1 1 1 1 3 3 0 0 0 0 0 0 0 0 0 0 3 3 2 2 2 2 2 1 & $ @ @ # O & O l Z - + + B @.*.F.G.G.R.I.I.Y.T.Y.Y.Y.Y.Y.Y.Y.Y.Y.Y.T.T.I.T.OXI.U.I.H.H.A.S.C.C.D.D.D.B.C.C.B.C.D.D.B.B.B.B.1.1.1.1.1.1.",
".X.XT.I.Y.I.U.Y.J.J.J.J.J.J.J.H.H.A.A.A.H.H.H.H.L.L.L.L.U.U.U.L.U.U.U.U.U.Y.Y.T.T.T.Y.Y.T.Y.T.Y.U.U.U.U.Y.U.U.I.I.I.3X.XU.Y.Y.T.Y.Y.Y.R.Y.Y.T.^.U.z.kXDXnXHXHXHXnXnXnXnXVXVXMXkXkXjXjXjX1X1XjXjXfXfXxXjXfX1XjXlXlXlXjXkXVXDXGXnXPXDXbXgXlXkXkXlXjXjXjXjXjXjX4X(.L.b.z.>.M.M.>.{ >.$.{ {  . .>.{ M.>.$.z.z.c.z.[ #.#._ , l @.B N B @.c. X1XzX0X*.t V ,X4X,X,X(.(.(._.L.K.M.b.$.$.$.>.>.>.>.>.,.z.z.$.%.@.B f h h g / / ) ) ` { { { { { $.>.>.>.>.M.>.{ { { { { z.1X{.9X{.2X8X9X9X9X9XhXbXbXgXlX<X).(.,X).,X,X5X,X2X2X2X2X2X2X2X2X9XcXnXGXGXGXnXnXnXnXVXDXnXnXnXbXlXkXkXkXjXjXfX1X1X,Xz.{ ` [ { { {  .>.>.L.5X4X,XL.$.$.b.K.).fXhXbX{.] ] O   = O & 2 y k 0 0 3 3 0 0 0 0 1 3 3 0 1 1 1 3 0 0 0 0 3 3 3 3 0 3 3 2 2 % $ $ & $ @ @ @ @ @ @ # Z j & $ B *.c.F.I.G.Y.I.I.I.I.Y.Y.T.T..X.XY.R.R.Y.Y.Y.Y.Y.Y.Y.U.U.G.G.H.A.A.C.D.D.D.D.C.C.D.D.B.B.B.B.1.5.1.1.1.1.1.1.",
".X.XR.R.I.I.U.U.H.J.J.J.J.J.H.G.H.A.A.A.H.H.H.H.L.L.S.S.S.U.U.U.U.U.U.U.U.Y.Y.T.T.T.Y.Y.T.Y.Y.Y.U.U.U.U.Y.U.U.I.U.I.3XT.U.Y.Y.T.Y.Y.Y.R.Y.Y.T.^.G.F.BXDXbXDXHXHXHXHXHXHXDXDXMXkXkXkXjXjX1X1XxXxXxXxX1XdXfX1XxXlXlXlXlXfXgXbXVXDXDXBXBXkXkXkXkXkXjXjXjXjXfXfXdX4X4X,X(.L.L.L.M.M.M.b.M.M.M.M.b.b.D.L.(.,XjXjX4XK.P._ y y & O ; + & + + & i C v.lXc.< _ ,X4X5X,X,X(.(.(.(.L.L.D.b.b.M.M.M.b.b.z.%.] ( f h h g ( ) ) ` [ { { {  . .>.>.>.>.M.M.M.M.M.>.$.{ $.{ $.%.@.gX{.2XhXhX9XhXbXbXbXbXDXhX Xv.2X1X1X1X1X1X4X1X1X1X8X8XfXjXlXlXkXcXbXnXnXnXnXnXHXnXnXVXnXnXnXbXgXjXdXxX1X4X4X,X(.z.{ ` [ { { { { >.>.b.3X,X,X,XL.[ >.b.K.,XlXhXlX@.@.V .   > O & 2 1 1 0 0 3 0 0 0 0 0 0 0 0 0 1 1 3 3 3 3 1 3 3 6 6 6 w 0 0 0 1 2 * @ $ & & @ @ @ @ @ O l N = & + n X.@.c.I.G.N.G.Y.^.T.T.Y.Y.T.Y.Y.R.Y.Y.Y.Y.Y.Y..XI.I.I.G.G.H.H.A.C.D.D.D.Z.S.C.D.D.B.B.B.B.1.5.1.1.1.n.1.1.",
"XX.XY.I.I.I.U.U.H.H.H.H.J.H.G.A.A.A.A.A.H.H.H.H.H.H.H.H.S.U.U.U.U.U.U.U.U.Y.Y.T.T.T.Y.Y.T.Y.Y.Y.Y.Y.U.U.Y.U.U.U.U.I.T.R.U.I.Y.Y.Y.Y.Y.R.R.T.T.T.N.,XFX9X{.DXDXDXHXHXHXHXDXVXBXlXkXkXjXjXjX1XxX1XxX1X1X1XxX1X2XzXlXBXBX8X1XlXbXbXBXBXBXlXkXkXkXkXkXjXjXjXjXjX4X1X4X,X,X1X,X(.(.K.L.L.D.D.b.b.K.K.(.P.2XgXfX1XfX8X@.O & # # - & - - & & - # O O l &.B y B ).4XjXdX4X5X,X(.(.(.T.N.b.z.b.b.%.] V f h h / ) ` [ { { { { { { {  . . . . .>.>.M.M.M.M.>.>.>.>.>.$.M.$.z.P.1X8XhXhXhXbXbXbXbXbXlXkX1X2X1X1X1XfXfX8XjXfXfXfXfXfXjXkXkXkXfXgXbXBXnXnXbXnXnXPXPXnXnXnXnXbXfXkXjX1X1X1X4X(.z.[ ` { { { { { $.>.>.L.4X,X,X,Xb.[ b.b.P.jXfXkX2X] ] i . = # @ $ & 2 9 9 9 9 1 1 1 1 1 1 1 1 1 1 3 3 3 3 3 3 3 3 3 3 3 w w w w 0 1 % $ @ @ & @ @ @ @ @ O O C - # $ X.*.*.%.%.%.I.U.Y.Y.Y.Y.U.U.Y.Y.Y.Y.Y.Y.Y.Y.Y.Y.Y.I.Y.I.I.G.H.H.A.C.D.D.D.Z.S.C.D.D.B.B.B.B.6.1.1.1.n.n.N.N.",
"XXR.R.I.G.I.U.G.G.G.G.G.H.G.G.C.A.A.A.A.H.H.H.H.H.H.H.H.S.S.U.U.U.U.U.U.U.Y.Y.T.T.T.Y.Y.T.Y.Y.Y.Y.Y.U.U.Y.U.U.U.U.I..XI.U.U.Y.Y.Y.Y.Y.R.R.T.T.T.N.5XJXx.{.FXBXbXDXPXPXPXDXbXBXlXkXkXjXjXjX1XjX1X1X1X2X1X1X1X2XjXlXBXgXgX8X8XgXbXBXBXlXlXfXjXkXkXjXkXjXjXzXjXxX4X1X1X2X1X,X,X,X,X,X(.(.(.L.(.(.,XP.fXlXhXhXfXlXx.O = # # = - - = = = = - = : = # X - y + , f @. XdX4X4X3X3XK.N.N.z.N.%._ h p h g ( ] [ { { >.$.>.$.$.$.$.$.$.{ { {  .>.>.$.$.$.$.z.$.M.M.b.M.M.D.b.b.c.2X8XhXhXhXbXhXhX9X8X8X4X4XjXfXfXjXfXfXfXfXfXfXjXjXjXkXkXfXfXkXgXgXgXgXgXbXbXbXbXDXnXbXbXhXgX8X1X1X2X,X(.$.[ [ { { {  . .{ >.>.b.(.5X1X1X5X$.$.b.z.,XfX8XlXz.@.B ; O = # & $ & & 9 9 9 9 9 1 1 1 1 1 1 1 1 3 3 3 3 3 3 3 3 3 3 3 3 w w w w w 3 2 & $ @ @ @ @ @ @ @ O O : j O $ + u n @.N.G.Y.Y.Y.Y.I.U.Y.Y.I.Y.Y.XXY.Y.Y.Y.Y.Y.Y.I.Y.I.I.G.H.H.A.C.D.D.D.Z.S.C.D.D.B.B.B.B.6.1.1.1.n.n.n.N.",
"T..XR.I.I.I.I.I.H.H.H.H.H.G.A.H.H.H.H.H.H.H.H.H.H.H.H.H.U.U.U.U.U.U.U.U.Y.Y.I.Y.Y.T.Y.T.T.Y.T.I.Y.Y.U.U.U.I.I.I.I.I.I.I.U.U.Y.Y.Y.Y.Y.R.T.I.T.T.z.0XLX&.2XFXBXbXDXDXbXnXbXBXlXlXlXlXkXjXjXfXfX1X1X1X,X2X1XxX2X1XkXlXBXgXfX1XfXlXlXkXlXlXgXfXfXfXfXfXjXjXjXjXjXjX4X1X,X1X,X,X,X2X,X,X,X(.(.(.(.,XfXBXhXhXhXDXx.# - & # # # # = = = = = = = = = = = = # = - O X + B @.c.F.c.c.%.%._ / h h / ) [ #.z.N.K.R.(.,X,X<XxX1X1X1X,X,X XP.P.K.K.K.b.b.b.b.b.M.M.b.b.b.b.b.D.L.R.).fXfXfXgXhXfX8X8XfXjXjXjXjXfXjXjXjXjXjXjXjXjXfXfXfXfXjXfXfXfXfXfXfXfXfXfXfXfXjXkXlXkXgXlXfX1X1X1X2X).b.{ { { {  . . . .M.M.M.b.3X5X,X,XR.{ >.>.R.1X1XgX1X@.%.i X & # # @ & & & j 2 2 9 1 1 1 1 3 1 1 1 1 0 3 3 3 3 3 3 3 3 3 3 3 3 w 6 w w w 0 3 2 % @ O @ * @ @ # O - l O $ $ l @.*.*.*.*.A.A.A.G.Y.Y.Y.Y.Y.Y.Y.Y.Y.Y.Y.Y.Y.Y.Y.I.I.I.G.H.H.A.S.S.C.Z.D.D.D.B.D.B.B.B.B.B.B.n.1.1.1.5.N.",
"R.R.R.I.I.I.I.I.H.H.H.H.H.G.A.H.H.H.H.H.H.H.H.H.H.H.S.S.U.U.U.U.U.U.U.U.Y.Y.I.Y.T.T.Y.T.T.Y.T.I.Y.Y.U.I.U.I.I.I.I.I.U.I.I.U.Y.Y.Y.Y.R.R.T.Y.T.R.c.kXFX&.2XBXBXBXBXbXBXbXBXlXlXlXlXlXlXkXjXfXfX1X1X1X,X,X1XxX2X XlXgXBXgXkXfXxXjXjXfXgXfXgXfXfXfXfXfXfXjXkXkXgXgXfX1X1X1X1X,X2X2X2X,X,X(.(.,X(.dXBXhXgXhXBX|.# = - & & & = = = = = = = = - = = = = = # # = # = $ + o , < f _ B V ( _ %.N.I.U.^.3X5X4X4X4X0XfXjXkXkXkXgXfXfXjXjXjXjXdXdX4X4X5X5X5X(.(.(.(.(.(.(.(.(.(.3X5X4XjXfXfXfXfXfXfXjXjXjXjXjXjXjXjXjXjXjXjXjXjXfXfXfXfXfXfXfXfXfXfXfXfXfXfXfXjXjXjXxXjXjXfXjX4X1X1X).z.{ { { {  . . . . .>.M.b.).zXjXjX1XP.%.$.b.(.1XfXkXv.%.@.; @ & # # @ $ & & 9 2 2 9 1 1 1 1 1 1 1 1 1 0 1 3 3 3 3 3 3 3 3 0 0 w w w w 6 w w 3 2 2 $ @ * @ * @ # @ # : j @ $ y z b X.X.%.<.A.H.Y.U.I.U.Y.Y.Y.Y.Y.Y.Y.Y.Y.Y.Y.Y.I.I.I.G.H.H.A.S.S.C.Z.Z.D.D.D.D.B.B.B.B.B.B.n.n.1.1.5.5.",
".X.XR.I.I.I.I.I.H.H.H.H.H.G.G.H.H.H.H.H.H.H.H.H.H.L.L.L.H.H.H.U.U.U.U.U.Y.Y.I.Y.T.T.T.T.T.Y.T.I.Y.U.U.U.U.I.I.I.I.U.U.I.I.Y.Y.Y.Y.Y.R.R.T.T.T.P.c.lXVX{.gXlXlXkXlXBXlXBXlXlXlXlXlXlXlXkXjXfXfX1X1X1X,X,X2X1XdX).1XlXlXlXlXgXxX1XjXfXgXgXgXfXjXfXfXfXfXfXgXgXgXbXbXhXhXhXhX1X2X5X,X,X,X(.,X,X,XkXlXhXfXBX{.- ; - - - - & = = - - - - - - - - - = = = = # & & @ & 2 u y , B  X4X).(.dX4X4XjXjXzXzXjXjXkXkXgXgXgXgXkXkXgXjXjXjXjXjXjXjXjXjXjXjXxXxXdXdXdX4X4X4X4X4X1X4X4XjX8XjXfXjXfXfXjXkXjXjXjXjXjXjXjXjXjXjXjXjXfXfXfXfXjXjXjXjXfXjXjXfXfXfXfXfXfXjXfXjXjXjXjXjXjXdX1X).$.[ [ { { {  . . . .>.M.b.,XlXbXFXFXFXlX8XjXjXjXjXxXfXv.z.V + # # # # # & & & 2 2 1 9 9 1 1 1 1 9 9 9 0 0 1 1 3 3 3 3 3 3 3 0 w 3 6 w w w 6 6 w 0 0 9 & * * @ @ @ # # & l $ @ $ 1 f ( %.N.A.Y.Y.Y.I.G.I.Y.Y.Y.Y.Y.Y.R.Y.Y.Y.Y.Y.Y.I.I.U.H.H.A.S.S.S.Z.Z.D.D.B.D.B.B.B.B.B.B.5.n.1.1.6.5.",
"R.R.R.R.I.I.I.I.G.H.H.H.H.G.G.H.H.H.H.H.H.H.H.H.U.U.L.L.H.H.U.U.U.U.U.U.U.U.U.I.Y.T.Y.Y.Y.I.T.U.Y.U.U.U.Y.I.I.I.I.U.U.I.I.I.Y.Y.Y.Y.R.R..X.X.XF.c.BXBXBXgXkXlXlXlXlXlXlXjXkXlXlXlXlXlXkXjXfXfX1X1X1X,X,X,X1XdX1Xc.lXgXlXgXlXfX1X1XfXjXkXfXfXjXjXfXfXfXgXBXDXDXnXGXPXDXDXnXBXjX<X,X,X,X,X,X,X2XlXgXhXBX}.- ; - - - - & # # - - - - - - - - - - = = = = # - j j & 1 u z u *.0X<XzX%.%.zX0XfXfXfXfXfXgXgXlXgXgXgXgXkXkXgXjXjXjXjXjXfXfXfXfXfXfXfXfXfXxXxX1X1X1X1XfXfXfXfXjX8XfXfXfXfXfXgXgXkXjXjXjXjXjXjXjXjXjXjXjXfXfXfXfXjXjXjXjXjXjXjXjXjXjXjXjXjXkXfXjXjXjXjXdX1X,X).$.[ { { { { {  . .{  .M.K.,XjXhXbXDXDXDXbXgX9X8XfXfX1XxXc.z.i O # # # # $ & & & 2 1 1 1 9 9 1 1 1 1 1 9 3 1 3 3 3 1 3 3 3 0 0 0 w w e w w w w w 6 3 4 2 % & $ $ @ @ @ @ @ j - @ $ k X.*.F.G.N.G.G.A.U.U.U.Y.Y.Y.Y.Y.Y.Y.Y.Y.Y.Y.Y.Y.I.I.U.H.H.S.A.S.S.Z.D.D.D.D.D.B.B.B.B.B.B.n.n.1.1.5.5.",
"XX.XR.G.G.I.I.G.G.U.U.U.U.U.U.H.H.U.H.H.U.H.U.G.I.I.G.G.G.G.U.U.U.U.U.U.U.U.U.U.Y.T.U.Y.T.T.T.Y.I.I.I.I.I.I.I.I.I.I.I.I.I.Y.Y.Y.T.T.T.T..XT.3XF.c.BXBXhXjXlXlXkXlXlXlXkXkXlXlXkXlXlXkXkXgXfXfX8X1X1X,X).).,X,X4XP.2XlXgXBXgXgXfX1X1XjXjXfXxXjXjXfXfXjXfXDXPXPXHXGXPXPXPXGXDXbX9X2X2X X2X,X XfXgXhXbX{.; ; l y j & j & & & & - - # = = = - = = = - = # = : : l j % k x z X.jXjXjX0XB @.zXjXjXfXjXkXkXlXkXkXkXgXgXkXkXkXkXkXkXkXgXgXfXfXfXfXfXfXjXfXfXfXfXjXfXjXfXfXfXfXfXkXkXgXgXkXkXkXkXfXjXjXjXjXjXjXjXjXjXjXjXjXjXjXjXjXfXfXfXjXjXjXjXjXjXjXkXjXkXjXfXfXjX4X1X,X(.$.{ >. . . . . .{ {  .M.L.(.4XfXgXhXBXDXDXPXDXDXfXjXjXxX,Xc.C ; O # # # & j 1 1 2 1 2 2 1 1 1 3 3 1 1 3 1 3 3 3 3 3 3 3 3 3 3 3 0 0 w e e w w w w w 0 0 1 % @ @ $ $ $ $ @ $ 1 j $ $ & k n B %.%.N.I.A.L.U.U.Y.Y.Y.Y.Y.Y.Y.Y.R.R.R.R.R.I.I.I.J.A.H.A.C.D.D.B.B.D.D.D.D.B.B.B.n.n.1.1.5.5.1.1.",
".X.XY.I.A.I.I.G.A.G.G.U.U.U.U.U.I.U.J.J.U.G.U.G.I.I.I.G.G.G.G.G.U.U.U.U.U.U.U.U.Y.T.U.Y.T.T.Y.Y.I.I.I.I.I.I.I.I.I.I.I.I.I.Y.Y.Y.T.T.T.T.T.T.3Xc.c.FXlX2XkXlXBXBXgXkXkXkXkXkXlXkXkXkXkXkXgXgXfX8XxX1X,X(.R.).,X1XdXc.jXlXgXBXgXjXjX1X1X1X1XjXjXfXjXjXjXfXbXPXPXGXnXZXZXZXZXnXnXnXBXFX8X1X1XfXkXhXDX{.; O l y k 1 j j - & & $ j - & - = - - - - = # = # = & l l C 2 0 L L x *.lXfXzX4XB @.zXkXkXkXlXlXkXlXkXkXgXgXkXkXkXkXkXkXkXkXlXkXjXjXjXjXjXjXjXjXjXjXjXjXjXjXfXfXfXfXkXkXlXlXlXlXkXkXkXjXjXjXjXjXjXjXjXjXjXjXjXjXjXjXfXfXfXjXjXjXjXjXjXjXkXkXjXjXfXfXjX1X1X,X3X$.{ >.>. . . . . . .{ M.L.(.,X1X1XfXgXhXbXbXbXDXlXfXxX1XjX,Xc.l ; # # # @ @ $ 1 1 y y 2 2 2 1 1 0 0 0 3 3 0 0 w w w w 3 3 3 3 3 3 3 3 6 w w e 6 3 3 4 4 3 2 2 & $ $ % % $ $ $ & j & $ & 2 C @.c.c.N.6.A.A.L.U.Y.Y.Y.Y.Y.Y.Y.Y.R.R.R.R.R.I.I.I.J.A.H.A.C.D.D.B.B.D.D.D.D.B.B.B.n.n.1.1.5.5.5.1.",
".X.XY.U.A.I.I.G.A.A.A.G.U.U.H.U.U.U.J.J.U.G.U.G.I.I.G.G.G.G.G.G.U.U.U.U.Y.Y.U.U.Y.T.U.Y.T.Y.Y.I.I.I.I.I.I.I.I.I.I.I.I.I.I.Y.Y.Y.T.T.T.T.T.T.3Xz.v.JXkX{.kXlXlXgXgXBXVXbXbXkXkXkXkXkXkXkXgXkXfXfXjX1X1X(.(.L.K.1X1X2Xc.lXBXhXlXkXkXkXfXfXfXjXjXfXxXxXjXfXbXPXPXnXZXZXZXZXZXnXZXGXHX{.x.gXlXlXhXDX|.= - l k j k k j j & j - j y j y j j = - = - # # - - - l l C C X.4 E E D F 8XkXjXzX2XB c.CXlXgXlXlXlXlXkXkXgXgXkXkXkXkXkXkXkXjXfXfX1X1X4X4XxXxXfXfXfXfXjXjXfXfXfXfXfXfXjXkXzXlXlXlXlXlXjXjXjXjXjXjXjXjXjXjXjXjXjXjXjXjXfXfXjXjXjXjXjXjXjXjXkXjXjXjXjXjX1X1X,X(.$.$.$.>.>. . . .{  . .M.D.L.(.3X1X1XfXfXgXlXlXkXzX1X1XjX1XjX).@.y # @ @ # # @ @ $ % 1 1 1 1 1 2 1 2 9 0 0 0 3 6 w w w w w w w w w 6 0 0 w w w w r e e z 3 3 4 2 2 & % % % $ $ $ @ & & @ $ 2 C @._ ( o.C.H.H.U.Y.Y.Y.Y.Y.Y.Y.Y.R.R.R.R.R.Y.I.I.I.J.A.H.A.C.D.D.B.D.D.D.D.D.B.B.B.1.1.6.1.B.B.1.1.",
".X.XT.U.A.I.I.G.G.A.A.A.U.U.H.H.I.I.J.J.U.G.U.G.U.U.G.G.G.G.G.G.U.U.U.U.Y.Y.U.U.Y.T.U.Y.Y.Y.I.I.I.I.I.I.I.I.I.I.I.I.I.I.R.Y.Y.Y.T.T.T.T.T..X3X*.{.FX8X{.kXBXlXBXbXDXHXHXHXBXlXlXkXkXkXlXgXkXfXfXjX1X1X,X(.K.K.).,XjX,Xc.fXBXkXkXlXlXfXfXjXfXfXfXdXxXxXxXBXDXDXnXZXZXZXZXZXGXGXnX'.|.bXbXgXhXFX|.O - l y k k k 9 j % l l j j k k n n & : - = = = - - l j M l n C &.v w o.W D X.kXlX{.].CX@.c.CXgXkXkXlXlXkXkXgXkXkXkXkXkXjXjX1X1X1X1X1XxXdXdXdXjXjXfXfXfXjXfXfXfXfXfXfXjXjXjXjXfXfXfX8X8XjXjXjXjXjXjXjXjXjXjXjXjXjXjXjXjXjXjXjXjXjXjXjXjXjXjXkXkXfXjXjXdX1X5X(.z.$.M.$.M.>.>. . .{ {  .M.D.K.L.).1X1XfXfXgXlXjX1X,X,XdXjX1X1Xc.B + - # @ - & # @ @ % 2 9 y 1 1 2 % % 2 1 0 0 3 6 w w w w w w w w z w w w w w w w w w w w z k 0 9 1 1 2 2 % $ $ $ @ @ # @ $ % + k X.*.F.J.A.H.G.G.Y.Y.Y.Y.Y.Y.Y.R.R.R.R.R.Y.I.I.I.J.A.H.A.C.D.D.B.B.B.D.D.D.B.B.B.n.n.N.N.B.B.1.1.",
"XX.XY.I.A.I.I.G.G.A.A.G.U.U.U.U.I.I.U.U.G.G.G.U.U.U.U.U.U.U.U.U.U.U.U.U.U.U.U.U.I.Y.U.Y.U.Y.Y.U.I.I.I.R.I.I.I.R.I.I.I.I.I.R.T.T.T.T.T.T.,X.X.X%.8XFX8X2XkXkXgXVXHXGXGXDXHXHXDXDXBXBXlXlXgXgXkXfXjX1X1X,X).P.P.).,X,XjX2XP.1XlXlXlXlXkXfXjXjXfXjXjXjXdXxXjXgXVXnXnXnXZXZXZXGXnXmXbXFXlXgXgXFXx.; j l k k 0 0 0 0 k n m c z n n 6 X.m % j - - & & j 2 X.z l C l C X.*.r W -.! L 6.kX8X2XkXBX@.{.BXgXMXBXBXBXlXlXkXjXjXjX4X1X1X1X4X1X1X1X1X1X1XjXjXjXjXjXjXfXgXgXgXfXfXfXfXfXfXjXjXfXfXjXjXjXjXjXjXjX8XjXjXjXjX1XjXjXfXfXfXjXjXjXjXjXjXjXjXjXkXkXjX1XjX1X4X5X(.z.M.M.M.>.$.{ >.>.{ { >.M.L.L.R.P.).fXfXgXkXgXkX1X,X X1XzX1X1X1X%.i - = @ & - & # @ & & $ % & y 1 1 9 9 1 2 1 3 3 3 w w w w w w w w 6 e w w 6 6 3 6 3 3 4 4 4 2 % & & & & & & % % % $ $ $ @ $ $ $ 2 1 z X.o.<.5.C.S.H.U.Y.Y.Y.Y.R.R.T.Y.Y.Y.I.Y.I.I.G.G.A.A.C.S.C.B.B.B.B.B.B.B.B.B.B.B.B.5.1.B.1.<.",
"XX.XY.U.A.I.I.G.G.A.A.G.U.U.U.U.I.U.U.G.G.G.H.J.U.U.H.U.U.U.U.U.U.U.U.U.U.U.U.U.I.Y.U.Y.U.Y.Y.U.I.I.I.R.I.I.I.R.I.I.I.I.I.R.T.T.T.T.T.T.T..X.X%.gXDXkX8XjXkXBXDXHXGXHXHXGXGXHXHXDXbXBXkXlXgXgXjXjX1X4X<X1X1X4X4X,X).1X1X5X,X2X1XfXjXjXfXjXjXjXjXjXjXjXjXjXjXgXVXVXnXnXZXZXnXnXDXVXhXgXBXBX&.- l n z z w z w w z m n z c x x x U X.z 1 j - - j 9 2 z E e 0 C l n O.+.+.! y.-.Q E <XkX8X2XBXBX&.2XCXkX1X<X0X1X2X2X,X,X,X,X,X,X,X,X4X1X1X1XxXxXxXjXfXfXfXfXfXfXfXfXfXfXfXfXfXfXjXjXfXfXfXfXfXjXjXjXjX8X8X8X1X1X1XjXjXjXjXjXjXjXjXjXjXjXjXjXjXjXfXfXfX1X1X4X(.z.M.$.M.M.>.>.{ { { $.{ M.b._.(.).,XlXlXlXlXkXjX1X,X2X1XFXfX1X1X2X@.i - # # - - & @ $ & % % $ $ & 9 1 1 2 1 1 1 1 1 3 0 0 0 w w w w w e e e e x e e w w 0 0 3 1 2 % $ % $ $ $ $ & 2 2 % % $ $ $ $ $ $ * 2 z _ #.#.6.Z.H.U.U.Y.Y.Y.R.R.T.Y.Y.Y.I.Y.I.I.G.G.A.A.A.D.D.C.B.B.D.D.B.B.B.B.B.B.B.5.1.B.1.<.",
"XXXXT.U.A.I.I.G.G.A.A.I.U.U.U.U.U.U.G.J.G.G.G.G.U.U.H.H.U.U.U.U.U.U.U.U.U.U.U.U.U.Y.U.I.U.Y.Y.U.I.I.I.R.I.I.I.I.I.I.I.Y.I.R.T.T.T.T.T.XXT..XI.*.lXbXgXfXfXkXBXDXHXGXHXHXHXHXHXHXDXBXlXlXlXgXkXjXfXfXjX1XfXkX8XjX8X2X,X,X5X,X,X,X,X1X4X1X4X1X1X4XxXxXxXxX8X8XjXkXBXVXnXZXnXHXVXMXgXgXMXgXC y n n z w w z w z z z w w v x e e U E L x j j j j 9 9 1 c O.R x X.C c O.E u.Q r.t.~ Q *.jXkX2X2XCXkX&.P.L.L.K.L.K.K.K.K.R.R.(.(.(.(.,X,X,X,X,X1X1X1X1X8X8X8X8XjXjXjXjXjXfXfXfXxXfXfXfX8X8X8X1X1X4X4X1X1X8X1XjXfXfXfX1XxXxXjXjXjXjXjXjXjXxXfXjXjXjXjXjX1X1X4X(.b.M.M.M.M.>.>. . .{ $.$.>.M.L.(.K.1XBXlXlXjXfX4X4X,X,X2XBXlX<X4X<X2XN ; = # = - - $ $ & 2 2 % & % & & 9 9 9 2 1 1 1 1 3 3 3 3 3 w w w 6 e 6 6 w w e e e e e w w 3 3 1 1 % $ @ @ @ @ $ % % % % % % $ % % 2 z n ( X.` o.<.H.U.U.I.I.Y.R.R.T.Y.Y.R.I.Y.I.I.G.G.A.A.A.D.D.C.Z.Z.Z.Z.B.B.B.B.B.B.B.B.5.B.5.<.",
".XT.T.I.G.I.I.G.G.A.A.I.U.U.U.U.U.J.J.G.G.G.G.H.U.U.U.H.U.U.U.U.U.U.U.U.U.U.U.U.I.Y.U.I.U.Y.Y.U.I.I.I.R.I.I.I.I.U.U.Y.Y.I.R.T.T.T.T.T.T.T.,Xc.c.BXhXgXfXjXlXBXDXHXZXHXHXHXHXVXVXDXgXlXlXlXkXkXkXkXfXjX1X8XlXkXkXBXBX1X1X,X,X,X,X5X,X,X1X,X,X1X1X1X1X1X1X1X8X8X8XkXBXnXnXHXnXbXgXhXBX9Xl k n n z w e e w w w w w z v x e D U E E L x 0 j j j 9 9 3 v W +.L L O.m +.+.u.q.r.t.y.y.o. XkXfX2X8XBX8X%.>.>.,.M.b.L.L.L.L.L.L.(.(.(.R.(.(.).(.).).,X,X,X,X,X,X,X,X,X,X,X1X1X1X1X1X1X1X1X1XfXfX8X8X8X8X8XgXBXlXCXBXBXkXfXjXjXjXxXxXfXfXjXjXjXjXjXfXfXxXjX,X(.b.b.M.M.M.>.>.>. . .>.b.z.M.b.K.L.2XlXgXhXfXxX1X1X,X,X2XBXlX2X1X4XjXc.+ - # # - - & $ & j 2 2 2 % % % $ & 2 9 9 9 1 1 1 1 3 3 3 3 w w w 6 w e w w w 6 6 w w w w w 6 3 3 1 2 % $ @ @ @ @ $ $ % % % % % $ % 2 , 2 n ( o.#.6.A.H.G.G.Y.R.Y.R.T.Y.Y.R.I.Y.I.I.G.G.A.A.C.S.S.B.Z.Z.Z.Z.B.B.B.B.B.B.B.B.5.B.5.<.",
"T.T.Y.Y.G.G.U.A.A.A.G.I.I.I.G.G.G.G.G.G.U.U.U.U.L.S.S.S.S.S.U.U.U.U.U.U.U.Y.U.U.I.I.I.U.U.U.I.I.I.U.I.I.I.I.I.I.U.U.Y.Y.T.T.T.T.T.T.T.T.T.,XP.c.BXbXgX8XkXlXDXDXHXHXHXHXHXPXnXVXBXlXlXkXkXkXkXkXkXjXjXfX8XfXCXBXlXgXgXlXfX2X,X(.(.(.(.(.,X,X1X4X1X1X,X1X1XfX8XlXbXDXHXDXVXhXhXgXFXv.k z v x x x x x x x z z z x x x v L R E ! E L L z k k l j 1 3 L W Q W U E +.+.q.u.q.q.s.t.y.y.E <XlXgX9XhXBX1X_ >.m.m._.L.L.L.L.L.L.L.L.L.L.K.L.(.(.(.(.).P.(.).).(.).).,X,X,X,X,X,X1X1X1X1X1XxXfXfXfXgXgX9XcXVXhXbXDXVXBX8XfXjXfX1X1X1XxXxXjXjXjXfXfXfXjXdX4X(.K.z.b.b.M.>.{ { $.{ $.M.$.b.b.M.L.).fXkXkXkX1X1XjX2X,X,XgXBXlX1X,X1X0XB + - # # - & & % 2 j 1 2 % % % % % % % 2 1 k 0 1 1 1 3 3 3 3 w w w x e e r e r e x w w w w w e z z 0 u y 2 & @ @ $ $ $ $ % % % % $ * $ 2 l n @.*.<.<.A.A.G.Y.I.Y.Y.Y.Y.Y.R.I.I.I.I.G.U.G.A.C.C.C.D.D.D.D.B.D.D.D.D.B.B.B.B.B.1.B.1.<.",
"T.T.Y.Y.G.G.U.A.A.A.G.I.I.I.G.G.G.G.G.G.U.U.U.U.U.U.S.S.S.S.U.U.U.U.U.U.U.Y.U.U.I.I.I.U.U.U.I.I.I.U.I.I.I.I.I.U.U.U.Y.Y.T.T.T.T.T.T.T.T.R.,XR.2XBXbXkXxXkXlXDXDXHXHXHXHXGXnXnXnXBXlXlXkXkXkXkXkXkXjXjXfXjX8XhXFXBXBXbXgXBXkX1X,X(.(.(.).,X,X,X,X5X1X5X1X1XfXlXBXDXDXnXbXbXhXgXlX@.u n v x L x x x x x x w z x x D L L L ! ! ! E E L v z k l 1 3 3 L Q Q Q T R +.w.p.d.d.q.s.t.t.y.r.X.8X8XfX9XgXBX2Xb.D.b.b.b.z.K.N.K.K.K.L.T.T.(.(.(.(.K.K.K.K.).).(.(.(.,X,X,X,X,X,X,X1X1X1X1XdX1XfXlXBXDXVXnXVXVXDXnXHXnXBX8X1XfXfXxXfXjXjXjXfXjXfXfXfX1X1X1X,X(.b.b.b.>.>.>.{ { { $.$.$.b.b.K.b.K.(.kXBXlXkXjXzXfX1X,XxXlXlXfX,X,XjXc.y y & O # - & 2 2 2 9 9 1 1 1 2 2 2 % 2 2 2 1 1 0 0 3 0 3 3 3 3 3 6 w w w e r r w w w w 3 3 4 3 3 3 3 2 2 % $ @ @ $ $ $ $ $ % % % $ @ @ & $ 2 B %.6.<.B.C.H.U.Y.Y.Y.Y.XXI.I.R.I.I.I.G.U.G.A.C.C.C.Z.D.D.D.B.D.D.D.B.B.B.B.B.B.1.B.1.<.",
"T.Y.Y.Y.I.I.U.A.A.A.G.I.I.I.I.G.G.G.I.G.U.U.U.U.U.U.U.U.S.H.H.U.G.U.U.G.U.Y.U.U.I.I.Y.Y.U.Y.I.I.U.U.I.I.I.I.I.U.U.U.Y.Y.T.T.T.T.T.T.T.T.T.,XP.<XBXlXkXxXfXkXDXHXHXHXHXHXPXnXnXnXBXlXlXkXkXkXkXgXkXkXkXfXkXkX8XgXBXlXgXhXlXBXkXfX4X,X).(.(.(.(.,X1X1XdXjX8XgXgXBXDXnXbXhXhXDX8XB s x x L L L e x z z x x e w e x D U U T ! ! ! W R R R c k k u 3 6 E Q Q ;.! W +.u.%X%X%Xu.s.s.s.y.i.q.O.kXfXhXlXgXlX<X2X2X2X1X,XP.P.(.).,X,X,X,X(.(.).R.P.R.(.(.(.,X,X,X,X,X,X,X,X,X,X,X5X5X5X1X1XdXfXBXDXPXnXHXDXHXVXHXZXHXkX1XfXfXfXfXfXxXxXxXjX1X1XfXfXxX1X4X3Xb.b.>.M.>.>.{ { { { b.b.b.b.K.K.K.R.,XfXgXgXlXBXjXjX1X,XzXkXjX X,X1XjXB i y @ # # & & 2 2 1 2 1 1 1 9 9 2 2 2 2 2 % % 2 2 1 3 0 0 3 3 1 3 3 3 w w w w w 3 3 4 4 4 o * * * * * @ @ @ @ @ @ $ $ $ $ $ $ $ $ $ @ @ @ - j n B _ o.<.A.Y.Y.Y.Y.Y.Y.R.Y.Y.I.R.I.I.R.U.G.A.C.C.C.D.D.D.B.B.D.B.B.B.B.n.n.n.n.1.n.1.<.",
"T.Y.Y.Y.I.I.U.A.A.G.G.I.I.I.I.G.G.G.I.G.U.U.U.U.U.U.U.U.S.S.U.U.A.Y.Y.A.U.Y.U.U.Y.Y.Y.I.I.Y.I.I.U.U.I.I.I.I.I.U.U.U.Y.Y.T.T.T.T.T.T.T.T.,X,XF.<XBXlXkXxXjXkXbXbXVXVXVXVXPXnXnXBXBXlXlXkXkXkXkXgXkXkXgXfXfXfXkXgXgXgXgXbXhXbXBXlXkXfX1X2X,X,X2X1XjXjXfXfXfXlXBXBXbXcXgXbXBXx.z x D D L D L x x e w z z x e e e e D U T T +.W W Q W X.O.E z z z 6 e ! -.~ -.W W ;.i.$XwX=Xd.u.s.s.s.y.s.+.*.zXgXgXbXgXBXBXkXlXkXkXjXjXjXjXjX4X1X,X,X,X,X,X5X5X4X4X,X1X1X4X1X,X,X,X,X,X,X,X,X,X5X,X1XfXhXDXnXnXZXnXHXHXGXGXHXbX9X1X1X1X8XfXfXfXjXfXfXjXfXfXjXxX,X,Xb.b.>.>.>.>.>.>.{ { M.b.K.c.).P.z.R.,X,XfXfXBXlXgXkXzX,X1XjXjX1X,X,XjXc.f i - O # & & 2 2 1 1 2 2 2 2 1 9 1 2 2 1 2 % % 2 2 2 2 3 0 0 3 1 1 0 0 3 3 0 0 w 3 0 0 0 0 9 j j & $ & @ @ O @ @ @ @ $ $ $ $ $ % $ $ @ # # l l n C *.G.U.H.J.U.Y.Y.Y.Y.Y.R.I.I.R.I.I.R.U.G.A.C.C.C.D.D.D.B.B.D.B.B.B.B.n.n.n.n.1.B.1.<.",
"T.Y.T.U.I.G.G.A.G.G.G.G.G.G.G.G.U.U.U.U.G.G.G.G.S.H.G.G.U.U.U.U.U.U.Y.G.U.Y.G.U.I.I.I.I.U.U.U.U.U.U.I.G.I.I.I.U.U.U.U.Y.T.T.T.T.R.R.T.T.T.3Xc.4XBXlXfXfXjXjXkXlXBXBXBXBXBXBXgXBXlXkXlXkXkXkXgXgXgXfXfXfXgXgXkXlXBXBXbXBXBXBXbXbXbXbXbXbXgXgXBXbXBX2X8XlXBXDX}.hXbXbXPXhXX.x x D D D U L L v x e z z x e e e D L U ! W Q -.Q Q +.+.*.-XO.c v z w D W y.-.-.;.W ;.u.%XuXwX$Xd.d.g.s.s.g.s.+.*.CXgXbXbXbXlXkXjXhXhXkXjXjXfXfXfX8X8XfXfXjXjXxXxXdXdXdX4X4X1X1X1X,X,X,X(.,X,X,X,X2X2X8XfXbXDXHXGXAXVXDXGXGXGXZXcXgX8X2X1X1X1XfX1X8XjXjXjXjXjX1X2X,XK.M.>.>.>.>.>. .{ { >.b.K.c.lXLXfXK.(.,X1XfXgXlXBXgXlXjX,X1XjXjX1X1X4X4X_ f y & O & & 2 2 1 y j 9 2 % 2 2 2 2 2 2 1 1 1 1 1 1 1 2 1 2 0 0 0 3 1 1 1 0 0 0 0 0 3 3 3 3 2 2 $ & $ @ # # # @ @ O # # @ $ $ % % $ $ $ $ @ @ * k X.@.%.<.#.N.C.J.Y.Y.R.Y.R.Y.I.Y.I.I.G.J.H.H.A.C.C.D.D.D.B.B.D.B.D.D.B.B.B.B.n.1.B.1.<.",
"T.Y.T.U.I.I.G.A.G.G.G.G.I.G.G.G.U.U.U.U.G.G.G.G.A.S.G.G.A.A.U.U.U.U.Y.G.U.Y.G.U.I.I.I.I.U.U.U.U.U.U.I.I.I.I.I.I.U.U.U.U.T.T.T.T.R.R.T.T.T.,Xz.0XlXgXfXjXjXjXjXfXkXkXgXlXkXkXgXBXlXkXlXkXkXgXlXkXlXlXlXlXkXlXlXlXBXBXBXBXBXBXBXBXDXDXVXnXnXDXnXnXBXhXBXFXBXx.}.bXcXDX{.B x D D D D D U L x x x e z z x e e D L U ! W W Q i.r.-.-.-.+.uXe.v v x e L Q y.-.y.-.W ;.u.d.rXrX%Xd.g.g.s.g.%Xg.i.Q ].kXgXbXbXBXv.2XgXgXfXfXfXjXkXkXkXkXgXfXfXfXfXxX1X1X1X1X1X,X1X1X1X,X,X4X,X,X,X1XjXlXBXVXVXDXGXGXVXDXGXGXGXGXZXHXDXgXkXjXfX8XfXfXkXkXjXfXfX1X1X).b.M.>.>.>.>.>.{ { >.M.b.b.c.2XDXDXhX X,X,X1XgXbXgXgXbXhX1X1X1XxX1X,X,X4Xc.V u - O # & y y y y 1 1 9 9 1 2 2 2 2 2 % 2 2 1 1 1 2 1 1 9 1 4 3 w w 3 2 2 1 9 9 3 0 w w 6 3 3 2 & $ $ & & $ $ $ @ @ @ . @ $ $ $ $ $ $ @ @ @ @ * 2 , f b o.%.A.N.Y.R.R.Y.R.R.Y.Y.Y.I.R.G.G.H.H.A.C.C.D.D.D.B.B.D.B.B.D.B.B.B.n.2.1.B.1.<.",
"T.Y.T.U.G.G.G.A.G.G.A.A.I.I.I.G.A.A.A.A.G.G.G.G.A.S.S.S.A.S.A.A.U.U.Y.G.U.Y.G.U.I.I.I.I.U.U.U.U.U.U.I.I.I.I.I.I.U.U.I.U.T.T.T.T.R.R.T.T.,XT.z.jXlXfXfXjXjXjXjXfXfXfXfXfXfXkXkXlXBXBXlXkXkXlXgXkXkXkXzXjXkXlXBXBXBXBXBXbXBXBXBXBXBXnXnXnXnXnXnXnXDXVXDX9Xx.hXnXbXBX&.z x e D T ! U L L L v v x x z z e e D U U W W W +.i.f.r.y.y.r.+.=X&XE v L D ! Q r.r.y.-.Q y.s.d.rXpX=X$X$X%Xg.g.eX%Xt.t.+.oXkXgXgXBX2XC  XzXkXkXlXlXlXlXkXkXgXgXgXfXjXfXxX1X1X1X1X1X4X1X1X1X5X,X,X2XfXBXBXBXbXnXHXAXPXPXGXGXGXGXGXGXGXnXnXnXnXbXVXBXlXgXfXfXfX8X8X1X,XK.M.M.>.>.>.>.$.{ >.b.M.b.b.K.8XbXDXhXbX9X2X8XlXbXhXbXbXgXfX2X1XdX1X1X,X,X[ B y + @ - & - 2 y & & & & 9 9 2 2 2 2 2 2 & & & 2 2 2 2 2 2 0 0 0 w 6 w 3 2 1 1 1 1 1 3 3 3 3 3 1 2 % $ $ $ $ $ $ $ O @ . @ @ @ @ @ @ @ @ @ $ & % + k b X.#.<.C.C.G.Y.R.G.R.R.Y.Y.Y.I.R.G.G.G.A.C.C.C.D.D.D.B.B.B.D.D.D.B.B.B.B.B.1.B.1.<.",
"T.Y.Y.U.G.G.G.A.A.A.A.A.G.G.I.I.A.A.A.A.I.G.G.G.A.A.A.S.S.S.A.S.U.U.Y.G.U.Y.G.U.I.I.I.I.I.U.U.U.U.U.I.G.I.I.I.I.I.I.I.I.I.R.T.T.R.R.T.T.3XR.*.zXkXfXfXjXjXjXjXjXfXjXjXfXfXkXkXlXkXkXlXlXkXkXkXkXjXjXzXjXjXgXgXlXlXlXBXBXbXBXBXBXBXVXnXVXnXDXBXBXBXbX{.|.bXBXDX9XC z e D D W W W E U L L v v x x x x e e D D ! W Q r.f.d.s.s.r.t.i.r.#X=X+.L U U W -.r.r.y.y.y.t.g.%X*XpXwX-X%X%X;Xg.uX%Xy.t.i.+.&XgXgXgXBX X_ ,XjXjXjXgXkXkXkXkXkXlXlXfX1XxXxXxX1X1X1X4X4X1X1X1X4X<X2XjXBXBXbXPXHXGXHXZXPXPXGXGXGXGXGXGXGXGXnXGXGXnXDXbXbXhXfXfXjXjX4XP.$.M.M.>.>.>.M.M.$.b.b.b.b.b.L.).hXbXnXDXGXbX8XBXbXbXmXbXbXbXfX1X1X1X,X,X,XK.] V + @ & & & & & & & & & & % 2 2 2 1 1 1 1 2 2 % % 9 9 9 1 0 2 3 w 3 w w w 3 3 1 2 1 1 0 0 w 0 3 3 3 1 2 % + * * * & $ @ @ @ @ @ @ @ @ @ @ @ $ % & % u n X.%.N.N.C.G.C.N.N.Y.XXR.R.Y.I.R.G.A.G.A.C.C.C.D.D.D.B.B.B.D.D.D.D.B.B.B.1.1.B.1.<.",
"T.I.Y.I.G.A.S.A.G.A.C.A.I.I.I.I.A.A.A.G.I.I.A.A.A.U.A.S.C.C.U.A.U.U.U.U.U.U.S.U.U.U.U.U.U.Y.U.U.U.U.I.G.G.G.I.I.I.I.I.I.I.I.I.T.R.R.T.R.3XF.c.jXkX8XfXkXjXjXjXjXjXjXjXfXfXkXCXlXlXlXlXlXkXjXjXjXjXjXjXjXfXfXgXkXgXkXlXlXlXBXBXBXBXbXDXbXBXlXlXlXBXhXhXbXBXkXc.n x e D W -.-.Q W ! U D e D x x x x x D L ! ! W r.i.p.;Xd.f.d.u.f.i.r.#X=X*.L D W Q -.y.y.y.y.t.u.%XwXwXiXrXrXwXwXwX#XwXwXt.t.s.u.O.9XqX9XgXkXc.] 5X4XjXfXjXjXzXzXkXkXjXjX1X1X1X1XfXfXfXfX1X1X1X1X1X,X1X1XfXfXbXDXPXGXHXGXnXZXGXGXGXGXZXGXGXGXZXZXGXnXnXDXbXhXgXjX,XR.K.b.M.M.$.>.M.M.>.>.M.b.b.b.K.R.K.P.bXnXnXnXPXbXbXBXbXbXbXnXPXbXkX4X,X).,X1XK.$._ i + # # & & & & & 2 1 1 2 2 % % 2 2 9 0 0 k 0 1 2 2 1 0 0 0 0 3 3 0 0 0 0 0 z 0 0 2 2 4 2 3 0 0 0 0 1 1 2 & $ $ $ $ $ @ @ @ @ @ @ @ @ @ @ @ $ $ $ X n C B B ( _ o.%.A.H.J.J.G.G.G.G.I.I.I.G.G.A.C.C.C.D.D.D.D.D.D.B.B.B.B.B.B.B.B.B.B.5.1.",
"T.I.Y.I.A.A.H.A.G.A.C.A.A.A.A.A.A.A.A.A.G.G.A.A.A.U.A.S.C.C.U.S.U.U.U.L.U.U.S.U.U.Y.Y.Y.U.U.U.U.U.I.I.G.G.G.I.G.I.I.I.I.I.I.I.I.R.R.R.T.^.N.P.kXBX9XhXCXBXkXfXjXjXjXfXfXlXFXBXkXkXlXkXlXkXfXjXjXjXjXjXjXjXjXkXkXkXgXgXgXgXBXBXbXBXBXVXhX1X{.2XkXBXlXlXkX2XB 6 e D W ~ -.-.-.-.W ! T D D D D D D x D D T W W +.h.$X$X%X%X$Xd.d.f.i.r.$X-X*.L U ^ ~ y.y.y.y.y.t.g.=XrX=XrXtXrXrXwXwX-XwXwXs.t.s.g.p.O.9X8XgXkXjXc.%.5X4X1X8X8X1X1X1X1XxXxXjXjXkXlXlXkXfXfXfXfXxXxXxXxXxXxXfXkXDXHXPXDXHXPXnXnXGXGXZXZXnXPXGXGXZXZXnXnXGXHXDXFX2XP.z.b.M.M.M.>.>.M.>.$.>.M.b.b.b.b.R.P.P.2XDXnXnXPXPXbXbXbXbXbXnXnXnXbXgX4X(.,X4XK.N.%.f - @ # & & & & & & 1 1 3 1 1 1 2 2 9 9 0 0 z z 0 0 3 3 3 3 0 0 0 0 3 1 0 0 w w 0 k 0 1 3 2 % % 2 2 2 2 2 % $ $ $ & $ $ $ $ @ @ @ @ @ @ @ @ @ $ $ $ % y j y n X.%.<.A.S.Z.C.6.G.G.G.G.I.I.I.G.G.A.C.C.C.D.D.D.D.D.D.B.B.B.B.B.B.B.B.B.B.1.1.",
"T.I.Y.I.A.A.S.A.G.A.C.A.A.A.A.A.A.A.A.A.G.G.A.A.A.U.A.H.A.C.U.L.S.S.S.S.U.U.S.U.U.U.U.Y.Y.U.U.U.U.I.I.G.G.G.G.G.I.I.I.I.I.I.T.T.R.R.T.R.(.%.2XlXBXhXbXDXDXVXbXhXgXgXbXDXDXBXBXlXkXkXkXkXkXfXjXfXjXjXjXfXjXjXkXkXkXjXgXgXlXlXlXgXVXDXfX{.2XfXlXgXfXfX{.X.z 6 e ! Q -.;.-.y.-.-.Q W T D D U U L L U E ! W ~ -.u.%X$X:X%X$X$X$Xd.f.i.r.#X#X*.L W ;.~ 9.y.r.t.i.s.f.=XiXrXrXtXtXtXrXwX=XwXwXg.s.s.g.%Xw.w.<X8XjXfX0Xc.P.1X1XfXfXgXlXBXBXfXgXlXlXlXlXkXjXjXfXfXfXfXfXjXjXjXjXkXgXnXPXPXDXDXDXPXPXnXnXZXnXVXVXnXZXZXZXnXGXHXHXDXFXz.M.M.M.M.b.M.>.M.M.$.$.M.b.M.b.b.K.P.).{.hXDXPXPXGXnXnXnXbXbXnXnXnXPXbX8XxX,X5XK.K.N._ + # # # & & & $ & & 1 3 0 0 0 0 0 1 9 9 9 0 0 0 w 6 w w w w 0 0 w w 0 3 4 2 3 4 2 2 1 1 1 2 $ @ @ @ O @ @ $ @ @ $ $ $ $ $ $ @ @ @ @ @ @ @ @ @ @ $ $ $ * $ 1 B X.o.o.#.<.6.<.C.J.Y.J.G.R.I.G.G.G.A.A.C.C.D.D.D.D.D.D.D.B.B.B.B.B.B.B.B.B.1.1.",
"T.I.Y.I.A.A.S.A.G.A.C.A.A.A.A.A.A.A.A.A.G.G.A.A.A.U.A.H.A.C.U.L.S.A.A.A.U.U.S.U.U.U.U.Y.Y.U.U.U.U.U.I.G.G.G.G.G.I.I.I.I.I.I.T.T.R.R.R.R.T.%.2XBXVXhXnXHXPXHXHXDXbXDXHXHXDXDXbXlXgXgXkXkXjXfXjXfXjXjXjXfXjXkXkXkXkXkXgXgXfXhXlXFXgX{.2XjXjXkXfX2Xc.X.b x L W ;.;.y.-.-.y.y.r.Q W W T T T T U U U W Q Q ~ ~ r.f.=X:X%X%Xd.$X$X$Xf.s.u.#X#X+.! ;.-.~ 9.r.i.i.i.s.f.*XiXrXrXpXpXtXrXuX=XwXwX%Xg.s.g.=X=X#X*.oX1X8XkXjX,X).jXlXBXBXBXBXFXBXBXBXbXgXlXkXkXkXkXkXkXjXjXjX1X1XxX8XgXDXPXPXDXHXDXPXPXnXnXZXnXVXVXnXZXZXZXGXHXHXDXFX{.z.M.D.b.M.$.{ M.>.>.>.M.b.b.b.L.P.).1XkXgXDXnXPXPXPXPXnXnXbXbXPXPXmXnXhXfX1X,X,XK.K.%.u & = # # & & $ $ & & 1 k 0 3 3 0 0 3 0 0 9 1 0 0 w 6 6 6 w 0 0 0 3 3 0 z 0 0 0 3 0 1 2 2 2 2 & # @ @ @ @ @ # & $ $ $ $ $ $ $ $ $ $ $ $ $ $ @ @ @ @ @ $ $ & j B X.X.o.o.<.C.~.G.C.R.N.G.G.I.G.G.G.A.A.C.C.D.D.D.D.D.D.D.B.B.B.B.B.B.B.B.B.1.1.",
"Y.I.U.I.A.A.A.C.A.A.A.A.A.A.A.A.I.I.I.G.A.A.G.G.A.A.A.A.C.C.C.A.S.S.A.A.U.U.U.U.U.U.U.U.U.U.U.U.U.U.U.I.I.I.I.I.I.I.I.I.I.I.R.I.R.R.R.T.R.c.kXVXJX'.}.HXZXHXHXbXcXDXGXHXnXnXVXbXgXhXkXjXjXjXjXjXjXjXjXjXfXkXkXfXkXjXjXfXfX1XkXlX8XkXkX8X8X2XP.%._ Y U W ;.-.;.-.~ y.y.t.t.y.-.W W W W T T W W W Q ;.;.-.y.g.%X=X=X%Xg.$X%X%X%Xf.s.i.#X$Xr.W ~ ~ ~ t.u.d.t.t.s.g.-XrXtXrXtXpXNXtXuXwX%XwXwXwXg.g.=X=XwXw.+.oX8XgXfX1X,X,X4X8XfXgXlXBXBXbXbXBXBXgXkXzXzXzXzXjXjXxXdX4X4X1XfXlXnXPXPXnXnXnXnXnXnXPXnXnXZXZXZXnXPXZXnXGXGXDXzXz.M.M.M.$.[ { M.M.>.>.M.M.b.K.K.,X1XhXnXnXnXPXnXPXPXPXPXPXPXnXDXPXPXnXbXgXfX,X,X(.c.c.n + & & # # # & y 2 % % % & 0 0 0 0 3 0 3 3 3 0 w w w w w w w 0 3 0 0 w 3 w w w w 3 3 3 1 2 2 2 2 & & + + $ $ $ $ $ $ $ $ $ $ $ $ $ $ $ $ $ $ $ $ $ $ @ @ @ @ @ @ % y z z X.%.o.#.<.N.G.R.R.I.U.G.G.A.C.C.C.C.D.D.D.D.D.B.B.B.B.B.B.B.B.B.1.5.1.",
"Y.I.U.G.A.A.A.C.A.A.A.A.A.A.A.A.I.I.G.G.A.A.G.G.A.C.A.A.C.C.C.C.S.S.A.A.U.U.U.U.U.U.U.U.U.U.U.U.U.U.U.I.I.I.I.I.I.I.I.I.I.I.R.I.R.R.R.T.R.P.BXDXJXZ mXHXHXHXVXVXHXHXHXGXGXHXDXVXDXFXgXjXjX1X1XjXjXjXjXjXfXkXlXkXjXkXkXfX8XfXkXkXlXjX0X8X X*.X.U U W ;.j.y.y.-.-.t.t.i.i.i.i.-.W W W T T W Q ;.-.-.y.-.y.s.%X%X%X=X:X%Xf.=X-X$Xf.s.i.$Xp.r.-.~ ~ y.t.u.d.s.s.g.%X-XrXrXrXtXpXvXiXuXwX%XwXrXrXg.g.eXrXrXeX*.*.oXkXkX2X,X4XjX0XfXkXgXBXVXVXVXDXVXBXlXkXfXfXfXfX1X1X1X1XxXjXfXBXBXVXVXDXnXnXPXPXGXGXGXGXGXGXnXPXnXVXVXJXVXkXc.b.M.>.[ [ $.M.M.M.>.>.b.M.D.L.(.1XgXbXmXmXnXPXnXPXPXPXPXPXnXnXPXPXnXbXbXfX1X1X(.z.P.@.+ j & @ # # # $ & 2 1 1 & & 2 1 0 0 0 3 0 3 3 3 w w w w 0 3 3 3 3 1 3 3 3 w w w w w 3 3 3 1 2 % % % & % % $ $ $ $ @ @ @ $ $ $ $ $ $ $ $ $ $ $ $ $ $ $ $ @ @ @ @ @ # $ * % y s b %.%.G.G.R.R.I.U.G.G.A.C.C.C.C.D.D.D.D.D.B.B.B.B.B.B.B.B.B.1.1.1.",
"Y.I.U.G.A.A.A.C.A.A.A.A.A.A.A.A.G.G.A.A.A.A.A.G.A.A.A.A.C.C.C.C.S.A.G.H.U.U.U.U.U.U.U.U.U.U.U.U.U.U.U.I.I.I.U.U.I.I.I.I.I.Y.I.I.I.U.R.T.F. XFXHXLX'.mXHXHXZXHXHXHXHXHXGXHXHXHXHXDXDXBX8X8X8XfXkX1XxXjXjXjXkXlXkXkX1X1XfXkXkXfXfXjX0X0X*._ U U W ;.y.0.y.y.y.y.t.i.t.i.u.i.u.-.T ! W W W -.;.;.-.-.y.r.i.%X%X%X$X=XeXf.%X=X=X$Xf.i.u.$Xf.r.-.~ ~ y.i.s.s.f.g.g.%X%XwXrXrXtXpXtXpXuXwX%XwXrXpXg.g.eXrXwXiX-X*.X.oXMXgX X2XdXjXgXcXBXDXDXPXnXnXVXVXbXbXbXgXlXkXkXgXgXkXkXfXlXlXlXgXlXCXBXbXVXnXPXnXnXnXnXnXnXVXVX8X2XzXzXF.z.b.>.[ [ M.M.>.>.M.>.M.M.b.L.).,XfXfXgXbXPXPXPXnXPXPXPXnXnXnXnXPXnXnXbXlX1X1X(.K.K.v.l y & & & # # # $ & & 1 1 9 1 1 1 1 1 0 3 0 0 0 3 w w e w w w 6 6 0 3 3 3 4 4 0 0 0 0 0 3 1 2 2 2 $ & $ $ $ $ $ $ @ @ @ @ $ $ $ $ $ $ $ $ & $ $ $ $ $ $ $ $ $ @ @ @ # $ * & & u B 6.G.G.F.R.R.I.U.G.G.A.C.C.C.C.C.D.D.D.B.B.B.B.B.B.B.B.B.B.B.1.1.",
"Y.U.U.G.A.A.A.C.A.A.A.A.A.A.A.A.A.A.A.A.A.A.A.S.A.A.A.A.C.C.C.C.S.S.H.H.U.U.U.U.U.U.U.U.U.U.U.U.U.U.U.I.I.I.U.U.I.I.I.I.I.Y.R.I.I.U.R..Xz.2XJXAXLX}.mXHXAXHXHXHXHXHXnXGXZXHXHXHXDXHXFXgXgXkXkXfX1X1XjXfXjXkXfXfX2X8XkXkXkXkXkXjX<XP.X.L U W ;.t.y.y.0.y.y.y.t.i.i.i.i.i.a.r.W ! W W W +.;.-.-.Q y.y.i.$X%Xf.%X%X:XeXf.%X=X=X$Xf.s.u.$Xu.r.y.~ ~ y.s.u.d.%X$Xg.%X%X=XwXwXtXpXtXpXuXwX%XwXyXpXg.g.=XiXtXrX=X$X+.X.oXCXkXv.).jXCXFXDXHXHXGXGXGXHXHXDXDXDXDXVXBXBXbXbXlXlXBXlXfXfXjX1X8X8XBXBXVXnXnXbXnXnXnXnXDXgX2X,X(.z.z.D.[ ) { $.>.>.{ $.>.M.M.z.R.(.).2X1X8X8XhXhXbXnXnXnXPXPXnXnXnXnXnXnXnXbXfX1X4XK.K.).@.+ y % & $ @ $ $ & $ & 1 1 1 1 1 1 1 2 1 1 3 3 3 0 w w w e e e e w w w 0 0 0 0 4 3 0 0 0 0 0 1 2 2 & & & & @ @ @ @ @ @ @ @ $ $ $ $ $ $ $ $ & & $ $ $ % % $ $ @ @ @ @ @ & j & j C *.%.%.6.I.R.J.I.U.G.G.A.C.C.C.C.C.D.D.D.B.B.B.B.B.B.B.B.B.B.B.1.1.",
"Y.I.U.A.A.A.A.C.A.A.A.A.U.A.A.U.A.A.A.A.A.S.A.A.A.S.S.C.C.S.S.C.S.A.A.S.U.S.A.U.U.U.U.U.L.U.U.L.U.I.U.U.G.G.G.I.I.I.I.I.I.I.R.Y.I.U.R.,X*.2XJXZXHXnXnXHXHXHXHXHXHXAXZXGXHXHXDXDXJXFXgXlXBXlXkX8X1X1XfX1XfX1X{.9XkXBXlXgXlXlXfX2X%.U L Q y.t.j.y.y.y.-.-.i.i.t.i.a.a.f.f.i.+.! W W W Q -.y.;.-.-.y.y.i.>Xh.f.f.$XuX=X=X=X%X%Xd.d.i.i.f.u.i.y.y.y.s.g.$X#X=X=X%X%X=XwXwXwXrXiXrXpXrXeXwXwXtXtX%Xg.%XuXrXtX=X:Xr.+.X.oXFXgXP.(.0XFXVXHXHXPXHXHXHXDXDXVXVXDXVXBXBXBXBXBXlXgXkXfXjXjXjXfXfXfXlXlXBXBXBXlXlXlXlXlXfX,X,X(.R.$.] ) { >.{ >.M.>.M.M.M.M.L.P.).,X1X1X1X1XfXfX1XlXVXnXnXnXnXnXnXnXnXnXnXhXfX4X).K.v.c.2 2 2 2 & & & % % % $ & 2 2 1 1 1 1 1 1 1 1 3 0 0 0 0 w w w e e e e e w w w w x e 6 3 3 3 3 3 1 2 % $ $ $ @ @ @ @ @ @ @ @ @ @ $ $ & $ $ $ $ $ $ & & $ $ $ $ @ @ @ # # # # & j j l n %.*.F.G.Y.U.G.I.G.A.A.C.C.C.C.C.D.D.S.B.B.B.B.B.B.B.B.B.B.B.B.B.",
"Y.I.U.A.A.A.S.C.C.A.A.A.U.A.A.H.A.A.A.A.S.S.A.A.A.S.S.C.C.S.S.C.S.A.A.S.U.S.S.U.U.U.U.U.L.U.U.L.U.Y.U.U.G.G.G.I.I.I.I.I.I.I.R.I.I.U.R.,X*.9XJXZXZXHXHXHXHXHXHXHXHXGXZXGXnXbXgXgXgXgXgXgXgXfX8X1X1X1X1X2X{.8XBXCXlXkXBXlXkX X&.X.U ;.y.j.j.y.y.j.t.y.t.h.i.r.i.i.f.$X$Xf.a.W ^ W W W -.t.t.;.-.-.y.t.>X$Xs.s.f.:XuX7X=X=X%X$Xd.d.i.i.i.u.i.t.r.i.g.%X#X=XwX=X%X%XwXwXwXwXrXtXrXiXwXwXwXwXtXrX%Xg.$XwXtXtXrX=Xf.+.+.O.9XFXjXc.c.jXJXDXDXHXHXHXPXPXVXVXDXDXDXVXBXbXbXbXgXgXgXfXfXfXfXfXxX1X1XfXfX1XfXfXfXjXxXxX1X1X5XK.%.( ] [ $.{ $.{ >.M.M.M.z.K.(.(.,X1X1X1X1X1XxXfX1XkXhXnXnXnXnXnXnXnXnXbXbX8X1X(.).c.{.N % 9 2 2 & & 2 9 9 9 & 1 2 1 1 1 1 1 1 1 1 1 1 1 9 0 0 w w e e e e e w e w e e 6 w e w w 3 4 2 1 1 2 & & & $ @ @ @ @ @ @ @ @ @ $ $ & $ $ $ $ $ $ $ $ $ $ $ @ @ @ # # @ @ @ @ & & 2 k X.6.G.G.Y.Y.G.U.G.G.C.C.C.C.C.C.D.D.S.B.B.B.B.B.B.B.B.B.B.B.B.B.",
"Y.I.U.A.A.A.S.C.C.A.A.A.H.A.A.H.A.A.A.A.A.A.A.A.C.S.S.C.C.S.S.C.A.A.S.S.U.S.S.U.U.U.U.U.U.Y.U.L.U.Y.U.U.G.G.G.I.I.I.I.I.I.I.R.I.I.U.R.,X%.gXHXGXnXHXHXHXHXHXHXHXHXGXGXDXbXBXlXlXkXkXkXgXkX8X0X4X4X2Xc.1XlXCXBXlXlXBX8X XX.R ! r.j.j.j.t.t.t.i.i.i.i.i.i.r.i.u.$X$X-X:Xf.+.^ ^ W W +.r.i.t.-.-.t.i.s.f.f.s.f.=XrXrXrXuX=X%X$Xd.d.i.i.i.i.s.u.u.$X-X=X*XrXrXrX=XwXwXwXwX=XrXrXrXuXwXwXwXwXrXrX%Xg.%X=XpXtXrX%X%Xr.Q +.*.jXCX{. XP.<XJXDXHXHXDXPXPXPXPXPXnXDXVXDXVXBXBXBXBXBXlXgXgXgXfXfXfXxX1X1XfXfXfXjXjXjX1X1X(.K.[ ( _ { { { $.$.{  .>.M.M.b.(.,X4X4X,X1X1X1X1XxXxXxXfX8XDXnXnXZXZXnXbXbXlXjX1X1X).(.).&.- j 1 2 & & & 1 1 0 k j 9 1 1 1 1 1 1 1 2 2 9 2 2 9 0 w 3 3 w 3 w w e x x e e e w 6 6 w z z 0 3 2 2 % & & @ @ @ O + @ @ @ @ @ @ $ $ & $ $ $ $ $ $ $ $ $ $ $ $ $ $ $ $ $ $ $ $ $ % y n %.6.N.G.G.R.I.I.G.G.A.C.C.C.C.C.B.D.C.B.B.5.B.B.B.B.B.B.B.B.B.B.",
"Y.I.U.A.A.A.S.C.C.A.A.A.S.A.A.H.A.A.A.A.A.A.A.A.A.L.S.C.C.S.S.C.S.A.A.S.U.S.S.U.U.U.U.U.U.U.U.L.U.Y.U.U.G.G.G.I.I.I.I.I.I.I.R.I.I.U.R.,X@.lXHXGXHXHXHXHXHXHXHXHXHXGXGXDXBXgXgXlXlXlXBXgXkXfX8X<Xc.2XlXCXBXMXBXCX2X@.E E +.t.j.t.t.t.i.s.s.s.i.i.i.u.r.r.i.a.$X-XqX:X;Xr.;.^ W W -.-.i.i.r.r.i.i.h.i.f.$Xf.:XrXtXtXrXuX=X%X$Xg.s.i.i.i.i.s.f.p.-X*X=XrXrXrXrX=XrXrXwXwX=XrXrXwXrXwXwXwXwXrXwXg.g.%X%XpXtXwXd.%Xg.+.+.+.].CXlXv.,Xc.2XCXVXDXDXPXDXPXDXDXDXBXBXbXBXgXgXgXgXlXkXgXgXkXkXjXfXjXjXjXxXxX1X,X(.K.c.c.@._ ( _ [ { { [ $.{ $.>. .{ M.K.,X1X1X,X,X1X1X1X1XdXdXxX1XfXDXnXnXnXnXnXhXgXfX2X,X).).).v.N # 2 2 2 2 & 2 0 0 0 3 k 0 1 1 1 1 1 1 1 2 2 2 2 2 2 1 0 w w 3 3 3 3 3 6 w e x e w e e 6 3 3 3 0 1 2 % $ @ @ @ @ O @ @ @ @ @ @ @ $ $ + $ $ $ $ $ $ $ @ @ @ @ @ $ $ $ % % % & & y % k n P o.<.C.G.G.G.I.G.A.C.C.C.C.C.C.B.D.C.B.B.B.B.B.B.B.B.B.B.B.B.B.",
"Y.U.U.S.S.S.S.S.A.A.A.A.A.A.A.A.A.C.S.C.A.A.A.A.S.L.S.C.C.S.S.C.A.S.S.S.S.S.C.U.U.L.U.L.U.U.U.U.I.U.U.U.U.U.U.I.I.I.I.I.I.R.I.R.R.I.T.R.@.CXDXGXGXHXHXHXHXHXAXAXHXGXHXDXDXBXkXkXkXgXBXgXkXfX2Xv.hXCXBXBXBXkX].X.R Q y.j.j.j.t.i.s.s.f.$Xf.i.t.i.r.r.i.i.f.=X7XrXiX:Xu.-.Q Q ;.;.r.i.i.i.r.i.h.h.i.f.%X#X=XrXtXtXtXiXiX=X=Xf.d.i.i.s.t.u.g.f.d.#X*XrXtXrXrXrXrXrXrXrXwX=XrXrX=XwXwXwXwX%XeXeXg.g.;X%XtXtXwXd.g.g.s.Q +.+.<XBXkX&.<X2X2XCXVXHXDXDXFXDXBXlXlXkXfXjXfX1X1X1XxXxXjXfXfXjXjXjXdXdX1X,X).(.K.z.z.$.] _ _ _ [ [ { { { { { { { $.M.K.(.4X1X1X,X,X1X1X1X1XdXdX4X1XfXDXVXnXnXbXbXfX1X1X,X,X).).v.{.i & & % % 1 1 1 2 9 k 0 w w 0 0 3 3 3 3 0 0 0 0 3 1 2 1 0 3 0 w 6 3 6 3 4 4 0 w e w w w z w 3 4 2 2 % % & $ + O @ @ @ @ @ @ @ @ @ @ $ $ $ $ $ $ $ $ $ @ # @ # @ @ @ $ $ $ $ $ $ $ % % u ( o.%.N.R.G.G.I.G.A.C.C.C.C.C.C.D.D.D.B.B.B.B.B.B.B.B.B.B.B.B.B.",
"Y.I.U.A.S.S.S.S.A.A.A.A.A.A.A.A.A.C.S.C.A.A.A.A.A.L.S.C.C.A.S.C.S.A.S.S.S.S.C.U.U.L.U.L.U.U.U.U.I.U.U.U.U.U.U.I.I.I.I.I.I.R.I.R.R.R.T.R.@.BXHXHXGXAXAXAXHXHXZXZXZXGXnXnXDXDXBXkXlXgXBXgXBX9X9XBXBXBXCXMX].X.X.+.h.h.j.t.s.s.h.;X;X;X%X$Xf.f.f.i.i.f.f.:XeXuXrXiX:Xa.t.~ Q ;.;.a.u.s.h.u.d.h.h.i.f.:X=X*XrXtXtXtXNXtXrX-X=Xf.s.i.i.s.i.u.f.$Xd.#X*XrXtXtXrXtXrXrXrXrXrXwXrXrXwXwXwXwXwX%X;X%Xg.d.;X%XrXrXwXd.g.g.g.q.Q +.*.8XlX1X@.,X,X XgXbXgXgX8XfXfX1XfXxXxXdXdXxXdXxXdXdX4X1X1X1X2X2X2X,X2X,X(.(.K.$.[ [ ( / _ ) [ [ [ [ [ { { { M.>.M.(.,X,X1X2X,X1X1X1X1X1XxXdX4X1XhXDXbXhXbXbXkXfX1X4X(.K.(.2XfXx.+ - y & 2 1 u 3 1 2 2 0 w w w w 0 3 3 3 0 0 w w w 0 0 1 1 3 3 3 6 w 6 6 3 3 0 0 w 3 w 3 3 0 0 1 2 % % * $ $ + & @ @ @ @ @ @ @ @ @ @ $ $ $ $ $ $ $ $ & & # # # @ @ @ @ @ @ @ @ @ @ @ % k _ o.%.N.G.N.G.G.G.A.C.C.C.C.C.B.D.D.D.B.B.B.B.B.B.B.B.B.B.B.B.B.",
"U.G.U.C.S.S.S.S.A.A.A.A.A.A.A.A.A.C.S.C.A.A.A.A.S.S.S.C.C.A.A.C.S.S.S.S.S.S.C.U.U.L.U.L.L.U.U.U.I.U.U.U.U.U.U.I.I.I.I.I.I.R.I.R.I.R.T.R.&.BXVXnXnXnXZXZXHXHXVXnXZXZXnXnXDXDXBXBXbXbXBXBXhXhXDXDXFXkXw.R X.r.h.h.f.i.$X%X=XuXrXuXuX=X-XwX:X:X$Xp.%X=X=X=X7XiXuX%Xi.t.~ Q y.r.i.r.i.s.f.d.f.f.h.$X%XuX7X7XiXtXvXvXvXtX7X*X%Xg.s.u.i.s.u.d.d.%X#X#X*XwXtXrXrXrXrXrXrXrXrXrXwXwX=XwXwXwXeX$Xr.>Xf.u.%X%XwXrXwXg.s.s.g.s.~ Q +.*.8XlX2XB <X,X<XjX1X8X1XfXxXxXxXxX1X1X1X1X4XxX4X4X,X1X1X1X2X2X1X1X1X1X).z.@.] [ %._ ) ` ) ` [ [ [ { { { M.M.M.b.(.(.,X1X2X2X1X1X1X1X1XxXxX1X1XfXBXgXhXgXkXgX1XdX,XL.z.).{.{.N & 2 y 2 1 u u 3 2 9 2 1 w e x e w w 3 3 0 0 0 w w w w w w 0 3 3 3 6 6 w w w w w 3 w 3 3 0 3 3 1 2 % * * @ @ $ & @ @ @ @ @ @ @ @ @ @ + $ $ $ $ $ $ $ $ $ $ $ $ @ @ @ @ @ @ @ @ @ & @ j k _ o.6.G.N.N.A.A.G.A.C.C.C.C.C.B.D.D.D.B.B.B.B.B.B.B.B.B.B.B.B.B.",
"U.A.G.C.S.S.S.S.A.A.A.A.A.A.A.A.A.C.S.C.A.A.A.A.S.L.S.C.C.A.A.C.A.S.S.S.S.S.C.U.U.U.U.L.L.U.U.L.I.U.U.U.U.U.U.I.I.I.I.I.I.R.I.R.I.I.^.R.*.CXBXbXbXnXnXnXHXHXHXnXHXnXnXnXnXVXVXDXDXDXbXhXVXLXJX9X&.X.X.;.h.h.f.;X%XuXaXpXNXNXNXtXrX=XrXaXrX=X:X:X=X=XrX7X7X=X%Xi.t.-.~ t.t.u.u.i.i.f.f.f.%Xf.f.d.=XrX7XtXMXvXvXvXtXtX*X=X%Xd.i.i.s.d.d.-X#X=X#X#X-X*XrXrXrXrXrXrXrXrXrXrXwXwX=XwXwXwX:Xd.+.s.h.u.g.%X=XwXwX%Xs.s.g.g.y.~ Q +. XfXlX{.@.5X,X5XjXjX1XxX1XjXjXxXfX1X1X1X1X1X,X,X,X5X1X1X1XxXxX1X2X).z.%.[ %.] _ _ _ ) [ ` ` [ [ $.$.{ >.M.M.K.(.(.,X1X2X1X1X1X1X1X1XxX1X1X1XjXkXfXkXfXjXfX1X4X(.z.).dXv.x.= y 2 & 2 1 u s 3 3 1 9 2 4 w e e w w w 0 0 0 w w w w w w w w w 0 3 3 6 6 6 w w w w w 6 4 4 3 1 2 1 2 % $ X O @ @ @ @ @ @ @ @ @ @ @ + + + $ $ $ $ $ & % % $ $ $ $ $ @ @ @ @ @ @ @ @ $ $ 1 B _ %.*.<.N.A.A.H.A.C.C.C.C.B.B.D.D.D.B.B.B.B.B.B.B.B.B.B.B.B.B.",
"S.A.H.C.A.A.A.S.S.A.S.S.A.A.A.A.S.S.S.S.S.A.A.S.S.S.S.S.S.S.S.S.S.S.S.S.S.U.S.L.L.L.U.L.U.U.L.L.Y.U.U.I.I.I.I.I.I.I.I.I.I.I.R.R.I.I.^.K.c.CX8XgXkXlXbXPXPXPXPXDXnXnXDXBXBXBXBXDXVXcXHXKXJX<XX.U O.a.>X:X:X=XwXrXpXNXNXNXNXNXpXtXrXuXrXrXwX=X=X=XrXrX7X=X=X%Xf.j.t.-.i.t.t.t.i.f.s.f.>Xf.$Xf.p.=X7XyXtXvXvXNXNXtXtXrX=X-X$Xf.i.u.f.#X*XrX=X=X7X*X-X=XrXrXrXrXwX=XwXwXrXrXwX=X=XwXwXwX;Xg.y.y.h.u.u.;Xg.eX%X%Xg.u.s.h.s.y.~ Q +. X8XlXc.%.0X,X4XzXdXxXxX4XxX1X8X8XjX1X1X,X).,X1X1X1X1X1X1X1X1X).z.z.[ [ [ _ _ _ _ ] _ [ _ [ { { { $.z.$.b.).,X,X2X2X1X1XxX1X1X1X1X1X1X1XfXjXfXfXfXkXfXfX1X,XM.z.1X{.2XB & - & & 2 1 u u u z 0 0 0 3 3 w w z z w w w w w w e e w 6 w 0 w w w 6 6 w 6 w w w w w w 6 3 2 2 $ & & & $ $ $ @ X X @ @ @ @ @ @ @ $ $ $ $ $ $ $ $ % % % % $ $ $ $ $ $ $ $ $ $ $ $ $ $ @ & k B n X.*.5.<.A.A.A.C.C.C.C.B.B.D.D.B.B.B.N.6.1.n.n.B.B.5.B.B.B.",
"L.C.S.C.C.A.S.S.A.A.A.A.A.A.A.A.S.S.S.S.S.A.A.L.S.S.S.S.S.S.S.S.S.S.S.S.S.U.S.U.U.L.U.L.U.U.L.L.U.U.I.I.I.I.I.I.I.I.I.I.I.Y.I.I.U.I.T.K.v.BXfXkXjXkXbXnXPXPXDXDXVXbXbXMXBXBXbXbXVXKXJX[.X.c o.a.>X>X:X:XiXpXpXNXNXNXNXpXpXiXiXrXuXuXrXrXrXuXrXrXuXrX=X=X;X;Xt.t.y.t.i.i.i.y.s.f.f.>X>X$X$X$X%X7XtXyXcXvXvXNXvXyXrXrX=X#Xf.f.i.u.=X7XyXvXrXrXtX7X-X=XrXrXrXwX=X=XwXwXrXrXwX=X%X%XwXwX;Xg.y.y.s.s.q.;Xg.g.%X%Xg.u.i.s.;Xr.y.~ ;.*.2X1X0XP.c.<X X4X4XxXxXxXxX1X1X1XdX1X(.).(.,X2X2X1X1X1X2X2X,XK.z.%.[ $._ _ _ _ _ _ _ ] [ ] [ { $.z.b.K.(.(.,X1X,X2X1X1X1X1X1X1X1XxX1X1XfXjXjXfXfXfXfXfX1XL.z.).2X2Xv.; & & & & 9 1 1 3 3 z z 0 0 0 3 3 0 w w z z w w x w w w w w w 0 3 w w w w w w w e e w w w w w 3 2 % * $ % % % $ @ @ @ @ X @ @ @ @ $ $ $ $ $ * $ % & % % % % $ $ $ $ $ $ $ $ $ $ $ $ $ - - & 2 2 z X.%.<.C.C.A.A.C.C.C.B.B.B.D.D.B.B.B.N.N.1.n.n.B.B.5.B.B.B.",
"L.A.L.A.C.A.S.S.A.A.A.A.A.A.A.A.L.S.S.S.L.A.S.L.S.S.S.S.S.S.S.S.S.S.S.S.S.U.S.U.U.L.U.L.U.U.U.U.U.U.I.I.I.I.I.I.I.I.I.I.I.Y.I.I.I.I.T.K.{.BX8XfXfXgXbXbXbXbXBXDXDXMXgXBXBX9XmXLXKX0XX.L E a.;X:XuXrXpXNXNXNXNXNXpXaXpXiXrXrXuXuXuXuXrXrXrXrXrXrXwXwXwX:Xh.s.y.y.y.t.h.h.t.s.s.s.f.;Xf.>Xf.%X:XrXtXcXvXvXvXvXcXyXyXrX=Xf.f.u.u.%XiXvXvXvXyXNXtX*X#X=X=XrXwX=X=X-X%X=XrXrXrX=X%X%XwX%X:Xf.s.q.s.g.q.g.%Xd.$X%Xg.s.t.i.:Xd.y.y.~ +.*.<X1XzXc.,X1XdX4X4X4X4XxX4X4X4X4X,X).).).,X,X2X2X1X1X2X,X).K.z.[ %._ _ _ _ ] _ _ _ _ [ [ [ { $.b.b.R.(.(.,X,X,X2X1X1X1X4X4X1X1XxX1XfXjXjXjXjXfXgXkXjX(.M.b.).1X{.N & & $ & & & 2 1 1 1 k k w w w w 3 3 0 w w w w w w w z w 3 w w w 0 3 3 3 w w e w w w w w w w 6 w 0 3 4 o * * $ $ $ $ $ $ @ @ @ @ @ @ $ $ $ $ & % $ $ % % % % $ $ $ $ $ $ $ $ & & % $ & & $ 2 y u X.6.<.>.C.C.A.A.C.C.C.B.B.C.D.B.B.5.B.N.6.1.1.1.1.n.1.1.B.B.",
"L.A.L.A.C.C.A.S.A.A.A.A.A.A.A.A.L.S.S.S.L.S.S.L.S.S.S.S.S.S.S.S.S.S.S.S.S.U.S.U.U.L.U.L.U.U.L.U.U.I.I.I.U.I.I.I.I.I.I.I.I.Y.I.I.I.R.T.F.v.CX2XfX8XgXBXBXbXbXBXDXBXBXbX}.hXJXKXFX*.v E a.;X:XeXuXpXpXNXNXpXNXpXpXiXuXuXaXuXuXuXuXuXuXuXrXrXrXrXwXwXwX:X:Xs.y.y.y.s.h.h.s.i.s.s.f.;X$X>Xh.>X%X7XtXcXvXvXvXvXvXcXyXNXrX=X$Xp.d.#XrXNXVXnXnXvXVXvX&X#X=X*X*X=X=X-X%X$X%XrXrXrXwX%X%X;X:X;Xf.g.s.q.h.u.u.%Xg.f.f.g.h.t.i.d.%Xt.y.9.y.+.*.0XjXjX<X4X1X1X8X8X1XxX1X4X4X,X,X,X(.,X1X4XxX1X1X,X,X,XP.z.%.%._ ( _ _ _ ] _ ] ] _ ] [ [ $.M.b.L.(.(.,X2X2X1X,X1X4X4X4X4X1X1XxXxXjXjXjXjXjXjXfXkX1XK.b.K.2X1X@.- - % % 2 % % & & 1 1 0 0 0 w w w w 0 3 0 0 w w w w 6 w w w w 6 w w w 3 3 3 6 w e w w w 3 3 3 4 4 4 2 1 1 2 % $ $ $ $ $ $ @ @ @ @ X @ $ $ $ $ & & & % % % % % $ $ $ $ $ $ $ $ $ $ $ $ * j y % k b X.o.#.%.B.C.A.Z.C.C.C.C.B.C.D.B.B.5.B.N.6.1.1.1.n.n.1.1.B.B.",
"S.C.L.A.C.C.C.C.A.D.A.C.C.C.C.C.A.A.A.A.L.A.A.L.S.S.S.S.C.C.C.C.S.S.S.A.L.L.L.L.S.L.U.A.U.L.A.A.U.I.I.I.I.I.I.I.I.I.I.I.I.I.R.R.I.G.,XF.2XCX@.2XgXlXkXlXlXBXBXBXVX}.'.}.LXKX&XC m p.>X:X%X:XuXiXiXaXaXaXeXwXwXwXuXuXuXaXiXiXiXuXuXrXwXrXwXuXwX=XeXeX:Xf.t.t.u.;X:Xf.s.i.h.i.f.:X$X>X;Xf.%X7XtXvXvXvXvXVXvXvXvXNXtXrXuX%Xp.%X*XiXVXnXnXnXnXnXyX&Xw.%X*X&X=X%X%X$Xg.$XrX=XrXwXg.g.;X;X;X;Xg.%Xq.g.g.u.%X%Xf.d.d.s.i.r.d.f.s.y.9.y.y.+.*.jXzXjX<X<X8XfXfXfXfXfXxX1X1X4X4X4X4X1X2X2X,X1X,X(.K.z.%.%.] _ _ _ _ _ ] ] _ ] ] ] ] { $.b.K.L.(.).{.fX1X2X2X1X1XxXdX1X1X1XxXfXjXjX1XfXxXfXfXfX(.b.L.z.2X2Xl , , 2 3 0 3 1 2 & & 2 9 0 0 0 w w w w w 0 0 0 0 w w w 3 3 w w w 6 6 w w w 3 3 3 6 x x e w 3 3 3 4 o X X $ & & & $ @ @ X O @ @ @ @ @ $ $ $ $ & % % % % % % % % $ $ $ $ $ $ $ $ $ $ $ $ $ $ $ $ j k y n %.%.C.S.C.C.C.C.C.B.B.C.B.B.B.B.5.6.1.1.B.B.5.1.B.B.B.B.",
"S.C.L.A.C.C.C.C.A.D.A.D.C.C.C.C.A.A.A.A.L.A.A.L.S.S.S.S.C.C.C.C.S.S.S.A.L.L.L.L.S.S.U.A.U.L.A.A.G.I.I.I.I.I.I.I.I.I.I.I.I.I.I.I.R.I.T.P.1XBX@.1XgXfXjXjXfXgXhXbX}.}.HXKXvX&.X.oXaXuXwXuXaXiXuXrXrXwX=X-X%XwXuXaXuXuXuXuXuXuXuXrXwXwXwXuXuX=X=XuXeX:Xf.i.s.s.:XeX;Xh.j.i.i.>X:X%X;X>X%X$X=XrXtXvXvXcXvXvXyXVXcXNXrX=XuX%X#X=X7XpXVXAXnXnXnXmX&X=Xw.d.=X#X$X$Xd.g.d.g.=X*XwXwXg.s.;X%X;X%X%X%Xh.s.g.s.d.%X%Xf.d.s.s.u.u.f.s.i.y.~ y.t.o.c.0XjXjX1XfXkXlXgXlXgXjXjXxXxXdX4X1X,X1X2X,X(.K.K.%.%.@._ ( ( _ _ _ _ ] [ [ ] ] $.[ $.z.b.K.L.K.,XlXbXFX8X1X1X8XfX8X1X1XxXxXfXfXfXxXjXxXxXkXxXK.L.b.K.1X@.y 2 2 1 0 0 0 3 1 1 % % 1 1 0 0 0 0 0 w 6 3 0 0 0 0 w w 3 3 3 6 6 6 w w 6 w w 3 3 3 3 6 w z w 0 0 3 2 $ @ @ $ $ @ @ @ @ @ O @ @ @ @ @ $ $ $ $ & & & & & % % % % $ $ $ $ $ $ $ $ $ $ $ $ $ $ $ $ $ % % k X.N.N.C.C.C.C.C.C.C.B.B.B.B.B.B.5.1.1.1.B.B.5.1.1.1.B.B.",
"S.C.L.A.C.C.C.C.A.D.A.D.A.A.C.C.A.A.A.A.L.A.A.L.S.S.S.S.C.C.C.C.S.S.S.S.L.L.L.L.S.L.U.A.U.L.A.A.G.I.I.I.I.I.I.I.I.I.I.I.I.I.I.I.R.I.R.,X8XFX@.2XfXjXzXjXfXgXhXhXnXKXVX{.&.&XNXpXrXrXrXtXtXtXtXrXrXtXpXpXsXsXaXuX%X;X:X:X%X%X%X=XuXuXrXrXrXrX=X=X:Xf.f.f.;XeXeX;Xh.h.s.s.;X:X%X>X>X%X%X%X7XtXtXvXcXvXNXyXvXvXcXtX&X-X=X=X-X7XrXpXnXAXVXvXvXyX*X-Xu.u.=X#Xd.d.d.d.d.d.-X*X*X=Xs.t.h.g.%X$X=X=X%Xg.g.f.u.%X=X$Xd.s.f.i.u.s.i.i.t.~ y.-.r.+.c.0XfXkX2X1XjXBXlXgXjXjXjXjX4X4X,X,X).(.P.K.z.z.$.%.] ] ] ] _ _ ] _ ] [ [ [ [ $.$.$.z.b.N.K.c.kXDXnXDXbXfXgXbXBXDXhX8XfX8X8X8X1XxXfX1XjXjX2XK.L.z.,Xv.N 2 2 1 0 0 0 0 k 3 1 2 2 2 2 0 0 0 0 0 0 0 3 3 3 3 3 3 0 3 3 3 3 3 3 3 0 w 3 w w 6 3 3 2 2 1 q 0 0 3 3 1 2 $ * @ @ @ $ $ $ @ @ @ @ @ @ $ $ $ $ & % % % % % % & & & & & & $ $ $ $ $ $ $ $ $ $ $ @ $ $ y n o.#.<.C.C.C.C.C.C.C.B.B.B.B.B.5.5.1.1.1.B.6.1.1.1.5.1.1.",
"S.C.L.A.C.C.C.C.A.D.A.D.A.A.C.C.A.A.A.A.L.A.A.L.S.S.S.S.C.C.C.C.S.S.S.S.S.U.L.L.S.L.U.A.U.L.S.A.G.I.I.I.I.I.I.I.I.I.I.I.I.I.I.I.R.I.P.2X8XFX@.{.lXfX2X1XlXBXVXLXDX9X].2XMXCXtXpXiXpXNXNXNXNXSXSXSXSXSXSXpXrX*X-X%X%X%X=X=X:XeXuXuXuXrXwXuXwX=X%Xf.$X;X;X:X:X%Xf.s.s.h.;X:X=X%X:X$X$X%X=XrXtXtXtXNXcXyXcXVXcXNX&X=XeX-X=X*X7XiXtXnXAXVXmXyXtX&X=Xf.w.%Xp.u.d.p.d.u.d.#X=X*X=Xs.t.s.g.h.%X-X=X%X%Xu.h.g.d.eX%Xd.u.f.f.i.i.i.i.t.y.~ ~ y.r.+.*.8XkX1X X{.1XlXkXjXjXfXxX1X,X(.(.,X,X).K.$.$.[ [ _ _ _ ( _ _ ] _ ] [ ] $.b.z.K.b.z.b.b.R.).lXbXPXPXPXbXDXDXPXPXnXbXhXfXfX8X1X1X1X1XjXxX,XL.M.K.2XB i 2 2 1 1 3 0 0 3 3 1 1 2 2 2 0 0 0 0 0 0 3 3 6 3 3 3 3 3 3 3 3 3 3 0 0 3 0 0 w w w w 3 0 2 2 2 2 2 1 1 1 1 2 $ $ X O * + $ $ @ @ @ @ @ $ $ $ $ $ % % % % & & & & & & & & $ $ $ $ $ $ $ $ $ $ $ @ @ & k n X.%.C.C.C.C.C.C.C.C.C.B.B.B.B.6.B.1.1.1.5.1.1.1.1.1.1.1.",
"D.A.S.A.C.C.A.A.C.C.C.C.D.D.D.D.C.C.C.C.C.D.C.C.A.A.A.A.D.D.A.S.S.S.S.S.S.S.S.S.L.S.U.S.S.S.S.A.G.U.A.A.G.G.G.G.L.L.G.G.I.I.I.I.I.R. X<XhXFX{.2X8X8XfXBXnXHXJXgX8X<X0XzXiXMXNXpXpXaXuXrXpXpXpXpXpXtXtXtXrXtXtXiXuXuXiXiXaXaXpXiXrXrXwXeXwX%X%X;X;X;X;X;X;X;X;X>Xf.h.;X;X:X:X:X%X%X=X7XtXtXpXpXpXtXcXcXcXNXtXrX&X=X%X%X#X#X=XuX7XvXAXvXyXyX6X#X-X-Xw.#Xp.q.s.u.d.s.s.d.=X-X$Xj.t.t.s.s.%X$XwX=Xd.u.s.;Xu.-X:Xf.f.f.f.s.t.i.i.t.t.y.~ y.-.-.o.*.<XlX1XR.R.5XzXzXkXjXjX4X1X,X1X,X,XP.%.%.$.[ ] _ _ _ ( ( ] ] [ [ %.] %.$.N.(.(.K.K.K.L.K.fXnXnXnXnXnXnXnXnXPXPXmXhX8X8XjX2X1X1X1XjX1X,Xb.$.1X&.y y 1 1 1 1 1 1 9 k 1 1 1 1 9 2 2 0 w w 0 3 w w w w 3 3 3 3 3 3 3 3 0 0 0 0 0 3 3 0 3 w z w 6 3 4 2 % % % % % 2 2 % $ $ @ O @ @ # @ $ $ @ $ $ $ $ $ % $ $ $ $ $ % % $ $ $ $ $ $ $ $ $ $ $ $ $ $ $ @ @ $ % u X.%.%.%.C.C.C.A.C.C.B.B.B.N.b.1.n.n.n.n.1.1.1.1.1.1.1.1.",
"A.C.D.C.D.D.C.C.D.D.D.D.D.D.D.B.D.D.D.D.D.D.D.C.A.A.A.A.D.D.A.S.S.S.S.S.S.S.S.S.L.S.U.S.S.S.S.A.L.U.A.A.A.A.A.A.L.L.A.A.A.A.G.G.U.R.P.8XBXBXgXkXlXBXFXJXJXBX9X2X<X0X8XqXtXvXNXiXiXuXwXwXwXwXwXrXpXpXpXpXpXpXpXpXpXpXiXiXpXiXiXuXrXwXeXeX%X%Xh.h.;X;X;X;X;X;X;Xh.;X;X;X;X:X:X%X%X%X=XrXtXvXtXtXtXtXMXtXtX7XiX#X=Xp.$Xd.d.%X=X-X=XtXvXyXtX*X[.#X#X=X#X[.d.q.i.s.u.s.s.d.$X%Xf.t.y.y.s.s.h.g.%X=X#Xu.s.;Xd.#X:X%Xd.s.f.f.i.i.t.t.t.y.y.-.~ ~ Q o.*.2XlX4X.XP.4XzXjXjXjX1X1X1X,X,X).c.K.z.%.[ [ ] _ _ ] ] _ ] [ $.$.%.b.b.N.P.).,X,X,X,X1XgXnXnXnXnXnXnXnXnXnXnXPXnXfX4X4X<X1X1X1X1X4X(.$.b. Xl 2 1 1 1 1 1 1 1 1 9 9 1 1 1 2 1 1 2 0 w w w 3 6 w w 0 0 0 3 3 3 3 3 0 3 3 3 0 0 3 3 3 3 6 x v c w 1 2 % % & * * * $ $ @ @ @ @ @ @ @ $ $ $ @ $ $ $ $ % % $ $ $ $ % % $ $ $ $ $ $ $ $ $ $ $ $ $ $ $ @ @ @ l n n b *.6.C.A.C.C.C.C.B.B.B.N.N.1.n.n.n.n.1.1.1.1.1.1.1.1.",
"S.D.D.D.D.D.D.D.D.D.D.D.D.B.B.B.D.D.D.D.D.D.C.C.A.A.A.A.D.D.A.S.S.S.S.S.S.S.S.S.L.S.U.S.S.S.S.A.L.U.A.A.A.A.A.A.S.S.A.A.A.A.A.A.U.R.P.8XCXBXcXVXVXDXHXJXlX<X2X<X<X8XqX9XNXNXNXiXuXeX:X=X=X%X%X%X=X=XuXuXuXuXuXrXuXuXiXaXuXuXrXrXwXwXwX%X%X;X;Xh.;X;X;X;Xh.h.h.h.;X;X;X;X:X%X%X%X=X7XrXtXtXyXtXNXtX7XtX6X7X$X$Xp.f.f.u.f.>Xp.$X#XrX7X#X=X*X#Xw.=XtXyX[.*Xq.i.f.a.u.s.d.d.$Xf.t.y.y.t.i.h.g.%X%Xg.t.t.d.%X#X%X%Xf.s.f.f.f.i.t.i.t.t.y.-.y.~ ~ Q o.*.<XkX8X2X X4XzXjXfXjX4X1X<X2Xv.2X,X%.[ [ [ ] _ _ _ ] [ [ [ $.$.$.K.K.P.(.).2X8X8XBXDXnXnXnXnXnXnXnXnXnXnXnXPXbXkX1X1X1X1X1X2XjX(.(.[ (.&.y 1 1 3 3 1 1 1 1 1 9 9 1 1 1 1 2 2 9 1 3 w z w w w w w w w w 3 3 3 3 3 3 3 3 3 3 3 w 3 3 4 4 0 z z w w 3 4 2 % $ @ @ @ @ @ @ @ @ @ @ @ $ $ $ $ $ $ $ % % % % $ $ $ % $ $ $ $ $ $ $ $ $ $ $ $ $ $ $ $ $ & & $ < X.<.1.A.S.C.B.C.C.B.B.B.N.b.1.n.n.n.n.1.1.3.1.1.1.1.1.",
"A.A.D.D.D.D.D.D.B.B.B.B.B.B.B.B.B.B.B.B.C.D.C.C.A.A.A.A.D.D.A.S.S.S.S.S.S.S.S.S.L.S.U.L.L.S.S.A.L.U.A.A.A.A.A.A.S.S.A.A.A.A.A.A.I.R.F.0XCXbXVXVXLXLXVX{.P.R.P.<X2X9X6XNXAXVXNXiXuX:X=X%X%X>X>X>X%X%X%X%X%X=X:X:XuXuXuXuXrXrXrXrXwXwX%X%X%X;X;X;Xh.>Xh.s.s.s.s.s.f.f.f.f.;X%X%X:X:XuXrXrXrXtXtXtXrXrX7X-Xp.f.f.f.u.d.p.f.$Xf.u.d.=X#Xw.d.uX#Xw.pXvXmX}.6Xw.u.d.d.u.i.d.d.d.d.t.y.y.t.i.h.g.g.$Xh.t.t.u.f.$X$X$X$Xf.f.$Xf.i.t.i.t.t.y.y.y.~ ~ ~ Q o.*.&XMXkX1X2X<X8XfXjXjXjX8X2XjX1X%.%.$.$.[ ] ] ] _ [ [ $.$.$.b.D.K.K.,X,X<X8XlXbXPXnXnXnXnXnXnXnXnXnXnXPXPXPXDXlX1X1X1X4X1XjX,XL.b.$.,Xk 2 1 1 3 3 3 1 1 1 1 1 1 1 1 1 2 2 2 9 9 0 3 6 e w e w w w w w 3 3 3 3 3 3 6 6 w w w w w w 3 4 4 4 4 3 0 0 0 1 % % $ $ @ @ $ $ $ @ @ @ $ $ $ & $ $ $ $ % % % % $ $ $ % & $ $ & $ $ $ $ $ $ $ $ $ $ $ @ @ @ @ $ X.o.#.5.W.C.B.B.C.C.C.B.B.N.b.1.n.n.n.n.1.1.1.1.1.1.1.1.",
"A.D.D.D.D.B.D.D.C.B.B.B.B.B.N.N.B.B.B.B.B.C.C.B.D.D.D.A.A.D.S.D.A.A.A.A.S.S.S.S.S.S.S.S.S.S.S.A.L.A.A.A.A.A.A.A.A.A.A.A.A.A.A.A.R.F.P.zXCXVXHXVX9XkXP.N.F.G.I.XX8XCXFXAXVXVXNXpX7X=X=X:X;X>X>X>X$X%X;X:X:X:X:XeXwX=X=XrXuXuXuXrX=X%X%X%X;X;X>X;Xh.h.j.j.j.j.j.t.s.f.>X;X;XeX:XeXuX7X7XrXtXtXtXiXiX-X%Xp.u.h.i.i.f.d.d.h.h.i.q.i.$Xd.#X*X7X[.yXvXvXmXyX6X*Xd.$Xg.s.u.d.$Xd.u.t.t.y.t.i.d.f.g.g.s.t.y.t.u.$X#Xf.f.f.f.$X$Xf.i.i.j.y.y.y.y.~ Q ~ ^ W o.o.<XkXBXBX8X2XjXlXlXgXfXlX,Xz.$.z.$.#.[ [ [ [ [ [ [ $.D.L.N.K.(.,X2X2X1XkXbXbXnXnXPXnXnXnXnXnXnXnXnXnXnXnXVXkX1X1X1X4X,X,XK.(.%.,X@.4 3 k 1 u 3 3 3 3 1 1 1 k k 0 j 2 2 2 2 1 1 3 3 6 w w w w w w w w w 6 3 3 3 3 3 3 3 3 3 w w w w 3 3 2 % % 2 9 9 1 1 1 1 y & % $ $ $ $ $ $ $ $ $ $ $ $ $ $ $ $ % $ $ $ $ $ $ $ $ $ $ $ $ $ $ $ $ $ @ @ @ @ @ $ k o.%.C.N.6.B.W.B.C.C.B.D.D.N.n.n.1.n.1.<.3.3.<.<.3.1.1.1.",
"D.D.D.B.B.B.B.B.C.B.N.B.B.B.B.N.B.B.B.B.N.B.B.N.D.D.D.A.A.D.S.D.A.A.A.A.S.S.S.S.S.S.S.S.S.S.S.A.L.A.A.A.A.A.A.A.A.A.A.A.A.A.A.A.A.R.R.8XgXDXDX&.].c.K.A.A.I.A.XX<X9XNXNXNXNXiX7XrX7X=X:X>X>X>X>X$X%X$X$X;X>X>X:XwXrXrXuXaXuXuXuXuXuXeX:X;Xh.;Xh.h.j.j.j.j.j.t.j.h.h.;X;X:X%X:XuXrX7XrXtXtXtXtXiX*X-Xf.u.h.s.i.h.f.g.f.h.s.t.r.r.d.#X*X*XrX}.AXnXmXyXyX6X6X#Xd.f.f.u.d.%Xd.u.t.y.y.t.i.f.f.d.s.t.t.y.j.s.p.$Xf.f.f.f.f.$Xf.a.t.t.y.y.y.y.~ ~ ~ ^ ^ W U *. X8XBXDXjX XfXBXhXlX1Xc.z.L.K.$.{ { [ { { [ { $.$.$.L.(.(.(.,X1XfXgXlXbXbXnXnXPXnXnXnXnXnXnXnXnXnXnXnXnXBXjX8X1X,XP.R.(.%.I.2Xu 4 3 k 1 3 z 3 3 3 2 3 0 1 1 0 0 0 9 1 1 1 1 3 3 3 3 3 w w w w w w w w w w w 3 3 3 3 3 3 6 6 3 3 0 0 1 % % % % 4 2 2 2 2 % % % % % % % $ $ $ $ $ $ $ $ $ $ $ $ $ % % % % $ $ $ $ $ $ $ $ $ $ $ $ $ @ @ @ @ # 2 u b b _ ( <.W.C.B.C.C.B.D.B.B.B.1.1.n.1.<.3.3.<.<.<.3.1.1.",
"D.B.B.B.B.B.B.D.C.B.N.B.B.B.B.N.N.N.B.B.B.C.C.D.D.D.A.A.A.D.S.D.A.A.A.D.S.S.S.S.S.S.S.S.S.S.S.A.A.A.A.A.A.A.A.A.A.A.A.A.A.A.A.A.U.R.,X2XBXBX{.2XR.K.L.I.A.A.U.T.F. XtXvXNXNXMXiXiXuXuX:X:X:X:X:X:X:X:X:X$X%X:XeXuXrXtXpXpXiXtXiXiXuX:X$X;X:Xh.s.j.j.j.j.j.t.j.h.h.>X;X;X;X:XeX=X=XrXtXtXtXiXiXrX=X=Xf.f.h.i.u.f.f.f.f.s.i.y.y.-.s.d.&XtX6X}.GXZXmX6XyX6X7X6Xd.f.f.u.f.$Xd.s.t.y.y.t.i.s.f.s.s.t.t.t.s.f.u.f.s.i.f.f.f.f.#Xp.t.t.t.t.y.y.y.~ ^ ^ ^ W W W *. XhXbXBXfXv.kXBXhXhX1X1XR.b.$.$.{ $.$.$.$.$.$.z.z.K.,X,X,X,XjXfXgXlXbXbXnXnXnXnXnXnXnXnXnXnXnXnXnXnXnXbXhXfX,X(.L.(.K.@.4XB o 3 3 3 3 z 3 3 3 0 3 3 3 0 0 0 0 0 0 0 0 0 3 3 3 3 3 3 0 w w 6 6 6 w w w w e w w w w w w 6 6 6 3 o 2 2 % % % % % 2 4 4 2 % $ * * $ $ $ $ $ $ $ $ $ $ $ $ $ $ $ $ $ % $ $ & $ $ $ $ $ $ $ $ $ $ $ $ $ @ @ @ @ y n u n P #.B.C.C.C.B.B.B.D.B.B.B.,.1.n.1.,.3.3.<.<.<.<.3.1.",
"D.B.N.N.B.B.B.B.C.B.B.B.D.B.B.N.N.N.N.N.B.D.D.B.D.D.A.A.A.D.S.A.A.D.D.D.D.D.S.S.S.S.S.S.S.S.S.S.A.A.A.A.A.A.A.A.A.A.A.A.A.A.A.A.C.R. XkXBX9X<XP.G.U.A.G.I.I.L.OX5XzXNXVXvXNXpXpXiXuXuXuX:X:X;X;X:X;Xf.d.$X:XeXeX7XpXNXpXpXpXpXtXiXuX:X:XeX;Xh.s.j.h.h.j.j.j.j.s.h.h.f.f.;X:X%X=X=XrXiXiXiXpXiX7X=X=X$Xf.f.i.f.;Xf.f.s.i.t.t.-.y.t.f.-XtX[.yXHXPXmXyX&X*X7X*X#Xf.f.u.d.%Xd.g.i.t.y.t.i.s.f.s.s.t.t.t.s.f.u.u.s.r.i.s.s.f.#Xp.i.t.t.t.t.y.y.-.~ ^ ^ ^ ^ T o.*.{.hXbXgXjX XfXBXkX1XP.z.b.$.$.$.$.$.$.b.z.z.K.z.K.(.,X1X4X1XfXhXgXcXbXnXnXnXnXnXnXnXnXnXnXnXnXnXnXnXbXgX,XR.K.(.(.] <X*.2 2 1 2 1 3 k z 3 3 3 0 0 0 3 0 w w w w z x w 3 3 3 3 3 0 0 w w 6 6 6 6 w w w w w r r r r e e w w 0 1 2 % * % % % % 2 2 2 2 2 % % % $ $ $ $ $ $ $ $ $ $ $ $ $ $ $ $ $ $ $ $ & $ $ $ $ $ $ $ $ $ $ $ $ $ @ @ @ $ 2 1 1 B %.C.B.C.C.6.B.B.B.B.B.n.n.n.1.n.1.,.3.3.<.<.<.<.<.3.",
"D.B.n.B.B.B.B.D.B.B.B.B.B.b.B.1.B.b.b.n.B.B.B.B.B.D.D.D.D.D.D.D.D.D.D.D.D.D.D.S.W.U.S.S.S.S.D.A.A.A.C.A.C.C.A.C.A.A.A.A.A.A.A.A.A.I.P.kXCXlXF.I.G.L.S.S.A.I.R.XX<X8XqXcXNXNXpXuXaXuX:X%X%X%X%Xh.f.f.f.;XeXeX:X=XaXpXpXpXpXpXiXrXiXrXiXuX=X:X;Xf.h.s.t.j.j.j.i.h.;Xh.f.f.;X;X:XwXrXrXiXaXrXrXrXrXuX=X$Xf.f.:X:X%Xf.i.h.i.s.y.y.y.i.d.#XtX[.vXVXbXcX6Xw.%X=X*X$Xf.f.d.d.%X%X#X$Xu.i.t.s.s.f.f.i.t.t.t.s.f.%Xw.u.t.t.j.i.i.$Xp.i.t.t.t.y.t.t.y.~ ~ ~ ~ ~ Q W W *.9XbXhXkX8Xv. XP.b.b.b.b.b.$.$.$.$.M.b.K.K.K.P.(.(.,X,X1X1XfXkXBXBXbXbXmXnXnXnXnXnXnXnXnXVXgXBXnXmXFXxX(.K.).,X[ P. X+ 2 2 u u u 2 2 0 0 3 2 2 1 0 w w w e v e e e v x e w w 0 3 3 6 w 0 6 6 6 w w w w w e e r r r r e w 3 3 3 1 2 % $ $ * % % 2 2 2 2 2 % * * * $ $ $ $ $ % % % % $ $ $ $ $ $ $ $ $ $ $ $ $ $ $ $ $ $ $ $ $ $ $ $ @ $ , < _ %.<.<.B.B.C.B.C.C.B.B.B.1.1.1.1.1.1.1.n.<.<.1.<.<.<.<.",
"D.B.n.B.B.B.B.D.B.B.B.B.B.n.b.1.B.b.b.n.B.B.B.B.B.D.D.D.D.D.D.D.D.D.D.D.D.D.D.D.U.S.S.S.S.S.D.D.C.A.A.A.C.C.C.C.A.A.A.A.A.A.A.A.L.I.P.JXFXc.I.A.G.G.S.S.A.A.R.XXXXqXqXMXCXNXrXuXuX:X;X%X;Xh.;X>X;X;X;XeXeX:XuXaXiXiXpXpXtXtXiXiXpXpXpXrXiXuX;X;Xh.s.j.t.y.t.j.h.j.i.i.f.f.;X:XeXwX=X:X=XuXrXrXuX=X%X$X>X:X:X%Xf.s.h.i.i.h.y.-.y.t.g.#XrX}.vXVXcXiXe.p.$X=X-Xd.p.f.s.d.-X=X#X=Xd.s.s.s.s.f.i.s.t.t.t.s.f.=Xp.u.t.y.j.i.i.f.a.i.i.t.t.y.t.t.t.9.~ ~ ~ ~ y.-.Q E *.qXBX9XlXkXc.K.L.K.b.b.b.b.b.b.b.$.$.b.L.(.(.(.(.,X,X2X2X1X1X8X8XhXhXbXbXnXnXnXnXnXVXBX9X9XgXnXbXlXP.K.L.dXz.z.jXn X 2 y y u u 1 1 2 2 1 1 2 2 2 3 0 w w x L L e e e e e e w w 6 w 6 3 0 0 6 w w w w w w e r v L L R e w w 3 2 2 % $ @ @ * * * % % % % 2 % % * $ % % % % & & & & $ $ $ $ $ $ $ $ $ $ $ $ $ $ $ $ $ $ $ $ $ $ $ $ @ * k k ( _ o.<.6.B.B.B.C.C.B.B.B.1.1.1.1.1.1.1.1.,.<.<.<.<.3.<.",
"D.B.B.B.B.B.D.D.B.B.B.B.B.B.1.1.B.n.b.n.B.B.B.B.B.D.D.D.D.D.D.D.D.D.D.D.D.D.D.D.S.S.S.D.S.S.S.S.C.C.A.A.C.C.C.C.C.D.C.D.D.D.D.D.L.I.c.4XF.F.G.S.A.L.A.S.A.A.I.T.XX0XqXMXiX7XrXuX:X:X;X;Xh.h.>X>X>X;X;X:X%X:XuXuXiXpXrXrXtXtXpXvXNXNXNXNXpXeXeX;Xh.h.t.y.y.y.y.-.y.y.t.s.>X%X=X:X;Xh.$X:XuXuXuXuX7X=X=X:X:X:X%Xh.s.h.i.i.i.y.-.y.t.d.d.7X}.vXvXrXp.+.d.d.$X#Xd.i.s.s.#X-X=X#X=X-Xd.g.g.d.f.s.s.t.y.t.s.$X-X-Xu.t.y.t.t.t.a.a.a.i.t.t.y.y.t.t.y.~ ~ ~ ~ y.t.f.q.R *.qXDXhXgXkXc.P.K.K.b.N.N.N.D.D.b.z.b.D.L.(.(.(.,X,X,X2X<X1X1X8X8XfXgXbXnXGXnXnXDXgX8X1X8XbXPXbX,XK.K.5X(.%.dX@.+ % y y y k u 2 1 2 2 2 1 1 2 2 2 2 0 w w r L L L r e e r e e w w 6 6 6 6 6 6 w w w w w w w w w r L L e 2 1 1 2 % $ @ @ * $ % % % % 2 2 2 2 % % $ $ $ $ $ $ $ $ $ $ $ $ $ $ $ $ $ $ $ $ $ $ $ $ $ $ $ $ $ $ $ $ $ $ k l 2 u b X.<.5.5.5.5.B.N.B.B.5.1.1.1.1.1.1.,.,.,.<.<.<.<.<.",
"D.B.B.B.B.B.D.D.B.B.B.B.B.B.1.n.B.n.n.n.B.B.B.B.B.D.D.D.D.D.D.D.D.D.D.D.D.D.D.D.D.D.D.D.S.S.S.S.C.C.C.C.C.C.C.C.D.D.C.C.C.C.D.D.A.I.c.%.K.L.U.U.L.L.A.A.C.A.I.T. X<XqXqX7XiXuXuX:X:X;X;Xh.h.h.h.>X;X;X;X:XeXeXuXuXrXrXtXpXvXvXvXNXVXNXNXiXuXeX;Xh.j.j.t.t.y.-.0.0.0.j.j.h.%X$Xf.i.h.:X:XuXuXuXuXiXiXuXrX=X$X;Xh.s.s.s.i.s.y.-.y.t.u.p.*X&XtXtX*Xr.y.i.d.d.d.s.i.i.s.-X-X%X%XrXrX#X$Xd.g.g.h.i.j.y.t.s.$X*X=Xu.t.y.y.t.t.i.a.a.i.i.t.t.y.t.j.y.y.9.~ ~ ~ r.r.:X$XO.X.9XFX9XgXlX X).K.K.K.K.K.K.L.K.b.b.M.b.L.(.,X,X,X1X1X1X4X1XxX1XfXfXgXhXDXPXnXhXfX0X4XfXlXBX2XK.K.(.4X%.(.P.y y y y 1 y k y 2 1 2 1 0 1 0 9 2 1 1 3 2 0 w v v L L L D e e e e e w w 6 6 6 w w w w e e e r v v r e e L w 1 4 o % $ $ * * $ % % 2 2 2 2 1 2 2 * % $ $ $ $ $ $ $ $ $ $ $ $ $ $ $ $ $ $ $ $ $ $ $ @ @ @ @ $ $ $ $ $ $ $ $ @ % z o.<.5.5.6.5.5.N.N.B.5.1.1.1.1.1.1.,.1.1.<.<.<.<.<.",
"D.B.b.b.B.B.D.D.B.B.B.B.1.1.1.1.n.B.n.B.B.B.n.n.D.B.D.D.D.D.D.D.D.D.D.D.D.S.S.S.D.D.S.S.S.S.D.D.C.C.C.C.C.C.C.C.D.D.D.D.C.C.C.A.A.G.U.L.U.S.S.S.A.A.A.A.N.G.P. X<X9XMXNXNXpXiXuXuXuX:X;X;X>Xh.>Xh.h.;X;X;XeXeX=XrXrXiXNXNXNXNXNXNXNXNXtXiXuXeX;Xh.h.s.j.t.t.y.;.~ ~ -.y.s.i.i.s.h.;XeXuXuXeXaXuXaXpXrXuXeX%Xf.f.s.s.h.s.j.y.-.y.t.r.r.$X#X-X*Xp.r.y.t.i.i.u.u.i.t.i.#X=X%X%X*XrX#X%Xd.d.g.s.h.s.t.t.i.%X*X-Xi.y.t.y.y.y.t.i.i.u.i.u.u.t.t.t.y.y.y.9.~ ~ -.t.q.:X:X*.X.qXCXhXgXgX2X).K.K.R.K.K.K.L.L.L.b.K.L.K.).(.,X,X,X,X,X,X1X1XfXfXfXfXlXFXhXfX4X1X1X4X1X2X).K._.4XK.%.4Xf 2 % % & 2 1 2 2 2 1 2 2 2 3 3 0 0 3 3 0 0 0 3 3 e L L L L L D e e w w w w 6 6 6 6 6 w e e v v v L R L v r v x w 4 o * * * * * $ % % % 2 2 2 2 2 2 % % % % % % % % % % % % $ $ $ $ $ $ $ $ $ $ $ $ $ $ @ @ @ @ $ $ @ X X X 2 u X.#.<.<.<.B.B.B.B.5.B.5.1.1.1.1.1.<.1.1.3.,.,.<.<.<.",
"D.B.b.b.B.B.B.D.B.B.B.B.1.1.1.1.b.b.n.b.B.B.B.B.D.B.D.D.D.D.D.D.D.D.D.D.D.D.S.D.D.D.D.D.D.D.D.D.D.C.C.C.C.C.C.C.D.D.D.D.C.C.A.A.A.A.D.S.S.S.S.S.A.A.A.A.U..X5XzXMXCXVXcX6XtXuXuXuX:X;Xf.f.f.f.h.s.s.h.h.;X;X:XeXuXpXNXNXNXNXNXNXNXNXtXtXrX=X$Xd.f.h.h.t.j.y.y.;.;.~ ~ t.i.i.s.s.;X%XuXuXwXeX=XuXiXpXiXrX:Xf.g.h.s.h.h.i.j.y.-.-.y.r.-.i.q.p.f.u.y.y.y.t.t.t.u.s.i.u.#X7X%X$X-XrX-X%X$Xf.f.g.f.s.t.t.i.f.=X-Xi.y.t.y.y.y.t.i.u.u.u.i.i.u.t.t.t.y.y.y.~ ~ ~ -.r.p.=Xw.oX&.9XCXmXhXfX,X,X(.(.(.R.R.K.L.R.L.L.R.(.).K.P.,X5X1X2X,X1X1X1X1XfXfXfXfX1X1X1X,X1X,X,XR.K.K.,X4X%.5XX., y & & & & 2 2 2 2 1 1 2 2 2 3 9 9 w w w 0 0 0 0 3 w e v L L D D e e w w w w w w 6 6 6 w e r L L e D R R L v e e z 0 1 $ @ @ $ $ $ % % 2 2 2 2 2 2 2 % % % % % % % % % % % $ $ $ % $ $ $ $ $ $ $ $ $ $ $ $ @ @ @ $ $ @ @ @ y b X.o.#.C.5.<.B.B.B.5.B.6.1.1.1.1.<.<.1.1.3.,.,.,.<.<.",
"D.B.b.b.b.n.B.B.n.n.n.n.b.1.b.b.b.b.b.b.B.B.B.B.D.B.D.D.D.D.D.D.D.D.D.D.B.D.D.D.D.D.D.D.D.D.D.D.D.C.D.D.C.C.C.C.D.D.D.D.C.C.C.C.D.D.D.D.D.D.A.A.C.C.D.D.U.U.Y.XX X X].9XtXiXiX=X:X;Xh.h.s.s.i.s.s.f.h.;X:X:XuXuXNXNXNXNXNXNXvXNXpXrXrXiXuX=X%X;X;Xh.j.j.0.0.;.~ ~ ~ -.i.i.s.h.f.$X=XuX7XeX%X7XpXpXuXrX:Xf.f.f.h.h.h.h.i.i.y.-.-.y.y.-.t.+.r.t.r.y.y.y.y.t.t.i.s.i.u.d.=X%X#X-X=X%X%Xf.f.f.f.;Xg.s.t.i.f.=X=Xf.y.y.t.y.y.t.t.u.a.u.i.i.i.t.t.t.y.y.y.~ ~ ~ W -.+.:Xw.+.-X*.9XVXbXgX1X<X5X5XR.).(.(.R.(.(.).P.(.(.,X(.(.5X1X1X1X1X1X1X1X1XxX1X1X,X1X,X,X,X,X(.L.K.).dXz.3XP.2 1 1 & & & & % 2 2 2 % 1 1 1 2 1 0 0 3 e v v v e w w w w w v v v L v e e w w e e e e w w w w w e r L D r e e e e 0 3 2 2 % $ @ @ * * $ % % % 2 2 2 2 % & & % % % % % $ $ $ $ $ $ $ $ $ $ $ $ $ $ $ $ $ $ $ $ $ $ $ $ $ $ $ $ 2 2 1 B %.#.#.<.B.B.B.5.B.6.1.1.1.,.<.<.1.1.1.,.<.,.<.<.",
"D.B.b.n.b.b.B.B.n.n.n.n.b.b.b.b.n.n.b.b.B.B.B.B.B.B.D.D.B.B.B.B.D.D.D.D.B.D.D.D.D.D.D.D.D.D.D.D.D.D.D.D.D.D.D.C.D.D.D.D.C.C.C.C.D.D.D.D.D.D.A.A.C.D.D.D.D.D.N.N. XqXqXiXiXrX7X=X:X>Xh.h.h.h.h.h.;X;X;X:XuXuXiXNXVXVXNXNXNXNXNXpXrXuXuXeX;X;Xh.s.i.j.0.~ ~ ~ ~ ~ ~ -.i.h.h.h.h.>X:X:X=X%X$X:XiXpXiXuXeX$Xh.h.f.f.h.s.s.i.i.y.-.-.-.y.-.y.Q y.y.-.t.r.y.y.t.t.i.g.s.u.p.%X$Xd.d.%X$X$Xf.f.g.g.%Xg.s.j.t.s.=X=Xf.i.y.y.y.y.y.y.u.i.u.i.d.d.u.u.i.t.~ 0.y.~ ~ ^ W Q +.>X+.X.a.*.9XbXBX8XjX%.%.(.P.P.(.P.P.).1XjX1XP.,X(.5XdXgXlXgXfX1X4X1X1X1X,X,X,X1X,X,X,X(.).K.z.dXc.c.dXk 2 1 2 & & & 2 1 2 2 1 1 2 2 3 1 0 0 0 w w e x U L L v x e w w e r e r e e e 6 w w e w e e e e w w w w e r e w w w 0 3 2 2 % $ $ * * * * * % % % % % % % % % % $ $ $ $ $ $ $ $ % % % % $ $ $ $ $ $ $ $ $ $ $ $ $ $ $ $ $ * * $ $ & y n b ( %.5.C.B.5.B.B.6.1.1.,.,.<.<.1.1.1.<.<.<.<.<.",
"n.,.<.1.1.<.B.n.n.n.n.n.n.n.n.n.n.n.n.n.n.n.n.n.B.B.n.n.B.B.B.B.D.D.D.D.B.B.D.D.D.D.D.D.B.B.B.B.D.D.D.D.D.D.D.D.B.B.B.B.B.B.B.D.D.D.D.D.D.D.D.D.B.B.B.B.C.C.J.OX<XqX-X-X-X:XeXeX;X;X;X;Xf.h.;XeX:X:XeXuXiXpXNXNXNXNXNXNXpXiXtXrXeXeXh.s.t.y.y.y.0.~ ~ ~ ~ ~ y.-.-.s.h.s.i.i.h.h.h.>Xh.s.h.;X:XuX:X:X;Xf.h.s.s.s.h.s.i.t.i.y.-.-.-.-.~ -.Q -.y.y.y.y.9.y.y.t.i.s.s.u.u.f.f.f.d.$Xf.f.f.s.f.f.:X%Xg.s.s.u.=X-X%Xa.t.y.y.y.y.y.r.u.u.d.d.p.f.p.p.i.-.~ 0.~ ^ ~ W W W ;.i.! W +.&.MXbXgX8X<Xf %.T.T.(.(.P.,XBXBXlX1XR.P.2XgXnXnXDXbX8X4X1X<X<X,X,X,X,X,X,X(.(.K.z.1X4X%.jX@.+ y j 2 1 2 2 1 1 1 1 3 3 3 2 4 0 0 0 w r e e e e D R R U L D D L L r e e e e e e e e e x w w w w w w w w w w w 6 3 3 3 2 1 1 2 2 % % % % % % % % % % % % % $ $ $ * @ @ $ $ & % % % % % $ $ $ $ $ $ $ $ $ $ $ @ @ @ @ @ @ @ @ $ @ & & , s #.6.6.6.1.5.B.6.b.b.b.1.1.1.1.<.<.<.<.<.<.<.<.",
"n.,.<.,.,.,.n.n.n.n.n.n.n.n.n.n.n.n.n.n.n.n.n.n.B.B.n.n.B.B.B.B.D.D.D.D.B.B.D.D.D.D.D.D.B.B.B.B.D.D.D.D.D.D.D.D.B.B.B.B.B.B.B.B.D.D.D.D.B.B.B.B.B.B.N.N.B.C.J.XXoXoXp.%X:X=X=X:X:X:X;X;Xf.;X:X=X:XeXuXiXpXpXNXNXpXpXpXpXuXrXrX=Xg.s.j.t.0.0.0.0.9.~ ~ 0.y.y.y.i.h.h.i.s.s.h.i.i.j.j.y.y.i.h.h.;X>Xf.s.t.h.j.j.i.s.i.i.t.i.y.~ -.-.-.~ -.~ y.y.y.y.y.9.y.y.t.i.u.f.u.r.f.f.d.u.f.f.g.s.s.f.f.=X%Xg.s.s.u.%X-X=Xd.i.t.t.t.t.y.r.r.p.$X$X#X#X#X#X$Xy.~ ~ ~ ^ ^ ^ W W Q -.-.W W v ].BXbXfXjXP.s <.T.).).R.,XDXmXcXBXzX<X9XVXnXnXnXVXkX1X1X<X,X,X,X,X,X,X(.(.(.z.P.zX%.1X{.X y 1 1 k 0 1 1 1 1 1 3 3 3 3 3 3 3 3 3 3 3 w r v e e e L L U ! L L D D L L D D D e e e e e e w w 6 w w w 6 6 6 3 6 3 3 3 2 2 2 % % % % % 2 2 2 2 2 2 2 2 % 2 % $ $ $ @ @ @ $ $ & & % % % $ $ $ $ $ $ $ $ $ $ $ @ @ @ @ @ @ $ $ $ * X & n *.*.%.#.<.6.5.N.N.b.b.b.1.1.1.1.<.<.<.<.<.<.<.<.",
"B.,.<.1.,.1.1.n.n.n.n.n.n.n.n.n.n.n.n.n.n.n.n.n.B.B.n.n.B.B.B.B.D.D.D.D.B.B.D.D.D.D.D.D.B.B.B.B.D.D.D.D.D.D.D.D.D.D.B.B.B.B.B.B.D.D.D.D.B.B.B.B.B.V.B.B.B.5.6.6.6.a.f.$X=X=XuXuX:X:X;X;X;X;X;X:X:XeXuXuXuXuXiXiXiXiXiXaXuXeX=X%Xh.s.j.0.0.0.y.y.y.y.t.y.i.h.;X;X;Xf.s.i.t.t.j.j.j.0.y.t.t.j.i.h.f.>Xi.s.j.j.j.t.j.j.t.t.t.y.-.-.-.-.~ -.y.y.y.y.y.y.y.y.t.u.u.u.d.u.r.i.f.p.u.f.f.f.s.s.f.f.=X%Xg.g.g.d.$X$X=X%Xi.i.t.t.i.t.r.r.d.=X-X-X-X&X&X-Xi.Q ~ ~ ~ ~ ~ ^ ~ Q ~ ~ ~ Q X.C hXbXbX8XzX%.g Y.(.).(.,XBXmXhXbXVXbXnXnXnXnXnXVXkX4X,X5X,X,X,X(.,X(.(.(.K.K.zXv.x.lXy & 2 % 2 1 0 3 3 1 3 1 1 3 3 3 3 3 3 3 0 3 w 6 6 6 e v e w 7 D L L e r e e e D D D D D e e e e e e e w 6 3 w 6 3 3 3 3 3 3 2 2 2 2 % % % % 2 2 2 2 2 2 2 2 2 1 2 & $ @ @ @ # @ $ $ & & $ $ $ $ $ $ $ $ $ $ $ $ $ $ @ @ X @ @ @ * + + k B X._ ( o.#.<.1.5.1.N.n.b.b.1.1.1.1.<.<.<.<.<.<.<.<.",
"B.,.<.1.<.n.1.B.n.n.n.n.n.n.n.n.n.n.n.n.n.n.n.n.n.n.n.n.B.B.B.B.D.D.D.D.B.B.D.D.D.D.D.D.B.B.B.B.B.D.D.D.D.D.D.D.D.D.B.B.B.B.B.B.B.B.B.B.B.B.B.D.B.V.B.B.5.V.5.6.oX>X:XuXaXpXaX7X:X:X;X;X;X;X:X:X:X:X:X:X:X:X:X=X7XuXuX=XuXeX:X;Xh.h.s.j.t.t.j.s.s.h.h.;XeXeXeX:X;Xh.h.i.t.j.t.y.y.y.0.j.t.j.i.h.;Xf.h.s.t.t.t.j.y.t.t.y.j.y.-.-.-.-.~ -.-.y.y.y.r.t.y.y.u.u.u.s.d.u.r.u.d.p.u.f.f.f.s.i.f.f.:X%Xg.g.g.d.$X$X#X=X$Xd.i.i.f.a.r.r.#XrX7X*X6X6X*X&X$X+.~ ~ ~ ~ -.-.~ -.~ -.-.Q ;.oXx.BXbXBXfX1X_ @.(.(.(.).hXHXnXVXnXnXnXnXnXnXHXbXjX2X2X1X1X,X,X,X,X(.(.L.(.dX).@.lXZ X - y 2 1 3 3 3 3 3 3 1 1 1 3 3 3 3 3 3 3 w w w w 6 3 6 w e e e 6 e e e e e e e e e e e e e e e e e e w w w 3 3 3 3 4 2 2 2 2 % % % % % % % 2 2 2 2 2 2 2 2 2 % % % $ $ @ @ @ @ @ @ & $ $ $ $ $ $ $ $ $ $ $ $ $ $ $ $ $ @ $ $ $ + % y u u u b X.%.#.<.<.<.6.B.n.b.b.1.1.1.1.<.<.<.<.<.<.<.<.",
"n.1.<.<.<.,.1.b.n.,.,.,.,.n.,.n.n.b.b.n.n.n.n.n.n.n.n.n.n.B.B.B.D.D.D.D.n.B.D.D.D.D.D.D.D.D.B.B.B.B.D.D.D.D.D.D.D.B.B.B.B.B.N.N.B.B.B.B.B.D.D.D.D.B.B.D.6.6.6.oX7XiXpXpXpXiXuXuX:X;X;X;X:X:X:X:X:X=X=X%X%X%X:X%X%X=X:X:XeXuXuXeXeXg.g.h.;X;XeX%X%X:XeXeXuXuXrXeX;Xh.f.i.i.h.h.j.t.t.t.j.j.j.h.h.;X;Xh.h.i.t.t.t.t.y.t.y.t.y.~ ~ -.-.y.y.y.-.y.r.r.t.t.r.d.$Xd.s.u.u.u.u.d.d.s.i.f.d.i.s.f.f.:X%Xf.d.%X%X$X$X-X7X7X*X$Xu.=X#Xu.u.-XrXtXtXtX6X6X&X#Xr.Q ^ ~ ;.a.+.-.~ -.-.-.-.+.+.X.2XbXhXbX8X2XB P.1X1X2X{.HXHXnXnXnXnXnXPXnXnXbX2X2X8X8X1X,X,X(.,X).K.,X4X,X] ).{.. & & 2 2 1 0 w w z z 3 3 3 1 1 2 3 3 3 3 3 6 6 6 6 w w 6 3 3 6 e x e e e e e 7 7 e 7 6 6 7 e e e 6 4 6 w w w 3 3 3 2 2 2 2 2 2 % % % % % * * * % % % % % % % 2 % % % $ $ $ $ $ @ @ @ @ @ @ @ @ $ $ $ $ $ $ $ $ $ $ $ $ $ $ $ $ $ $ $ * * * 2 u b ( ` #.5.B.B.B.n.n.n.1.,.n.1.<.<.<.<.<.<.<.<.",
"1.B.<.<.<.<.1.1.,.,.,.n.,.,.<.,.n.b.M.b.n.n.n.n.n.n.n.n.n.n.B.B.D.D.D.D.B.B.D.D.D.D.D.D.D.D.D.B.B.D.D.D.D.D.D.D.B.B.B.B.B.B.N.N.B.B.B.B.B.B.B.D.B.D.D.B.Z.J.@XqXiXNXNXpXiXrXuXeX;X;Xh.;X;X;X:X:XrX=X:X:XeX:X$X$X$X;X:XeXuXuXuXuXeXwXeXuXuXuXuXwXeXeXuXuXuXuXeXeX;Xh.;X;X;X;X>Xh.h.h.s.h.s.h.;X;X;X;X;X>Xh.h.t.j.t.t.j.y.y.y.~ ~ ~ y.y.y.y.r.r.r.i.i.i.u.#X#Xd.d.u.i.t.u.d.d.f.u.d.f.u.s.s.f.:X%Xf.g.-X=X$X$X*XrXyXtX-Xw.-X=Xu.p.*XrXtXtXtX6XyX6X[.p.Q W ~ ;.$Xr.-.~ y.y.y.-.;.;.+.O.9XbXhXgXfXc.@.jXgXbXbXnXnXnXnXnXnXnXnXnXnXnXBXFXVXBXfX,X,X,X(.P.).5X4Xz.@.jXl   - % % 2 3 0 w w w 3 z w 3 3 2 2 1 3 3 3 3 3 3 6 6 6 6 6 6 6 6 6 6 6 w w 7 7 6 6 6 6 6 6 6 6 6 6 6 3 4 4 4 3 3 3 3 2 2 2 2 2 % % % % % $ * * * * * % & & & % % % % $ & $ $ $ $ $ $ @ @ @ @ @ @ $ $ $ $ $ $ $ $ $ $ $ $ $ $ $ $ $ $ $ $ & $ y u < s _ #.<.2.1.B.B.n.n.1.,.n.1.<.<.<.<.<.<.<.<.",
"1.B.<.<.<.<.,.1.,.,.,.n.,.n.,.1.,.,.b.n.n.n.n.n.b.n.n.n.n.n.n.B.D.D.B.D.B.B.D.D.D.D.D.D.D.D.B.B.B.B.D.D.D.D.D.D.B.B.B.B.B.B.N.N.B.B.B.B.B.B.B.B.B.N.N.N.A.J.@XqXaXNXpXpXiXiXuXeX;X;Xh.;X;X:XuXaXiXaXaXuX:X$Xf.$X%X:X:XeXuXuXuXrXuXuXuXuXuXuXuXuXuXuXeXeXeXeX;X;Xh.;XeX:XeXeXeXeX:X;X;X;X;X:X:X:X:X:X:X;X;Xs.s.t.y.j.j.t.y.9.~ ~ 9.9.y.y.t.r.r.r.i.f.i.u.-X#Xf.f.u.i.u.u.p.d.f.u.u.f.i.i.i.f.:X=X$X$X=XwX%X=X=XrXmXvXrX[.#XuXd.f.*XrXtXtXtX6X6XtX[.w.+.W ;.+.p.$Xr.t.y.y.y.~ a.f.a.O.&.MXbXhX8X1Xv.gXbXmXnXnXGXDXnXnXnXnXnXnXnXnXnXnXnXbXhX1X1X(.L.K.4X4X(.@.).x.O - & % % 9 3 6 w w z w w w w w w 0 3 3 3 3 3 3 3 3 3 3 w 3 3 3 3 3 3 3 3 3 3 3 6 6 6 6 6 6 6 3 3 3 3 3 3 4 4 4 4 2 4 2 2 2 % % % % % % $ $ * * % % % % % % % % 2 2 % & $ @ @ @ $ $ $ $ @ @ @ @ $ $ $ $ $ $ $ $ $ $ $ $ $ $ $ $ @ @ $ $ $ % % o 2 u f _ %.<.<.1.1.1.1.1.1.,.n.,.<.<.<.<.<.<.<.<.",
"n.1.<.<.<.<.<.,.b.,.<.,.<.,.<.,.b.,.,.M.b.b.b.b.b.b.n.n.n.n.n.n.B.B.B.B.n.n.B.B.B.B.B.B.B.B.B.B.b.B.B.B.D.D.D.D.B.B.B.B.B.B.N.n.B.B.B.B.B.B.B.B.N.N.N.N.6.6.6.oX=XiXtXpXiXpXuXeX:X;X;X;X>X%X=X=X7X7X=X%X$X$X$X;X%X:X:X=X=XwXrXrXrXuXuXuXeXuXuXuXuXuXeXeX;X;Xh.h.h.;X:XeXeXwXwXwX=X:X:X:X:X:X:XuXeX:X:X:X;Xf.s.s.t.s.h.t.y.9.~ 9.y.y.y.y.i.i.u.f.f.f.s.u.=X&X#Xd.u.u.p.p.p.d.f.u.p.f.u.i.i.d.eX=X%X%X=XwX=X=XwXrXmXvXtX*X&XuXf.$X*XrXtXtXtX7X[.tX6X].W ! W ;.+.;Xu.f.u.r.y.y.f.#Xf.r.O.*.gXBXlXfXfXhXbXnXnXnXnXnXnXnXnXnXnXnXnXnXnXmXnXnXhX1X1X).K.(.dX1Xz.%.{.= # : - % 2 9 3 3 w c v v v e e e r v e 6 3 3 3 3 3 3 3 3 3 3 3 3 2 2 3 3 3 3 3 3 3 3 3 3 3 3 3 3 3 3 2 2 2 2 2 2 4 4 2 2 % % % % % % % % $ * $ $ % % % % % % % % 2 & % % % $ @ @ @ $ $ $ @ @ @ @ $ $ $ $ $ $ $ $ $ $ $ $ $ $ $ $ @ @ $ $ $ % $ j k n X.%.<.<.,.2.1.1.1.n.1.,.n.,.<.<.<.<.<.<.<.<.",
"B.n.<.<.,.,.<.<.,.,.,.,.,.,.,.,.,.,.,.,.n.n.n.n.,.n.n.n.n.n.n.B.B.n.B.D.n.D.D.D.B.B.B.B.n.n.B.B.B.B.B.B.B.D.B.B.B.B.B.B.B.B.n.b.n.n.n.n.D.b.n.n.N.N.B.B.B.C.XXoX-XiXNXNXNXpXuXuX:X:X:X;X:X:X:X:X:X:X%X$X>X$X$Xf.$X>X%X;X:XwXeXwXeXeXeXeXuXrXuXaXuXuXwXeXg.g.h.h.;X:XeXeXuXuXuXuXuXrXuXuXuXuXuXuXeXeXeXeX:X;X;Xf.f.;Xh.i.t.y.y.y.t.t.t.t.t.i.$X%X=X$Xd.d.rX*X-Xd.d.p.p.-X#X#Xf.u.p.$Xf.i.u.s.:X=X=X=X=XrXwX=XwXrXyXnXvX6X&X=X=X-X*X6XtXMX6X6X#X&XtX&X+.T W ;.-.u.:Xp.7Xp.y.y.p.7X#XoXw.O.*.BXbXhXfXgXbXnXnXnXnXnXnXnXnXnXnXnXnXnXnXnXnXnXmXfX,X(.P.4X4XK.z.).Z . - & y 2 2 2 3 0 w 3 w L E E L D D e L L x w 3 3 3 3 3 3 3 3 3 3 3 3 2 2 4 3 3 3 3 3 3 3 3 3 3 3 3 3 2 2 2 2 2 2 2 2 2 2 2 2 % % % % % % * * $ $ % % % % % % % % % % % $ % $ $ $ $ $ $ $ @ @ @ @ @ $ $ $ $ $ $ $ $ $ $ $ @ @ $ $ $ $ $ $ * $ $ y l B X.o.#.1.1.1.1.6.6.6.<.<.6.1.<.<.<.<.,.,.,.,.",
"n.n.<.<.,.<.<.,.,.,.,.,.,.,.,.,.M.,.,.,.n.n.n.n.,.1.n.n.n.n.n.m.B.n.B.D.n.D.D.D.B.B.B.B.n.n.B.B.B.B.B.B.B.D.B.B.B.B.B.B.B.n.b.b.n.B.n.n.D.b.n.n.b.b.B.B.n.V.5.a.oXqXiXNXNXpXiXuX:X:X:X:X:X:X:X:X:X:X:X;X;X;X;X;X;X>X;XeXeXwXwXuXrXrXuXuXrXiXaXrXuXeXwX%Xg.g.;X:XeXeXeXeXuXuXuXuXuXaXiXrXuXrXrXrXeXeX:X:XeX:X;X$X:X%X;Xf.h.h.t.t.i.i.s.s.i.i.-X=X=X-Xp.$XrX*X*X-X-Xp.#X7X&X#Xd.p.p.$Xf.f.u.u.=X=X=X=X=XrXwX=XwXrXyXvXvXyX6XrX=X*X7X*X9XNX6X&X#Xw.7XqX*.U W W y.r.p.=X[.iXp.r.u.=X7X#Xp.a.O.].BXhXfX2XgXVXvXnXnXnXnXnXnXnXnXnXnXnXnXnXnXbXbX8X).(.,XdX,Xc.c.v.O # & % % 1 1 1 3 3 r w 6 e D ! W W ! L r e L L x w 6 6 3 3 3 3 3 3 3 3 3 3 4 4 4 3 3 3 3 3 3 3 2 2 2 2 2 2 2 2 2 2 2 2 2 2 2 2 2 2 2 2 % % % % $ $ % % % % % % % % % % % % % % % $ $ $ $ $ $ $ $ $ $ $ $ $ $ $ $ $ $ $ $ $ $ $ $ $ $ $ $ $ $ $ $ $ 2 k b _ ` #.4.<.1.6.6.1.<.<.1.,.<.<.<.<.,.,.,.,.",
",.1.<.<.<.<.<.,.,.,.,.,.,.,.,.,.,.,.,.,.,.,.,.,.,.1.n.1.n.n.n.V.B.n.B.D.n.D.D.D.B.B.B.B.n.B.B.B.n.B.B.B.B.D.B.B.B.B.B.B.B.n.b.b.n.B.B.B.D.b.n.B.b.b.n.n.V.V.5.6.@XqXiXiX7XrXrXrXuXuX:X:X:X:X:X:X:X:X:X:X;X;X;X;X>X>X;X:X=X=XrXtXtXpXpXpXpXaXuXuXuXwXwX%X%X:X:XeXeXeXeXeXeXuXuXuXuXuXuXuXuXrXrXrX=X:X:X:X:X;X%X=XuXuX7X7X:Xp.f.s.i.i.f.f.i.i.-X7X=X#Xd.=XuX*X*X=X-X#X#X7X*X&Xd.d.d.#X-X$Xi.u.=X=X=X=X=XrXwX=XwXrXcXvXvXyX7XrXrX&X=X7X].pXyX&Xp.+.w.-Xp.E T W ;.a.w.-X6X[.iXp.r.f.7X&X#X#Xp.O.&XMXgX2X2XFXbXnXnXnXnXnXnXnXnXnXnXnXnXnXnXbXhX{.(.(.5X4XP.K.v.N + y 2 k 1 2 y u 3 w 3 e x 6 w e L R E W W E L L L D e e w 6 3 3 3 4 2 2 3 3 3 3 3 3 3 3 3 3 2 2 2 2 4 4 4 4 4 4 2 2 2 2 2 2 4 4 4 4 4 4 2 2 2 % % % % % % % % % % % % % & & % % % $ $ $ $ $ $ $ $ $ $ $ $ $ $ $ $ $ $ $ $ $ $ $ $ $ $ $ $ $ $ $ @ X $ * , < P #.4.,.1.1.1.1.1.<.b.,.<.<.<.<.,.,.,.,.",
"<.,.<.<.,.,.<.,.,.,.,.,.,.,.,.,.M.,.,.,.,.,.,.,.,.1.n.1.n.n.n.V.B.n.B.D.n.D.D.B.B.B.B.B.n.n.B.B.n.B.B.B.B.D.B.B.B.B.B.b.n.b.b.,.b.n.B.B.D.b.n.B.b.b.n.n.m.2.6.6.oX>XqXiXuXaXiXuXuXuXuXuX:X:X:X:X:X:X;X$X;X;X;X>X>X;X>X:XuXaXpXNXNXNXpXpXrXrXrXuXuXeXeXwXeXeXeXeXeXeXuXuXuXuXuXuXuXuXuXuXrXrX7XuX7X=X:X:X%X$X%X:X:X-X7XiX=X$Xh.s.i.s.$X$Xi.u.-XiX=Xd.-X=X=X-X7XrX-X#X&X7X7X-Xp.d.p.#X#X=Xu.u.-X=X=X=XwXrXwX=XwXrXtXvXNXyX6XrXrX*X&X&X].7XpXtX#X*.X.p.a.+.T W Q f.f.p.-X7X6XiXa.i.-X7X*X].7Xp.X.].BXgX X<XBXnXnXnXnXnXnXnXnXnXnXnXnXnXnXbXfX2X,X,X5X,XK.).&.& 2 , 1 3 k z 3 3 z z z 6 w v x 6 6 r v L R E W R D D e e e w 6 3 3 3 2 2 2 < 3 3 3 3 3 3 3 3 2 2 2 4 2 2 2 2 2 2 2 2 2 2 2 2 2 2 2 4 4 4 4 2 2 2 2 % % % % % % % % % % % % % % % % $ $ $ $ $ & & $ & $ $ $ $ $ $ $ $ $ $ $ $ @ @ @ @ $ $ $ $ $ @ X @ @ & l B X.#.<.3.1.1.1.1.1.<.1.,.<.<.<.<.,.,.,.,.",
"<.<.<.<.<.<.<.<.,.,.,.,.,.,.,.,.,.,.,.,.n.,.,.n.,.,.n.1.n.n.n.n.B.n.n.B.B.n.n.n.B.B.B.B.n.n.n.n.b.b.B.B.B.D.B.B.B.B.B.B.b.<.B.<.n.n.n.n.n.b.b.b.b.n.n.1.m.1.5.XX>X:XpXNXNXpXpXpXiXuXuXeX:X:X:X:X;X>Xf.;X;X;X>X>X;X;X;XeXuXuXrXtXiXrXrXuXuXuXiXaXuXuXeXeXuXuXuXeXeXuXuXuXuXrXuXrXuXuXuXuXrXrXrXrX7X=XeX%X$Xf.:X$Xu.p.:X$X$X:Xi.i.i.f.%X$Xi.d.rXtX-X#X-X=X$X%XrXrX*X=X-X*X7X-Xp.f.f.d.#X=X$Xu.#X=X=X=X*XwXrXrXwX=XtXvXNXtX*XtXrX*X-X*.6Xe.NXtXyXe.E ;.r.r.=.W W r.$Xf.d.=X*X*XuXp.p.-XrX[.].uX].C 2XlX8X].9XFXnXnXnXnXnXnXnXnXnXnXnXnXbXkX1X5X).,X5X).P.c.N @ k z w 6 3 z w w w 6 x x 6 6 z x z 3 w e e e L L D e e w 6 w 6 6 6 3 3 4 2 4 2 2 2 2 3 3 3 3 3 4 4 2 2 2 2 2 4 4 4 2 4 4 4 3 3 3 3 3 4 3 3 3 2 2 2 2 2 2 % % 2 2 2 % % $ $ $ % % % $ $ $ $ $ $ $ $ $ $ $ $ $ $ $ $ $ $ $ $ $ $ $ $ $ $ $ $ $ @ @ @ * $ 2 1 n _ %.<.<.<.1.1.<.<.1.1.<.<.,.<.<.,.,.,.,.",
",.<.<.<.<.<.<.<.,.,.,.,.,.,.,.,.,.,.,.,.n.,.,.M.,.,.n.1.n.n.n.m.B.n.n.B.n.n.B.n.B.B.B.B.B.B.B.B.B.B.B.B.B.D.B.B.B.B.B.N.b.1.B.1.b.b.b.b.n.b.b.b.n.,.3.2.n.3.6.6.oX=XiXpXNXNXpXpXiXuXuXwX=X:X;X;Xf.f.;X;Xf.f.$X;X%X%X%X=X=X=XrXrX=XwXuXuXuXuXuXuXuXuXuXuXuXuXwXuXwXuXuXuXuXrXrXrXrXuXuXuXrXrXrXrXuXrX=X$X$X;X$Xu.u.;Xf.a.>Xf.i.i.f.$X-X%Xf.$XtX7X=X%X=X%Xf.$XrXrX*X=X*X*XrX#Xu.i.$Xd.&X=X-Xp.p.-X=X=X*XwXrXrX=X=XtXvXNXNX*XrXrX*X*X&.].&.6XtXyX6X*.U +.r.a.W +.r.a.$X$Xp.#X-X7XiXp.#X&XrX[.[.iX].X.2XkX8X{.BXnXnXnXnXnXnXnXnXnXnXnXbXgX1X,X5X(.,X,X,Xv.@.& & z x e L e 6 e v x w 6 e L 6 6 6 6 x 6 6 6 w w e e e w 6 6 6 6 6 3 3 3 3 2 2 % % 2 2 2 2 3 3 3 3 2 2 2 2 2 2 4 2 2 4 w x x 6 6 6 6 3 3 4 4 4 2 4 2 2 2 % % % % % % % % $ $ $ % % % $ $ $ $ $ $ $ $ $ $ $ $ $ $ $ $ $ $ $ $ $ $ $ $ $ $ $ $ $ @ @ @ @ * 2 k n _ _ #.<.5.<.<.6.<.1.1.<.3.,.<.,.,.,.,.,.",
",.<.<.,.<.,.,.,.,.,.,.,.,.,.,.,.,.,.,.,.n.,.,.M.,.,.1.1.n.n.n.m.B.n.n.B.B.B.B.B.n.n.n.n.B.B.B.B.B.B.B.B.B.D.B.B.B.B.N.b.b.b.b.<.b.b.b.,.n.b.b.b.n.3.3.1.n.C.J.@XqXaXNXNXNXNXNXpXtXrXrXwX=X:X:X;X;X%X%X%X%X%X%X=X=X=X:X:X:X:X;X%XeXuXuXuXuXuXuXuXuXuXuXuXuXeXeXeXuXuXuXuXuXrXrXrXrXuXuXuXuXuXuXuXuXwX=X%XeX%X%X$X>X$X>X;Xf.f.f.f.%X%X%X=X%X=XtX6X*X=X:X%Xd.%XiXrX=X=X&X&X7Xw.u.u.$Xd.#X*X6X].p.%X=XwX=XwXrXrX=X-XrXtXtXNXrX*XrXrXw.w.E *.O.pXyXrX=XE W ;.$X+.Q t.a.p.-X*X#X#X-XiXrX#Xp.$XuXw.w.iX].C {.kX1X8XPXnXnXnXnXnXnXnXnXnXnXbXkX,X,X,X,X1X4X,X@.N + 1 6 v L T L R e r L v D e 6 x e 6 6 6 x 7 6 6 6 w e e 6 6 3 3 3 3 3 2 2 2 1 1 2 2 2 4 , , , 2 3 3 3 3 3 3 3 3 3 3 3 6 6 e D L L L D x x e w 0 3 3 2 2 2 % % % % % % % % $ % % % % % $ $ $ $ $ $ $ $ $ $ $ $ $ $ $ $ $ $ $ $ $ $ $ $ $ $ $ $ $ $ $ $ $ & y k b _ %.6.<.<.<.<.1.<.<.1.<.3.,.,.,.<.,.,.,.",
"<.,.<.>.<.,.,.<.,.,.,.,.,.,.,.,.,.,.,.,.3.,.,.M.,.,.n.1.n.n.n.m.B.n.n.B.B.B.B.B.n.n.n.n.n.n.n.b.b.B.B.B.B.D.B.B.B.n.B.b.1.B.b.1.n.n.n.n.n.b.b.n.1.1.1.3.n.C.G.<X7XiXNXNXNXNXNXpXiXrXrXwX=X:X:X;X%XeXeXeXeXeX:XuX:X:X%X$X%X$X>X;X%X=XuXuXuXuXuXuXuXuXuXuXeXeXeXuXrXrXuXuXuXrXrXrXrXuXuXuXuXuXuXuX=X=X:X:X:X:X=X:X%X%X:X>Xi.f.d.%XuX=X=XwX=XrXtX6X*X=X%Xd.f.=XiX6XrX=X#X#X#Xw.r.r.d.d.#X-X7X[.p.$X=XwX=XwXrXrX=X-X=XrXyXvXNX6X[.pX*XO.O.X.v w.rX6XwXp.Q ;.-X=X+.Q f.p.-X=X=Xw.p.-XiX7X#Xp.d.%Xw.w.iXoXX. XBX2XhXDXnXnXnXnXmXnXnXbXcXgX1X).,X,X2XjX2Xc.N : + u 3 6 D ! ! R E L D L R L e e L L x 6 6 7 7 6 6 6 6 6 6 w w 3 3 3 2 2 2 2 2 2 2 2 1 2 4 4 4 4 4 4 4 4 3 3 3 3 6 6 6 6 e e e e e e e e w w 3 3 3 3 2 2 2 % % % % % % % % % % % % % % % $ $ $ $ $ $ $ $ $ $ $ $ $ $ $ $ @ @ @ $ $ $ $ $ $ $ $ $ * @ @ @ $ % B b _ _ ` #.<.<.<.<.<.<.1.<.3.<.<.,.,.,.,.<.",
",.,.<.>.<.<.<.,.<.,.>.3.3.3.3.,.,.,.,.3.n.,.,.,.3.3.3.3.n.n.n.m.n.n.n.B.n.n.B.b.B.B.N.b.N.B.N.N.B.b.b.n.D.B.b.B.n.n.b.b.b.b.b.b.b.,.,.n.n.n.n.n.3.m.1.,.3.n.N. X X&X7XNXVXNXNXiXtXrXrX7X=X:X%X%X%X$X;X;X;X;X>X;X>X%Xf.f.h.h.s.f.:XeXuXuXuXuXeXuXuXuXuXuXuXuXuXuXuXrXrXrXuXuXuXuXuXuXuXiXuXuXuXrXrXuXuXuX:X:X:X:X=X7X:X>X>X$X=XuX*XpXrXrX=XuX=X*X-X=X$Xf.%X=XrX*XuX*X#Xp.p.q.-.+.a.p.u.$X7X[.p.d.=X=X%XwX=X-X%X$X$X-XrXpXVXyX[.uXaXO.O.X.x o.+.=X*X&Xw.w.&X7X:Xq.u.$X#X7X=X#Xu.u.=XtX=X#Xu.w.-Xw.w.:X#XX.2XBX8XBXlXfXfXfXbXbXbXBXbX8X,X(.4X2X1XfX XB l - y s z w 4 6 e E E ! U D D ! E L e e w 6 6 6 6 6 6 6 3 3 3 3 3 3 3 3 3 3 2 2 2 , 2 , 2 2 3 3 3 3 3 3 w w 6 6 6 6 e w 6 7 e 7 e x e e e w 3 3 2 4 2 2 2 2 2 % % % % 2 % % % % % % % % % $ $ & & & $ $ $ $ $ @ @ $ $ $ $ $ @ @ @ $ $ $ $ $ $ $ $ * $ $ $ $ * % 1 1 u b _ ` #.#.#.<.<.<.<.<.<.<.<.<.<.<.4.4.",
"<.>.>.>.<.<.,.,.,.,.>.3.3.3.3.3.,.,.,.3.n.,.,.,.3.3.3.3.3.n.n.m.m.n.n.n.n.n.n.b.B.b.b.b.b.b.b.b.<.B.B.B.D.B.b.B.n.b.b.b.b.b.b.b.n.n.n.n.n.n.n.n.3.V.n.1.m.n.N.,X0XCXSXSXAXNXNXpXiXiXuXuX=XeXeXeX:X:X:X$Xf.d.d.f.d.f.f.h.s.s.h.;XuXuXuXrXrXrXwXuXuXrXrXrXrXrXrXrXrXrXuXuXuXuXuXuXrXrXuXiXuXiXtXtXiXiXuXuXuX7XuXuXrXuX:X$X;X%XuX&XtXpXpXrX=X=X*X&X=X=X$X$X=X=X=X*X7X#X#Xp.r.+.-.Q r.i.r.f.=X[.p.d.%X-X%X=X%X$X%Xf.f.d.-X7XtXSX&X&XNX7XO.*.L U L E w.w.#X].&XpXiX=X#X%X#X#X7X=Xq.u.w.uXrXrXd.d.*X&X+.+.f.w.O.8XlX2X8X1XfXfXfXhXhXgXgX XP.dXjXfXfX1Xx.i : O < 6 6 w w 6 4 4 e L W W D D U E R L e w 6 3 3 6 6 6 3 3 3 3 4 4 4 4 4 2 2 2 2 2 2 2 2 2 4 4 3 3 6 w z x v v L L L L D L D e 7 6 6 w w 0 0 3 1 1 1 2 2 2 % % % % 2 2 % % % % % % % % % $ $ $ $ $ $ $ $ $ $ @ $ $ $ @ $ $ @ @ $ $ $ $ $ $ $ $ $ $ $ $ $ $ * o 2 l n ( o.#.#.<.<.<.<.<.<.<.<.<.<.<.<.<.4.<.",
",.<.<.>.<.<.,.,.,.,.>.,.,.,.,.,.,.,.,.n.n.,.,.,.3.3.3.3.3.3.n.m.m.n.n.n.n.n.B.B.B.b.1.<.b.b.b.b.B.b.B.D.D.B.<.B.b.b.b.b.b.1.1.,.,.b.b.,.n.n.n.n.n.,.<.n.n.D.R.8XMXVXNXvXNXNXNXpXpXiXuXuXuXeX;Xf.$Xd.$X$X-X-X=X-X=X:X;Xf.f.;X;XeXuXiXuXrXrXrXeXuXrXrXrXrXrXrXuXrXuXuXuXuXuXuXuXuXrXrXrXiXiXiXiXiXiXiXiXuXuXuXuXuXuXuX:X$X%X:X#XrXNXvXNXrX=X%X-X-X=X%X$X;X:X-X#X=XuX#X#Xa.+.Q Q W +.r.+.u.#X#Xp.d.%X#X-X%X%X$X%Xf.f.f.p.d.-X7XiX].7XiXw.O.*.x L e o.X.+.-Xp.uXtXyXrXrX#Xw.*X=X$Xq.f.w.pXyXrX6XyX6Xw.+.+.r.+.*.kXfX1X1X8X8XfX1XfXfX2X{.1XfXgXfXfX2XN l y 2 x 8 6 3 6 e e 6 4 6 e L R L e v L L L x w 3 3 3 3 3 3 3 3 3 4 2 , 2 2 2 2 2 2 2 2 2 2 2 3 3 3 3 3 3 w z v L L U W ! ! L U L L e e w 6 3 3 3 1 2 2 % $ + % % % % % % % % % % % % % % % $ $ $ $ $ $ $ $ $ $ $ $ $ @ @ @ @ @ $ $ $ $ $ $ $ $ $ $ $ $ $ $ $ + % % , u f ( _ o.#.#.<.<.<.6.<.<.<.<.<.<.<.<.<.",
"<.<.<.>.<.,.,.,.,.4.>.,.>.,.>.>.,.,.,.n.n.,.,.,.3.3.3.3.3.3.n.m.m.n.n.n.n.n.B.B.b.b.<.<.1.1.1.1.B.B.B.n.B.B.<.B.b.b.b.b.1.1.1.,.n.n.n.n.n.n.n.n.b.n.1.V.n.A.XX<X8XMXNXSXNXNXNXNXpXiXuXuX=X$Xf.$X$X;XuXaXaXaXaXuXuX:X;X;Xf.f.:XaXpXNXpXiXiXuXrXuXrXrXuXuXuXuXuXuXuXuXuXuXuXuXuXuXrXrXtXiXiXiXiXiXiXiXiXuXuXuXuXuX=X:X:X%X:X-X7XSXNXvXpXrX-X#X=X=X-X$X$X%X=X-X#XuX:Xp.p.+.Q ! W W W +.-.u.p.p.p.d.%X#X-X%X%X$X%Xf.f.f.u.r.p.w.6X6X&X*X7XO.oXO.v E D U E oXp.p.NXyXyXtX=Xp.w.*X=Xp.d.$X].AXyXvXmXvX*Xw.+.W +.X.&XBXfX1X1XfXjXfXjXgXBXBXkXlXgXhX8Xx.y l 2 6 U D 7 6 6 6 6 x w 6 6 e e e v e e r v e 6 w 6 3 3 3 3 3 3 3 3 4 4 2 2 2 2 2 2 4 3 3 3 3 3 6 6 w 6 6 w w w e D L L ! W ! ! U L L r e w w 0 3 2 2 2 % % % % % % % % % % % % % % % % % % $ $ $ & $ $ $ $ $ $ $ $ $ @ @ @ @ $ $ $ $ % % % % + $ $ $ @ $ $ $ 2 y k n n b ( _ #.#.<.<.<.<.6.<.<.<.<.<.<.<.<.<.",
",.<.,.<.,.,.,.,.,.4.>.>.>.4.4.4.,.n.,.3.n.n.n.n.,.,.,.3.3.3.3.m.m.m.n.n.,.n.<.b.b.<.b.<.b.1.B.B.b.B.B.B.B.B.B.b.B.B.B.B.b.<.b.b.,.n.,.n.n.b.n.n.n.1.,.,.n.b.N.F. X X6XcXNXNXSXSXNXvXtXtXuXuXuXuXaXaXaXaXuX:X=X;Xh.h.i.i.>XeXaXpXvXNXpXuXrXuXiXrXiXuXuXuXuXuXuXuXuXuXuXuXrXuXiXrXiXiXpXiXtXtXiXiXiXiXiXuXaXuXuXuX-X=X=X=X-X*XSXNXyXNXpX-Xu.%XuX7X-X%X%X$X=X#X&XuXp.a.r.+.! ! W T ! +.-.-.a.a.f.f.#Xd.=X=X=X$Xf.g.f.s.t.y.r.u.p.7X*X[.&Xw.&.=Xv E D e U L >Xw.7XNXtXvX7X7Xw.=XrX7Xd.uX#X[.vXyXvXmXyX&Xw.o.W E *.kXBX1X1XjXfXlXBXbXhXbXlXgXhX9XfXB y u 6 D D T T D e 7 6 7 e w 6 6 w e e e e e e 6 6 6 3 3 4 3 3 3 3 3 3 0 3 4 3 3 z s 6 4 6 x x e x e e L L L e e e 6 e e D D L U ! ! ! E U x 6 3 4 2 2 2 2 2 2 2 % % % % % % % % % % % % % % % & $ $ $ $ $ $ $ $ $ $ $ $ @ @ @ @ $ $ $ $ $ $ + $ + * * * * * * * & & y n X.o.%.#.<.#.#.#.<.<.6.<.<.<.<.<.<.<.<.>.",
"<.<.<.<.,.<.,.,.,.>.>.>.4.4.4.4.,.,.,.,.3.,.,.,.,.,.,.3.3.3.3.m.m.m.n.n.,.n.<.b.b.1.1.1.1.<.B.b.b.B.B.B.B.B.n.b.b.b.b.b.b.<.b.b.b.n.<.b.b.,.b.,.1.,.b.b.,.n.D.Y.,XqXCXCXAXAXSXSXNXNXNXpXiXuX:X=XrX7X=X*X-X%X%X$Xf.s.f.;X:X:XrXtXpXtXiXiXiXaXiXrXrXuXuXuXuXuXrXrXrXuXuXuXuXuXiXiXpXpXpXpXtXtXpXtXiXiXiXuXaXuX=X=X=X=XuX-X7XSXNXyXcXNX=Xd.d.uX*X7X-X%X$X%X$Xp.&X=Xq.i.-.Q T T T T ! W -.-.r.u.p.$X#X#X=X=X=Xd.f.g.d.u.t.t.r.r.u.w.rX[.e.7X&.-XX.E X.e S D a.w.&.pXNXvXyXtX].#XpXtX*X7XiXw.6XyXyXnXvX6X&X*.U U L *.BXlX1X1XfXlXBXhXbXhXhXbXgX8X{.y l 3 7 D D T T U D D 7 7 7 7 w w 6 6 7 e e 7 e D e 6 6 3 6 3 6 6 6 3 6 3 z c 4 3 4 z x 6 6 e D L E ! W ! L R R R D r e e e D D D D D D D e x 6 4 4 2 2 2 2 2 2 2 2 2 2 % % % % % % % % % % % % % $ $ $ $ $ $ $ $ $ $ $ @ @ @ @ @ @ $ $ $ + + + + * * $ $ $ $ $ $ & % % , 4 < a g ) ` #.<.<.<.5.1.<.<.<.<.<.<.>.>.",
"<.<.<.<.,.<.<.<.,.4.>.>.>.>.4.4.>.,.>.,.,.,.,.,.,.,.,.3.3.3.3.n.m.m.n.n.,.n.<.b.1.b.<.b.<.<.b.b.b.n.B.B.B.B.B.b.b.b.b.b.b.<.b.b.,.,.n.n.b.,.b.,.1.,.b.,.<.<.B.G.XX0XMXCXNXNXNXpXiXuXrXrXeX:X;X;X%X%X=X7X7XrX=X%X%X=XuX7XrXrXrXtXiXiXtXrXrXrXrXrXuXuXuXrXuXrXrXrXrXrXrXuXiXuXiXpXpXNXpXtXtXtXtXtXiXiXiXuXuX=X=X=X:X=X=X7XSXNX6XNXpX=X$X#XiXtX7X=X-X-X#X%X$Xp.7Xw.+.;.;.Q D D T T D Q ;.-.t.u.d.$X$X%X=X=X=X$Xg.g.g.s.i.s.d.q.u.w.[.6Xe.rXw.w.*.m w.c L e O.$Xq.w.NXvXcXyXrX].7XNXrX7XtX7Xw.7X*XcXnXmXyX].R D D v ].DXgX8XfXgXgXbXbXhXhXbXhXkXB y k 6 e U ! D T ! W W D D 7 7 7 7 8 6 8 8 7 D D D D W E D e 7 8 8 e L w v v R R w w w R R R ! W W Q Q ! Q -.+.Q W ! E R L e e e e e e e e w 3 4 4 3 3 1 2 2 2 2 % % % 2 2 2 2 2 2 % % % % % % % % & & $ $ $ $ $ $ $ @ @ @ @ $ $ @ @ @ @ @ @ $ * * $ + * * $ @ @ * * 1 n X._ _ ` #.%.<.1.<.<.<.<.<.<.<.<.<.<.<.<.<.",
",.,.<.,.<.<.<.<.,.4.>.>.,.>.>.,.>.,.>.,.,.,.,.,.,.,.,.3.3.3.3.n.m.m.n.n.,.n.,.n.<.b.<.b.<.<.b.1.b.b.B.B.B.B.B.b.B.n.n.n.b.<.b.b.b.b.,.,.n.b.n.n.1.1.,.,.b.N.n.B.P. X&XMXNXNXNXpXiXuXuXwX=X=X=X:X:XeXuXaXiXuXuXeXrXrXrXrXrXrXuX:X=X=X7XiXiXuXeXwXwXwXrXrXrXrXuXuXuXrXuXuXiXuXiXpXpXpXpXtXtXtXtXiXiXiXuXuX=X=X:X:X:X=X=XpXtXtXNXiX=X#X-XuXtX6XuX=X%X-X=X-X#Xp.7X+.-.-.Q Q D D T D ! +.;.-.i.u.d.%X%X%X=X=X=X#Xg.g.g.d.d.f.#X%Xa.u.#X6X*X7X&Xw.p.m *Xm L D L :Xr.+.rXvXvXyXtX6X[.tXiX7XcXtX#Xw.].].9XcX6Xw.X.L e r n 9XFX9X1XfXgXgXhXbXbXgXlXv.y k 3 w 7 D ! ! D D W W +.! L D D D D e 7 7 e D L ! W W +.+.W W U D D L W E R R E +.E R ! +.Q Q Q Q Q Q -.Q W Q -.+.+.Q W E E R L e e w 6 6 3 3 3 3 3 2 2 2 2 2 2 % % % * * % % % % % % % % $ % % % % & & & $ $ $ $ @ @ @ @ $ $ @ @ @ @ @ @ @ @ * * * * * * $ $ $ $ % % , u f b _ o.#.o.` ` >.>.1.6.<.<.<.<.<.<.<.<.",
",.,.<.,.>.,.<.,.<.,.,.,.>.>.>.4.>.,.>.,.,.,.,.,.3.3.3.n.3.m.n.n.n.n.n.n.n.n.n.n.,.b.,.<.b.,.,.b.b.b.n.n.b.B.b.n.n.b.n.n.b.b.b.b.b.M.M.n.n.n.n.n.n.n.1.,.<.N.D.T.P.2XcXVXVXNXNXNXpXpXiXiXrXrXiXiXuXuXuX:X=X=X=XrXuXrXtXrXuX:X;Xh.;X:X:X;X>Xf.f.f.%XwXwXwXrXuXuXuX:XeXeXuXuXiXiXiXtXtXiXiXtXtXtXrXiXuXuX7XuXuX:X=X:X=XuX7X7XiXiX*X7X7XiXtXtXtXrX=X=X-X%X#Xp.-Xp.+.-.Q +.W D T W D W r.a.p.f.d.#X=X=X=XrX=X=Xd.p.f.=X#X#X%X*X=X$Xw.#XrXrXrXrXw.=XC [.].e ! e a.$XE #X*X6XyXvXyX[.7XtXMXyXtXpXw.O.w.w.p.p.+.W ! D e e n kXlXfXfXkXgXMXgXbXbXlXN i z w E L R ! ! W T T W +.a.+.E +.W E o.+.+.+.+.+.+.+.+.r.+.+.+.+.Q W W W a.q.E ! Q -.+.Q W r.q.r.t.Q ! ! Q +.Q W ! Q Q W W R D e e 6 6 3 4 4 4 % % * * % % , 2 2 2 2 2 2 2 % % % % % % % % % % $ $ % $ $ $ $ $ $ $ @ @ @ @ @ @ @ @ @ @ @ @ @ @ $ $ + + $ $ & & $ $ % & 2 % , , < 5 d P ` #.<.<.<.<.<.<.<.<.<.>.<.<.",
",.>.,.>.>.,.<.,.,.,.>.,.>.>.4.>.>.,.>.,.,.,.,.,.3.3.3.n.n.m.n.n.n.n.n.n.n.n.n.n.,.b.,.<.,.<.<.,.,.b.n.n.n.n.n.B.n.n.m.n.b.b.b.b.M.M.M.n.n.n.n.n.m.1.1.1.,.1.<.N.XXzXMXCXCXNXNXNXpXNXiXiXiXiXtXrXtXrX*X-X-X=XrXrXuXiXuX=X$Xi.i.t.r.r.r.r.i.i.f.;XwXwXuXuXuX:X:X;X%X=XeXuXuXuXrXrXiXiXiXrXiXiXiXiXuXrXuX7X:X:X=X:X:X:X=X=XiX7X*X7XrXNXtXtXtXrXrX=X=X=X#X%Xw.:X+.+.-.Q +.! D T W D Q a.>X-X%X#X%XwX=X=X=X-X=Xd.u.f.$Xw.#X-X*X7X=Xp.w.=XrX6XrX*X*Xe.e.iXE R E E $XO.O.aXe.&X6XcX6X*X9XMXyX6X*XuXO.O.+.Q +.W ! ! ! L D 6 &.FXlX8X{.8X{.9XbXBX].y n z v R W ! W Q Q Q W ! W +.>X+.+.a.;.O.a.>X%X=X=X=X#Xp.w.p.%Xd.q.r.-.+.+.Q u.u.+.+.Q +.+.Q Q +.q.i.i.i.i.+.+.+.+.+.o.o.+.+.W E D 6 6 6 3 3 2 2 % % $ + + + 2 2 2 2 2 2 2 2 2 % % * + $ $ $ % % % $ % % $ $ $ $ $ $ @ @ @ @ @ @ @ @ @ @ @ @ @ @ + + * * @ @ $ * X X X X % 2 u n ( X.%.<.<.<.<.<.6.<.<.<.<.<.>.>.<.>.",
",.,.>.,.>.,.<.,.,.>.>.4.>.4.4.>.>.>.>.>.>.,.,.,.3.3.n.n.n.n.m.n.n.n.n.n.n.n.n.n.,.b.,.<.n.1.b.n.1.1.b.n.n.b.n.n.n.n.D.b.M.M.M.M.M.M.1.n.n.n.n.n.1.1.1.n.,.1.N.B.A..X<XqXiXiXiXaXiXiXiXrXiXuXrX=X=X=X=X=XuXuXiXiXuX:Xf.a.;.-.;.~ ~ -.r.u.f.f.;X:XwXeXeX;Xi.i.i.f.$X:X:X:XuXrXrXrXrXrXiXiXiXiXiXiXuXrXuXuX:XuX=X-X:X:Xp.7X7X7XiXtXNXtXNXtXtXrX=X=X=X-X-X-X-Xp.;.-.;.W Q ! D W T T +.$X=X=X=X#X#X=X=X-X$Xu.$Xu.u.i.u.w.p.#X&X7X=Xd.w.f.7X6XrXtX7X*Xe.pXw.q.E +.w.#XE #XqX&.&X6XvX].#X7XNX[.p.p.$XO.Q W Q Q ! R E E U U X.<XBXgX X@.2XBXBXhXB u X.R E ! ! W +.W -.-.Q +.+.+.r.a.p.#X7Xw.*.#X%X:XuXiXtXrX-Xq.+.w.#Xp.p.p.u.q.+.q.a.r.+.+.+.+.Q ! Q +.q.u.q.a.i.r.-.+.+.W ! E R R R L 6 6 3 3 3 2 1 2 2 % % * X @ $ $ % % % % 2 2 % % $ $ $ % $ % % % % % $ $ $ $ $ $ @ @ @ @ @ @ @ @ @ @ @ @ @ @ $ $ $ $ $ $ $ $ $ $ * o , u n X.X.o.o.` ` #.<.<.6.<.<.<.<.<.>.>.>.>.",
",.,.,.>.>.,.<.,.4.>.4.>.>.4.4.4.>.>.>.>.>.>.,.,.3.3.n.n.n.n.n.n.n.n.n.n.n.n.n.n.,.b.,.<.1.<.<.b.1.1.1.b.n.b.B.b.b.n.D.M.,.M.M.M.,.3.n.n.1.1.1.1.3.1.n.n.,.1.b.<.n.H.5XqXqX7XqXqXuXuXuX7XrX:X=X=X:XuXuXuXaXuXrXrX=Xp.r.-.~ W ~ ;.y.t.j.i.f.;X>X:X:X$Xq.+.+.-.t.h.>X:X:X:XuXuXuXiXiXiXiXiXiXiXiXiXuXrXuXuX:X=X=X-X=X#X=XuXuXNXNXNXrXiXtXrXiX7X=X=X=X-X-X#X$Xu.-.;.-.W ;.W D ;.! o.q.%XrXrX=X#X$X%X%X%Xf.q.$Xu.r.r.r.q.u.d.#X=X*X#Xu.u.-X7X*XNXtX}.[.rX*X-Xu.+.w.=X-XO.uX&X&.w.&XrX*.w.7X&X+.+.f.a.-.-.W y.i.r.+.6.E o.%.&.BXgXzX@.@.fXkX&., X.X.X.E W ! ! W -.Q -.-.W +.;.-.r.p.-X7X6X7XoXw.#X*XtXiXpXSXsXuXw.O.&.w.w.#X$Xu.+.+.+.q.q.+.+.! ! U U L E O.E W E ! R R R R L D e e e 6 6 3 3 3 3 < 2 2 2 % + $ $ @ $ % % % % 2 2 2 2 % & % % $ $ % % % % $ $ $ $ $ $ @ @ @ @ @ @ @ @ @ @ @ @ @ @ + + * * * * @ $ $ & 1 2 1 u n f P o.` ` ` #.#.<.<.<.<.<.<.<.>.>.>.>.",
">.,.,.,.,.,.,.,.>.>.>.>.>.>.>.>.>.>.>.>.>.>.>.>.,.3.,.n.n.n.n.n.n.M.M.M.n.n.n.n.,.b.,.<.,.,.,.,.n.,.,.n.n.n.n.B.,.n.n.,.,.n.,.b.n.3.3.1.n.n.n.n.m.V.1.1.1.1.1.1.5.6.6.@XaXSXSXSXCXaXuX:X%X:X:X:X:X:X:XuX=X7X7X=X%Xf.i.t.-.-.y.t.j.i.i.i.f.f.h.i.;.W W Q +.i.h.f.%X:X:X:XuXuXuXiXuXiXiXiXiXiXiXiXuXrXrXuX=X=X=X-X-X-XaXuXsXiXpXrX7XtXiX7XrX=X=X=X-X=X$X$Xu.r.-.r.-.Q ;.T E ;.W +.w.=XrXrX=X$Xf.$X%X$Xf.u.f.f.r.-.r.+.q.p.w.#X*X-Xu.r.d.aX[.NXNX6X6XyXrXrX=X].w.#X7X[.*XSXw.O.w.:X-X&.w.$XQ Q +.i.;.-.+.-.f.#X*.-XoX&.*.*.].kXkX1X@.,X Xb X.+.+.+.+.+.W W ! ! -.+.-.r.+.W -.f.$X#X7XtX6X7X6X[.w.&XuXpXtXpXSXSXtX].&.e.O.+.a.u.+.Q +.+.+.r.+.L D D D 7 8 7 e e w w x e w w e w w 6 6 6 3 3 < < < 3 3 1 2 2 2 % % % + $ % % % % 2 % % % % % % % % % % % $ $ $ $ @ @ @ @ @ @ @ @ @ @ @ @ @ @ @ @ @ @ @ @ @ @ @ @ @ @ @ @ @ * 2 u f ( ( P ` #.:.>.<.<.<.<.<.>.<.<.>.>.",
",.>.,.>.,.,.,.>.>.4.>.>.4.>.>.>.>.>.>.>.>.>.>.>.,.3.,.n.n.n.n.n.n.M.M.M.n.n.n.n.,.b.,.<.,.,.,.,.1.b.b.b.1.B.B.n.b.n.m.b.b.,.n.,.n.n.3.1.n.n.n.n.,.<.<.n.1.1.1.1.5.6.6.a.p.*X=X7X7X=X-X:X:X;X%X%X%X=X7XrXrXrXuX:X:Xf.i.y.y.j.j.i.i.i.s.i.i.;.+.W T W ^ ;.i.h.f.f.%X:X:XeXuXuXrXiXiXiXiXrXiXiXiXiXrXuXuX7X=X=X=X=X=XuX7XrXrXrX7X7XrXtX7X7X:X-X=X-X%X$X$Xp.i.q.r.a.+.+.Q T +.r.r.i.p.wXrXrX=X%Xg.f.>X$Xf.d.p.f.y.~ -.-.-.u.r.d.*X-Xp.r.u.f.=X6XNXNX[.tXtXtXrXuX-X#X7X7X&XiXaXO.+.+.oXoXq.+.y.Q ~ -.i.;.-.+.q.#XoXw.iX&XoX*.*.].kXgXjX1X*.o.+.*.p.+.u.a.;.+.W W ! -.-.+.i.r.+.+.p.-X&X*XtX7X6XrX7X#X#X&XNXNXvXNXSXtX[.&.O.E R E Q W Q E E E +.r.! D S D 7 8 6 6 6 6 < 6 6 6 6 6 6 6 w 6 6 3 3 < < < 4 2 2 4 , % % % % * $ % % % % % % $ % % % % % % % % $ $ $ $ @ @ @ @ @ @ @ @ @ @ @ @ @ @ @ O + + * * * * @ @ @ @ @ @ @ @ % , u s g ( ) ` :.>.<.<.<.<.<.>.<.<.<.>.",
",.,.#.>.<.,.,.,.>.,.>.>.4.4.>.>.>.>.>.>.>.>.>.,.,.3.,.n.n.n.n.n.3.3.M.,.n.n.n.n.,.1.,.<.,.,.,.,.1.b.b.b.n.1.n.B.b.b.b.M.b.,.b.,.n.n.M.M.n.n.n.n.n.3.n.n.1.1.1.1.<.5.6.a.w.w.w.#X-X:X:XuX:X:X:X=XrXtXtXNXNXNXpXuX$Xi.y.y.y.t.t.t.t.t.;.~ W W T T ^ ^ Q i.h.h.h.h.;X:X:XuXrXrXrXtXiXiXiXiXiXrXrXiXiXrX7X=X=X=XeX=X=XrXrXuXrX7X7X7XrXpX=X:X-X-X:X=Xf.f.$X$Xf.u.a.r.r.y.+.+.u.d.f.p.-X=XrXrX=X$Xg.f.f.%Xd.-Xd.f.t.~ -.-.-.r.r.u.-X-Xd.u.r.r.%X&XpXSXyXtXNX7X=X:XuX].-X7X=XrXpX-X+.+.+.r.r.r.-.Q Q W -.a.r.+.q.u.f.w.].qX-Xw.*.oX].lXgX8XC z O.-Xp.p.w.w.a.a.-.-.Q W +.r.q.u.p.w.w.$X-X#X[.7XrX&XrXiX&Xe.e.7XNXyX[.tXw.m X.o.+.E ! ! Q Q ! W ! Q r.+.D D D e 6 6 6 6 6 6 6 6 6 6 6 6 3 3 3 3 3 3 < 3 4 2 2 4 2 2 % $ % % * % * * $ $ $ $ $ $ % % % % % % $ $ $ $ $ @ @ @ @ @ @ @ @ @ @ @ @ @ $ $ $ $ $ $ $ $ * @ @ @ @ @ @ * 2 u t s g ) ` o.4.4.<.<.<.<.<.<.<.<.>.>.",
":.,.:.>.<.,.,.,.>.,.>.>.4.4.>.>.>.>.>.>.>.>.,.,.,.3.,.n.n.n.n.n.3.,.,.,.n.n.n.n.,.1.,.<.,.,.,.,.b.,.,.n.1.B.B.n.n.n.n.n.M.b.,.b.M.M.M.M.M.n.n.m.n.1.n.<.1.1.1.1.1.5.@X:XaXsXsXaXaXuXuXuXrX=X:XuXNXNXNXNXNXNXrX=X%Xd.i.i.t.y.-.-.-.-.^ W W T ^ ^ ^ Q i.i.h.>Xh.;X;X=XeXuXrXrXrXrXrXrXiXpXiXrXrXrXuXuX7X=X7X:X=X=X=XrXrXuXrXuXuXuXiXuX=X=X=X:X=X#X$X>X$X-X;Xf.u.a.a.i.u.p.-X=Xp.d.-X&XrX7X=X$Xf.f.f.%X#X=X-X$Xu.-.~ ~ ~ -.r.q.d.#Xd.u.y.-.r.-XrXpXvX6XNX6X-X#XaX-X-X:XrXrXtX*Xd.+.+.+.+.+.r.Q -.Q W r.r.r.r.i.f.$Xw.-XuX=Xp.w.&.].kX].c c O.#X%X:X%Xd.p.d.a.a.-.+.+.+.q.u.p.$Xp.p.#X-X-Xw.w.*X&X&X7X*Xe.C O.6X9XC &.oXO.R E +.+.Q +.+.r.r.i.r.q.q.r.Q r 4 6 6 6 6 6 6 3 6 6 6 6 6 3 3 6 6 s 3 3 4 4 2 2 2 2 2 & % % % % * * * * $ $ $ $ $ $ % % % % % $ $ $ $ @ @ @ @ @ @ @ @ @ @ @ @ @ @ $ $ $ $ $ $ $ $ + * * * @ @ * * 2 3 s P ` o.#.4.4.<.<.1.<.<.<.<.<.<.>.>.",
",.,.:.>.,.,.,.,.>.4.4.>.4.>.>.>.>.>.>.>.>.>.,.,.3.3.,.m.3.3.3.n.3.1.M.n.n.n.n.n.,.3.,.,.M.,.,.,.b.n.n.n.n.n.b.b.n.n.n.n.n.n.3.3.,.n.,.n.n.n.n.n.,.n.,.n.1.,.,.,.1.W.XXoX&X7XiXiXaXaXpXpX7XrXiXpXtXNXNXNXtXrX7X7X7X:X>Xi.j.t.y.y.-.^ W W W W ^ W ~ i.i.h.>X>X;X;X:X:XeXeXuXuXuXuXuXiXiXiXiXrXrXrXrXuX7X7X7XuX=X=XrXrXuXuX=XuXuXuXuX%X=X=X=XuX-X=X=X=X7X7X:Xp.p.:X:X#X-X*XtX7Xp.f.-X7XtX7X=X$Xf.d.f.$X#X*X7X=Xf.r.~ ~ ~ ~ y.q.p.#Xd.u.t.-.Q s.=XpXNXtXvXNX7X#XpXiX#XuXtXtX=X-X#Xw.a.r.+.+.r.+.q.u.+.+.r.u.s.i.u.f.$Xp.=X=X=X#XO.m R X.X.c O.u.p.=X7XuX#X-X#X#Xp.w.q.q.q.q.p.d.$X$Xp.w.p.-Xw.w.w.*.w.w.].w.X.c &.qX&.M *.oXO.R E Q Q +.-.r.s.f.g.u.q.+.+.r 4 w 6 3 4 3 3 4 3 3 6 6 6 3 3 3 3 3 3 3 3 4 2 % o * * * % % % % % % % $ $ $ $ $ $ $ $ $ $ $ $ $ $ $ @ @ @ @ @ @ @ @ @ @ @ @ @ @ O @ @ $ $ % % % % $ + + * $ $ % z n x d I ) ) #.#.:.>.>.<.<.<.<.>.>.>.>.",
">.,.>.>.,.>.,.4.4.4.4.>.>.>.>.>.>.>.>.>.>.>.,.,.,.3.,.m.3.3.3.n.3.3.M.M.n.n.n.n.,.n.,.,.,.,.,.,.,.b.n.b.b.b.b.b.n.n.n.n.3.,.,.,.n.n.M.n.n.n.3.n.n.,.n.,.1.1.1.1.n.C.XXqXqXiXiXiXuXiXaXiXiXpXpXrXNXpXtXtXrXiXpXNXMX7X$Xi.y.y.-.-.-.^ W W W W ~ y.h.h.h.h.h.>X;X;X:X=X=XuXuXuXuXuXiXuXuXrXuXrXrXrXuXuX7X7X7XuX=X=X7XrXuXrXuXuX:X:X%XeX:X:XuX7XrXuXrXrXtXtX=X$X=XuXrX7X7X6XyX7Xp.f.-XtXyXtX%Xf.f.d.f.$X#X-X7XrX*Xu.r.~ ~ ~ -.r.w.-X#Xd.u.r.Q i.wXNXNXNXyXNXrXrX*XSX#X-X7XiX=Xw.#X#XoXp.w.q.p.w.w.=Xr.q.+.u.u.%Xf.f.f.f.p.=X=X=Xp.R L R 3 c O.r.a.p.#X=XwX=XrX*X-X-X#Xw.w.w.q.w.p.u.d.p.u.q.+.q.+.X.E E m X.X.m 3 c ].].j c w.p.E R W ! Q +.q.u.h.%X%Xu.q.q.R q 4 4 4 3 3 3 3 3 3 3 3 3 < < < < 3 3 3 3 2 % % % * * + % % % % % % $ $ $ $ $ $ $ $ $ $ $ $ $ $ $ @ @ @ @ @ @ @ @ @ @ @ @ @ @ @ @ @ $ + + % % % $ + * X @ X * 4 3 z P ) #.#.#.:.<.<.<.<.<.>.>.>.<.>.>.",
">.,.>.>.,.,.,.,.4.>.4.>.>.>.>.>.>.>.>.>.>.>.,.>.>.3.,.m.3.3.3.n.3.,.,.,.,.,.,.,.,.,.n.,.n.n.n.n.,.b.,.,.b.,.b.b.M.n.n.n.n.n.n.M.,.,.n.n.M.,.,.,.n.B.n.n.1.1.1.1.n.U..X3X@X-X=X-X7X7X7XuXNXiXrXpXiXiXiXpXpXpXpXpXtX7X;Xf.i.y.y.-.;.-.~ Q -.j.h.h.h.h.h.h.h.>X;X;X=X:XeXeXuXuXuXuXuXuXuXuXuXuXuXuXuXuX:X:X:XuX=X=XrX7XrXuXuX=X=X=X:X:X:XaXuXpXpXtXtXtXtXtX*XrXiXiXrXrXiXrXvXrXd.f.-X7XtXrX$Xi.i.i.f.f.f.$X7XtXrX-Xp.u.r.r.r.r.w.-X*X-Xd.u.q.d.tXnXnXvXnXNXNX6XtX&XNXw.oXa.uXw.w.-X&X#Xw.p.].&Xw.-X%Xw.p.w.p.f.;Xf.g.g.f.p.=XuXw.O.E O.c v +.+.+.r.w.p.-XrX*X=X-X#X=XrX7X[.w.w.w.p.q.q.r.a.+.W W +.+.R v R e w x x 3 X.].C q X.w.X.R ! ! W Q +.u.f.;X:X;Xu.q.+.r q 4 4 4 4 4 4 3 3 3 3 3 3 3 4 4 4 4 3 2 4 2 % $ * + + + $ % % % % % % % % % % % % % % % $ $ $ @ @ @ @ @ @ @ @ @ @ @ @ @ @ @ @ @ @ $ $ $ $ $ $ $ $ X X X * % 4 s b _ o.o.#.#.>.<.4.<.<.<.<.<.<.<.>.",
">.>.>.,.,.>.,.4.4.4.4.>.>.>.>.>.>.>.>.>.>.>.,.>.,.3.>.m.3.3.3.n.,.,.,.,.,.,.,.,.,.n.,.,.,.,.,.,.,.b.,.,.,.,.b.b.M.M.n.n.,.,.,.,.n.,.n.,.,.,.,.,.,.,.n.1.1.n.1.b.B.N.N.F.<XqXqXaXiXaXaXaXuXuXiXuXuXuXuXiXpXiXtXtXrXuX:Xf.i.i.t.t.t.y.t.h.h.h.s.s.h.h.h.h.h.>X;X;X:X=XwXeXwXrXrXuXuXuXuXuXuXuXuXuXuX:X:X:X:XuX=X=X=XrXrXrX=X=X=XuXaXuXuXiXiXNXtXpXpXtXtXtX*XiXpXtXrXiX6XtXNXrXd.d.#X7X6X7Xf.i.i.i.f.f.f.$X7XrXrXrX=Xd.u.f.i.r.p.-X&X7X-X=Xp.-XtXnXnXnXVXNXAXyXSX[.6XqX*.E *.qXX.#XtX6Xw.w.&X[.&X].=X#Xw.:Xp.$Xp.$Xf.s.f.f.w.uXp.O.O.+.+.+.Q Q +.r.r.w.q.w.=X-X%X#X#X&X7XuX=Xw.+.+.q.+.Q +.+.W D D L E L e e L e e e w z &.*.m c O.q.Q ! ! Q +.+.q.u.d.d.:X;Xd.q.Q O.X.m c 3 3 2 2 2 3 3 3 3 3 4 4 4 , , 2 2 % % % % $ + + % % % % % % % % % % % % + % % $ $ $ @ @ @ @ @ @ @ @ @ @ @ @ @ @ @ @ @ O @ @ @ $ $ $ $ $ @ @ @ $ % 2 4 < 7 G I ` #.>.<.<.<.<.>.>.<.<.<.>.",
"<.>.>.>.,.>.,.>.4.,.>.>.4.4.>.>.>.>.>.>.,.,.,.>.3.3.>.3.,.>.3.3.,.,.,.,.,.,.,.,.,.,.M.n.,.,.M.n.,.,.b.<.,.<.b.b.n.,.M.M.,.,.,.,.n.<.,.,.,.,.,.M.,.1.1.1.n.,.n.B.B.OX3X0XqX7X7X7XiXiX7X7XuXuXrXrX7X7XrXrXrXrXrXtXiXuX:X$Xh.h.i.i.i.i.i.i.s.s.s.s.h.h.h.h.h.h.>X;X%X:X=XeX=XwXrXuXuX:XuXuXuXuXuXeX:XeX:X:X:X:X=X=X=X=X=X=X7X7XuXiXiX7XtXpXNXvXNXNXpXtXrXrXyXvXtXtXtXtX6XpXNX7X$Xf.f.=X*X=Xf.i.i.a.p.f.f.d.=X7XtXtX=X-Xd.d.f.p.p.#X*XrXtXyXtXtXtXnXnXvXAXVXVXvXvXNX&.&X$XE v >XX.&.tXtX&Xw.&X6X[.6X#X=X#Xp.:X#X7X-Xf.;X$Xp.r.u.:X+.O.O.+.+.+.! +.r.+.p.q.O.+.a.$X-Xw.*.a.p.-XuX=Xw.+.+.Q ! ! ! ! D e 7 7 e 7 7 7 7 w e e w E *.*.E E +.r.+.Q +.+.-.+.q.+.+.Q q.q.+.E R E X.E R v k 3 3 2 2 4 4 4 4 4 2 2 2 2 % % % % % $ $ $ + + + % % % % % % % % % $ $ $ $ @ @ @ @ @ @ @ @ @ @ @ @ @ @ @ @ @ @ @ @ @ @ X $ $ $ $ @ @ X @ * % 0 b ` :.:.4.:.>.<.<.<.<.>.>.>.>.>.>.",
"<.>.>.>.,.>.,.>.4.3.>.>.4.4.>.>.>.>.>.>.,.,.,.,.3.3.>.3.3.>.3.3.,.,.,.,.,.,.,.,.,.,.M.n.,.,.,.n.,.,.b.<.b.b.,.,.,.n.,.M.M.,.,.,.,.n.,.,.>.,.>.,.1.1.1.1.,.1.n.<.6.G.F. XoX<XqXiXiXuXuXaXaXpXpXiXuXuXuXiXiXpXpXpXaXuX%X$Xf.s.s.s.s.s.i.i.h.h.s.s.h.h.h.h.h.s.h.;X%X=X%X=XeXwXwXuXuXuXuXeXuXuXuX:X:X:X:X:X=X=X%X%X=X:X:XuXuXrXiXiX7XiXNXSXvXcXNXNXtXpXrXtXtXNXtXyXpXtXyXpXpX=X=X%Xu.:X%X$Xp.i.i.i.d.$Xf.f.=X7XtXtXrX=X%Xp.$Xp.u.d.-X7XvXyXcXvXvXVXnXmXyXNXVXtXtXNX7XC #X*.e E L m iXtX7X].w.*XyX6X7X-X=X#Xw.7X7X7X-Xp.%Xf.r.+.+.p.p.+.X.O.E E R E O.r.>X+.W E X.a.a.+.W +.O.*.e.w.p.+.+.o.W ! L L D e 8 8 S 7 7 7 6 e D D v x O.w.+.W Q +.+.+.+.+.r.y.+.+.! r r R m q 4 4 4 4 4 4 2 2 2 2 2 2 2 4 2 2 2 2 2 2 % % $ $ $ $ $ $ $ $ $ % % % % % % $ $ $ $ $ @ @ @ @ @ @ @ @ @ @ @ @ @ @ @ @ @ @ @ O $ $ * @ * * @ @ $ $ $ $ * % 2 6 ) ` #.:.:.>.<.<.<.<.>.>.>.>.>.>.",
"<.>.>.>.,.>.,.>.4.3.>.>.4.4.4.>.>.>.>.>.,.,.,.,.3.3.>.3.3.,.3.3.,.,.,.,.,.,.,.,.<.,.,.1.,.,.M.n.,.,.n.<.,.<.n.,.n.,.M.,.,.,.,.,.n.,.,.,.,.,.>.,.,.1.1.1.,.1.1.<.<.<.C.J.@XqXqX=X7XpXpXiXiXpXpXpXpXpXpXpXiXaXrXrX=X=X%X$X;X;Xh.s.i.j.s.h.h.s.i.s.i.s.s.s.i.f.h.f.%X%X=X=XwXwXwXeXuXuXuXuXuXuXuXuX:X:X:X:X%X%X%XeX:X:XeXuX7XuXiXrXiXNXNXtXcXvXNXvXtXtXNXMXpXtXyXNXNXrXNXtXrX=X=X$Xq.>Xf.r.f.f.i.i.f.%Xf.$X-XrX7XrXrX7X=X-Xd.f.i.r.#X6XvXyXcXvXnXnXvXyX[.tXtXSX7X&XNX&.m oXe D D w &XpXtX*Xw.#XrXtX7XrX7X=X[.w.-XaX*X].+.a.+.Q Q O.E w.w.O.o.L R E R +.:Xp.+.! ! E E +.+.E E O.O.O.X.+.+.+.O.E E W ! L D S 8 7 S D e 6 7 U U E E E +.r.q.+.r.+.+.+.+.-.-.-.y.Q v 4 4 3 0 3 2 2 4 , 3 4 3 3 2 4 4 4 2 2 2 2 2 2 2 % $ $ $ $ $ $ $ $ $ $ $ $ $ $ $ $ $ @ @ @ @ @ @ @ O @ @ @ @ @ @ @ @ @ @ @ @ @ @ $ * + % % % $ + + $ $ $ $ * % 2 < F ` #.:.:.>.<.<.<.<.>.>.>.>.>.>.",
"<.>.>.>.,.>.,.>.4.3.>.>.4.4.4.>.>.>.>.>.,.,.,.,.3.3.>.3.3.,.3.3.,.,.,.,.,.,.,.,.,.,.,.3.,.,.M.n.,.,.n.,.,.,.,.,.,.n.<.,.n.n.n.n.,.n.,.>.,.,.M.M.,.1.1.1.n.1.1.,.<.B.Z.5.6.XX>X7X7XiXiXpXpXpXrXrXrXrXrXrXrXrXrXuXuXeX=X%X%Xf.f.s.h.j.j.i.s.s.i.i.i.i.i.i.s.s.f.f.h.f.f.%X%X=XeXuXuXuXuXuXuXuXuX:X:X=X:X=X:XeXeX%X:X=X=X=X7XuXrXpXNXNXtXtXvXvXvXtXtXiXNXNXiXtXvXAXtXpXpXtXiX#XeXp.q.i.i.+.f.f.u.r.$X-X-X-X*XrX=X*X7XrX7X*X-X%Xi.r.d.=XtX6XyXvXvXvXvX*X].].7XtXaXw.[.7Xm +.L 7 S 8 O.*XpXNX#XO.&.iXuX&XrXrX-X-Xp.w.*X#Xp.E o.E L X.O.q E *.+.L L D L R +.:Xp.E W W E L L W E L U E E X.+.+.+.+.+.W +.+.W ! D e 7 7 D e 7 8 7 D T W +.+.+.r.r.u.u.u.-.-.+.-.q.q.+.+.m 0 4 2 1 k 1 2 2 2 2 2 1 1 1 1 2 2 2 2 2 , % * % $ $ $ $ $ $ $ $ $ $ $ $ $ $ $ @ @ @ @ @ @ @ @ @ O @ @ @ @ O O @ @ @ @ @ @ @ O * $ % & % % & % * * o * * 2 k b ) ` #.:.:.>.<.<.<.<.>.>.>.>.>.>.",
"m.>.>.>.>.4.4.>.>.>.4.>.4.>.>.4.>.>.>.>.>.>.,.>.,.n.,.M.,.,.,.>.,.,.,.,.,.,.,.,.,.,.,.n.,.,.,.,.,.,.M.,.n.n.M.n.M.,.n.M.M.M.M.M.n.,.3.,.>.,.,.,.,.,.,.,.3.1.,.<.<.<.6.S.J.@X-XiXiXpXNXiXiXuXuXuXuXaXuX7XuXuXiXiXrXwX=X=X%X%X>Xh.j.t.s.s.h.h.f.i.i.t.i.s.i.s.h.s.r.i.h.a.d.:X:X:XuX=XuXuXeXuX:X:XuXuX:X:XeX=X:XeX=XrXrXrXrXuXaXiXiXtXtXvXVXVXcXtXpXtXNXiXtXiXNXNXpXiXtXpX&X%X;XQ +.f.a.+.$Xu.i.q.=X7X*X=XrX6X=X*X*XrXtX6X6X-Xf.u.u.$X7XtX6XNXvXvXyX*Xw.p.qXw.-Xp.O.p.O.v X.7 7 8 L +.O.iXSX*XE O.p.$Xw.-X=X#X#XoX].&.*.O.v L L 6 X.E 4 w O.X.x e D r v +.:Xw.o.o.E E E D D W U D U D U W +.+.+.+.W o.o.o.W R D 7 e e S e 7 8 7 D W -.;.r.r.+.+.-.-.Q R E E +.r.r.E c q 2 * % 2 1 2 2 2 2 2 % % % 2 2 1 2 2 2 % % $ $ $ $ $ $ $ $ $ $ $ $ @ @ @ $ @ @ @ @ @ @ @ @ @ @ @ @ @ $ O @ @ @ $ $ @ @ @ @ $ $ $ $ $ $ $ $ $ * X * $ * 3 6 d ) ` #.:.>.,.<.,.,.<.<.>.>.>.>.",
"3.>.>.>.>.>.,.>.>.>.4.>.>.>.>.>.>.>.>.>.>.>.,.>.,.,.>.,.,.,.,.,.,.,.,.,.,.,.,.,.,.,.,.M.,.,.,.,.M.M.n.M.,.,.n.n.M.M.M.n.M.M.,.,.n.,.,.,.3.,.3.,.,.,.,.,.3.,.,.<.<.<.C.Y.@XqXiXNXpXpXiXiXiXaXaXuX=X=X7XiXiXpXpXpXpXpXuXuX:X>X>Xi.t.i.g.%X%X%X$X;Xh.i.i.i.j.y.+.-.r.r.Q Q i.;X%XuX%X=X=X:XuX=X:X=X:X:X:X:X=XeXeX=XwXrXuXuXuXuXuXrXiXpXNXAXvXcXtXNXpXpXiXrXiXiXNXpX-X-XiX7X=X:Xi.! +.f.r.+.$Xp.u.w.7X7X7X7X7X&X*X*X*XrX*X6X6X6X$Xu.+.r.p.-X7XyXvXNXrX=X-Xw.:Xa.*.a.X.v *.w E e D 8 D W E x m #X>XE R E O.O.*.p.+.X.*.w.m E L x x x 4 R E 3 4 c X.v w r L v O.w.E E +.+.o.o.E U U U D U D D D ! W W +.+.+.Q +.+.E U D D D D D S D D D e D ! +.-.+.+.Q W E v 3 q c X.+.X.0 9 2 % % * * % % % % % * * % 2 2 2 2 2 % % % % % % $ $ $ $ $ $ $ $ @ @ @ @ @ @ @ @ @ @ @ @ O O @ @ @ $ O O $ $ $ @ @ @ @ @ @ @ @ @ @ @ @ $ $ + * o * 2 z b ) o.:.4.:.4.,.<.,.,.<.<.>.>.>.>.",
",.>.4.>.>.>.>.>.>.>.4.>.>.4.>.>.>.>.>.>.>.>.,.>.>.,.>.,.,.,.,.,.,.,.,.,.,.,.,.,.,.,.,.,.,.,.,.,.,.,.,.,.n.,.,.,.,.M.M.n.3.3.M.M.3.n.,.,.>.,.>.,.3.,.,.,.<.3.,.,.,.B.J.+X5XqXaXpXiXNXpXiXrXrXrXrXpXpXNXNXNXNXNXNXNXNXiXrX%Xs.t.t.i.i.$X=X=X=X7XuX>Xh.h.+.W W ;.^ W W W +.s.f.;Xf.%X;X;X:X$X%XeX:X:X:X:X:X%X%X:X=XeXrXuXuXuX=XuXaXpXNXNXNXcXyXNXiXpXuX=XiXiXiXpX7Xw.-X7X7X=X;XQ T r.$X+.-.p.u.r.+.tXyXtX7X:Xw.&X*Xe.&X&.&X6X&X-Xr.-.-.a.$X7X6X7XiXaXw.uXp.p.p.o.o.+.w +.L U D D S S D W ! S S U o.E U L D D D R R c X.*.0 z 6 x x 6 6 x L 6 4 0 O.X.0 x x w e.X.0 v X.O.+.+.+.+.O.X.E D T W ! ! ! ! ! W W +.+.+.o.E L D e e e e e R L D e r W +.Q +.W R e 0 3 2 2 9 C X.v 3 2 $ $ * * * * * % % % % % % % % % % % % % % % $ $ $ $ $ $ $ $ @ @ $ $ @ @ @ @ @ @ @ @ O O O @ $ @ @ O $ $ $ $ * * * * $ @ @ @ @ @ @ $ $ + + % % 2 s P ` #.:.4.4.4.,.<.,.,.<.<.>.>.>.>.",
">.>.4.>.>.>.>.>.>.>.4.>.>.,.:.>.>.>.>.>.>.>.,.>.>.,.>.>.,.,.,.,.,.,.,.,.,.,.,.,.,.,.,.,.,.n.n.,.,.M.M.M.,.,.,.,.,.M.,.n.1.,.,.M.3.n.,.,.,.,.,.,.3.,.,.,.,.,.3.,.N.N.XX<X<X&XuXiXNXNXNXpXpXpXNXNXpXpXpXtXvXvXNXvXVXNXtX*Xp.u.t.i.i.;X:XuX7XuXuX:X>Xh.a.+.W W T T W Q Q y.i.s.s.h.f.h.;Xf.;X;X%X:X:X;X;X:XeX:X:XeXeXuXuXaX=X=XaXaXNXNXNXtXtXpXtXpXiX7X7XiXiXiXaXp.#X:X=X7X;Xr.T W r.$X+.r.a.r.+.+.7XcX6X7Xp.+.#Xw.X.O.m X.&.&.*.r.~ ~ ;.i.-X7X#X-XaXw.d.$Xq.r.o.T X.x L L D D D D S T T W T S D S S S D 7 7 7 7 e w 3 c c 6 6 x d 6 6 6 e x v z 2 &.O.w w w k e.c k w v E O.O.O.O.+.+.+.W E W W W W W W W E E o.+.+.+.o.E R R e e e R L e D L R R L o.E L 3 2 1 y % o 2 c c 9 % $ * * * * * % % 2 % $ $ * $ $ $ $ % % $ $ $ $ $ $ $ $ $ $ @ @ $ $ @ @ @ @ @ @ @ @ O O @ @ @ @ @ O $ $ $ $ * * * $ $ @ @ @ @ @ @ $ $ & % % % 2 < 7 I ` #.:.4.4.,.<.,.,.<.<.>.>.>.>.",
",.>.4.4.>.:.>.>.>.>.>.>.>.>.>.>.>.>.>.>.>.>.>.>.>.,.>.,.,.,.,.,.,.,.,.,.>.,.>.,.,.,.>.,.,.n.,.>.,.,.M.M.,.M.,.,.,.,.,.,.,.,.n.n.n.,.,.,.,.,.,.,.3.3.,.,.,.3.3.<.5.N. XoX6XtXSXSXSXAXSXSXNXpXuXeX%Xg.$XwXrXtXvXvXvXvXrX-X%Xh.s.h.eXuX:X:X;X>X>Xi.t.y.;.~ W W Q Q +.y.t.t.i.h.h.s.f.h.f.h.;Xf.;X:X;X;X;X:X:X%XeXwXeXuX:X:X-XuX:X=XrXpXNXiXiXuXaXuX7XqX7XpXuXuX$Xu.$XoX7X7Xf.W T T +.a.+.;.;.+.+.w.iX6X[.=X+.! p.+.L D D D X.X.e ;.W W ~ y.p.%X#X+.aXw.+.>Xa.+.=.D U L D U T D D D D T T W W T T W ! D D D e 7 7 6 6 6 3 3 6 6 x 6 6 6 7 7 D x X.*.C C X.z z 3 l *.k 0 3 0 z v L L R X.+.+.O.O.E W W W +.+.W W W W +.+.+.o.E R E L D L L D D D D L L r R R r 3 4 2 2 % % o 2 2 1 1 2 2 * * * * * * % * % * $ $ % % % % % % $ $ $ $ $ @ @ @ $ $ $ $ $ $ @ @ $ $ $ $ @ @ @ @ $ @ @ O X X X X @ @ @ @ @ @ @ @ @ @ @ @ @ @ $ % 1 1 3 5 P ` 4.4.4.4.,.<.,.>.>.>.>.>.>.:.",
">.>.4.4.>.>.>.>.>.>.>.>.>.>.>.>.>.>.>.>.>.>.>.>.>.,.>.,.,.,.,.,.,.,.,.,.,.>.,.>.,.,.>.,.n.>.,.,.,.,.,.,.,.M.,.,.,.,.,.M.,.,.n.n.,.n.n.,.,.,.,.,.3.3.,.,.,.,.,.n.6.+X<XqXMXSXSXSXNXtXyXtXrXrX=Xd.d.%XeXuXiXiXtXcXMXtXuX:Xf.f.u.f.d.d.d.i.i.i.t.y.t.;.-.^ ^ ;.-.-.j.j.j.s.s.h.s.h.f.f.h.;Xf.;X;X;Xf.;Xh.a.%XeX%XwXeX%X:X%X=X=X=X=XuXaXuX7X:XaX=XuX=X:XuXuX-Xd.f.u.$X:XiX-Xa.W W T a.+.;.-.+.+.;.$X7X].&XoXW ! ;.O.D D D D D U e D T T W Q ;.f.d.O.p.f.r.r.a.W W T D U D T W W ! =.Y T W W ^ ^ T Q ~ W Q -.W e 7 e 6 6 6 6 6 6 6 6 6 6 7 7 8 6 v X.*.&.O.X.n z 2 n O.3 4 3 < < 6 x x w w c E E X.E L D U U ! ! W W W X.O.+.+.E E o.W L D ! L D L D L L w w e x w 2 4 % % % % 2 2 2 1 2 2 % % * * % * * % % % % % % % % % % $ $ $ $ $ $ @ @ @ @ $ $ $ $ @ @ $ $ $ $ @ @ @ @ @ O @ @ @ @ @ @ @ @ @ @ @ @ @ @ @ @ @ @ @ @ * * * % z x ) ' ' #.:.,.,.,.>.>.>.>.>.>.:.:.",
",.>.4.>.4.>.>.4.4.>.>.>.4.>.:.>.>.>.>.>.>.>.>.>.>.,.>.,.,.,.,.,.,.,.,.,.,.>.,.,.,.,.>.,.,.n.,.,.,.,.M.n.,.M.,.,.,.,.M.M.M.b.n.n.m.,.,.3.,.,.,.,.3.,.,.,.<.3.3.<.6.<.<.6.6.oXqXrXrXrXrXuXiXuX-XuXaXiXrXrXiXiXpXaXaX:Xf.s.s.u.d.d.$X;Xh.y.t.t.j.j.y.;.-.y.y.y.t.y.t.j.j.h.h.f.f.$X;X%X%X$X;X>X;Xi.i.f.t.r.eX%X%X:X%X%X:X%X=X%X#XuXuX:X%X$X:X$X=X=X$X%X:X$Xu.$Xp.-X-XuX:Xp.;.W W W ;.Q ;.Q Q Q a.-XoX*.oX+.W ! +.E D D D D S F S S D D T W ^ ;.a.+.Q h.r.Q ;.Q W T T T T D W -.Q ;.;.W Q Q ^ ;.~ W ;.^ ^ ;.;.W L e 6 6 6 z 7 6 6 3 3 6 6 6 6 3 3 m m C &.&.&.k 3 3 v R 3 6 6 < < 5 6 e w w 6 e e e D U ! W +.W E +.O.O.O.O.+.+.E R E +.W R R R L L D e r r 3 0 0 k 3 1 2 2 + % % % % 2 2 2 2 2 2 2 % % * % % % % % % % % % $ $ $ $ $ $ $ @ @ $ $ $ $ $ @ @ $ $ $ $ @ @ @ O $ $ $ & $ $ $ $ @ @ @ @ @ @ @ @ @ @ @ @ $ $ + + * , s P ` ` ` ` :.4.,.<.,.>.>.>.>.>.>.>.",
"4.>.>.>.4.4.>.4.4.>.>.>.:.>.:.>.>.>.>.>.>.>.>.>.>.,.>.,.,.,.,.,.,.,.,.,.,.<.>.,.,.,.>.,.,.,.,.,.,.,.,.,.,.M.,.M.,.,.M.M.M.M.n.n.n.n.3.,.,.,.,.,.3.3.,.,.1.3.<.,.<.<.1.^.J.@XqXuXuXuXuXuXuX=XuXuXrXrXtXrXrX7X*X-Xp.a.f.s.h.;XeXeX;Xu.r.y.y.y.-.Q ~ y.y.;.;.;.;.;.t.j.i.h.f.f.f.%X%X=X%X:X;X%Xh.s.i.;Xi.u.:X%X%X;X$XeX$X:X%Xp.;X:X:Xf.f.>X>X>X>X$X$X:X;Xf.;Xf.-X-X#XuXp.a.;.W W ;.Q Q +.Q W Q a.oX+.+.r.W T ! o.L D S D 7 7 e e D D S D T T W -.;.! -.;.~ ;.^ T W W T W W W ;.r.i.a.a.r.a.-.-.~ ~ W ~ W W W W o.D e 6 6 x P 7 6 3 3 3 6 6 6 w 6 4 v v k &.&.O.v 6 4 w e 6 6 7 6 8 8 8 8 7 7 D D ! W +.+.r.a.i.a.p.p.a.oX*.*.w.w.+.R r E E E R L L e e w w w 0 3 2 3 1 1 1 2 % $ + * % , 2 2 2 2 2 2 2 % % % % % % % % % % $ $ $ $ $ $ $ $ $ $ $ $ $ $ @ @ @ $ $ $ @ @ O @ X O @ O $ $ $ $ @ @ $ @ @ @ @ @ @ @ @ @ $ $ + + % 4 3 s G ) #.:.4.:.>.,.,.>.>.>.>.>.>.>.",
",.>.>.>.>.>.>.4.:.>.>.>.:.>.>.>.>.,.,.3.,.,.>.>.>.,.>.>.,.,.,.,.>.>.>.>.,.,.,.>.,.,.,.,.n.,.3.>.M.,.n.,.M.M.,.,.,.3.n.,.3.n.3.3.n.n.,.,.3.3.n.n.,.,.<.<.3.,.>.<.<.<.6.F.oXqX7XuXeXeXeXeXeXeXwX=X=XrXwXuX=Xp.w.#X-X:XuXuXeX;Xf.q.q.i.h.;.W ^ W -.-.;.;.;.;.~ ~ ;.t.s.f.:X;X%X%X%X%X=X=XrX=X;Xs.i.f.;Xu.i.;X%X$X%XuX%X$X$Xh.i.u.h.i.i.f.h.;Xf.i.h.>X>X$X;Xf.p.$Xp.$Xf.a.6.o.W +.Q W -.Q W Q Q r.+.W +.Q W D W W D S 7 e 7 6 e S S D D D D T T W W W W ^ W ^ W T W o.W +.a.a.w.a.p.p.:X=X#Xp.Q +.W W W W T D L E U e 7 7 6 7 x x x 6 6 6 6 6 6 6 6 6 x v x X.o.o.D D 8 S D D D D D D D D D T ! W W -.-.-.r.r.i.f.;X$X#X7X7X&X[.].w.w.O.E r w w r v x e w w 0 3 3 2 2 2 2 2 1 1 2 2 % % , , 4 , % % 2 2 2 2 % * % % % % & % $ $ $ $ $ $ $ $ $ $ $ $ @ @ @ @ @ $ $ $ @ @ @ @ @ @ X X @ @ @ @ @ @ @ @ @ @ @ @ @ @ @ @ @ O + + 1 , < s F I ` :.4.4.>.<.>.>.>.>.:.:.:.:.",
",.>.>.>.>.>.>.>.>.>.>.>.>.>.:.>.>.,.,.3.,.,.>.>.>.,.>.,.,.,.>.,.4.>.,.>.,.,.,.,.,.,.,.,.,.,.,.,.>.,.,.,.,.,.M.M.3.n.n.n.n.3.3.3.n.n.,.,.,.,.n.n.,.,.,.<.<.<.m.1.6.<.6.oXqXaXaXuXeXeXwX=X=X%X%XeXwX=XpXpXuX:XuXaXaXuX=X-X$Xp.f.f.h.i.Q W ^ ^ ;.y.;.;.;.^ ^ ;.y.j.f.$XuX:X$X%X%X=X=X7X7XrXuX$Xi.f.$X>Xa.f.;X$X$X%X:X$Xp.f.i.Q h.i.-.t.t.h.i.+.y.h.h.a.i.a.r.a.r.a.i.r.;.=.W W ;.W W ;.W W W ^ ;.W W W W ! D W Y S S 7 e 7 7 e D D D D D D D T T T W T W W ~ W T W ;.p.*.w.-X&Xw.w.w.-XrX*Xp.+.! W T T T D e e 7 e x x e e 6 6 7 P x e 6 6 6 6 6 6 x 7 7 e 7 U ! W ! D T W W W ! ! W Q W W Q -.;.Q Q Q Q -.t.i.i.u.d.p.w.*X7X6X6X&X].e.*.O.X.v q 0 w 6 3 3 2 2 2 2 2 2 2 2 1 1 1 1 2 2 2 2 2 % % 2 % % % % % % * * % + + % $ $ $ $ $ $ $ $ $ $ $ $ @ @ @ @ @ @ @ $ @ @ @ @ @ @ @ @ @ @ @ @ @ @ @ @ @ @ @ @ @ @ @ @ O O @ * % % u x ) o.#.:.:.4.>.,.>.>.>.>.:.:.:.:.",
",.>.>.>.>.>.>.>.:.>.:.>.:.>.>.>.>.,.,.3.,.>.>.>.>.,.>.,.,.,.,.,.>.,.,.>.,.,.,.,.,.,.>.>.,.,.,.,.M.>.,.,.,.,.M.M.,.,.,.,.M.,.3.3.n.n.,.,.,.,.,.,.,.,.<.,.<.<.m.B.C.J.5XqX>X:X:XuXeXeXwXwXwXuXeX=XtXSXNXNXNXiXuX:X$Xf.d.$Xf.i.u.r.+.Q -.;.;.y.i.y.;.;.-.;.j.t.h.h.:XeX=X%X%X;X=X=XrXtXiXiX=Xf.;X$X$X$Xu.f.$X$X$X=X%Xp.p.h.+.Q i.Q y.t.i.t.-.-.-.j.y.-.-.y.-.-.-.;.;.;.;.W W ^ ;.! W ^ ! W W ^ ~ ! W W ! ! T T D D e 7 e 6 e D D D D D D D D D D T ! ! T W W ;.T ;.oX*X&X&X[.rXw.p.*.w.[.wX#X+.E U D D e e 6 7 7 x x e e e e 7 6 6 x v 7 x 6 6 6 7 7 e D D 7 D W ^ ^ W ! W W -.r.u.a.r.f.r.i.r.+.r.-.Q Q Q -.r.u.u.q.u.u.u.u.$X&X6X6X*Xe.X.X.O.E c 0 3 4 4 4 % % % % % % % 2 2 2 1 2 2 4 2 2 2 2 2 2 2 2 2 2 2 % * % $ + $ $ $ $ $ $ $ % % % % % $ $ $ $ $ $ @ @ @ $ * * * * * * $ $ $ $ $ * * * * $ $ $ $ @ @ @ @ + O @ @ @ X 2 3 d I ` ' { :.>.>.>.>.>.>.#.#.:.#.",
",.>.>.>.>.>.>.>.:.:.:.>.>.>.>.>.>.,.,.3.,.>.>.>.>.,.>.,.>.>.>.>.>.,.,.>.,.,.,.,.>.>.>.>.,.,.>.,.,.,.,.,.M.,.,.,.n.,.,.n.M.,.,.,.n.n.,.,.,.,.,.,.,.,.<.<.,.1.3.3.1.C.N.6.oX:X:X=XuXuXuXaXuX=X=XpXSXNXNXNXuX=X=X%X>Xh.f.f.f.u.i.i.i.i.j.t.t.j.i.t.;.;.y.y.y.i.h.;X=X=X%X%X%X%X=XrXtXpXiX#Xd.>X$Xp.f.$Xi.f.f.$X$X=X$Xp.u.t.W -.;.+.-.;.y.-.;.^ ~ ;.;.^ ~ ~ ~ Q ^ ^ ^ ~ ^ W W ^ W ! Q W ! W W W W T T T T T T T S D 7 6 w 6 S D D D D D D D T D D D D W T W ! ;.o.p.qX6X&X6X&X[.&Xw.+.X.q.#X-XR L 7 7 7 7 7 6 e 7 7 e e 7 7 D e 6 6 e 7 7 x e 7 7 6 7 e D U D 7 T W W ^ W ^ ^ Q ;.f.%Xd.#Xd.$Xp.u.q.r.r.r.-.+.+.q.r.q.q.y.y.r.q.p.#X].e.&Xe.m q q w 3 3 3 1 2 % * % $ $ % % 2 2 2 2 4 4 4 2 2 2 2 2 2 2 2 2 2 2 2 2 % & $ + * * @ * * + + % % % % $ $ $ $ $ $ @ @ @ * * * * * + $ % % % $ $ * * * * @ @ @ @ @ @ @ @ + + @ @ X * 1 3 P ` o.#.:.4.>.>.>.>.>.:.:.:.:.#.",
"3.,.>.>.4.>.>.>.>.>.>.>.:.>.>.>.,.>.,.>.,.,.>.>.>.>.>.>.,.>.>.,.>.>.>.>.>.>.>.>.,.>.>.,.,.,.,.,.,.M.,.,.>.,.,.M.,.M.,.,.M.n.m.n.3.3.,.,.,.,.,.>.>.,.,.,.,.>.1.4.1.1.6.J.*.&X7XpXNXpXaXaX:XuXpXNXNXNXuX-Xd.$X=X%X:X>X$Xh.f.h.i.i.j.i.t.t.j.j.y.-.;.;.^ -.i.s.;X;X%X%X;X%X-X=XrXrXpXuXp.d.%Xp.u.$Xf.p.u.s.f.p.#X$X$Xu.;.Q ! y.+.-.Q -.-.Q Q ^ ~ ~ ^ ^ ^ ^ W W W ^ W W T W W W W W Q W T T W W ! T T T T T T T D U D e 6 D U U T D U D D T T D D D D T T W W ;.+.#XtX6X9X6X7X[.&Xw.w.m +.X.+.L 6 7 7 7 6 6 e 7 7 e e 7 7 e e e 7 7 e 7 7 8 e 7 e 7 7 e D U W D 7 W W ^ ^ ^ ^ W -.+.$X-X#X-X#X-Xp.u.q.q.-.-.-.r.r.t.u.q.q.q.r.q.q.R O.X.z O.X.k 3 3 3 3 3 2 1 1 2 + % % $ % % % % 2 2 2 2 2 2 2 2 2 2 2 , 2 2 2 2 2 % + % % % + * * @ $ $ $ $ $ $ $ @ @ @ @ $ $ $ $ * * * * * * * * % $ + % * * * * * @ @ @ @ @ @ O @ @ @ @ $ * 4 < b P ) ` #.:.:.>.>.>.:.:.:.:.:.:.",
",.>.>.4.4.>.>.>.>.>.>.>.>.>.>.>.,.>.,.>.,.,.>.>.>.,.>.>.,.>.>.,.4.>.>.>.>.>.>.>.,.>.>.,.,.>.>.,.>.,.M.>.,.,.,.M.3.M.M.,.M.n.m.n.3.,.,.,.,.,.,.>.>.,.<.,.4.4.4.3.3.<.5.OXqXSXSXNXtXtXuXuXaXsXpXpXNXtX=X;XeX:X:X$Xf.f.s.i.i.s.j.j.i.j.t.t.-.~ ^ ~ ~ ^ ^ ;.-.r.i.i.f.f.f.$X7XtXtXiXwXw.u.f.d.q.p.$Xf.d.i.i.p.p.$X$Xf.;.W ! W -.Q -.Q y.;.W ^ ~ ^ ^ ^ ^ ^ W W W ^ W W W T W W W ! W W ! T T W W W T T T T T T U D U D e 6 L T W W E +.! D T T D D T ! D T ^ W ;.+.w.6X9X6X6X6X[.].w.O.w v w w 6 7 d 7 7 7 7 e 7 e e D 7 7 e D e e 7 S 7 e 7 7 F D 7 7 D L D W W D T ~ Q ^ ^ ^ Q Q ;.+.$X#X-X#X-X=Xw.q.r.r.+.Q -.r.r.u.u.r.q.+.+.y.Q r v c 9 9 9 j 2 2 2 2 2 2 2 2 2 % % % % * * % % 2 2 2 2 2 2 2 2 , 2 2 2 2 2 2 2 % + + + % + + * @ @ @ @ @ @ @ @ @ @ @ @ $ $ $ $ $ + $ $ * * * $ $ $ * * * * * * * @ @ @ @ @ @ O @ O @ @ @ * 1 n P _ ` #.#.:.:.>.>.>.:.:.:.:.:.:.",
",.>.>.>.4.>.>.>.>.>.>.>.>.>.>.,.,.>.,.>.,.,.>.>.,.,.,.,.,.>.>.,.>.>.>.>.>.>.>.>.,.>.>.,.,.>.>.,.,.>.,.>.,.,.,.M.3.n.,.,.3.m.m.3.3.,.,.,.,.,.,.>.,.4.4.,.,.<.,.1.S.OX@XqXiXaX7X7X*XrXpXpXNXpXpXpX7XiXiXqX:X%Xh.i.y.y.t.j.j.j.j.j.j.j.j.y.;.;.~ ^ W ^ ^ ^ ~ ~ ~ y.r.a.f.$XuXrXaX=Xu.i.i.r.u.u.#X=Xf.f.i.i.u.p.$Xp.r.-.W W ~ -.-.W Q y.Q W Q ^ ^ W ^ W W W W W W T T W T W W T ! W T T T W T W T T T T W ! E W D U D 7 6 L D W o.o.+.o.W T W D U W +.E W Q W -.+.+.*X[.w.].&.].&.*.v w w w w e x d 7 7 7 7 7 7 S D D S S D D D D D S S D D D U U D U U D ! W W T T ~ ~ ^ ^ -.W ^ ^ y.-.f.a.%X#XrX=Xq.q.r.r.Q Q Q Q q.u.d.u.q.+.Q +.+.z 2 1 % % % * % 2 2 2 2 2 2 2 2 2 % % $ $ @ * * % 2 2 2 2 2 4 2 2 2 2 2 2 2 % % + + + $ * * @ @ @ @ @ @ @ @ @ $ $ $ @ @ @ $ $ $ + + + + + $ $ $ $ $ @ @ @ @ @ @ @ @ @ @ @ @ O O O @ @ X * * 1 b o.%.<.#.:.:.>.>.>.:.:.:.:.:.:.",
",.>.>.:.4.>.>.>.>.>.>.>.>.>.:.,.,.>.,.>.,.,.>.>.,.,.,.,.,.>.>.,.>.,.,.>.>.>.>.>.>.>.>.>.,.>.>.>.>.,.,.>.,.,.,.M.n.n.3.3.3.m.m.3.,.,.,.,.,.,.,.,.,.,.,.:.4.,.<.<.N.*.*.*.*.].&X*XiXpXNXNXNXpXuXuXiXiXqX=X-Xd.r.y.t.t.j.j.t.j.j.i.j.j.j.;.~ ~ W W W ^ W ^ W W W W W +.p.-X=XqX:Xa.r.t.+.u.q.p.:X#Xd.d.i.a.p.$X$Xa.+.W ! W y.Q ;.! y.y.W W W W W W W W W W T W T T T W W W W T ! W T T T T T T T T T T W W +.+.U U D 7 e U ! o.+.+.w.+.;.o.;.E E a.-XO.q.r.+.+.+.+.-X&.O.O.m E n n L e e e 7 7 7 x 7 7 7 7 S S S D D D S D D D D D D D D D D ! W U D T ! W W W ^ W -.t.y.~ -.j.Q ~ -.r.t.i.i.d.d.=X$XE E +.r.+.Q ! R E w.w.E c c q w n k % * * * % % % % 2 2 2 2 2 2 2 2 % * * @ @ @ * * % % 4 4 4 2 2 2 2 2 2 2 % + + + + $ $ @ @ @ @ @ @ @ @ @ @ $ $ $ $ $ $ $ $ % % % % % % % $ $ & $ $ @ @ @ @ @ @ @ @ @ @ @ @ @ @ @ @ * X * o 4 p ) ` #.:.:.4.>.>.:.:.:.:.:.:.",
",.>.>.>.>.>.>.>.:.:.>.>.>.>.>.>.>.,.,.,.,.,.,.>.,.>.>.>.>.>.>.>.>.>.>.>.>.>.>.>.>.,.>.>.,.>.>.,.>.>.>.>.,.,.,.,.,.n.,.m.,.,.3.n.3.<.,.>.>.,.,.,.,.4.4.4.>.,.4.,.,.A..X0X<XqXtXSXNXNXvXvXNXpXaXaX:X:X>Xf.a.i.i.s.i.j.j.i.i.i.i.i.h.j.y.-.~ ~ ~ ~ ^ ^ W W W W U U E +.a.-X:X$X;.+.+.+.a.w.w.uX%Xf.-X$Xu.d.f.d.f.+.Q W ! -.+.r.W W ;.Q T Q W W W W W W T T T T W W W W W W W T T T T T T T T W T T D D E +.*.w.E T D 7 D U W +.+.a.u.a.+.+.a.+.w.*XtX].].-Xw.q.+.O.oX*.X.X.L x x e e 7 7 7 F 7 7 S e 7 7 S D S D D D D D D D D Y Y D D T W W ^ W W T W W W ^ W ^ ~ Q h.i.t.+.a.>X+.r.-.y.y.t.u.p.w.=X#Xm q E +.+.Q L D v c 0 9 2 % % % 2 2 $ $ @ & 2 2 2 2 2 2 2 2 2 2 2 2 % $ * @ @ @ * * $ % % % % % % % % % % % % % $ $ $ $ $ $ $ $ @ @ $ @ @ @ $ * % $ $ $ $ $ $ $ $ $ $ $ $ $ $ $ & & & $ $ @ * * * * @ @ @ @ $ $ $ + % % , 3 5 5 5 G ) { :.4.4.:.:.:.:.:.:.:.",
">.,.>.>.>.>.>.>.:.:.>.>.>.>.:.>.>.>.>.>.,.,.,.,.4.>.>.>.>.>.>.>.>.>.>.>.>.>.>.>.>.,.>.>.,.>.>.M.>.>.<.<.>.,.,.>.n.n.,.,.n.n.,.,.,.<.,.>.,.>.<.,.>.,.4.4.,.,.>.,.1.b.N.F.<XMXNXvXNXvXvXvXNXpXrX=X$Xf.f.h.h.h.h.h.h.s.s.h.s.s.h.h.j.j.y.y.;.;.;.~ ^ ^ W W W U U U U E 6.>X*.o.T W +.p.*.#XaX=Xd.$X:X-Xp.f.a.a.r.Q Q ! +.r.+.-.! Q ;.W Q Q W W W W W W T W W W W W W W ~ W T T W T T T W T W W T T T D +.*.w.w.E U D D D U +.+.q.p.w.p.a.*.#X&X6XyXyX[.6X&Xw.*.+.v +.O.x L x 7 7 7 7 7 7 7 7 7 S D 7 7 S D D D T T D D D D D T T Y T T W W W ;.W ~ ;.W Q -.y.;.-.-.-.-.h.i.i.+.a.:Xp.r.y.y.t.t.i.a.w.$X$XE w w r e U U e 6 4 2 % $ % & o + & + * + % 2 1 2 2 2 2 2 1 1 2 2 % % % $ * * * * * * $ $ % % % % % % % % % % $ $ * $ $ $ $ $ $ $ $ $ $ * $ + % $ % % % % $ $ $ $ * * * * $ @ $ $ $ $ $ @ @ @ @ @ @ @ @ @ @ @ $ * % 2 1 s b _ ` ` :.:.4.4.>.:.:.:.:.:.:.:.",
">.,.>.>.>.>.>.>.:.>.>.>.:.>.:.>.>.>.>.>.,.,.,.,.3.4.>.>.>.>.>.>.>.>.>.>.>.>.>.>.,.,.>.>.M.>.,.M.>.<.>.>.b.>.<.b.,.,.n.n.,.,.n.n.,.3.3.,.,.<.>.,.,.>.>.4.,.,.>.,.>.<.<.6.6. X&X6XvXNXVXVXtXrX=X=X:X:X>Xs.h.h.h.j.i.s.s.i.i.s.s.i.t.y.;.;.;.;.~ ^ ^ W W W T U D D U U W T ! T Y o.oXe.[.iXuX-X%XwX=X$Xd.i.u.u.-.Q W W i.+.r.Q W -.;.W Q +.W W W W W W W W W Q W -.;.-.~ W T W T T T T W T T W W W T ! +.w.w.a.E U D D D W ;.r.w.#Xa.p.oX*.w.7X6X6XyX}.[.*Xw.O.+.v E X.6 e 7 7 e 7 7 7 7 7 7 S D D 7 7 D D D T T T T D D D D T T T W ^ ^ ~ ~ ~ ;.~ ;.Q Q -.+.i.i.y.y.Q r.h.t.t.-.r.:Xd.u.r.y.y.t.h.r.+.q.a.R 3 3 6 7 7 e 6 4 2 % * % % 2 % 2 , 2 2 2 % 4 2 2 2 1 2 2 1 1 2 2 % % % % % * * * $ $ $ % % % % % % % % % % $ $ * * @ @ $ $ $ $ $ $ $ $ $ % % % % % % + $ $ $ $ $ $ $ $ @ X @ O @ @ @ @ @ @ @ @ @ @ @ @ X X X @ X o 2 < P ` #.:.:.:.:.:.>.:.:.:.:.:.:.:.",
">.:.>.>.>.>.>.>.>.>.>.>.:.:.:.>.>.>.>.>.,.,.,.,.3.>.>.>.>.>.>.>.>.>.>.>.>.>.>.>.,.,.>.>.,.>.,.,.>.>.>.>.,.,.,.,.,.,.M.,.n.n.,.,.,.,.,.,.,.,.,.,.>.,.>.4.>.,.>.>.,.3.B.C.G.5XqXCXVXVXvXyXvXpXpXaX=X$Xf.s.h.s.i.i.h.s.s.s.h.h.j.y.t.y.;.;.;.~ ~ ^ W W W T D D D D D D T W T W o.a.].6XNXaX-X=X=X=X-X$X$Xi.u.r.r.Q Q t.a.u.r.+.;.;.;.-.-.+.Q W Q W +.Q Q +.-.;.-.y.a.r.-.Q W W T T W T T T W W W W W W w.w.#Xp.E T D D D W r.q.w.-Xp.a.oXw.].6X6X6X6X[.[.[.*.X.E v w w 6 7 7 7 7 7 7 7 7 S S D D S 7 7 D D T W T T T D D D D D T T W ~ -.-.y.;.y.~ y.-.~ -.u.%Xf.u.i.-.-.t.i.i.y.r.+.$Xu.u.+.+.Q -.j.i.Q E E 3 3 3 3 6 6 z 3 1 2 % * % 2 2 2 < < u 1 1 2 2 2 2 1 1 2 2 % 2 2 % % % % 2 2 % % % % % % % % % % % % % % % $ $ @ @ @ @ $ $ $ $ $ $ $ $ + % * % % % % % % $ $ $ $ $ $ $ @ @ @ @ X @ @ @ @ @ @ @ O O @ @ X X X X @ o o , 6 P ' { :.:.4.4.>.:.:.:.:.:.:.:.",
",.:.>.>.>.>.#.>.:.:.>.>.:.:.:.>.>.>.>.:.,.,.>.>.4.>.>.>.>.>.>.>.>.>.>.>.>.>.>.>.,.>.>.>.,.M.,.,.>.M.,.>.,.>.>.,.n.,.,.,.,.n.,.,.3.,.>.>.,.>.,.>.>.>.>.>.4.4.>.>.>.,.Z.~.+X5XMXJXSXVXVXVXVXNXpX7X-X%X;Xh.j.i.s.f.%X;Xh.h.j.j.t.t.t.t.y.;.;.~ ~ ^ W W W T D D D D U U T T W =.*.].qXMX7X&X#X=XuX-X$X$Xf.u.u.i.r.+.+.$X#X-X+.f.i.r.r.r.r.-.+.;.+.+.r.-.+.a.r.u.r.u.i.+.-.W Q W T W W W ! W Q Q +.+.W +.#X[.[.w.W T T D W +.r.a.w.=Xp.a.#Xw.].&X}.}.[.].].w.O.R L v w 6 6 6 7 7 7 7 7 S S S D D D S S D D T W W T T T T T D D T T T Q r.+.+.i.r.t.r.-.y.-.r.p.:X$Xr.i.t.y.+.a.i.y.y.-.+.i.u.r.+.W D W r.;.R w 3 3 3 3 3 3 3 3 2 2 2 % , , 2 1 2 2 2 2 2 2 1 1 1 2 2 1 2 2 2 % % % % % % % % % % $ $ % % % % % * * % + + + + @ @ @ @ @ @ @ $ $ $ $ $ $ $ $ + $ $ $ $ $ $ $ $ $ $ $ $ @ @ @ @ @ @ @ @ @ @ @ @ @ @ @ @ X X X X @ $ % , 3 g ) ` #.:.:.>.>.>.:.:.:.:.:.:.",
">.:.>.>.>.>.#.>.:.:.>.>.:.:.:.>.>.>.>.>.,.>.>.>.4.,.>.>.>.>.>.>.>.>.>.>.>.>.>.>.>.>.>.>.,.,.,.,.,.,.,.,.>.>.>.,.,.n.,.,.,.n.,.,.>.1.>.,.>.>.>.>.>.>.>.>.4.4.>.>.,.3.n.5.<.*.].6X9XNXVXVXVXNXiXuXuXeX;Xs.i.i.$X;X:X:Xi.t.y.y.y.y.t.j.j.y.;.;.~ ~ W W T D D D D D D S D ! W +.oXCXcX6X*X-X=X7X=X#X%X$Xf.i.i.r.r.p.-X=X7Xw.#X>Xi.a.i.a.u.q.i.r.u.u.f.u.f.f.u.p.p.$Xp.a.r.Q Q ! W Q ^ W W ;.+.+.+.+.+.a.#X[.#Xp.o.! T T ;.+.r.u.w.=Xp.a.#Xw.e.[.[.].&.*.w.*.X.L v v 6 6 6 6 7 7 7 S S S S D T T D D D U W W W ^ W T T T T T D D T +.+.f.r.q.u.u.r.t.y.t.y.r.p.-X:Xw.i.t.y.y.r.f.i.y.-.y.r.f.+.6.E D 6 r v x w 3 3 3 2 4 4 2 2 2 2 2 2 2 2 2 2 2 2 2 2 2 2 2 2 2 2 2 % 2 2 2 2 % % % % % % % % % * * * * % % % % * % % % $ $ $ $ $ $ $ @ @ @ * $ $ $ $ + $ + $ $ $ $ $ $ $ $ $ $ $ $ $ @ @ @ @ @ @ @ @ @ @ @ @ @ @ @ @ X @ X $ * % k n _ ` #.#.:.:.4.>.>.>.:.:.:.:.:.",
">.>.>.>.>.>.#.>.:.:.:.:.:.:.:.>.>.>.>.>.,.,.>.>.4.>.>.>.>.>.>.>.>.>.>.>.>.>.>.>.>.>.>.>.,.,.,.>.>.>.#.,.>.>.,.,.n.,.n.n.,.3.,.,.,.,.<.,.,.>.<.,.>.>.>.>.4.4.>.,.<.,.,.<.<.F.&.].cXVXHXAXVXtXpXuX:X$Xf.$X>X>X%X$Xf.a.r.t.j.j.j.t.j.j.t.y.-.~ ^ W W W T T D D D D e D U ! E w.CX].O.&X7X7X-X-X-X-X%Xf.f.i.u.q.p.=X*X7X&X#X:X>Xi.r.r.u.u.u.a.r.d.f.f.:X$Xp.$X$Xd.$Xw.p.r.Q W W ~ ~ ^ W +.a.r.w.a.w.q.#X#X#X&Xp.+.W T W ;.+.+.p.w.7Xp.w.p.w.w.].].w.O.+.+.+.E x x x 7 7 7 6 7 7 S D S D T T W T T T T W W ^ ~ ~ ^ W T T T T T T T +.+.f.$Xw.u.u.r.t.t.t.i.r.p.$XuXw.u.r.y.y.r.a.d.r.-.~ r.-.+.R O.w w 3 4 4 3 3 3 4 2 2 2 2 2 2 2 2 2 2 2 2 2 2 2 2 2 2 2 2 2 2 2 2 2 2 2 2 % % % % % % % % % % % % * * % % % % % % % % $ $ $ $ $ $ $ @ @ @ * $ $ $ % % % % % % % % $ $ $ $ $ $ $ $ $ $ $ $ $ $ $ $ $ $ @ @ @ $ $ $ * $ @ @ * $ % 2 b P #.#.:.:.:.:.>.>.:.:.:.:.:.:.",
"#.>.>.>.>.>.#.>. .:.:.:.:.>.:.>.>.>.>.>.,.,.>.>.,.,.>.>.>.>.>.>.>.>.>.>.>.>.>.>.,.>.>.>.>.>.>.>.>.>.>.>.>.>.,.,.,.n.3.n.,.,.>.,.3.<.>.,.,.>.,.>.>.>.>.>.4.4.>.,.<.<.1.E.5.+XqXCXCXMXMXcX9XrXuX=X=X%X:X:X:X:X:X$Xf.i.h.i.r.t.t.i.j.j.t.-.~ ~ ^ W W T T T D D D D U U L U +.oXX.m &XrX7X&X*X7X=X-X%Xf.f.a.f.$X=X*X*X7X-X=X#Xf.a.u.a.p.p.u.a.f.d.$X$X$Xp.$X#X$X$X%Xp.a.r.+.! -.-.-.Q Q a.d.p.p.#X].].-X#X#X#Xw.+.W T ;.r.+.+.p.#X7Xu.q.p.q.*.w.w.+.E +.W W W D e e 7 7 7 6 7 7 S D D W W W W T W W W ^ ~ ~ -.~ t.Q T T T T T D D +.+.$X%Xw.d.u.r.t.t.r.i.r.u.%XaXw.u.i.r.r.r.u.p.p.+.+.-.! +.E C &.3 u 3 3 4 3 3 4 4 2 2 2 2 2 4 4 4 4 2 2 2 2 2 2 2 2 2 2 2 2 1 1 2 % % % % % % % % % % % % % 2 2 2 % % % % % % % + + + $ $ $ $ $ @ @ @ $ $ $ $ $ $ + $ $ % % % $ $ $ $ $ $ $ $ $ $ $ $ $ $ $ $ $ $ $ $ $ $ $ $ $ $ $ @ @ $ & % u b g ' ` :.:.4.:.>.>.:.:.:.:.:.:.",
">.>.>.>.:.>.:.>.:.:.:.:.:.:.:.:.>.>.>.>.,.>.>.>.>.>.>.>.>.>.>.>.>.>.>.>.>.>.>.>.,.,.>.>.>.>.>.>.,.>.>.,.,.>.>.,.,.,.M.,.n.M.,.,.>.,.,.>.,.>.>.>.>.,.,.,.>.>.>.>.,.,.3.2.2.E.5.oX<XqXqXiXuX:X=X:XuXuXuXuX=XuX:X=X$X$Xi.u.i.f.h.f.s.t.;.;.~ ^ W W W W T T T D D D D U U E E L c ].iX7X6X7XiX7X-X$Xf.f.$X$X=X7XrXrX7X*X7X#X$Xp.u.a.d.p.p.u.a.a.d.f.f.f.d.$X$X%X-X#Xp.w.r.W Q r.-.-.Q +.#X-X#X#X&X].#X-X#X#X-Xw.;.W E a.a.+.u.#X&X7Xw.+.u.q.+.*.+.W W ! W E W e S 7 7 7 7 7 7 7 D D W W ^ ^ W W ^ W ^ ;.-.;.-.r.f.+.W T T T T T ! +.w.#X-Xd.d.u.r.r.i.u.i.r.r.u.rX&Xw.p.a.+.r.h.p.#Xw.E W ! R E 0 &.O.1 z 4 4 4 4 3 4 4 4 4 2 2 3 3 3 2 2 4 4 2 2 2 2 2 2 2 2 2 2 % % % % % % % % % % % % % % , , 2 % % % 2 % % % % % $ $ $ $ $ $ @ @ @ @ @ @ @ @ @ $ $ $ $ $ $ $ $ $ $ $ $ @ + + $ $ $ $ $ $ $ $ $ $ $ $ $ @ @ @ @ @ @ @ @ * X % , u s P ` { :.4.4.4.>.4.:.:.:.:.:.",
":.>.>.:.:.>.:.>.:.:.:.:.:.:.:.:.>.>.>.>.,.>.>.>.>.>.>.>.>.>.>.>.:.>.>.>.>.>.>.>.,.>.>.>.>.>.>.>.>.>.>.,.>.>.,.,.,.,.M.,.,.,.,.>.>.,.>.,.,.,.,.>.>.,.,.,.>.>.>.>.,.,.4.3.4.5.6.6.a.>XqXoXp.p.>X:X=X=X=X=X=X=X=X%X#Xd.d.f.f.h.i.i.y.;.~ ~ ^ ^ ^ ^ W W W W T T D U D D D D L v *.qXe.6X7X7X7X#X-Xf.f.$X=X7XrXiXtXrX*XuX-X-X$Xd.f.f.d.p.p.p.u.i.f.i.f.d.f.$X$X%Xp.$Xa.+.+.W ;.a.;.+.+.p.&X6X[.&X&X].#X#X#X#X&Xw.;.W +.>Xp.+.u.-X6X7Xr.r.u.r.+.+.;.W W ! ! E W e S 7 8 7 7 7 D D T W -.Q ;.-.;.-.~ ~ ~ -.;.y.i.a.f.r.W T T T T T W Q +.-X-X#X#Xd.r.r.f.u.u.i.y.r.rX[.oXp.#Xu.Q r.>XO.].w.E R r v w 3 *.X.3 4 4 4 3 3 3 3 3 3 3 3 3 3 3 3 3 4 4 4 2 2 2 2 2 2 % & & % % % % % % % % % % % % % % % % % % % % % % % % % % $ $ $ $ $ @ @ @ @ @ @ @ @ @ @ $ $ $ $ $ $ $ $ $ $ $ $ @ @ + @ @ @ @ @ @ @ @ @ @ @ @ @ @ @ @ $ $ $ @ @ X * % 2 u < b ) ` { :.:.4.4.4.:.:.:.:.:.",
":.>.>.:.:.>.:.>.:.:.:.:.:.:.:.:.>.>.>.>.,.>.>.>.>.>.>.>.>.>.>.>.:.>.>.>.>.>.>.>.>.>.>.>.>.>.>.>.>.,.>.>.>.>.,.M.,.,.M.,.,.,.,.>.>.,.,.>.,.,.,.>.>.>.,.,.,.,.,.,.,.4.4.4.4.1.6.6.6.a.>X$X;X:X>X>X;X;X;X;X;X;Xf.p.d.%X#X$Xf.i.y.~ ~ ~ ^ ^ ^ ^ ;.^ +.+.Q W T T T D D D D D w +.-XX.9XMX&XiX#Xd.-X=X=X7XrXtXtXtXtX6XtX*X-X$Xp.i.f.s.i.q.u.u.a.i.i.i.i.i.f.$X$Xd.$Xf.+.W W Q a.r.r.Q q.-X6XrX&X&X#Xw.#X#X].&X&Xw.+.+.w.=Xp.+.p.-X6X-Xr.-.i.r.Q +.Q W W W ! T W D e 7 7 7 7 D D D W -.q.p.$Xp.a.u.y.y.~ ;.y.t.i.i.$Xa.W T W T T T W Q +.-X*X*X*X#Xw.w.d.d.p.f.y.+.7X&X*.p.$X$X+.W a.w.9 &.].m v 6 e 3 3 *.O.v 3 4 4 2 2 2 4 4 0 0 w w 6 w w 3 2 2 2 2 2 2 2 2 % % & % $ $ $ $ $ $ % % % % % % % % $ $ % % % % % % % % $ $ $ $ $ $ @ @ $ $ $ $ $ @ @ @ $ $ $ $ $ $ @ $ $ $ $ $ @ @ @ @ @ @ @ @ @ @ @ @ @ @ @ @ @ @ @ $ $ $ @ @ $ $ % 2 u < d P { #.:.4.4.4.4.4.:.:.:.:.",
":.:.:.:.:.>.:.>.:.:.:.:.:.:.:.:.>.>.>.>.,.>.>.>.>.>.>.>.>.>.>.>.>.>.>.>.>.>.>.>.>.>.>.>.>.>.>.>.>.>.,.>.$.,.M.M.,.,.M.,.>.,.,.>.>.,.,.<.<.>.>.>.>.>.>.>.,.,.,.,.,.,.4.4.3.1.6.6.6.a.oX>X$X%XeX:X$X>X$Xf.f.p.p.$X:X#X=Xf.r.-.~ ~ ^ ^ ^ ~ ;.;.r.r.r.r.-.+.+.W T D D D D L +.#XC ].iX].MX&X-X=X*XiXtXtXtXtXtXtXtXiX=X-X$X:Xf.i.i.s.s.s.r.r.r.r.t.i.i.f.f.$Xf.$Xu.+.W W W -.r.r.-.Q $X*X6XtX&X-X#Xw.#X#X].oX&Xw.w.w.&X*Xa.+.#X-X=X$Xr.y.i.r.Q Q W W W W ! T ! e 7 7 e S D L R +.a.+.#X7X7X-X$Xu.r.y.-.y.y.i.i.f.$Xu.Q ^ W T T T W -.+.-X7X*X&X*Xw.e.w.#Xp.d.f.+.w.iXX.+.+.p.a.W E $Xm o &.].R v L e 3 w R E v 4 0 4 2 , 4 4 3 6 w r r e 6 w 3 3 2 2 2 2 2 2 % % % % $ * * * $ % $ % % % % % * * * * % % % % % % % % $ $ $ $ $ $ @ $ $ $ $ $ $ $ $ $ @ @ @ @ @ @ X X $ $ $ $ @ @ @ @ @ @ @ @ @ @ @ @ @ @ @ @ @ @ @ @ @ @ @ @ $ * % 2 3 s d ) #.:.:.:.:.>.4.4.:.:.:.:.",
":.:.:.:.>.:.:.>.:.:.:.:.:.:.:.:.>.>.>.>.,.>.>.>.>.>.>.>.>.>.>.>.>.>.>.>.>.>.>.>.>.,.>.>.>.>.>.>.>.,.>.$.>.,.,.,.>.,.M.,.>.>.>.>.<.>.>.>.,.>.>.,.,.>.,.,.,.,.,.,.,.4.4.4.3.5.5.6.6.oXa.a.p.eX%X=X:X$X$X-X-X=XaX7X-X$Xp.i.-.Q ~ ~ -.y.t.i.f.>X;X$Xf.i.i.-.-.W W ! T ! W W +.X.e.tXe.cX*X*XiXtXcXNXyXyXcXcXcXtXuX-X=X%X$Xf.u.i.s.i.j.r.-.r.r.r.i.i.u.f.;X$Xf.+.W Q W W W r.r.r.+.+.=X&X7X7X[.-X#Xw.#X#Xw.#X#Xw.w.&X6X*Xw.*.#X=Xp.u.r.t.i.+.Q Q W W W W T T D 7 S S D D R E q.p.#X#XtX9X7X7X#Xa.y.-.-.y.i.i.f.f.:Xu.+.-.W W T T Q +.q.$X7X6X[.&X].w.&.].w.d.%Xw.*.iXO.v E E a.O.E E O.3 o C &.c v L e 6 e D L L 3 6 3 3 4 3 6 6 r R R D D e e w w 4 3 1 2 2 2 % % % % % % % % % $ * % % 2 2 2 2 2 2 2 2 2 2 2 2 2 % % + $ $ $ $ @ @ * * @ * $ $ $ $ $ $ $ $ $ @ @ X O O @ @ @ @ @ @ @ @ @ @ @ @ @ @ @ @ @ @ @ @ @ @ @ @ X X * * % % 3 s P ) ` { 4.4.:.:.>.:.:.:.:.:.",
":.:.:.:.>.:.:.>.:.:.:.:.:.:.:.:.>.>.>.>.,.>.>.>.>.>.>.>.>.>.>.>.>.>.>.>.>.>.>.>.>.>.>.>.>.>.>.>.,.>.>.>.>.,.,.,.>.,.n.n.,.>.,.,.<.>.>.<.>.,.,.>.,.,.,.,.,.,.,.,.,.4.4.,.3.3.1.Z.@X@X>X$X:XeXeX=X:X:XuXaXiX7X&X7X=Xp.a.a.-.j.h.s.h.h.h.;X;X%X%Xf.f.i.r.-.;.+.Q W W W E W +.*.6X&.cXtX6XiXyXcXcXcXcXyXyXMXiXiX-X#X$Xd.i.i.i.i.t.y.-.-.Q -.+.r.i.u.u.f.d.r.W ! W W W ! +.a.a.+.+.#X-X*XtX&X].-X#Xp.#Xw.w.-X#Xw.&X*X[.&X+.r.=X&Xu.r.r.i.s.r.+.Q W ^ ^ T ! ! D 7 S U E +.*.p.-X#X*X&X7X9X7X=Xp.u.y.-.-.t.i.i.d.f.%Xu.r.r.;.+.T W +.-.+.$X*X6X].#X].].e.w.w.+.$X-Xw.oXw.v e D e R L 7 e L 4 4 c c w D E D D D D L E 6 6 6 4 6 6 e D R W ! ! U e e w 6 4 2 2 4 2 2 % % % % % % % % % % % 2 2 2 2 2 2 2 2 2 2 2 % % % % % % $ $ $ $ @ @ @ @ @ @ @ $ $ $ $ $ $ $ $ $ @ @ @ @ @ @ @ @ @ @ @ @ @ @ @ @ @ @ @ @ @ @ @ @ @ @ @ @ @ @ $ $ % , < 5 5 F ` { #.:.:.:.:.:.:.:.:.:.",
":.:.:.:.>.:.:.>.:.:.:.:.:.>.:.:.>.>.>.>.,.>.>.>.>.>.>.>.>.>.>.>.>.>.>.>.>.>.>.>.>.,.>.>.>.>.>.>.>.>.>.,.>.,.,.>.,.,.M.,.M.,.,.,.<.>.>.,.>.,.,.>.<.<.<.<.,.,.,.,.,.,.>.,.>.n.1.6.6.;.t.i.%XeXuX7X7X7X=X-X=X=XqX$Xa.f.f.f.h.h.i.i.i.h.;X;X;XeX;Xf.i.t.t.r.;.;.;.=.;.W o.o.X.*.&.6X6X[.6XcXyXyX6XyXiXiXrX7X7X-X#X$Xf.i.s.s.i.i.-.Q -.Q ;.Q +.r.t.+.u.a.r.W ! ! W ! ! +.w.a.a.X.a.oXw.=XqX].].#Xw.p.p.w.].&X&Xe.7X&X&Xw.+.r.7Xp.r.y.t.t.h.r.r.-.^ ^ ^ T W T T U W +.+.w.#X*X7X&X&X&X6X7X7X#Xd.r.-.Q r.i.u.d.f.$X%Xp.p.d.p.+.W Q +.r.+.#X&X6X*.w.].e.].&.w.O.*.a.X.w.&Xc e 7 6 e e L e w e 3 6 e v v r E L ! ! W E o.! ! U ! D L R L D e L E E L e 6 w 3 4 4 2 2 % % 2 2 2 2 % , 2 2 2 % % % % % % % % % % % % % % % & % $ $ $ @ @ @ @ @ @ @ @ @ @ @ @ @ $ $ $ $ $ @ @ @ @ @ O O O @ @ @ @ @ @ @ @ @ @ @ @ @ @ @ @ @ @ @ @ @ * * % , < 6 d P ) ` :.4.:.:.:.:.:.:.:.:.",
":.:.:.:.>.:.:.>.:.:.:.>.>.>.:.:.>.>.>.>.,.>.>.>.>.>.>.>.>.>.>.>.>.>.>.>.>.>.>.>.>.>.>.>.>.>.>.>.>.>.,.>.>.,.,.>.>.,.n.M.,.>.>.>.,.>.>.>.,.>.>.,.,.<.<.<.,.,.,.,.,.,.>.>.3.1.4.6.;.j.j.s.;XeX7X7X7XuXaXaXuX:Xp.f.$X$X>Xf.u.r.i.i.h.h.h.h.;Xf.s.i.i.s.i.t.r.;.;.;.=.W W +.*.O.oX&.m &.9X6XyX].6XiX=X-X-X-X#Xp.f.f.f.>Xi.+.+.Q Q Q W -.;.+.+.t.+.Q r.+.W T ! T ! T ! ;.*.p.+.O.a.w.w.-XoX].w.w.w.u.w.w.&X&Xw.[.*X].-X*.+.p.-X+.y.y.i.u.;Xu.i.r.~ ~ ^ W =.;.;.a.a.oX-X*X*X7X7X*X#X&X6X6X=Xw.a.+.Q ~ r.f.i.f.$X$X%X#X-X-X-Xw.+.+.-.-.r.p.#X7XO.O.w.O.w.&.w.O.R E L v w.X.7 S 7 x e U o.6 6 e 6 6 r R E E Q W W +.+.W Q Q Q +.+.-.+.+.W D r e L L L x w w 3 3 2 2 2 2 2 2 2 2 2 2 2 2 % % % % % % % % % % % % + + $ $ $ $ $ $ @ @ @ @ @ @ @ @ @ @ @ @ @ @ @ @ $ $ $ @ O O O O O O @ O O O @ @ @ @ @ @ @ @ @ @ @ @ @ @ @ @ X X X X o + , < d G ` { #.:.:.:.:.:.:.:.:.:.",
">.>.>.:.:.:.:.:.>.:.:.>.:.:.:.:.>.>.>.>.,.>.>.>.>.>.>.>.>.>.>.>.>.>.>.>.:.:.:.>.>.>.>.>.>.>.>.>.>.>.>.>.>.>.>.,.,.,.,.,.,.,.,.,.>.>.>.>.,.<.,.,.,.,.,.,.,.,.>.,.4.4.>.,.4.4.;.;.j.t.j.h.;XuXiXpXaXuX:X;X>Xi.f.;X$X$Xh.t.j.j.j.j.i.s.h.s.h.f.f.i.h.h.i.i.r.r.;.=.=.^ o.+.E +.X.E +.-X].6Xe.e.qXw.u.p.p.p.p.u.a.u.a.Q ! W W Q W Q -.-.+.Q +.Q ! W W ! ! W ! T ! T +.+.w.w.E +.+.+.+.a.a.a.q.q.+.r.+.w.&X].w.&Xw.oXoXO.w.$Xa.+.t.r.$X%X;Xp.i.r.r.-.a.p.$X$X$X$X-X-X*X&X*X7X*X&X#X&X[.6X#Xa.r.Q ~ -.u.f.d.f.#X-X=X&X&X7X&Xw.q.+.-.-.;.+.*.#X*.E O.*.m O.&.X.L e w e L L 7 S D D D 7 L +.L D L L R E ! +.-.+.Q Q +.+.+.Q Q W ! ! W Q -.Q D 6 4 3 3 3 4 3 3 3 2 2 2 2 % % % % 2 2 2 2 , % % % % $ $ $ $ $ $ $ $ $ @ @ $ $ $ $ @ @ @ @ @ @ @ @ @ $ $ $ @ @ @ @ @ @ @ @ O @ @ @ O O O O O O O O @ @ @ @ @ @ @ @ @ @ @ @ @ @ @ @ @ $ $ % 2 p P ) ` ` :.:.:.>.>.>.:.:.:.:.",
">.>.>.:.:.:.:.:.:.:.:.>.:.:.:.:.>.>.>.>.>.>.>.>.>.>.>.>.>.>.>.>.>.>.>.>.>.>.>.>.>.>.>.>.:.:.:.:.>.>.,.>.>.>.>.,.M.M.M.M.,.,.,.,.>.>.>.>.<.,.>.,.,.,.,.,.,.,.,.,.>.,.>.,.4.7.;.;.-.-.t.i.>XuXaXuX%X%Xf.f.s.d.f.$X;X>Xi.y.y.t.j.s.h.h.h.;X;X;X;X>X>Xf.i.i.a.i.;.W W W o.W W o.W +.*.E ].e.&.7XO.+.a.$Xf.a.r.+.+.W ! D W Q ;.;.+.-.+.Q W ! W ! L ! ! W W ! T T T W +.*.*.+.L +.+.o.+.;.+.+.+.+.Q Q X.-Xw.w.w.e.*.w.r.O.w.p.-.-.r.p.#X=X#X$X$Xa.u.f.=X-X*X#X#X-X&X#X-X#X#X#X*X&X].[.&X6Xp.+.-.^ -.r.u.f.d.$X#X-X=X*X6XtX&Xw.w.+.+.+.+.+.X.+.*.c m *.3 X.O.X.v 7 6 e e e D S D D T T D +.+.W E W +.Q ! ! Q i.r.r.r.r.r.r.+.+.W ! R D D W W W v 6 4 3 4 4 4 4 2 2 2 2 % % % % % % 2 % 2 2 2 2 % $ $ * $ $ + $ $ @ @ @ @ @ @ @ @ @ @ @ @ @ @ @ @ @ @ @ @ @ @ @ @ @ @ @ O @ @ @ O O O O O O O O @ @ @ O @ @ @ @ @ @ @ @ O @ @ @ @ * $ + 2 t P ) ) ' ` :.:.>.>.>.:.:.:.:.",
">.>.>.:.:.:.:.:.:.>.:.:.:.:.:.:.>.>.>.>.>.>.>.>.>.>.>.>.>.>.>.:.>.>.>.>.>.>.>.>.>.>.>.>.:.:.:.:.>.>.>.>.>.>.>.>.,.,.,.,.,.,.>.>.>.>.>.>.>.,.>.<.,.,.,.,.,.,.,.,.,.3.,.,.4.7.6.;.r.a.f.;X:X:X%X$X;Xh.h.s.f.%X%X;Xf.i.i.j.j.j.h.h.$X;XeX:X:X:X:X>Xh.s.i.r.i.i.;.o.=.;.W Y o.W E R v w.].&.].&.w.a.p.a.r.+.+.! E R ! W W W W ! W ! ! ! R ! R L R ! ! ! U T ! ! ! W +.a.+.E R +.Q W Q -.Q W W ^ ~ W O.&X*.*.*.O.+.+.+.+.r.r.;.-.p.=X&X=X#X=X$Xp.p.%X-X-X#Xw.#X-X-X#X#X-X#X&X#X#Xw.w.&XoXa.+.;.^ -.r.p.f.d.$X-X-X%X#X6X9XoX*.p.O.+.+.+.E U U O.c v O.z c X.R 7 S 7 8 e e D D D D D W ! ;.a.+.W ! +.a.q.W ! Q i.u.u.u.u.f.d.p.u.+.E R e e e L E L e 3 3 2 2 , 2 2 & % % $ % % % % % % % % % % % % % % + $ $ $ @ @ @ @ @ @ @ @ @ @ @ @ $ $ $ $ @ @ @ @ @ @ @ @ @ @ @ @ O @ @ @ O O O O # # O O O O O O O O O O @ @ @ @ O O O O @ @ $ $ o , 5 G ) ` ` { :.:.:.:.:.:.:.:.",
">.>.>.#.:.:.:.:.:.:.:.:.:.:.:.:.:.>.>.:.>.>.>.>.>.>.>.>.>.>.>.:.>.>.>.>.:.:.:.:.>.>.>.>.>.>.>.>.$.>.,.>.>.>.>.>.>.>.>.>.,.,.>.,.>.>.>.>.>.>.<.>.,.,.>.,.,.>.,.,.,.,.,.>.3.<.5.+XoX$X$X>X>X>X;X;X;Xh.f.f.;X;X%Xf.h.h.j.j.i.s.h.;X;X:X:X:X;X;X%X>Xi.i.i.r.r.t.;.=.W W T T W W U o.*.*.X.&.*.w.a.a.+.+.W R R ! +.W W W W ! W T D T R R L D L W E E E E E R +.W Q +.+.Q o.R W +.Q W W ^ W ! W W ^ ! *.&XO.+.+.! +.+.+.+.;.-.+.a.=X&X&X&X*X7X#Xp.$X%X#X-X#Xp.-X-X#Xp.p.#Xw.#X#X#Xw.w.#Xw.+.Q ;.Q -.i.p.d.d.%Xd.#X$X#X6X7Xw.+.oXO.Q W O.R U F *.v e x e w v L 7 7 S S D L L ! T T ! W +.+.$Xw.;.Q W ;.$Xp.-.+.+.i.u.q.q.q.d.%X#Xd.w.O.v w 3 4 3 w w w 3 1 2 2 % & & % $ $ $ % $ % % , % % + o + % * o + $ $ @ @ @ @ $ @ @ @ @ @ @ @ @ $ $ $ $ @ @ * @ @ @ @ @ @ @ @ @ O O @ @ O O O O # # O O O O O O O O O O @ @ @ @ O O O X @ @ @ $ $ 2 t P ) ) ' { :.:.:.:.:.:.:.:.",
">.:.:.:.:.:.:.:.:.:.:.:.:.:. .{  .>.>. .>.>.>.>.>.>.>.>. .>.>.>.>.>.>.>.>.>.>.>.>.>.>.:.:.:.>.>.>.>.>.>.>.>.>.>.>.>.>.,.>.>.>.,.<.>.>.>.>.>.>.>.>.,.,.,.,.,.,.>.,.,.>.>.<.<.<.6.6.a.@X>Xf.f.h.h.f.$X>X>X;X>Xf.h.h.j.j.j.i.;X;X;X;X;X;X;X>Xf.f.u.i.i.i.r.r.r.-.W W T W W W W W W U L +.+.a.+.+.W ! +.+.+.+.r.+.Q Q Q W W W T W W R L R E +.o.E O.o.X.X.+.q.+.+.+.! W ! W +.Q Q W W W ! W W ^ W R w.w.E +.W W W Q Q ~ ~ Q +.-X&X&X&X&X6X7X$Xr.#X=X#X$Xp.p.d.$Xp.a.a.a.w.p.p.p.*.w.a.+.Q -.~ Q +.d.d.p.d.$Xw.d.d.d.&X7X+.X.w.X.E E E e L 7 X.x 7 7 7 e L S D S S S S W W W Q T T ! r.q.w.=Xw.+.Q Q u.=Xp.+.+.+.u.u.q.q.+.q.f.%Xd.p.#Xw.O.M 9 * o o % % * % + $ $ $ $ $ $ % 1 2 2 , , , 2 2 % % % % + + @ & @ @ @ $ @ @ @ @ @ @ @ $ $ $ $ $ $ $ $ $ @ @ @ @ @ @ @ @ @ @ O O O O O @ # O O O O O O X X X O O @ @ @ @ @ @ @ @ @ @ @ @ $ % , s P ) ` ` :.:.:.:.:.:.:.:.",
">.:.:.:.:.:.:.:.:.:.:.:.:.:. .{  .>.>. .>.>.>.>.>.>.>.>.:.>.>.>.>.>.>.>.>.>.>.>.>.>.:.:.>.>.>.>.>.>.>.>.>.>.>.>.>.>.>.,.,.>.>.>.>.>.>.>.>.>.>.>.>.>.,.,.,.>.,.>.,.,.>.>.<.<.<.6.6.6.6.a.a.h.h.>X>X;X%X$X$Xf.f.h.j.j.j.i.h.h.f.;X;X;X;X>Xf.i.i.i.i.i.t.r.-.+.W T W W ^ W T ! T T U o.+.;.W L W W r.f.a.a.f.r.-.+.-.W W Q W +.+.o.R W +.+.+.E +.+.O.O.-X#X#Xu.+.+.+.W +.;.-.+.^ W W ! W W W ^ W L *.O.E +.! W W ^ Q ~ ^ Q +.&X].&X[.&XtX&Xa.+.-X-Xd.p.a.u.p.u.;.+.;.+.q.p.p.q.+.+.+.W Q -.^ -.u.p.d.w.g.p.w.u.u.u.-X#XE E *.E L E L e D 8 e e S D ! E L U U D D S D D +.+.Q Q W ! +.p.*.#X7Xw.+.+.+.p.:Xw.+.E +.p.u.q.g.u.+.O.q.w.O.O.e.].].*.O.C k 9 % * $ $ @ $ $ $ $ % 2 2 1 1 , , 2 2 % % $ + * $ + O @ @ @ @ @ @ @ @ @ @ @ $ $ * * * $ $ $ $ @ @ @ @ @ @ @ @ @ @ @ @ O @ O X @ O X O @ O O X X X X O X X X X @ @ @ @ @ @ @ @ $ % 2 s P ) ) ` :.:.:.:.:.:.:.:.",
">.>.:.:.:.:.:.:.:.:.:.:.:.:. .{  .>.>. .>.>.>.>.>.>.>.>.:.>.>.>.>.>.>.>.>.>.>.>.>.:.:.:.>.>.>.>.>.>.>.>.>.>.>.>.>.>.>.>.>.$.>.,.>.>.>.>.>.>.>.>.>.>.>.,.,.,.,.,.>.,.4.4.<.<.4.6.6.6.a.h.h.>X>X>X;X;X%X%X$X$Xh.h.h.j.i.i.i.f.;X;X;X%X$Xf.f.i.i.i.i.t.y.-.-.Q W W W W W W T W W W +.;.=.W T Q Q ;.$X-X7XiX-Xa.;.~ Q Q Q +.+.+.+.O.W +.+.+.E +.E +.*.[.rX[.*X#Xw.+.O.+.q.r.-.-.+.Q Q W ^ W ^ W ! D +.E o.W W W Q Q Q ~ Q Q w.].&X&X].6X7Xw.+.+.p.$Xd.p.a.;.r.+.+.+.+.r.a.a.r.+.+.+.W ! ~ ^ ~ y.q.d.p.q.p.u.+.u.r.r.p.w.L L E R L L e e D 7 7 D D ! W +.+.+.E E L e L E O.f.W Q Q W E p.p.w.].pX&X*.Q r.$XuX#Xw.O.E q.u.q.d.%Xp.m m +.m w 0 z c C X.C m n c 2 % % % % % % % % * % * % % + * $ $ $ $ $ @ * $ @ O @ @ @ @ @ @ @ @ @ $ $ + + + $ $ $ $ & @ @ @ @ @ @ @ @ @ @ @ # O # & & + @ @ @ O O O X X O O @ @ @ @ @ O O O O O O @ $ $ $ 2 s P ' ` :.:.:.:.:.:.:.:.",
">.:.:.:.:.:.:.:.:.:.:.:.:.:. . . .>.>. .>.>.>.>.>.>.>.>.:.>.>.>.>.>.>.>.>.>.>.>.:.:.:.#.>.>.>.>.>.>.>.>.>.>.>.>.$.$.>.>.,.>.>.>.>.>.>.>.>.>.>.>.>.>.>.>.,.,.,.,.,.>.4.4.<.4.4.6.6.;.;.a.r.i.f.f.f.f.;X%X%X$Xf.s.t.i.i.s.f.h.;X;X%X$X$Xf.f.s.i.a.t.t.y.-.Q Q W W W ;.~ ;.W W W Q ^ W W T ^ ;.-.a.p.=XiX#X#X+.-.Q r.+.r.q.+.+.+.O.+.+.+.E +.E *.-Xe.NX6X6X7X#Xp.O.O.p.w.p.u.i.;.-.Q ^ ~ ^ ^ W ! T o.E W W Q W ^ W ^ ~ Q +.a.p.#X].w.-Xw.O.+.+.u.f.a.u.+.+.-.+.W ;.;.;.-.-.Q W Q +.T W ^ Q -.r.u.$X+.+.+.+.+.+.+.+.a.+.D U L R L D D 7 S S D ! ! W +.q.q.+.a.+.+.R L O.O.q.+.Q +.+.+.+.$Xp.w.e.tX=Xu.+.w.d.*X*X7X#XE O.w.m C -X:XE 4 w v w z 3 4 4 4 4 4 2 2 2 % * % % % % $ $ * $ $ + + $ $ $ @ $ @ $ $ $ @ O O O @ @ @ @ @ @ @ $ $ % % % * * * $ @ @ @ @ @ @ @ @ # @ @ @ @ # # @ O * @ $ @ @ @ O X X O O O O O O O O O O O O O O @ @ $ & u _ ` ' :.:.:.:.:.:.:.:.",
">.>.>.:.>.:.:.:.:.:.:.:.:.:.:. .:.:.:.:.:.>.:.>.>.>.>.>.:.:.:.:.:.:.:.>.:.:.:.:.:.:. .:.#.#.#.$.#.#.#.#.>.>.>.>.>.$.>.>.>.>.>.,.>.>.>.>.>.>.<.>.<.>.<.>.,.,.,.,.>.>.,.4.<.<.4.6.=.6.;.a.h.h.f.$X$X;X$X$X$X$Xf.i.s.i.f.f.f.;X;X%X%X%X$X$Xf.i.f.i.i.t.r.Q Q Q Q Q ;.;.;.;.W Q ~ ;.W W W -.;.Q -.-.+.$Xi.;.+.+.-.+.w.p.u.r.q.+.Q +.+.+.X.O.O.*.=X&.6XyXyX*X-Xw.p.O.#X].].#Xp.p.a.+.Q ~ ~ ^ W W T T W ! W W W ~ Q ^ ^ Q Q Q r.a.a.+.w.a.+.O.+.+.r.i.t.-.Q Q ;.W W -.-.Q Q Q Q W W ^ T W ~ -.t.u.f.u.O.+.W W W W +.+.;.W D D U L D 7 S D D D D W Q +.+.u.u.u.u.+.+.+.v +.+.+.q.+.+.r.+.Q #X*X#Xp.w.w.#X=Xq.q.d.d.#X=XiX[.#X-X&.k X.w.O.* X % j 1 0 z 0 w z z 1 4 4 2 % % % $ $ $ $ $ @ @ @ @ X @ $ & @ O O X O O O O O O O @ @ @ @ @ $ $ $ $ $ $ $ $ @ @ # # # # @ @ # # O O O @ @ @ O @ @ @ @ @ @ @ X O X X O O O O O O O O @ @ @ @ @ $ $ % u b P ) { :.:.:.:.:.:.:.",
">.>.>.:.>.:.:.:.:.:.:.:.:.:.:.:.:.:.:.:.:.>.:.:.>.>.>.>.:.:.:.:.:.:.>.>.:.:.:.:.:.>.:. .#.:.{ $.$.$.#.#.$.>.>.$.>.$.>.>.>.>.>.>.>.>.>.>.>.>.>.>.>.>.<.<.<.<.<.<.>.>.>.,.,.,.3.<.4.Q.@Xa.a.f.>X%X>X$X>X>X$X$X$Xf.f.f.f.f.;X%X%X%X%X$X$X$Xf.f.f.a.i.r.+.-.+.-.y.;.;.y.y.;.-.;.;.Q ~ ^ -.i.r.-.-.-.+.+.Q Q Q -.a.d.=X#Xd.u.a.r.u.r.+.E *.+.w.-Xw.e.yX}.[.#Xw.+.+.O.-X&X&X#X#Xu.r.Q Q -.^ ^ W W T T W T Q ! -.~ Q W ~ Q Q Q -.-.-.Q ;.+.Q +.Q Q +.y.y.~ W ^ ^ W W ~ ;.Q Q Q W W ^ W T W -.r.s.i.i.+.W W T W T T W W Q ! D D E D D S D D T ! W W Q +.+.r.p.p.q.w.+.f.E +.+.+.+.w.w.+.r.Q q.=X-X*X*X&Xe.[.%Xu.u.u.d.w.#XuXrX[.6X6XM M O.e.M X * $ % o 4 4 4 2 2 2 2 2 % % $ $ $ $ $ $ @ @ @ @ X @ + $ O O O O O O O O O O O @ @ @ @ @ $ $ $ $ $ $ $ $ $ @ @ @ # # @ @ @ # O O O @ @ @ O @ O @ O O O O X X @ O O O O O O O O O @ @ @ @ @ @ $ & 2 s _ ` { :.:.{ :.:.:.:.",
">.>.>.>.>.:.#.:.:.:.:.:.:.:.:.:.:.:.:.:.:.>.:.:.>.>.>.>.>.>.>.>.:.:.:.:.:.:.:.:.>.:. .:.#.#.#.#.#.#.#.#.{ >.>.>.>.>.>.>.>.>.#.>.>.>.>.>.>.>.:.>.>.>.>.>.>.>.>.>.>.>.,.,.>.>.,.,.1.5.6.oX$XqXqX>X>X$X>X>X$X$Xf.f.h.f.;X;X;X:X:X:X%X%X%X$X$Xf.f.u.q.+.r.-.+.-.-.+.-.y.;.y.y.y.;.;.-.~ y.Q +.Q -.~ ^ Q Q +.u.#X=XrXrX-X$Xi.r.r.r.+.+.a.+.*.a.p.O.&X&.*.*.p.+.O.+.w.#X&X[.[.w.w.q.Q +.~ ^ ^ W W ! ! W ! ! Q -.Q ^ ^ ~ ~ Q Q Q +.W Q Q Q W Q Q W Q -.-.^ ^ W ^ W W ;.;.~ Q Q Q W ^ T T Q -.i.s.r.r.! ! D U T D T T W W ! D D W D U D T T ! Q W +.+.+.+.+.q.w.q.u.+.w.a.R +.Q +.q.q.+.Q +.Q w.uX7X6XrX*X#Xw.p.w.u.u.u.d.p.=X*XC C ].m c m O.n % X X @ * * * * % 2 2 % % % $ $ $ $ @ @ @ @ @ @ X X O O O O O O O O O O O O O @ @ @ @ @ $ $ $ $ $ $ $ $ @ @ @ @ @ @ # @ @ # # O @ @ @ # @ @ @ @ O O O O # # @ O O O O O @ @ O O @ @ @ @ @ # # $ % n b P `  .:.{ :.:.:.:.",
">.>.>.:.>.:.#.:.:.:.:.:.:.:.:.:.:.:.:.:.:.>.:.>.>.>.>.>.>.4.4.4.:.:.:.:.:.:.:.:.:.>.:.:.:.{ :.#.#.#.#.#.{ >.>.#.>.$.>.$.#.$.#.>.$.>.>.>.>.<.:.>.$.>.$.>.>.>.>.>.>.>.>.,.>.>.<.,.2.H.5X5XqX<XoXoXoX>X$X$Xf.f.f.>Xh.;X;X;X%X;X%X=X:X;X>X>Xf.f.f.q.r.+.Q +.Q -.-.-.t.-.y.y.t.y.y.t.;.j.t.+.-.-.-.;.^ ^ -.;X:XrXtXtX7X-X$X+.r.a.u.q.$X+.+.+.a.E ].e.*.O.O.+.E O.w.w.w.&X].[.w.w.+.Q -.~ ^ ^ ^ W ! T T W W ~ -.Q Q ^ ~ ~ Q ~ -.Q W Q Q W +.W W ! W -.Q W W W ^ ^ ^ ;.-.~ ~ -.~ W W T T ;.t.i.r.q.+.! ! T T D D T T W W ! D D U D T T ! W W ;.W -.-.+.+.+.+.q.q.u.q.w.eXE Q +.+.+.q.r.+.! Q Q O.*XyXtXwXw.=Xp.w.d.d.u.u.w.p.*X=XO.C e.0 3 z v c k @ O @ @ $ $ & % % % % % $ $ $ $ @ X X @ @ @ X X X X O O O O O O O O O O O @ @ @ @ @ $ $ $ $ $ $ $ $ O @ O @ # @ # # # # @ O @ @ @ @ @ O O @ O O O @ O O O @ O O O O @ @ O O @ @ @ @ @ . @ O $ , f P ' { :.:.:.:.:.:."
};
